;FLAVOR:Marlin
;TIME:3202
;Filament used:0.578175m
;Layer height: 0.1
;MINX:90.009
;MINY:99.982
;MINZ:0.1
;MAXX:130.509
;MAXY:120.225
;MAXZ:8.4
                              
;Creality Print GCode Generated by CXEngine:NO_MAGE_VERSION_GIT_HEAD_BRANCH
;CXEngine Release Time:2022-09-30 09:53:04
;Gcode Generated Time:2023-04-24 00:03:20
;----------Machine Config--------------
;Machine Name:Ender-3 V2
;Machine Height:250
;Machine Width:220
;Machine Depth:220
;Material name:PLA
;Number of Extruders:1
;ExtruderParams[0] Nozzle Diameter1000
;----------Profile Config---------------
;Engine Version:275f99b
;Engine Release Time:2022-09-30 09:42:18
;Layer Height:0.1
;Wall Thickness:0.8
;Top/Bottom Thickness:0.5
;Out Wall Line Width:0.4
;Inner Wall Line Width:0.4
;Inital Layer Height:100
;Wall Line Count:2
;Infill Line Distance:4
;Infill Pattern:grid
;Infill Sparse Density:20
;Infill Wipe Distance:0
;Print Temperature:200
;Bed Temperature:60
;Support Enable:true
;Support Density:0
;Support Angle:60
;Adhesion Type:none
;machine is belt:false
;machine belt offset:10
;machine belt offset Y:0
;Raft Base Line Spacing:1.6
;Wait Heatup Sync:true
;----------Shell Config----------------
;Outer Wall Wipe Distance:200
;Outer Inset First:false
;Infill Before Walls:false
;Infill Overlap:0.16
;Fill Gaps Between Walls:everywhere
;Minimum Infill Area:1
;Top Surface Skin Layer:0
;Top Layers:4
;Z Seam Alignment:sharpest_corner
;Seam Corner Preference:z_seam_corner_inner
;Z Seam X:110
;Z Seam Y:110
;Horizontal Expansion:0
;Top/Bottom Pattern:zigzag
;Ironing Pattern:zigzag
;Vase Model:false
;----------Support Config----------------
;Support Type:everywhere
;Support Pattern:zigzag
;Support Infill Layer Thickness:0.1
;Minimum Support Area:5
;Enable Support Roof:false
;Support Roof Thickness:0.8
;Support Roof Pattern:lines
;Connect Support Lines:0
;Connect Support ZigZags:1
;Minimum Support X/Y Distance:0.2
;Support Line Distance:0
; ---------PrintSpeed & Travel----------
;Enable Print Cool:true
;Avoid Printed Parts Traveling:true
;Enable Retraction:true
;Retraction Distance:8
;Retraction Speed:100
;Retraction Prime Speed:100
;Maximum Retraction Count:100
;Minimum Extrusion Distance Window:1
;Z Hop When Retracted:false
;Z Hop Height:0.2
;Retract Before Outer Wall:true
;Print Speed:50
;Infill Speed:50

;Prime Tower Speed:50
;Travel Speed:120
;Initial Layer Speed:25
;Skirt/Brim Speed:25
;Combing Mode:infill
; --------SpecialModel&Mesh Fixes--------
;Union Overlapping Volum:true
;Remove All Holes:false
;Maximum Travel Resolution:0.6
;Maximum Deviation:0.05
;Maximum Model Angle:0.872665
;IS Mold Print:false
;Make Overhang Printable:false
;Enable Coasting:false
;Coasting Volumes:0.06
;Coasting Speed:0.9
;Raft AirGap:0.25
;Layer0 ZOverLap:0.13
;---------------------End of Head--------------------------
M140 S60
M105
M104 S200
M105
M109 S200
M105
M190 S60
M82 ;absolute extrusion mode
M220 S100 ;Reset Feedrate
M221 S100 ;Reset Flowrate

G28 ;Home

G92 E0 ;Reset Extruder
G1 Z2.0 F3000 ;Move Z Axis up
G1 X10.1 Y20 Z0.28 F5000.0 ;Move to start position
G1 X10.1 Y145.0 Z0.28 F1500.0 E15 ;Draw the first line
G1 X10.4 Y145.0 Z0.28 F5000.0 ;Move to side a little
G1 X10.4 Y20 Z0.28 F1500.0 E30 ;Draw the second line
G92 E0  ;Reset Extruder
G1 E-1.0000 F1800 ;Retract a bit
G1 Z2.0 F3000 ;Move Z Axis up
G1 E0.0000 F1800 

G92 E0
G92 E0
G1 F6000 E-8

;LAYER_COUNT:84

;LAYER:0
M107
G0 F3600 X92.593 Y102.385 Z0.1
;TYPE:SUPPORT
G1 F6000 E0
G1 F1500 X93.959 Y102.385 E0.01999
G1 X95.13 Y102.312 E0.03716
G1 X95.643 Y102.312 E0.04467
G1 X96.2 Y103.079 E0.05854
G1 X95.639 Y103.85 E0.07249
G1 X94.161 Y103.919 E0.09415
G1 X92.593 Y103.919 E0.11709
G1 X92.036 Y103.152 E0.13097
G1 X92.593 Y102.385 E0.14484
;;retract;;
G1 F6000 E-7.85516
G0 F3600 X91.889 Y101.874
G0 X90.969 Y103.152
G0 X90.334 Y105.293
G0 X90.334 Y106.611
G0 X91.457 Y107.452
G1 F6000 E0.14484
G1 F1500 X94.042 Y107.452 E0.18267
G1 X95.312 Y107.562 E0.20132
G1 X95.464 Y107.452 E0.20407
G1 X96.5 Y107.452 E0.21923
G1 X96.5 Y108.452 E0.23387
G1 X91.842 Y108.452 E0.30203
G1 X91.365 Y107.737 E0.31461
G1 X91.457 Y107.452 E0.31899
;;retract;;
G1 F6000 E-7.68101
G0 F3600 X90.539 Y108.065
G0 X90.334 Y109.293
G0 X90.334 Y110.611
G0 X90.893 Y111.121
G0 X91.668 Y111.452
G1 F6000 E0.31899
G1 F1500 X96.079 Y111.452 E0.38355
G1 X96.02 Y111.996 E0.39155
G1 X95.044 Y112.314 E0.40658
G1 X94.293 Y112.252 E0.41761
G1 X94.017 Y112.452 E0.42259
G1 X91.58 Y112.452 E0.45826
G1 X91.383 Y111.996 E0.46553
G1 X91.668 Y111.452 E0.47451
;;retract;;
G1 F6000 E-7.52549
G0 F3600 X90.891 Y111.102
G0 X90.426 Y111.961
G0 X90.334 Y113.293
G0 X90.334 Y114.611
G0 X90.841 Y115.118
G0 X91.961 Y115.115
G0 X91.961 Y115.985
G1 F6000 E0.47451
G1 F1500 X94.075 Y115.985 E0.50545
G1 X95.115 Y116.129 E0.52082
G1 X95.677 Y116.115 E0.52904
G1 X96.232 Y116.879 E0.54286
G1 X95.681 Y117.637 E0.55658
G1 X94.309 Y117.519 E0.57673
G1 X91.961 Y117.519 E0.61109
G1 X91.404 Y116.752 E0.62496
G1 X91.961 Y115.985 E0.63884
;;retract;;
G1 F6000 E-7.36116
G0 F3600 X91.961 Y115.115
G0 X99.647 Y115.213
G0 X100.121 Y115.919
G1 F6000 E0.63884
G1 F1500 X100.694 Y115.452 E0.64965
G1 X101.187 Y115.452 E0.65687
G1 X101.586 Y116.245 E0.66986
G1 X101.589 Y116.7 E0.67652
G1 X101.017 Y117.164 E0.6873
G1 X100.121 Y116.873 E0.70108
G1 X100.121 Y115.919 E0.71505
;;retract;;
G1 F6000 E-7.28495
G0 F3600 X99.276 Y116.472
G0 X99.259 Y117.499
G0 X101.196 Y118.132
G0 X101.684 Y117.706
G0 X102.506 Y117.897
G1 F6000 E0.71505
G1 F1500 X102.98 Y117.552 E0.72362
G1 X104.454 Y117.544 E0.7452
G1 X105.721 Y116.973 E0.76553
G1 X106.807 Y116.55 E0.78259
G1 X107.912 Y116.071 E0.80022
G1 X109.104 Y115.441 E0.81995
G1 X110.423 Y115.051 E0.84008
G1 X111.482 Y115.921 E0.86013
G1 X112.797 Y116.621 E0.88193
G1 X114.002 Y116.932 E0.90015
G1 X114.996 Y117.351 E0.91593
G1 X116.386 Y117.535 E0.93645
G1 X116.876 Y117.892 E0.94532
G1 X117.059 Y118.452 E0.95395
G1 X116.876 Y119.012 E0.96257
G1 X116.4 Y119.358 E0.97118
G1 X115.008 Y119.327 E0.99156
G1 X114.065 Y118.963 E1.00635
G1 X113.06 Y118.7 E1.02155
G1 X112.017 Y118.354 E1.03763
G1 X110.848 Y117.824 E1.05642
G1 X109.789 Y117.418 E1.07301
G1 X108.513 Y118.073 E1.094
G1 X107.419 Y118.547 E1.11145
G1 X106.348 Y118.965 E1.12828
G1 X105.184 Y119.319 E1.14608
G1 X102.981 Y119.353 E1.17833
G1 X102.506 Y119.007 E1.18693
G1 X102.325 Y118.452 E1.19547
G1 X102.506 Y117.897 E1.20401
;;retract;;
G1 F6000 E-6.79599
G0 F3600 X102.438 Y116.896
G0 X102.622 Y111.691
G0 X101.499 Y112.452
G1 F6000 E1.20401
G1 F1500 X100.139 Y112.452 E1.22392
G1 X100.176 Y111.638 E1.23584
G1 X100.235 Y111.452 E1.2387
G1 X101.803 Y111.452 E1.26164
G1 X101.499 Y112.452 E1.27694
G0 F3600 X100 Y108.452
G1 F1500 X100 Y107.452 E1.29157
G1 X101.602 Y107.452 E1.31502
G1 X102.219 Y107.703 E1.32477
G1 X103.6 Y107.486 E1.34522
G1 X103.6 Y108.452 E1.35936
G1 X100 Y108.452 E1.41204
G0 F3600 X100.258 Y104.415
G1 F1500 X99.913 Y103.663 E1.42415
G1 X99.906 Y103.226 E1.43055
G1 X100.463 Y102.742 E1.44135
G1 X100.914 Y102.742 E1.44795
G1 X101.489 Y103.534 E1.46227
G1 X101.207 Y104.161 E1.47233
G1 X100.258 Y104.415 E1.48671
;;retract;;
G1 F6000 E-6.51329
G0 F3600 X101.853 Y104.801
G0 X107.358 Y111.11
G0 X107.703 Y107.452
G1 F6000 E1.48671
G1 F1500 X112.3 Y107.452 E1.55398
G1 X112.3 Y108.452 E1.56862
G1 X107.7 Y108.452 E1.63594
G1 X107.703 Y107.452 E1.65057
;;retract;;
G1 F6000 E-6.34943
G0 F3600 X107.703 Y111.122
G0 X108.778 Y111.994
G1 F6000 E1.65057
G1 F1500 X110.599 Y111.985 E1.67722
G1 X111.222 Y111.923 E1.68638
G1 X111.798 Y112.715 E1.70071
G1 X111.504 Y113.614 E1.71456
G1 X110.904 Y114.44 E1.7295
G1 X110.003 Y114.146 E1.74337
G1 X109.799 Y113.518 E1.75303
G1 X108.777 Y113.527 E1.76799
G1 X108.22 Y112.761 E1.78185
G1 X108.778 Y111.994 E1.79573
;;retract;;
G1 F6000 E-6.20427
G0 F3600 X108.773 Y111.124
G0 X111.623 Y111.117
G0 X112.642 Y111.11
G0 X116.285 Y111.108
G0 X116.4 Y108.452
G1 F6000 E1.79573
G1 F1500 X116.4 Y107.47 E1.8101
G1 X117.567 Y107.572 E1.82724
G1 X118.792 Y107.998 E1.84622
G1 X119.221 Y107.452 E1.85638
G1 X120 Y107.452 E1.86778
G1 X120 Y108.452 E1.88242
G1 X116.4 Y108.452 E1.9351
G0 F3600 X117.851 Y111.459
G1 F1500 X119.617 Y111.455 E1.96095
G1 X119.532 Y112.021 E1.96932
G1 X119.031 Y112.434 E1.97883
G1 X118.42 Y112.285 E1.98803
G1 X117.851 Y111.459 E2.00271
;;retract;;
G1 F6000 E-5.99729
G0 F3600 X117.014 Y111.64
G0 X119.954 Y115.1
G0 X118.776 Y115.502
G1 F6000 E2.00271
G1 F1500 X119.198 Y115.502 E2.00888
G1 X119.755 Y116.269 E2.02276
G1 X119.223 Y117.001 E2.036
G1 X118.383 Y116.727 E2.04893
G1 X118.492 Y115.91 E2.06099
G1 X118.776 Y115.502 E2.06827
;;retract;;
G1 F6000 E-5.93173
G0 F3600 X119.954 Y115.1
G0 X123.099 Y116.3
G0 X123.969 Y116.3
G1 F6000 E2.06827
G1 F1500 X124.937 Y115.985 E2.08316
G1 X127.399 Y115.985 E2.11919
G1 X127.956 Y116.752 E2.13307
G1 X127.399 Y117.519 E2.14694
G1 X124.937 Y117.519 E2.18297
G1 X123.969 Y117.204 E2.19787
G1 X123.969 Y116.3 E2.2111
;;retract;;
G1 F6000 E-5.7889
G0 F3600 X123.7 Y115.473
G0 X123.686 Y112.813
G0 X124.786 Y112.452
G1 F6000 E2.2111
G1 F1500 X123.902 Y111.975 E2.2258
G1 X123.5 Y111.704 E2.23289
G1 X123.5 Y111.452 E2.23658
G1 X128.186 Y111.452 E2.30516
G1 X128.472 Y111.66 E2.31033
G1 X128.495 Y112.452 E2.32193
G1 X124.786 Y112.452 E2.37621
G0 F3600 X123.501 Y108.452
G1 F1500 X123.507 Y107.703 E2.38717
G1 X124.692 Y107.516 E2.40472
G1 X124.78 Y107.452 E2.40632
G1 X128.368 Y107.452 E2.45882
G1 X128.647 Y107.654 E2.46386
G1 X128.668 Y108.452 E2.47555
G1 X123.501 Y108.452 E2.55116
;;retract;;
G1 F6000 E-5.44884
G0 F3600 X123.501 Y104.782
G0 X124.801 Y104.742
G0 X125.079 Y103.919
G1 F6000 E2.55116
G1 F1500 X123.943 Y103.533 E2.56872
G1 X123.943 Y102.627 E2.58198
G1 X124.906 Y102.314 E2.5968
G1 X126.356 Y102.385 E2.61804
G1 X127.595 Y102.385 E2.63618
G1 X128.152 Y103.152 E2.65005
G1 X127.595 Y103.919 E2.66392
G1 X125.079 Y103.919 E2.70074
;;retract;;
G1 F6000 E-5.29926
G0 F3600 X124.801 Y104.742
G0 X128.036 Y104.784
G0 X129.219 Y103.152
G0 X128.036 Y101.52
G0 X124.79 Y101.438
G0 X123.406 Y101.893
G0 X120.826 Y102.932
G0 X120.195 Y103.531
G1 F6000 E2.70074
G1 F1500 X119.718 Y104.429 E2.71562
G1 X119.034 Y104.307 E2.72579
G1 X118.464 Y103.523 E2.73998
G1 X119.021 Y102.756 E2.75385
G1 X119.461 Y102.756 E2.76029
G1 X120.195 Y103.531 E2.77591
;;retract;;
G1 F6000 E-5.22409
G0 F3600 X120.826 Y102.932
G0 X119.833 Y101.89
G0 X113.141 Y102.015
G0 X112.472 Y102.689
G0 X111.769 Y103.201
G1 F6000 E2.77591
G1 F1500 X111.215 Y103.964 E2.78971
G1 X110.075 Y103.919 E2.8064
G1 X108.788 Y103.919 E2.82524
G1 X108.231 Y103.152 E2.83911
G1 X108.788 Y102.385 E2.85298
G1 X109.916 Y102.385 E2.86949
G1 X111.209 Y102.431 E2.88842
G1 X111.769 Y103.201 E2.90236
;;retract;;
G1 F6000 E-5.09764
;MESH:
G0 F3600 X112.473 Y103.712
G0 X111.874 Y104.525
G0 X110.046 Y104.788
G0 X108.347 Y104.784
G0 X107.905 Y104.176
G0 X101.842 Y104.794
G0 X103.1 Y105.852
;TYPE:WALL-INNER
G1 F6000 E2.90236
G1 F1500 X103.1 Y104.552 E2.92614
G1 X105.2 Y104.552 E2.96455
G1 X105.2 Y103.281 E2.9878
G1 X105.901 Y103.28 E3.00063
G1 X106.1 Y103.28 E3.00427
G1 X106.1 Y103.479 E3.00662
G1 X106.1 Y112.152 E3.16528
G1 X104.883 Y112.152 E3.18754
G1 X104.882 Y112.152 E3.18756
G1 X104.47 Y112.152 E3.1951
G1 X104.727 Y111.829 E3.19925
G1 X104.818 Y111.714 E3.20193
G1 X105.015 Y111.323 E3.20994
G1 X105.145 Y110.905 E3.21795
G1 X105.282 Y109.863 E3.23717
G1 X105.284 Y109.852 E3.23738
G1 X105.2 Y109.852 E3.23821
G1 X105.2 Y105.852 E3.31138
G1 X103.1 Y105.852 E3.3498
;;retract;;
G1 F6000 E-4.6502
G0 F3600 X101.842 Y104.794
G0 X98.4 Y103.282
G0 X98.4 Y104.552
G1 F6000 E3.3498
G1 F1500 X98.4 Y115.352 E3.54736
G1 X98.1 Y115.352 E3.55285
G1 X98.1 Y104.552 E3.70139
G1 X98.4 Y104.552 E3.70688
;;retract;;
G1 F6000 E-4.29312
G0 F3600 X98.8 Y106.252
;TYPE:WALL-OUTER
G1 F6000 E3.70688
G1 F748 X98.8 Y109.652 E3.76908
G1 X104.8 Y109.652 E3.87884
G1 X104.8 Y106.252 E3.94103
G1 X98.8 Y106.252 E4.05079
G0 F3600 X98.8 Y106.452
G0 X98.36 Y106.452
;;retract;;
G1 F6000 E-3.94921
G0 F3600 X96.842 Y104.794
G0 X103.257 Y111.507
G0 X103.9 Y112.603
;TYPE:WALL-INNER
G1 F6000 E4.05079
G1 F600 X103.9 Y112.916 E4.05652
G1 X103.9 Y112.917 E4.05654
G1 X103.9 Y115.352 E4.10108
G1 X103.1 Y115.352 E4.11571
G1 X103.1 Y112.902 E4.16053
G1 X103.48 Y112.801 E4.16773
G1 X103.616 Y112.736 E4.17048
G1 X103.9 Y112.603 E4.1738
;;retract;;
G1 F6000 E-3.8262
G0 F3600 X104.828 Y110.252
;TYPE:WALL-OUTER
G1 F6000 E4.1738
G1 F711.8 X104.601 Y110.252 E4.17795
G1 X104.6 Y110.252 E4.17797
G1 X98.8 Y110.252 E4.28407
G1 X98.8 Y113.652 E4.34627
G1 X102.7 Y113.652 E4.41761
G1 X102.7 Y112.539 E4.43797
G1 X102.983 Y112.519 E4.44316
G1 X103.344 Y112.423 E4.44999
G1 X103.68 Y112.269 E4.45675
G1 X103.988 Y112.06 E4.46356
G1 X104.256 Y111.803 E4.47036
G1 X104.476 Y111.504 E4.47715
G1 X104.643 Y111.173 E4.48393
G1 X104.753 Y110.819 E4.49071
G1 X104.799 Y110.478 E4.497
G1 X104.828 Y110.252 E4.49961
G0 F3600 X104.628 Y110.252
;;retract;;
G1 F6000 E-3.50039
G0 F3600 X103.721 Y111.099
G0 X110.987 Y104.848
G0 X111.643 Y104.846
G0 X112.658 Y103.412
G0 X113.9 Y103.281
;TYPE:WALL-INNER
G1 F6000 E4.49961
G1 F1500 X114.601 Y103.28 E4.51243
G1 X114.8 Y103.28 E4.51607
G1 X114.8 Y103.479 E4.51843
G1 X114.8 Y104.552 E4.53805
G1 X116.9 Y104.552 E4.57647
G1 X116.9 Y105.852 E4.60025
G1 X114.8 Y105.852 E4.63867
G1 X114.8 Y109.864 E4.71206
G1 X114.715 Y109.864 E4.71361
G1 X114.716 Y109.875
G1 X114.86 Y110.931 E4.73311
G1 X114.996 Y111.351 E4.74119
G1 X115.198 Y111.739 E4.74919
G1 X115.27 Y111.829 E4.7513
G1 X115.528 Y112.152 E4.75886
G1 X115.115 Y112.152 E4.76301
G1 X115.114 Y112.152 E4.76303
G1 X113.9 Y112.152 E4.78524
G1 X113.9 Y103.281 E4.94751
;;retract;;
G1 F6000 E-3.05249
G0 F3600 X112.658 Y103.412
G0 X111.935 Y104.438
G0 X110.738 Y104.814
G0 X107.358 Y104.794
G0 X106.5 Y106.252
;TYPE:WALL-OUTER
G1 F6000 E4.94751
G1 F1500 X106.5 Y109.652 E5.00971
G1 X113.5 Y109.652 E5.13776
G1 X113.5 Y106.252 E5.19996
G1 X106.5 Y106.252 E5.32801
G0 F3600 X106.5 Y106.452
G0 X106.06 Y106.452
;;retract;;
G1 F6000 E-2.67199
G0 F3600 X107.358 Y104.794
G0 X116.571 Y111.39
G0 X116.1 Y112.602
;TYPE:WALL-INNER
G1 F6000 E5.32801
G1 F600 X116.383 Y112.734 E5.33372
G1 X116.548 Y112.811 E5.33705
G1 X116.9 Y112.9 E5.3437
G1 X116.9 Y115.352 E5.38855
G1 X116.1 Y115.352 E5.40318
G1 X116.1 Y112.915 E5.44777
G1 X116.1 Y112.914 E5.44778
G1 X116.1 Y112.602 E5.45109
;;retract;;
G1 F6000 E-2.54891
G0 F3600 X116.759 Y111.515
G0 X121.6 Y103.282
G0 X121.6 Y104.552
G1 F6000 E5.45109
G1 F1500 X121.9 Y104.552 E5.45657
G1 X121.9 Y115.352 E5.65414
G1 X121.6 Y115.352 E5.65963
G1 X121.6 Y104.552 E5.80817
;;retract;;
G1 F6000 E-2.19183
G0 F3600 X121.6 Y103.282
G0 X116.285 Y111.108
G0 X115.173 Y110.263
;TYPE:WALL-OUTER
G1 F6000 E5.80817
G1 F711.4 X115.203 Y110.489 E5.81234
G1 X115.252 Y110.842 E5.81886
G1 X115.366 Y111.196 E5.82566
G1 X115.537 Y111.525 E5.83245
G1 X115.761 Y111.822 E5.83925
G1 X116.03 Y112.075 E5.84601
G1 X116.34 Y112.281 E5.85282
G1 X116.679 Y112.432 E5.85961
G1 X117.041 Y112.523 E5.86643
G1 X117.3 Y112.54 E5.87118
G1 X117.3 Y113.652 E5.89152
G1 X121.2 Y113.652 E5.96287
G1 X121.2 Y110.452 E6.0214
G1 X121.2 Y110.252 E6.02506
G1 X121 Y110.252 E6.02743
G1 X115.401 Y110.263 E6.12986
G1 X115.4 Y110.263 E6.12987
G1 X115.173 Y110.263 E6.13246
G0 F3600 X115.199 Y110.462
G0 X114.764 Y110.52
;;retract;;
G1 F6000 E-1.86754
G0 F3600 X115.2 Y106.252
G1 F6000 E6.13246
G1 F748 X115.2 Y109.652 E6.19466
G1 X121.2 Y109.652 E6.30442
G1 X121.2 Y106.252 E6.36661
G1 X115.2 Y106.252 E6.47637
G0 F3600 X115.2 Y106.452
G0 X114.76 Y106.452
;;retract;;
G1 F6000 E-1.52363
G0 F3600 X115.2 Y104.152
G1 F6000 E6.47637
G1 F1500 X117.3 Y104.152 E6.51479
G1 X117.3 Y105.652 E6.54223
G1 X121.2 Y105.652 E6.61357
G1 X121.2 Y104.152 E6.64101
G1 X122.3 Y104.152 E6.66113
G1 X122.3 Y105.652 E6.68857
G1 X128.8 Y105.652 E6.80748
G1 X128.8 Y106.252 E6.81845
G1 X122.3 Y106.252 E6.93736
G1 X122.3 Y109.652 E6.99955
G1 X128.8 Y109.652 E7.11846
G1 X128.8 Y110.252 E7.12943
G1 X122.3 Y110.252 E7.24834
G1 X122.3 Y113.652 E7.31054
G1 X128.8 Y113.652 E7.42944
G1 X128.8 Y114.252 E7.44042
G1 X122.3 Y114.252 E7.55932
G1 X122.3 Y115.752 E7.58676
G1 X121.2 Y115.752 E7.60688
