;FLAVOR:Marlin
;TIME:3094
;Filament used:0.556766m
;Layer height: 0.1
;MINX:89.413
;MINY:100.23
;MINZ:0.1
;MAXX:130.58
;MAXY:119.99
;MAXZ:8.6
                                
;Creality Print GCode Generated by CXEngine:NO_MAGE_VERSION_GIT_HEAD_BRANCH
;CXEngine Release Time:2022-09-30 09:53:04
;Gcode Generated Time:2023-04-23 20:33:28
;----------Machine Config--------------
;Machine Name:Ender-3 V2
;Machine Height:250
;Machine Width:220
;Machine Depth:220
;Material name:PLA
;Number of Extruders:1
;ExtruderParams[0] Nozzle Diameter1000
;----------Profile Config---------------
;Engine Version:275f99b
;Engine Release Time:2022-09-30 09:42:18
;Layer Height:0.1
;Wall Thickness:0.8
;Top/Bottom Thickness:0.5
;Out Wall Line Width:0.4
;Inner Wall Line Width:0.4
;Inital Layer Height:100
;Wall Line Count:2
;Infill Line Distance:4
;Infill Pattern:grid
;Infill Sparse Density:20
;Infill Wipe Distance:0
;Print Temperature:200
;Bed Temperature:60
;Support Enable:true
;Support Density:0
;Support Angle:60
;Adhesion Type:none
;machine is belt:false
;machine belt offset:10
;machine belt offset Y:0
;Raft Base Line Spacing:1.6
;Wait Heatup Sync:true
;----------Shell Config----------------
;Outer Wall Wipe Distance:200
;Outer Inset First:false
;Infill Before Walls:false
;Infill Overlap:0.16
;Fill Gaps Between Walls:everywhere
;Minimum Infill Area:1
;Top Surface Skin Layer:0
;Top Layers:4
;Z Seam Alignment:sharpest_corner
;Seam Corner Preference:z_seam_corner_inner
;Z Seam X:110
;Z Seam Y:110
;Horizontal Expansion:0
;Top/Bottom Pattern:zigzag
;Ironing Pattern:zigzag
;Vase Model:false
;----------Support Config----------------
;Support Type:everywhere
;Support Pattern:zigzag
;Support Infill Layer Thickness:0.1
;Minimum Support Area:5
;Enable Support Roof:false
;Support Roof Thickness:0.8
;Support Roof Pattern:lines
;Connect Support Lines:0
;Connect Support ZigZags:1
;Minimum Support X/Y Distance:0.2
;Support Line Distance:0
; ---------PrintSpeed & Travel----------
;Enable Print Cool:true
;Avoid Printed Parts Traveling:true
;Enable Retraction:true
;Retraction Distance:8
;Retraction Speed:100
;Retraction Prime Speed:100
;Maximum Retraction Count:100
;Minimum Extrusion Distance Window:1
;Z Hop When Retracted:false
;Z Hop Height:0.2
;Retract Before Outer Wall:true
;Print Speed:50
;Infill Speed:50

;Prime Tower Speed:50
;Travel Speed:120
;Initial Layer Speed:25
;Skirt/Brim Speed:25
;Combing Mode:infill
; --------SpecialModel&Mesh Fixes--------
;Union Overlapping Volum:true
;Remove All Holes:false
;Maximum Travel Resolution:0.6
;Maximum Deviation:0.05
;Maximum Model Angle:0.872665
;IS Mold Print:false
;Make Overhang Printable:false
;Enable Coasting:false
;Coasting Volumes:0.06
;Coasting Speed:0.9
;Raft AirGap:0.25
;Layer0 ZOverLap:0.13
;---------------------End of Head--------------------------
M140 S60
M105
M104 S200
M105
M109 S200
M105
M190 S60
M82 ;absolute extrusion mode
M220 S100 ;Reset Feedrate
M221 S100 ;Reset Flowrate

G28 ;Home

G92 E0 ;Reset Extruder
G1 Z2.0 F3000 ;Move Z Axis up
G1 X10.1 Y20 Z0.28 F5000.0 ;Move to start position
G1 X10.1 Y145.0 Z0.28 F1500.0 E15 ;Draw the first line
G1 X10.4 Y145.0 Z0.28 F5000.0 ;Move to side a little
G1 X10.4 Y20 Z0.28 F1500.0 E30 ;Draw the second line
G92 E0  ;Reset Extruder
G1 E-1.0000 F1800 ;Retract a bit
G1 Z2.0 F3000 ;Move Z Axis up
G1 E0.0000 F1800 

G92 E0
G92 E0
G1 F6000 E-8

;LAYER_COUNT:86

;LAYER:0
M107
G0 F3600 X92.536 Y102.633 Z0.1
;TYPE:SUPPORT
G1 F6000 E0
G1 F1500 X93.053 Y102.633 E0.00757
G1 X94.111 Y102.764 E0.02317
G1 X94.917 Y102.634 E0.03512
G1 X96.05 Y102.742 E0.05177
G1 X97.101 Y102.636 E0.06723
G1 X98.059 Y102.948 E0.08197
G1 X98.059 Y103.852 E0.0952
G1 X97.101 Y104.164 E0.10995
G1 X96.05 Y104.058 E0.12541
G1 X94.904 Y104.167 E0.14225
G1 X92.536 Y104.167 E0.17691
G1 X91.979 Y103.4 E0.19078
G1 X92.536 Y102.633 E0.20465
;;retract;;
G1 F6000 E-7.79535
G0 F3600 X91.832 Y102.122
G0 X90.912 Y103.4
G0 X90.334 Y105.541
G0 X90.334 Y106.859
G0 X90.783 Y107.294
G0 X93.185 Y107.7
G1 F6000 E0.20465
G1 F1500 X94.252 Y108.102 E0.22134
G1 X95.565 Y107.7 E0.24144
G1 X98.24 Y107.7 E0.28058
G1 X98.213 Y108.45 E0.29157
G1 X91.557 Y108.45 E0.38897
G1 X91.601 Y107.757 E0.39913
G1 X91.68 Y107.7 E0.40056
G1 X93.185 Y107.7 E0.42258
;;retract;;
G1 F6000 E-7.57742
G0 F3600 X90.743 Y107.547
G0 X90.334 Y109.291
G0 X90.334 Y110.609
G0 X91.219 Y111.443
G1 F6000 E0.42258
G1 F1500 X98.5 Y111.45 E0.52914
G1 X98.5 Y112.2 E0.54011
G1 X95.117 Y112.2 E0.58962
G1 X93.931 Y112.052 E0.60711
G1 X93.458 Y112.2 E0.61437
G1 X91.362 Y112.2 E0.64504
G1 X91.134 Y111.703 E0.65304
G1 X91.219 Y111.443 E0.65705
;;retract;;
G1 F6000 E-7.34295
G0 F3600 X90.392 Y111.175
G0 X90.206 Y111.757
G0 X90.334 Y114.359
G0 X90.841 Y114.866
G0 X92.661 Y115.222
G0 X93.365 Y115.733
G1 F6000 E0.65705
G1 F1500 X97.63 Y115.733 E0.71946
G1 X98.187 Y116.5 E0.73333
G1 X97.63 Y117.267 E0.74721
G1 X93.365 Y117.267 E0.80962
G1 X92.808 Y116.5 E0.82349
G1 X93.365 Y115.733 E0.83737
;;retract;;
G1 F6000 E-7.16263
G0 F3600 X93.365 Y114.863
G0 X98.071 Y114.868
G0 X99.028 Y116.189
G0 X102.065 Y117.931
G0 X102.893 Y118.2
G1 F6000 E0.83737
G1 F1500 X103.066 Y117.671 E0.84551
G1 X104.126 Y117.285 E0.86202
G1 X105.218 Y117.067 E0.87832
G1 X106.294 Y116.719 E0.89487
G1 X107.374 Y116.504 E0.91098
G1 X108.709 Y116.348 E0.93065
G1 X109.754 Y116.065 E0.9465
G1 X110.795 Y115.46 E0.96412
G1 X111.434 Y115.46 E0.97347
G1 X112.358 Y116.185 E0.99066
G1 X113.496 Y116.672 E1.00877
G1 X114.714 Y117.015 E1.02729
G1 X115.847 Y117.278 E1.04431
G1 X116.871 Y117.674 E1.06038
G1 X117.042 Y118.2 E1.06847
G1 X116.871 Y118.726 E1.07657
G1 X115.881 Y119.098 E1.09204
G1 X114.807 Y119.054 E1.10777
G1 X113.692 Y118.917 E1.12421
G1 X112.501 Y118.411 E1.14315
G1 X111.395 Y117.853 E1.16128
G1 X110.792 Y117.765 E1.1702
G1 X109.781 Y118.208 E1.18635
G1 X107.295 Y118.457 E1.22292
G1 X106.154 Y118.829 E1.24048
G1 X104.933 Y119.011 E1.25854
G1 X103.547 Y119.103 E1.27887
G1 X103.076 Y118.76 E1.2874
G1 X102.893 Y118.2 E1.29602
;;retract;;
G1 F6000 E-6.70398
G0 F3600 X102.065 Y117.931
G0 X102.374 Y117.002
G0 X103.891 Y116.446
G0 X104.492 Y116.351
G0 X108.05 Y114.037
G0 X108.753 Y113.525
G1 F6000 E1.29602
G1 F1500 X108.196 Y112.759 E1.30988
G1 X108.754 Y111.991 E1.32377
G1 X110.099 Y111.983 E1.34346
G1 X111.091 Y112.093 E1.35806
G1 X111.696 Y112.867 E1.37244
G1 X112.024 Y113.481 E1.38263
G1 X111.479 Y114.23 E1.39618
G1 X110.518 Y113.917 E1.41097
G1 X110.037 Y113.517 E1.42013
G1 X108.753 Y113.525 E1.43892
;;retract;;
G1 F6000 E-6.56108
G0 F3600 X108.05 Y114.037
G0 X107.893 Y111.12
G0 X107.893 Y108.45
G1 F6000 E1.43892
G1 F1500 X107.709 Y107.84 E1.44825
G1 X107.755 Y107.7 E1.4504
G1 X112.3 Y107.7 E1.51692
G1 X112.3 Y108.45 E1.52789
G1 X107.893 Y108.45 E1.59239
;;retract;;
G1 F6000 E-6.40761
G0 F3600 X107.893 Y111.12
G0 X108.724 Y105.037
G0 X108.724 Y104.167
G1 F6000 E1.59239
G1 F1500 X108.167 Y103.4 E1.60626
G1 X108.724 Y102.633 E1.62013
G1 X111.294 Y102.633 E1.65774
G1 X111.851 Y103.4 E1.67161
G1 X111.294 Y104.167 E1.68548
G1 X108.724 Y104.167 E1.7231
;;retract;;
G1 F6000 E-6.2769
G0 F3600 X108.021 Y104.679
G0 X104.247 Y104.856
G0 X103.792 Y104.106
G1 F6000 E1.7231
G1 F1500 X102.878 Y104.403 E1.73716
G1 X102.146 Y103.983 E1.74951
G1 X102.146 Y103.05 E1.76316
G1 X103.06 Y102.753 E1.77723
G1 X103.792 Y103.173 E1.78958
G1 X103.792 Y104.106 E1.80323
;;retract;;
G1 F6000 E-6.19677
G0 F3600 X104.061 Y104.933
G0 X101.756 Y107.339
G0 X103.9 Y107.7
G1 F6000 E1.80323
G1 F1500 X103.9 Y108.45 E1.81421
G1 X102 Y108.45 E1.84201
G1 X102 Y108.162 E1.84623
G1 X102.856 Y107.7 E1.86046
G1 X103.9 Y107.7 E1.87574
;;retract;;
G1 F6000 E-6.12426
G0 F3600 X101.756 Y107.339
G0 X115.758 Y111.108
G0 X116.1 Y107.7
G1 F6000 E1.87574
G1 F1500 X118 Y107.7 E1.90355
G1 X118 Y108.45 E1.91452
G1 X116.1 Y108.45 E1.94233
G1 X116.1 Y107.7 E1.95331
G0 F3600 X117.018 Y104.322
G1 F1500 X116.305 Y103.993 E1.9648
G1 X116.305 Y103.072 E1.97828
G1 X117.228 Y102.772 E1.99248
G1 X117.941 Y103.101 E2.00397
G1 X117.941 Y104.022 E2.01745
G1 X117.018 Y104.322 E2.03165
;;retract;;
G1 F6000 E-5.96835
G0 F3600 X117.442 Y105.064
G0 X121.095 Y103.912
G0 X121.798 Y103.4
G1 F6000 E2.03165
G1 F1500 X122.355 Y102.633 E2.04552
G1 X127.458 Y102.633 E2.1202
G1 X128.015 Y103.4 E2.13408
G1 X127.458 Y104.167 E2.14795
G1 X122.355 Y104.167 E2.22263
G1 X121.798 Y103.4 E2.2365
;;retract;;
G1 F6000 E-5.7635
G0 F3600 X121.095 Y103.912
G0 X121.131 Y104.575
G0 X121.5 Y111.12
G0 X121.5 Y107.7
G1 F6000 E2.2365
G1 F1500 X124.437 Y107.7 E2.27948
G1 X125.577 Y108.096 E2.29714
G1 X126.567 Y107.7 E2.31275
G1 X128.686 Y107.7 E2.34376
G1 X128.863 Y108.143 E2.35074
G1 X128.745 Y108.45 E2.35555
G1 X121.5 Y108.45 E2.46158
G1 X121.5 Y107.7 E2.47255
G0 F3600 X122.344 Y111.45
G1 F1500 X128.504 Y111.45 E2.5627
G1 X128.565 Y111.636 E2.56557
G1 X128.264 Y112.2 E2.57492
G1 X126.817 Y112.2 E2.5961
G1 X125.753 Y111.812 E2.61267
G1 X124.731 Y112.2 E2.62867
G1 X122.32 Y112.2 E2.66395
G1 X122.344 Y111.45 E2.67494
;;retract;;
G1 F6000 E-5.32506
G0 F3600 X121.473 Y111.423
G0 X122.641 Y114.909
G0 X122.91 Y115.736
G1 F6000 E2.67494
G1 F1500 X123.966 Y115.842 E2.69047
G1 X125.084 Y115.733 E2.70691
G1 X127.458 Y115.733 E2.74165
G1 X128.015 Y116.5 E2.75552
G1 X127.458 Y117.267 E2.76939
G1 X125.084 Y117.267 E2.80414
G1 X123.966 Y117.158 E2.82057
G1 X122.91 Y117.264 E2.83611
G1 X121.951 Y116.952 E2.85086
G1 X121.951 Y116.048 E2.86409
G1 X122.91 Y115.736 E2.87885
;;retract;;
G1 F6000 E-5.12115
;MESH:
G0 F3600 X122.641 Y114.909
G0 X127.899 Y114.868
G0 X129.082 Y116.5
G0 X127.899 Y118.132
G0 X116.02 Y119.974
G0 X103.291 Y119.99
G0 X102.338 Y119.296
G0 X101.98 Y118.2
G0 X102.374 Y117.002
G0 X103.891 Y116.446
G0 X105.002 Y116.223
G0 X105.733 Y115.418
G0 X105.5 Y113.17
G0 X105.5 Y111.9
G0 X106.1 Y111.9
;TYPE:WALL-INNER
G1 F6000 E2.87885
G1 F713.9 X105.5 Y111.9 E2.88983
G1 X105.5 Y103.529 E3.04296
G1 X105.901 Y103.528 E3.0503
G1 X106.1 Y103.528 E3.05394
G1 X106.1 Y103.727 E3.05629
G1 X106.1 Y111.9 E3.2058
G0 F3600 X103.9 Y112.7
G1 F600 X103.9 Y115.1 E3.2497
G1 X103.1 Y115.1 E3.26434
G1 X103.1 Y112.7 E3.30824
G1 X103.9 Y112.7 E3.32288
;;retract;;
G1 F6000 E-4.67712
G0 F3600 X103.9 Y111.43
G0 X101.658 Y114.858
G0 X100.4 Y115.1
G1 F6000 E3.32288
G1 F1500 X100.1 Y115.1 E3.32836
G1 X100.1 Y104.8 E3.51678
G1 X100.4 Y104.8 E3.52227
G1 X100.4 Y115.1 E3.66394
;;retract;;
G1 F6000 E-4.33606
G0 F3600 X101.658 Y114.858
G0 X101.658 Y111.108
G0 X100.8 Y110.25
;TYPE:WALL-OUTER
G1 F6000 E3.66394
G1 F600 X100.8 Y113.4 E3.72156
G1 X102.7 Y113.4 E3.75632
G1 X102.7 Y112.3 E3.77644
G1 X104.3 Y112.3 E3.80571
G1 X105.1 Y112.3
G1 X105.1 Y110.25 E3.84321
G1 X100.8 Y110.25 E3.92187
G0 F3600 X100.8 Y110.45
G0 X100.36 Y110.45
;;retract;;
G1 F6000 E-4.07813
G0 F3600 X101.658 Y111.108
G0 X101.658 Y107.358
G0 X100.8 Y106.5
G1 F6000 E3.92187
G1 F600 X100.8 Y109.65 E3.97949
G1 X105.1 Y109.65 E4.05815
G1 X105.1 Y106.5 E4.11578
G1 X100.8 Y106.5 E4.19444
G0 F3600 X100.8 Y106.7
G0 X100.36 Y106.7
;;retract;;
G1 F6000 E-3.80556
G0 F3600 X101.658 Y107.358
G0 X108.546 Y105.081
G0 X107.358 Y105.042
G0 X108.283 Y105.032
G0 X112.658 Y103.724
G0 X113.9 Y103.529
;;retract;;
G0 X112.658 Y103.724
G0 X115.758 Y111.442
G0 X114.5 Y111.9
;TYPE:WALL-INNER
G1 F6000 E4.19444
G1 F713.9 X113.9 Y111.9 E4.20541
G1 X113.9 Y103.529 E4.35854
G1 X114.301 Y103.528 E4.36588
G1 X114.5 Y103.528 E4.36952
G1 X114.5 Y103.727 E4.37188
G1 X114.5 Y111.9 E4.52139
;;retract;;
G1 F6000 E-3.47861
G0 F3600 X114.5 Y113.17
G0 X113.141 Y113.166
G0 X112.634 Y112.659
G0 X112.642 Y111.057
G0 X107.358 Y105.042
G0 X106.5 Y106.5
;TYPE:WALL-OUTER
G1 F6000 E4.52139
G1 F1500 X106.5 Y109.65 E4.57901
G1 X113.5 Y109.65 E4.70706
G1 X113.5 Y106.5 E4.76468
G1 X106.5 Y106.5 E4.89273
G0 F3600 X106.5 Y106.7
G0 X106.06 Y106.7
;;retract;;
G1 F6000 E-3.10727
G0 F3600 X107.358 Y105.042
G0 X111.735 Y105.032
G0 X115.689 Y104.857
G0 X118.33 Y104.8
G0 X119.6 Y104.8
;;retract;;
G0 X118.342 Y105.042
G0 X118.342 Y111.04
G0 X118.342 Y112.542
G0 X118.342 Y114.858
G0 X119.6 Y115.1
;TYPE:WALL-INNER
G1 F6000 E4.89273
G1 F1500 X119.6 Y104.8 E5.08115
G1 X119.9 Y104.8 E5.08664
G1 X119.9 Y115.1 E5.22831
G1 X119.6 Y115.1 E5.2338
;;retract;;
G1 F6000 E-2.7662
G0 F3600 X118.342 Y114.858
G0 X117.459 Y111.507
G0 X115.758 Y111.442
G0 X117.336 Y111.04
G0 X115.758 Y105.042
G0 X114.9 Y106.5
;TYPE:WALL-OUTER
G1 F6000 E5.2338
G1 F600 X114.9 Y109.65 E5.29142
G1 X119.2 Y109.65 E5.37008
G1 X119.2 Y106.5 E5.4277
G1 X114.9 Y106.5 E5.50636
G0 F3600 X114.9 Y106.7
G0 X114.46 Y106.7
;;retract;;
G1 F6000 E-2.49364
G0 F3600 X115.758 Y105.042
G0 X116.9 Y111.43
G0 X116.9 Y112.7
;TYPE:WALL-INNER
G1 F6000 E5.50636
G1 F600 X116.9 Y115.1 E5.55027
G1 X116.1 Y115.1 E5.5649
G1 X116.1 Y112.7 E5.60881
G1 X116.9 Y112.7 E5.62344
;;retract;;
G1 F6000 E-2.37656
G0 F3600 X117.3 Y113.4
;TYPE:WALL-OUTER
G1 F6000 E5.62344
G1 F1500 X119.2 Y113.4 E5.6582
G1 X119.2 Y110.25 E5.71582
G1 X114.9 Y110.25 E5.79448
G1 X114.9 Y112.3 E5.83198
G1 X113.5 Y112.3 E5.85759
G1 X113.5 Y110.25 E5.89509
G1 X106.5 Y110.25 E6.02314
G1 X106.5 Y112.3 E6.06064
G1 X105.1 Y112.3 E6.08625
G1 X104.3 Y112.3
G1 X104.3 Y115.5 E6.14479
G1 X102.7 Y115.5 E6.17406
G1 X102.7 Y114 E6.2015
G1 X100.8 Y114 E6.23626
G1 X100.8 Y115.5 E6.2637
G1 X99.7 Y115.5 E6.28382
G1 X99.7 Y114 E6.31126
G1 X91.2 Y114 E6.46675
G1 X91.2 Y113.4 E6.47773
G1 X99.7 Y113.4 E6.63322
G1 X99.7 Y110.25 E6.69084
G1 X91.2 Y110.25 E6.84633
G1 X91.2 Y109.65 E6.85731
G1 X99.7 Y109.65 E7.0128
G1 X99.7 Y106.5 E7.07042
G1 X91.2 Y106.5 E7.22591
G1 X91.2 Y105.9 E7.23689
G1 X99.7 Y105.9 E7.39238
G1 X99.7 Y104.4 E7.41982
G1 X100.8 Y104.4 E7.43994
G1 X100.8 Y105.9 E7.46738
G1 X105.1 Y105.9 E7.54604
G1 X105.1 Y103.129 E7.59673
G1 X106.3 Y103.128 E7.61868
G1 X106.5 Y103.128 E7.62234
G1 X106.5 Y103.328 E7.62471
G1 X106.5 Y105.9 E7.67176
G1 X113.5 Y105.9 E7.79981
G1 X113.5 Y103.129 E7.8505
G1 X114.7 Y103.128 E7.87245
G1 X114.9 Y103.128 E7.87611
G1 X114.9 Y103.328 E7.87848
G1 X114.9 Y105.9 E7.92553
G1 X119.2 Y105.9 E8.00419
G1 X119.2 Y104.4 E8.03163
G1 X120.3 Y104.4 E8.05175
G1 X120.3 Y105.9 E8.07919
G1 X128.8 Y105.9 E8.23469
G1 X128.8 Y106.5 E8.24566
G1 X120.3 Y106.5 E8.40115
G1 X120.3 Y109.65 E8.45878
G1 X128.8 Y109.65 E8.61427
G1 X128.8 Y110.25 E8.62524
G1 X120.3 Y110.25 E8.78073
G1 X120.3 Y113.4 E8.83836
G1 X128.8 Y113.4 E8.99385
G1 X128.8 Y114 E9.00482
G1 X120.3 Y114 E9.16031
G1 X120.3 Y115.5 E9.18775
G1 X119.2 Y115.5 E9.20788
G1 X119.2 Y114 E9.23532
G1 X117.3 Y114 E9.27007
G1 X117.3 Y115.5 E9.29751
G1 X115.7 Y115.5 E9.32678
G1 X115.7 Y112.3 E9.38532
G1 X117.3 Y112.3 E9.41459
G1 X117.3 Y113.4 E9.43471
G0 F3600 X117.5 Y113.4
G0 X116.339 Y114.642
;TYPE:SKIN
G1 F600 X116.557 Y114.86 E9.44035
G1 X116.659 Y114.86 E9.44222
G1 X116.659 Y114.396 E9.4507
G1 X116.339 Y114.076 E9.45898
G1 X116.339 Y113.511 E9.46932
G1 X116.659 Y113.83 E9.47758
G1 X116.659 Y113.265 E9.48792
G1 X116.339 Y112.945 E9.4962
G1 X116.339 Y112.939 E9.49631
G1 X116.659 Y112.939 E9.50216
G0 F3600 X116.339 Y114.86
G1 F600 X116.557 Y114.86 E9.50615
;;retract;;
G1 F6000 E1.50615
G0 F3600 X114.83 Y114.86
G0 X114.139 Y113.17
G0 X114.139 Y111.659
G1 F6000 E9.50615
G1 F600 X114.259 Y111.659 E9.50834
G1 X114.259 Y111.43 E9.51253
G1 X114.259 Y110.865 E9.52287
G1 X114.139 Y110.744 E9.52599
G1 X114.139 Y110.179 E9.53632
G1 X114.259 Y110.299 E9.53943
G1 X114.259 Y109.733 E9.54978
G1 X114.139 Y109.613 E9.55289
G1 X114.139 Y109.047 E9.56324
G1 X114.259 Y109.168 E9.56636
G1 X114.259 Y108.602 E9.57671
G1 X114.139 Y108.482 E9.57981
G1 X114.139 Y107.916 E9.59017
G1 X114.259 Y108.036 E9.59327
G1 X114.259 Y107.471 E9.60361
G1 X114.139 Y107.35 E9.60673
G1 X114.139 Y106.785 E9.61706
G1 X114.259 Y106.905 E9.62017
G1 X114.259 Y106.339 E9.63052
G1 X114.139 Y106.219 E9.63362
G1 X114.139 Y105.653 E9.64398
G1 X114.259 Y105.773 E9.64708
G1 X114.259 Y105.208 E9.65742
G1 X114.139 Y105.088 E9.66052
G1 X114.139 Y104.522 E9.67088
G1 X114.259 Y104.642 E9.67398
G1 X114.259 Y104.076 E9.68434
G1 X114.139 Y103.956 E9.68744
G1 X114.139 Y103.768 E9.69088
G1 X114.259 Y103.768 E9.69307
;;retract;;
G1 F6000 E1.69307
G0 F3600 X115.751 Y104.675
G0 X115.758 Y111.108
G0 X114.139 Y111.31
G1 F6000 E9.69307
