;FLAVOR:Marlin
;TIME:804
;Filament used: 0.329942m
;Layer height: 0.2
;MINX:129.5
;MINY:131
;MINZ:0.2
;MAXX:170.5
;MAXY:169
;MAXZ:6.4
;Generated with Creality Slicer 4.8.2-191
M140 S50
M105
M190 S50
M104 S200
M105
M109 S200
M82 ;absolute extrusion mode

G28 ;Home

G92 E0 ;Reset Extruder
G1 Z2.0 F3000 ;Move Z Axis up
G1 X10.1 Y20 Z0.28 F5000.0 ;Move to start position
G1 X10.1 Y200.0 Z0.28 F1500.0 E15 ;Draw the first line
G1 X10.4 Y200.0 Z0.28 F5000.0 ;Move to side a little
G1 X10.4 Y20 Z0.28 F1500.0 E30 ;Draw the second line
G92 E0 ;Reset Extruder
G1 Z2.0 F3000 ;Move Z Axis up

G92 E0
G92 E0
G1 F2700 E-5
;LAYER_COUNT:32
;LAYER:0
M107
G0 F6000 X132.698 Y134.264 Z0.2
;TYPE:SKIRT
G1 F2700 E0
G1 F1200 X133.386 Y133.627 E0.03119
G1 X134.126 Y133.051 E0.06237
G1 X134.912 Y132.539 E0.09357
G1 X135.739 Y132.097 E0.12476
G1 X136.601 Y131.727 E0.15596
G1 X137.491 Y131.431 E0.18716
G1 X138.403 Y131.213 E0.21835
G1 X139.33 Y131.072 E0.24953
G1 X140.201 Y131.013 E0.27857
G1 X140.522 Y131.004 E0.28925
G1 X140.83 Y131 E0.29949
G1 X158.793 Y131 E0.89695
G1 X159.649 Y131.011 E0.92542
G1 X160.585 Y131.065 E0.9566
G1 X161.513 Y131.197 E0.98778
G1 X162.427 Y131.409 E1.01899
G1 X163.319 Y131.698 E1.05017
G1 X164.184 Y132.061 E1.08137
G1 X165.014 Y132.497 E1.11256
G1 X165.805 Y133.002 E1.14377
G1 X166.549 Y133.573 E1.17496
G1 X167.242 Y134.205 E1.20616
G1 X167.879 Y134.893 E1.23734
G1 X168.454 Y135.634 E1.26854
G1 X168.965 Y136.42 E1.29972
G1 X169.407 Y137.248 E1.33094
G1 X169.776 Y138.11 E1.36212
G1 X170.071 Y139 E1.39331
G1 X170.289 Y139.912 E1.4245
G1 X170.429 Y140.84 E1.45571
G1 X170.487 Y141.701 E1.48441
G1 X170.496 Y142.021 E1.49506
G1 X170.5 Y142.33 E1.50534
G1 X170.499 Y157.4 E2.00657
G1 X170.49 Y158.127 E2.03075
G1 X170.439 Y159.064 E2.06196
G1 X170.307 Y159.992 E2.09314
G1 X170.098 Y160.906 E2.12432
G1 X169.811 Y161.799 E2.15552
G1 X169.449 Y162.665 E2.18674
G1 X169.015 Y163.496 E2.21792
G1 X168.511 Y164.287 E2.24912
G1 X167.942 Y165.032 E2.28029
G1 X167.311 Y165.727 E2.31152
G1 X166.624 Y166.365 E2.3427
G1 X165.885 Y166.942 E2.37388
G1 X165.099 Y167.454 E2.40508
G1 X164.273 Y167.897 E2.43626
G1 X163.411 Y168.269 E2.46748
G1 X162.522 Y168.565 E2.49865
G1 X161.61 Y168.785 E2.52985
G1 X160.683 Y168.926 E2.56104
G1 X159.799 Y168.987 E2.59051
G1 X159.478 Y168.996 E2.60119
G1 X159.17 Y169 E2.61144
G1 X141.065 Y168.999 E3.21361
G1 X140.367 Y168.99 E3.23683
G1 X139.431 Y168.938 E3.26801
G1 X138.502 Y168.806 E3.29922
G1 X137.588 Y168.596 E3.33041
G1 X136.695 Y168.309 E3.36161
G1 X135.83 Y167.946 E3.39281
G1 X134.999 Y167.512 E3.42399
G1 X134.208 Y167.008 E3.45518
G1 X133.463 Y166.438 E3.48638
G1 X132.769 Y165.807 E3.51758
G1 X132.132 Y165.12 E3.54874
G1 X131.555 Y164.38 E3.57995
G1 X131.043 Y163.594 E3.61115
G1 X130.6 Y162.767 E3.64235
G1 X130.229 Y161.906 E3.67354
G1 X129.933 Y161.016 E3.70473
G1 X129.714 Y160.104 E3.73593
G1 X129.573 Y159.177 E3.76711
G1 X129.513 Y158.288 E3.79675
G1 X129.504 Y157.955 E3.80783
G1 X129.5 Y157.658 E3.81771
G1 X129.501 Y142.525 E4.32103
G1 X129.51 Y141.86 E4.34315
G1 X129.563 Y140.924 E4.37434
G1 X129.695 Y139.995 E4.40555
G1 X129.906 Y139.081 E4.43674
G1 X130.194 Y138.189 E4.46792
G1 X130.557 Y137.324 E4.49912
G1 X130.992 Y136.493 E4.53032
G1 X131.496 Y135.703 E4.56149
G1 X132.066 Y134.958 E4.59269
G1 X132.698 Y134.264 E4.6239
G0 F6000 X133.089 Y134.439
G1 F1200 X133.774 Y133.823 E4.65455
G1 X134.51 Y133.27 E4.68516
G1 X135.291 Y132.782 E4.71579
G1 X136.111 Y132.364 E4.74641
G1 X136.965 Y132.019 E4.77704
G1 X137.845 Y131.749 E4.80766
G1 X138.745 Y131.557 E4.83826
G1 X139.659 Y131.443 E4.8689
G1 X140.212 Y131.413 E4.88732
G1 X140.533 Y131.404 E4.898
G1 X140.83 Y131.4 E4.90788
G1 X158.793 Y131.4 E5.50533
G1 X159.643 Y131.411 E5.53361
G1 X160.562 Y131.464 E5.56422
G1 X161.473 Y131.597 E5.59484
G1 X162.369 Y131.808 E5.62546
G1 X163.243 Y132.096 E5.65607
G1 X164.09 Y132.459 E5.68672
G1 X164.901 Y132.894 E5.71732
G1 X165.671 Y133.398 E5.74793
G1 X166.395 Y133.967 E5.77856
G1 X167.067 Y134.597 E5.8092
G1 X167.682 Y135.282 E5.83982
G1 X168.235 Y136.018 E5.87044
G1 X168.722 Y136.799 E5.90105
G1 X169.139 Y137.62 E5.93167
G1 X169.484 Y138.474 E5.96231
G1 X169.753 Y139.354 E5.99291
G1 X169.945 Y140.255 E6.02356
G1 X170.058 Y141.168 E6.05415
G1 X170.087 Y141.712 E6.07227
G1 X170.096 Y142.032 E6.08292
G1 X170.1 Y142.33 E6.09283
G1 X170.099 Y157.395 E6.5939
G1 X170.09 Y158.122 E6.61808
G1 X170.039 Y159.041 E6.64869
G1 X169.908 Y159.953 E6.67934
G1 X169.698 Y160.849 E6.70994
G1 X169.412 Y161.724 E6.74056
G1 X169.051 Y162.571 E6.77119
G1 X168.617 Y163.383 E6.80181
G1 X168.115 Y164.155 E6.83244
G1 X167.547 Y164.88 E6.86307
G1 X166.919 Y165.553 E6.89369
G1 X166.235 Y166.169 E6.9243
G1 X165.5 Y166.723 E6.95491
G1 X164.72 Y167.212 E6.98553
G1 X163.9 Y167.631 E7.01616
G1 X163.047 Y167.977 E7.04678
G1 X162.167 Y168.248 E7.0774
G1 X161.267 Y168.441 E7.10802
G1 X160.353 Y168.556 E7.13866
G1 X159.788 Y168.587 E7.15748
G1 X159.467 Y168.596 E7.16816
G1 X159.17 Y168.6 E7.17804
G1 X141.07 Y168.599 E7.78004
G1 X140.372 Y168.59 E7.80326
G1 X139.453 Y168.538 E7.83388
G1 X138.542 Y168.407 E7.86449
G1 X137.646 Y168.197 E7.8951
G1 X136.771 Y167.91 E7.92573
G1 X135.924 Y167.548 E7.95636
G1 X135.112 Y167.114 E7.98698
G1 X134.341 Y166.612 E8.01759
G1 X133.616 Y166.044 E8.04822
G1 X132.943 Y165.415 E8.07886
G1 X132.328 Y164.731 E8.10945
G1 X131.774 Y163.996 E8.14006
G1 X131.286 Y163.215 E8.17069
G1 X130.867 Y162.395 E8.20132
G1 X130.521 Y161.542 E8.23194
G1 X130.251 Y160.662 E8.26255
G1 X130.058 Y159.761 E8.2932
G1 X129.944 Y158.848 E8.3238
G1 X129.913 Y158.277 E8.34282
G1 X129.904 Y157.944 E8.3539
G1 X129.9 Y157.658 E8.36341
G1 X129.901 Y142.531 E8.86654
G1 X129.91 Y141.866 E8.88866
G1 X129.962 Y140.946 E8.91931
G1 X130.094 Y140.035 E8.94992
G1 X130.305 Y139.139 E8.98054
G1 X130.592 Y138.264 E9.01117
G1 X130.955 Y137.418 E9.04179
G1 X131.389 Y136.606 E9.07241
G1 X131.892 Y135.835 E9.10303
G1 X132.461 Y135.111 E9.13366
G1 X133.089 Y134.439 E9.16425
G0 F6000 X133.481 Y134.617
G1 F1200 X134.162 Y134.024 E9.19428
G1 X134.894 Y133.494 E9.22434
G1 X135.669 Y133.031 E9.25437
G1 X136.482 Y132.638 E9.2844
G1 X137.327 Y132.318 E9.31445
G1 X138.196 Y132.075 E9.34446
G1 X139.084 Y131.909 E9.37451
G1 X140.223 Y131.813 E9.41253
G1 X140.544 Y131.804 E9.42321
G1 X140.83 Y131.8 E9.43272
G1 X158.793 Y131.8 E10.03017
G1 X159.637 Y131.811 E10.05825
G1 X160.539 Y131.864 E10.0883
G1 X161.432 Y131.996 E10.11832
G1 X162.31 Y132.207 E10.14836
G1 X163.166 Y132.495 E10.1784
G1 X163.993 Y132.857 E10.20842
G1 X164.785 Y133.292 E10.23848
G1 X165.536 Y133.794 E10.26852
G1 X166.239 Y134.361 E10.29856
G1 X166.889 Y134.988 E10.3286
G1 X167.481 Y135.67 E10.35864
G1 X168.011 Y136.401 E10.38867
G1 X168.473 Y137.177 E10.41871
G1 X168.866 Y137.99 E10.44874
G1 X169.184 Y138.835 E10.47877
G1 X169.427 Y139.705 E10.50881
G1 X169.592 Y140.593 E10.53885
G1 X169.687 Y141.723 E10.57657
G1 X169.696 Y142.043 E10.58722
G1 X169.7 Y142.33 E10.59676
G1 X169.699 Y157.39 E11.09766
G1 X169.69 Y158.117 E11.12184
G1 X169.639 Y159.019 E11.15189
G1 X169.508 Y159.913 E11.18194
G1 X169.299 Y160.791 E11.21196
G1 X169.013 Y161.648 E11.24201
G1 X168.652 Y162.476 E11.27205
G1 X168.22 Y163.268 E11.30206
G1 X167.719 Y164.02 E11.33211
G1 X167.153 Y164.724 E11.36216
G1 X166.528 Y165.375 E11.39217
G1 X165.847 Y165.969 E11.42223
G1 X165.116 Y166.5 E11.45228
G1 X164.342 Y166.964 E11.4823
G1 X163.529 Y167.358 E11.51234
G1 X162.685 Y167.678 E11.54237
G1 X161.815 Y167.923 E11.57243
G1 X160.928 Y168.089 E11.60244
G1 X159.777 Y168.187 E11.64086
G1 X159.456 Y168.196 E11.65154
G1 X159.17 Y168.2 E11.66106
G1 X141.075 Y168.199 E12.2629
G1 X140.377 Y168.19 E12.28612
G1 X139.476 Y168.139 E12.31613
G1 X138.582 Y168.007 E12.34619
G1 X137.704 Y167.798 E12.37621
G1 X136.847 Y167.511 E12.40627
G1 X136.02 Y167.15 E12.43628
G1 X135.227 Y166.717 E12.46633
G1 X134.476 Y166.216 E12.49636
G1 X133.772 Y165.65 E12.5264
G1 X133.121 Y165.024 E12.55644
G1 X132.528 Y164.343 E12.58647
G1 X131.998 Y163.612 E12.6165
G1 X131.534 Y162.837 E12.64655
G1 X131.14 Y162.024 E12.6766
G1 X130.82 Y161.18 E12.70662
G1 X130.576 Y160.31 E12.73667
G1 X130.41 Y159.422 E12.76672
G1 X130.313 Y158.267 E12.80527
G1 X130.304 Y157.934 E12.81635
G1 X130.3 Y157.658 E12.82553
G1 X130.301 Y142.536 E13.32849
G1 X130.31 Y141.871 E13.35061
G1 X130.362 Y140.969 E13.38066
G1 X130.494 Y140.076 E13.41068
G1 X130.704 Y139.198 E13.44071
G1 X130.991 Y138.341 E13.47077
G1 X131.353 Y137.514 E13.50079
G1 X131.786 Y136.722 E13.53082
G1 X132.288 Y135.971 E13.56086
G1 X132.855 Y135.267 E13.59093
G1 X133.481 Y134.617 E13.62094
G1 F2700 E8.62094
G0 F6000 X159.657 Y141.339
G0 X160.161 Y141.843
G0 X160.161 Y143.657
G0 X159.657 Y144.161
G0 X151.5 Y145.7
G1 F2700 E13.62094
G1 F1200 X158.1 Y145.7 E13.84046
G1 X158.1 Y145.8 E13.84378
G1 X151.5 Y145.8 E14.0633
G1 X151.5 Y145.7 E14.06663
G0 F6000 X151.1 Y145.3
G1 F1200 X158.5 Y145.3 E14.31275
G1 X158.5 Y146.2 E14.34269
G1 X151.1 Y146.2 E14.58881
G1 X151.1 Y145.3 E14.61875
G0 F6000 X150.7 Y144.9
G1 F1200 X158.9 Y144.9 E14.89148
G1 X158.9 Y146.6 E14.94802
G1 X150.7 Y146.6 E15.22075
G1 X150.7 Y144.9 E15.2773
G0 F6000 X150.3 Y144.5
G1 F1200 X159.3 Y144.5 E15.57664
G1 X159.3 Y147 E15.65979
G1 X150.3 Y147 E15.95913
G1 X150.3 Y144.5 E16.04228
G0 F6000 X153.92 Y151.73
G1 F1200 X154.383 Y151.609 E16.0582
G1 X154.617 Y151.609 E16.06598
G1 X155.08 Y151.73 E16.0819
G1 X155.469 Y151.993 E16.09751
G1 X155.75 Y152.377 E16.11334
G1 X155.886 Y152.826 E16.12894
G1 X155.866 Y153.291 E16.14442
G1 X155.686 Y153.737 E16.16042
G1 X155.381 Y154.083 E16.17576
G1 X154.968 Y154.316 E16.19153
G1 X154.5 Y154.398 E16.20734
G1 X154.032 Y154.316 E16.22314
G1 X153.619 Y154.083 E16.23891
G1 X153.314 Y153.737 E16.25425
G1 X153.134 Y153.291 E16.27025
G1 X153.114 Y152.826 E16.28573
G1 X153.25 Y152.377 E16.30133
G1 X153.531 Y151.993 E16.31716
G1 X153.92 Y151.73 E16.33278
G0 F6000 X154.088 Y152.095
G1 F1200 X154.416 Y152.009 E16.34405
G1 X154.584 Y152.009 E16.34964
G1 X154.912 Y152.095 E16.36092
G1 X155.191 Y152.283 E16.37211
G1 X155.39 Y152.555 E16.38332
G1 X155.487 Y152.874 E16.39441
G1 X155.474 Y153.205 E16.40543
G1 X155.346 Y153.523 E16.41683
G1 X155.131 Y153.769 E16.42769
G1 X154.836 Y153.937 E16.43899
G1 X154.5 Y153.996 E16.45033
G1 X154.164 Y153.937 E16.46168
G1 X153.869 Y153.769 E16.47297
G1 X153.654 Y153.523 E16.48384
G1 X153.526 Y153.205 E16.49524
G1 X153.513 Y152.874 E16.50625
G1 X153.61 Y152.555 E16.51734
G1 X153.809 Y152.283 E16.52855
G1 X154.088 Y152.095 E16.53974
G0 F6000 X154.166 Y152.51
G1 F1200 X154.449 Y152.409 E16.54974
G1 X154.551 Y152.409 E16.55313
G1 X154.834 Y152.51 E16.56312
G1 X155.033 Y152.738 E16.57319
G1 X155.093 Y153.024 E16.58291
G1 X155.004 Y153.313 E16.59297
G1 X154.783 Y153.521 E16.60306
G1 X154.5 Y153.595 E16.61279
G1 X154.217 Y153.521 E16.62252
G1 X153.996 Y153.313 E16.63261
G1 X153.907 Y153.024 E16.64267
G1 X153.967 Y152.738 E16.65239
G1 X154.166 Y152.51 E16.66246
G0 F6000 X154.451 Y152.815
G1 F1200 X154.512 Y152.809 E16.66449
G1 X154.65 Y152.88 E16.66966
G1 X154.688 Y153.038 E16.67506
G1 X154.588 Y153.17 E16.68057
G1 X154.438 Y153.182 E16.68557
G1 X154.322 Y153.071 E16.69091
G1 X154.326 Y152.919 E16.69597
G1 X154.451 Y152.815 E16.70138
G1 F2700 E11.70138
;MESH:?????????1V2.STL
G0 F6000 X158.483 Y149.012
G0 X157.499 Y150.152
G0 X157.787 Y149.752
G0 X157.561 Y149.465
G0 X157.457 Y149
G0 X157.532 Y148.602
G0 X151.511 Y148.747
G0 X151.536 Y149.143
G0 X151.365 Y149.584
G0 X151.078 Y149.872
G0 X150.632 Y150.035
G0 X150.229 Y150.009
G0 X149.81 Y149.783
G0 X149.561 Y149.465
G0 X148.972 Y148.328
G0 X148.972 Y143.172
G0 X159.128 Y143.172
G0 X159.128 Y148.028
G0 X158.906 Y148.2
;TYPE:WALL-OUTER
G1 F2700 E16.70138
G1 F1200 X159.3 Y148.2 E16.71448
G1 X159.3 Y148.613 E16.72822
G1 X159.249 Y148.496 E16.73247
G1 X158.945 Y148.213 E16.74628
G1 X158.906 Y148.2 E16.74765
G1 F2700 E11.74765
G0 F6000 X159.128 Y148.028
G0 X159.128 Y143.172
G0 X148.972 Y143.172
G0 X148.972 Y148.328
G0 X149.561 Y149.465
G0 X149.81 Y149.783
G0 X150.229 Y150.009
G0 X150.632 Y150.035
G0 X151.078 Y149.872
G0 X151.365 Y149.584
G0 X151.536 Y149.143
G0 X151.511 Y148.747
G0 X157.532 Y148.602
G0 X157.472 Y148.924
G0 X157.638 Y150.205
G0 X157.069 Y151.102
G0 X157.237 Y153.115
G0 X157.043 Y154.021
G0 X156.835 Y154.435
G0 X156.556 Y154.812
G0 X156.225 Y155.129
G0 X156.005 Y155.278
G0 X154.5 Y156.002
;TYPE:WALL-INNER
G1 F2700 E16.74765
G1 F1200 X155.008 Y155.959 E16.7646
G1 X155.501 Y155.83 E16.78155
G1 X155.964 Y155.62 E16.79846
G1 X156.386 Y155.336 E16.81538
G1 X156.754 Y154.984 E16.83232
G1 X157.057 Y154.573 E16.8493
G1 X157.286 Y154.12 E16.86618
G1 X157.434 Y153.633 E16.88311
G1 X157.5 Y153.128 E16.90005
G1 X157.478 Y152.619 E16.917
G1 X157.371 Y152.12 E16.93397
G1 X157.18 Y151.649 E16.95088
G1 X156.915 Y151.216 E16.96776
G1 X156.577 Y150.832 E16.98478
G1 X156.181 Y150.513 E17.00169
G1 X155.738 Y150.264 E17.01859
G1 X155.256 Y150.094 E17.03559
G1 X154.755 Y150.009 E17.05249
G1 X154.245 Y150.009 E17.06945
G1 X153.744 Y150.094 E17.08636
G1 X153.262 Y150.264 E17.10335
G1 X152.819 Y150.513 E17.12026
G1 X152.423 Y150.832 E17.13717
G1 X152.085 Y151.216 E17.15418
G1 X151.82 Y151.649 E17.17107
G1 X151.629 Y152.12 E17.18797
G1 X151.522 Y152.619 E17.20495
G1 X151.5 Y153.128 E17.22189
G1 X151.566 Y153.633 E17.23883
G1 X151.714 Y154.12 E17.25576
G1 X151.943 Y154.573 E17.27264
G1 X152.246 Y154.984 E17.28963
G1 X152.614 Y155.336 E17.30656
G1 X153.036 Y155.62 E17.32348
G1 X153.499 Y155.83 E17.34039
G1 X153.992 Y155.959 E17.35734
G1 X154.5 Y156.002 E17.3743
G0 F6000 X154.5 Y155.601
;TYPE:WALL-OUTER
G1 F1200 X154.94 Y155.563 E17.38899
G1 X155.367 Y155.452 E17.40366
G1 X155.768 Y155.27 E17.41831
G1 X156.134 Y155.023 E17.43299
G1 X156.453 Y154.719 E17.44765
G1 X156.715 Y154.363 E17.46235
G1 X156.913 Y153.97 E17.47699
G1 X157.042 Y153.548 E17.49167
G1 X157.099 Y153.111 E17.50632
G1 X157.08 Y152.67 E17.521
G1 X156.987 Y152.238 E17.5357
G1 X156.822 Y151.83 E17.55034
G1 X156.592 Y151.454 E17.565
G1 X156.3 Y151.122 E17.57971
G1 X155.956 Y150.846 E17.59437
G1 X155.572 Y150.63 E17.60903
G1 X155.155 Y150.483 E17.62373
G1 X154.721 Y150.409 E17.63838
G1 X154.279 Y150.409 E17.65308
G1 X153.845 Y150.483 E17.66772
G1 X153.428 Y150.63 E17.68243
G1 X153.044 Y150.846 E17.69708
G1 X152.7 Y151.122 E17.71175
G1 X152.408 Y151.454 E17.72646
G1 X152.178 Y151.83 E17.74112
G1 X152.013 Y152.238 E17.75575
G1 X151.92 Y152.67 E17.77045
G1 X151.901 Y153.111 E17.78513
G1 X151.958 Y153.548 E17.79979
G1 X152.087 Y153.97 E17.81447
G1 X152.285 Y154.363 E17.8291
G1 X152.547 Y154.719 E17.84381
G1 X152.866 Y155.023 E17.85846
G1 X153.232 Y155.27 E17.87315
G1 X153.633 Y155.452 E17.88779
G1 X154.06 Y155.563 E17.90247
G1 X154.5 Y155.601 E17.91716
G0 F6000 X154.5 Y156.041
G1 F2700 E12.91716
G0 F6000 X156.058 Y155.787
G0 X158.046 Y157.544
G0 X158.873 Y157.8
G1 F2700 E17.91716
G1 F1200 X159.002 Y157.753 E17.92172
G1 X159.246 Y157.507 E17.93325
G1 X159.3 Y157.368 E17.93821
G1 X159.3 Y157.8 E17.95258
G1 X158.873 Y157.8 E17.96678
G1 F2700 E12.96678
G0 F6000 X157.911 Y157.692
G0 X151.717 Y157.4
;TYPE:WALL-INNER
G1 F2700 E17.96678
G1 F1200 X151.801 Y157.182 E17.97455
G1 X151.769 Y156.686 E17.99108
G1 X151.582 Y156.26 E18.00655
G1 X151.154 Y155.861 E18.02602
G1 X150.663 Y155.699 E18.04321
G1 X150.078 Y155.755 E18.06276
G1 X149.63 Y156.018 E18.08004
G1 X149.285 Y156.497 E18.09967
G1 X149.19 Y157.006 E18.11689
G1 X149.28 Y157.4 E18.13033
G1 X149.19 Y157.4
G1 X141.1 Y157.4 E18.39941
G1 X141.1 Y142.6 E18.89166
G1 X148.7 Y142.6 E19.14444
G1 X158.9 Y142.6 E19.48369
G1 X158.9 Y142.9 E19.49367
G1 X148.7 Y142.9 E19.74874
G1 X148.7 Y148.6 E19.93833
G1 X149.026 Y148.6 E19.94917
G1 X149.027 Y148.6 E19.9492
G1 X149.266 Y148.6 E19.95715
G1 X149.222 Y148.835 E19.96205
G1 X149.19 Y149.006 E19.96784
G1 X149.32 Y149.578 E19.98735
G1 X149.638 Y149.988 E20.00461
G1 X150.155 Y150.268 E20.02416
G1 X150.669 Y150.299 E20.04129
G1 X151.223 Y150.098 E20.06089
G1 X151.589 Y149.729 E20.07818
G1 X151.801 Y149.182 E20.09769
G1 X151.779 Y148.851 E20.10872
G1 X151.769 Y148.686 E20.11422
G1 X151.731 Y148.6 E20.11735
G1 X151.769 Y148.6
G1 X151.935 Y148.6 E20.1213
