;FLAVOR:Marlin
;TIME:90
;Filament used: 0.0267787m
;Layer height: 0.2
;MINX:136.116
;MINY:136.114
;MINZ:0.2
;MAXX:163.885
;MAXY:163.879
;MAXZ:2.6
;Generated with Creality Slicer 4.8.2-191
M140 S50
M105
M190 S50
M104 S200
M105
M109 S200
M82 ;absolute extrusion mode

G28 ;Home

G92 E0 ;Reset Extruder
G1 Z2.0 F3000 ;Move Z Axis up
G1 X10.1 Y20 Z0.28 F5000.0 ;Move to start position
G1 X10.1 Y200.0 Z0.28 F1500.0 E15 ;Draw the first line
G1 X10.4 Y200.0 Z0.28 F5000.0 ;Move to side a little
G1 X10.4 Y20 Z0.28 F1500.0 E30 ;Draw the second line
G92 E0 ;Reset Extruder
G1 Z2.0 F3000 ;Move Z Axis up

G92 E0
G92 E0
G1 F2700 E-5
;LAYER_COUNT:13
;LAYER:0
M107
G0 F6000 X140.527 Y139.845 Z0.2
;TYPE:SKIRT
G1 F2700 E0
G1 F1200 X140.697 Y139.689 E0.00767
G1 X141.558 Y138.973 E0.04492
G1 X141.763 Y138.819 E0.05345
G1 X142.788 Y138.133 E0.09447
G1 X143.022 Y137.994 E0.10352
G1 X144.101 Y137.428 E0.14405
G1 X144.348 Y137.315 E0.15308
G1 X145.499 Y136.863 E0.19421
G1 X145.755 Y136.778 E0.20318
G1 X146.952 Y136.451 E0.24445
G1 X147.208 Y136.396 E0.25316
G1 X148.403 Y136.205 E0.29341
G1 X148.658 Y136.178 E0.30194
G1 X149.815 Y136.115 E0.34048
G1 X150.081 Y136.114 E0.34933
G1 X150.872 Y136.139 E0.37565
G1 X150.948 Y136.144 E0.37818
G1 X151.573 Y136.202 E0.39906
G1 X151.779 Y136.227 E0.40596
G1 X152.813 Y136.401 E0.44084
G1 X153.063 Y136.455 E0.44934
G1 X154.235 Y136.774 E0.48974
G1 X154.483 Y136.856 E0.49843
G1 X155.584 Y137.285 E0.53773
G1 X155.815 Y137.389 E0.54616
G1 X156.469 Y137.709 E0.57037
G1 X156.537 Y137.745 E0.57293
G1 X157.192 Y138.12 E0.59803
G1 X157.375 Y138.233 E0.60519
G1 X158.088 Y138.711 E0.63374
G1 X158.282 Y138.852 E0.64172
G1 X159.353 Y139.735 E0.68788
G1 X159.559 Y139.927 E0.69725
G1 X160.342 Y140.733 E0.73462
G1 X160.504 Y140.917 E0.74278
G1 X161.241 Y141.847 E0.78224
G1 X161.403 Y142.075 E0.79155
G1 X161.885 Y142.813 E0.82086
G1 X162.177 Y143.322 E0.84038
G1 X162.28 Y143.513 E0.8476
G1 X162.755 Y144.506 E0.88421
G1 X162.85 Y144.732 E0.89236
G1 X163.245 Y145.825 E0.93102
G1 X163.32 Y146.071 E0.93957
G1 X163.612 Y147.248 E0.97991
G1 X163.664 Y147.519 E0.98908
G1 X163.831 Y148.749 E1.03037
G1 X163.852 Y149.009 E1.03905
G1 X163.885 Y150.221 E1.07937
G1 X163.878 Y150.492 E1.08839
G1 X163.784 Y151.693 E1.12846
G1 X163.75 Y151.95 E1.13708
G1 X163.662 Y152.508 E1.15587
G1 X163.451 Y153.457 E1.1882
G1 X163.388 Y153.693 E1.19633
G1 X163.046 Y154.762 E1.23366
G1 X162.969 Y154.967 E1.24094
G1 X162.574 Y155.892 E1.27439
G1 X162.453 Y156.144 E1.28369
G1 X161.863 Y157.22 E1.32451
G1 X161.729 Y157.436 E1.33296
G1 X161.269 Y158.12 E1.36038
G1 X161.232 Y158.171 E1.36247
G1 X160.837 Y158.685 E1.38403
G1 X160.695 Y158.859 E1.3915
G1 X160.043 Y159.591 E1.42411
G1 X159.878 Y159.761 E1.43199
G1 X159.04 Y160.542 E1.47009
G1 X158.844 Y160.707 E1.47861
G1 X157.835 Y161.465 E1.52058
G1 X157.603 Y161.62 E1.52986
G1 X156.616 Y162.21 E1.56811
G1 X156.39 Y162.33 E1.57662
G1 X155.674 Y162.678 E1.6031
G1 X155.602 Y162.71 E1.60572
G1 X154.916 Y162.989 E1.63035
G1 X154.718 Y163.062 E1.63737
G1 X153.809 Y163.355 E1.66913
G1 X153.57 Y163.421 E1.67738
G1 X152.807 Y163.603 E1.70347
G1 X152.222 Y163.709 E1.72324
G1 X152.022 Y163.74 E1.72997
G1 X150.894 Y163.858 E1.7677
G1 X150.636 Y163.872 E1.77629
G1 X149.552 Y163.879 E1.81234
G1 X149.283 Y163.868 E1.8213
G1 X147.973 Y163.739 E1.86508
G1 X147.713 Y163.698 E1.87383
G1 X146.518 Y163.443 E1.91448
G1 X146.255 Y163.372 E1.92354
G1 X145.16 Y163.016 E1.96183
G1 X144.919 Y162.924 E1.97041
G1 X143.753 Y162.403 E2.01289
G1 X143.511 Y162.278 E2.02195
G1 X142.476 Y161.672 E2.06184
G1 X142.242 Y161.518 E2.07116
G1 X141.698 Y161.136 E2.09326
G1 X141.647 Y161.098 E2.09538
G1 X141.002 Y160.581 E2.12287
G1 X140.847 Y160.447 E2.12969
G1 X140.086 Y159.725 E2.16458
G1 X139.91 Y159.542 E2.17302
G1 X139.161 Y158.681 E2.21098
G1 X139 Y158.476 E2.21965
G1 X138.341 Y157.544 E2.25761
G1 X138.202 Y157.325 E2.26624
G1 X137.72 Y156.489 E2.29834
G1 X137.684 Y156.42 E2.30093
G1 X137.456 Y155.959 E2.31803
G1 X137.368 Y155.77 E2.32497
G1 X136.998 Y154.877 E2.35712
G1 X136.916 Y154.653 E2.36505
G1 X136.568 Y153.527 E2.40425
G1 X136.498 Y153.25 E2.41375
G1 X136.242 Y151.893 E2.45968
G1 X136.21 Y151.641 E2.46813
G1 X136.124 Y150.54 E2.50486
G1 X136.116 Y150.268 E2.51391
G1 X136.15 Y148.99 E2.55643
G1 X136.172 Y148.725 E2.56528
G1 X136.331 Y147.554 E2.60458
G1 X136.381 Y147.289 E2.61355
G1 X136.654 Y146.161 E2.65215
G1 X136.724 Y145.925 E2.66034
G1 X137.006 Y145.092 E2.68959
G1 X137.037 Y145.011 E2.69247
G1 X137.292 Y144.399 E2.71453
G1 X137.398 Y144.164 E2.7231
G1 X137.993 Y143.022 E2.76593
G1 X138.134 Y142.785 E2.7751
G1 X138.816 Y141.767 E2.81586
G1 X138.973 Y141.558 E2.82455
G1 X139.669 Y140.718 E2.86083
G1 X139.816 Y140.557 E2.86808
G1 X140.527 Y139.845 E2.90155
G0 F6000 X140.798 Y140.139
G1 F1200 X140.968 Y139.983 E2.90923
G1 X141.798 Y139.293 E2.94513
G1 X142.003 Y139.139 E2.95365
G1 X142.992 Y138.477 E2.99324
G1 X143.226 Y138.338 E3.00229
G1 X144.268 Y137.792 E3.04142
G1 X144.515 Y137.679 E3.05045
G1 X145.625 Y137.242 E3.09013
G1 X145.881 Y137.157 E3.0991
G1 X147.036 Y136.842 E3.13892
G1 X147.292 Y136.787 E3.14763
G1 X148.445 Y136.603 E3.18646
G1 X148.7 Y136.576 E3.19499
G1 X149.817 Y136.515 E3.2322
G1 X150.083 Y136.514 E3.24104
G1 X150.846 Y136.538 E3.26643
G1 X150.922 Y136.543 E3.26897
G1 X151.525 Y136.599 E3.28911
G1 X151.731 Y136.624 E3.29601
G1 X152.728 Y136.792 E3.32964
G1 X152.978 Y136.846 E3.33814
G1 X154.109 Y137.154 E3.37713
G1 X154.357 Y137.236 E3.38582
G1 X155.42 Y137.65 E3.42376
G1 X155.651 Y137.754 E3.43219
G1 X156.282 Y138.062 E3.45554
G1 X156.35 Y138.098 E3.4581
G1 X156.982 Y138.461 E3.48234
G1 X157.165 Y138.574 E3.48949
G1 X157.853 Y139.035 E3.51704
G1 X158.047 Y139.176 E3.52502
G1 X159.08 Y140.027 E3.56953
G1 X159.286 Y140.219 E3.5789
G1 X160.042 Y140.997 E3.61498
G1 X160.204 Y141.181 E3.62313
G1 X160.915 Y142.079 E3.66123
G1 X161.077 Y142.307 E3.67053
G1 X161.542 Y143.019 E3.69882
G1 X161.825 Y143.512 E3.71772
G1 X161.928 Y143.703 E3.72494
G1 X162.387 Y144.661 E3.76027
G1 X162.482 Y144.887 E3.76843
G1 X162.863 Y145.942 E3.80573
G1 X162.938 Y146.188 E3.81429
G1 X163.219 Y147.323 E3.85318
G1 X163.271 Y147.594 E3.86235
G1 X163.432 Y148.781 E3.9022
G1 X163.453 Y149.041 E3.91087
G1 X163.485 Y150.211 E3.9498
G1 X163.478 Y150.482 E3.95882
G1 X163.387 Y151.641 E3.99748
G1 X163.353 Y151.898 E4.00611
G1 X163.268 Y152.439 E4.02432
G1 X163.065 Y153.354 E4.05549
G1 X163.002 Y153.59 E4.06362
G1 X162.672 Y154.621 E4.09962
G1 X162.595 Y154.826 E4.10691
G1 X162.213 Y155.719 E4.13921
G1 X162.092 Y155.971 E4.14851
G1 X161.523 Y157.009 E4.18788
G1 X161.389 Y157.225 E4.19633
G1 X160.946 Y157.886 E4.2228
G1 X160.909 Y157.937 E4.2249
G1 X160.527 Y158.432 E4.24569
G1 X160.385 Y158.606 E4.25316
G1 X159.756 Y159.312 E4.28461
G1 X159.591 Y159.482 E4.29249
G1 X158.782 Y160.236 E4.32927
G1 X158.586 Y160.401 E4.33779
G1 X157.613 Y161.132 E4.37827
G1 X157.381 Y161.287 E4.38755
G1 X156.429 Y161.856 E4.42444
G1 X156.203 Y161.976 E4.43295
G1 X155.512 Y162.313 E4.45852
G1 X155.44 Y162.345 E4.46114
G1 X154.777 Y162.614 E4.48494
G1 X154.579 Y162.687 E4.49196
G1 X153.702 Y162.969 E4.5226
G1 X153.463 Y163.035 E4.53084
G1 X152.727 Y163.211 E4.55601
G1 X152.161 Y163.314 E4.57515
G1 X151.961 Y163.345 E4.58188
G1 X150.872 Y163.459 E4.6183
G1 X150.614 Y163.473 E4.62689
G1 X149.569 Y163.48 E4.66165
G1 X149.3 Y163.469 E4.6706
G1 X148.036 Y163.344 E4.71285
G1 X147.776 Y163.303 E4.7216
G1 X146.622 Y163.057 E4.76085
G1 X146.359 Y162.986 E4.76991
G1 X145.303 Y162.643 E4.80684
G1 X145.062 Y162.551 E4.81542
G1 X143.937 Y162.047 E4.85642
G1 X143.695 Y161.922 E4.86548
G1 X142.696 Y161.338 E4.90397
G1 X142.462 Y161.184 E4.91328
G1 X141.937 Y160.816 E4.93461
G1 X141.886 Y160.778 E4.93672
G1 X141.264 Y160.278 E4.96327
G1 X141.109 Y160.144 E4.97008
G1 X140.375 Y159.448 E5.00372
G1 X140.199 Y159.265 E5.01217
G1 X139.476 Y158.434 E5.04881
G1 X139.315 Y158.229 E5.05747
G1 X138.679 Y157.33 E5.0941
G1 X138.54 Y157.111 E5.10273
G1 X138.075 Y156.304 E5.13371
G1 X138.039 Y156.235 E5.1363
G1 X137.819 Y155.79 E5.15281
G1 X137.731 Y155.601 E5.15974
G1 X137.373 Y154.739 E5.19078
G1 X137.291 Y154.515 E5.19872
G1 X136.956 Y153.429 E5.23652
G1 X136.886 Y153.152 E5.24602
G1 X136.639 Y151.843 E5.29033
G1 X136.607 Y151.591 E5.29878
G1 X136.524 Y150.528 E5.33424
G1 X136.516 Y150.256 E5.34329
G1 X136.549 Y149.023 E5.38431
G1 X136.571 Y148.758 E5.39316
G1 X136.724 Y147.629 E5.43105
G1 X136.774 Y147.364 E5.44002
G1 X137.037 Y146.275 E5.47728
G1 X137.107 Y146.039 E5.48547
G1 X137.38 Y145.235 E5.51371
G1 X137.411 Y145.154 E5.5166
G1 X137.657 Y144.563 E5.53789
G1 X137.763 Y144.328 E5.54646
G1 X138.337 Y143.227 E5.58776
G1 X138.478 Y142.99 E5.59693
G1 X139.136 Y142.007 E5.63628
G1 X139.293 Y141.798 E5.64497
G1 X139.965 Y140.988 E5.67997
G1 X140.112 Y140.827 E5.68723
G1 X140.798 Y140.139 E5.71954
G0 F6000 X141.068 Y140.434
G1 F1200 X141.238 Y140.278 E5.72721
G1 X142.038 Y139.613 E5.76181
G1 X142.243 Y139.459 E5.77034
G1 X143.196 Y138.821 E5.80849
G1 X143.43 Y138.682 E5.81754
G1 X144.434 Y138.156 E5.85524
G1 X144.681 Y138.043 E5.86427
G1 X145.751 Y137.622 E5.90252
G1 X146.007 Y137.537 E5.91149
G1 X147.12 Y137.233 E5.94986
G1 X147.376 Y137.178 E5.95857
G1 X148.487 Y137.001 E5.99599
G1 X148.742 Y136.974 E6.00452
G1 X149.818 Y136.915 E6.04036
G1 X150.084 Y136.914 E6.04921
G1 X150.82 Y136.937 E6.0737
G1 X150.896 Y136.942 E6.07623
G1 X151.477 Y136.996 E6.09564
G1 X151.683 Y137.021 E6.10254
G1 X152.644 Y137.183 E6.13495
G1 X152.894 Y137.237 E6.14346
G1 X153.984 Y137.534 E6.18104
G1 X154.232 Y137.616 E6.18972
G1 X155.256 Y138.014 E6.22626
G1 X155.487 Y138.118 E6.23469
G1 X156.095 Y138.416 E6.25721
G1 X156.163 Y138.452 E6.25977
G1 X156.772 Y138.801 E6.28312
G1 X156.955 Y138.914 E6.29027
G1 X157.618 Y139.358 E6.31681
G1 X157.812 Y139.499 E6.32479
G1 X158.807 Y140.32 E6.36769
G1 X159.013 Y140.512 E6.37706
G1 X159.742 Y141.261 E6.41182
G1 X159.904 Y141.445 E6.41997
G1 X160.589 Y142.31 E6.45667
G1 X160.751 Y142.538 E6.46598
G1 X161.199 Y143.224 E6.49323
G1 X161.473 Y143.702 E6.51155
G1 X161.576 Y143.893 E6.51877
G1 X162.018 Y144.816 E6.55281
G1 X162.113 Y145.042 E6.56096
G1 X162.48 Y146.059 E6.59692
G1 X162.555 Y146.305 E6.60547
G1 X162.826 Y147.398 E6.64293
G1 X162.878 Y147.669 E6.65211
G1 X163.034 Y148.814 E6.69054
G1 X163.055 Y149.074 E6.69922
G1 X163.085 Y150.201 E6.73671
G1 X163.078 Y150.472 E6.74573
G1 X162.99 Y151.588 E6.78296
G1 X162.956 Y151.845 E6.79159
G1 X162.874 Y152.369 E6.80923
G1 X162.678 Y153.251 E6.83928
G1 X162.615 Y153.487 E6.8474
G1 X162.297 Y154.48 E6.88208
G1 X162.22 Y154.685 E6.88937
G1 X161.853 Y155.546 E6.9205
G1 X161.732 Y155.798 E6.92979
G1 X161.183 Y156.798 E6.96774
G1 X161.049 Y157.014 E6.97619
G1 X160.622 Y157.651 E7.0017
G1 X160.585 Y157.702 E7.00379
G1 X160.217 Y158.179 E7.02383
G1 X160.075 Y158.353 E7.0313
G1 X159.469 Y159.034 E7.06162
G1 X159.304 Y159.204 E7.0695
G1 X158.525 Y159.93 E7.10492
G1 X158.329 Y160.095 E7.11344
G1 X157.391 Y160.8 E7.15247
G1 X157.159 Y160.955 E7.16175
G1 X156.241 Y161.503 E7.1973
G1 X156.015 Y161.623 E7.20582
G1 X155.349 Y161.947 E7.23045
G1 X155.277 Y161.979 E7.23307
G1 X154.639 Y162.239 E7.25598
G1 X154.441 Y162.312 E7.263
G1 X153.596 Y162.584 E7.29253
G1 X153.357 Y162.65 E7.30077
G1 X152.648 Y162.819 E7.32502
G1 X152.1 Y162.919 E7.34354
G1 X151.9 Y162.95 E7.35028
G1 X150.85 Y163.059 E7.38539
G1 X150.592 Y163.073 E7.39398
G1 X149.585 Y163.08 E7.42747
G1 X149.316 Y163.069 E7.43643
G1 X148.098 Y162.949 E7.47714
G1 X147.838 Y162.908 E7.48589
G1 X146.726 Y162.671 E7.52371
G1 X146.463 Y162.6 E7.53277
G1 X145.446 Y162.269 E7.56834
G1 X145.205 Y162.177 E7.57692
G1 X144.12 Y161.692 E7.61645
G1 X143.878 Y161.567 E7.62551
G1 X142.916 Y161.004 E7.66258
G1 X142.682 Y160.85 E7.6719
G1 X142.176 Y160.495 E7.69245
G1 X142.125 Y160.457 E7.69457
G1 X141.526 Y159.976 E7.72012
G1 X141.371 Y159.842 E7.72694
G1 X140.663 Y159.171 E7.75938
G1 X140.487 Y158.988 E7.76782
G1 X139.791 Y158.187 E7.80312
G1 X139.63 Y157.982 E7.81179
G1 X139.016 Y157.115 E7.84712
G1 X138.877 Y156.896 E7.85575
G1 X138.429 Y156.119 E7.88558
G1 X138.393 Y156.05 E7.88817
G1 X138.182 Y155.621 E7.90407
G1 X138.094 Y155.432 E7.91101
G1 X137.749 Y154.602 E7.9409
G1 X137.667 Y154.378 E7.94883
G1 X137.344 Y153.331 E7.98528
G1 X137.274 Y153.054 E7.99478
G1 X137.035 Y151.792 E8.0375
G1 X137.003 Y151.54 E8.04595
G1 X136.924 Y150.517 E8.08008
G1 X136.916 Y150.245 E8.08913
G1 X136.947 Y149.056 E8.12869
G1 X136.969 Y148.791 E8.13753
G1 X137.117 Y147.703 E8.17405
G1 X137.167 Y147.438 E8.18302
G1 X137.421 Y146.389 E8.21892
G1 X137.491 Y146.153 E8.22711
G1 X137.753 Y145.378 E8.25432
G1 X137.784 Y145.297 E8.2572
G1 X138.021 Y144.728 E8.2777
G1 X138.127 Y144.493 E8.28628
G1 X138.68 Y143.431 E8.3261
G1 X138.821 Y143.194 E8.33527
G1 X139.456 Y142.248 E8.37317
G1 X139.613 Y142.039 E8.38186
G1 X140.26 Y141.258 E8.41559
G1 X140.407 Y141.097 E8.42284
G1 X141.068 Y140.434 E8.45398
G0 F6000 X141.339 Y140.729
G1 F1200 X141.509 Y140.573 E8.46166
G1 X142.279 Y139.933 E8.49496
G1 X142.484 Y139.779 E8.50349
G1 X143.401 Y139.165 E8.54019
G1 X143.635 Y139.026 E8.54924
G1 X144.601 Y138.52 E8.58551
G1 X144.848 Y138.407 E8.59455
G1 X145.877 Y138.002 E8.63133
G1 X146.133 Y137.917 E8.6403
G1 X147.204 Y137.625 E8.67722
G1 X147.46 Y137.57 E8.68593
G1 X148.529 Y137.399 E8.72194
G1 X148.784 Y137.372 E8.73047
G1 X149.82 Y137.315 E8.76498
G1 X150.086 Y137.314 E8.77382
G1 X150.794 Y137.336 E8.79738
G1 X150.87 Y137.341 E8.79992
G1 X151.429 Y137.393 E8.81859
G1 X151.635 Y137.418 E8.82549
G1 X152.56 Y137.574 E8.85669
G1 X152.81 Y137.628 E8.8652
G1 X153.858 Y137.914 E8.90133
G1 X154.106 Y137.996 E8.91002
G1 X155.091 Y138.379 E8.94517
G1 X155.322 Y138.483 E8.95359
G1 X155.907 Y138.769 E8.97525
G1 X155.975 Y138.805 E8.97781
G1 X156.562 Y139.141 E9.00031
G1 X156.745 Y139.254 E9.00746
G1 X157.383 Y139.682 E9.03301
G1 X157.577 Y139.823 E9.04099
G1 X158.534 Y140.612 E9.08224
G1 X158.74 Y140.804 E9.09161
G1 X159.442 Y141.526 E9.1251
G1 X159.604 Y141.71 E9.13326
G1 X160.263 Y142.542 E9.16856
G1 X160.425 Y142.77 E9.17786
G1 X160.856 Y143.43 E9.20408
G1 X161.121 Y143.892 E9.22179
G1 X161.224 Y144.083 E9.22901
G1 X161.649 Y144.971 E9.26175
G1 X161.744 Y145.197 E9.26991
G1 X162.098 Y146.175 E9.3045
G1 X162.173 Y146.421 E9.31305
G1 X162.433 Y147.474 E9.34913
G1 X162.485 Y147.745 E9.35831
G1 X162.635 Y148.846 E9.39526
G1 X162.656 Y149.106 E9.40394
G1 X162.686 Y150.19 E9.44001
G1 X162.679 Y150.461 E9.44902
G1 X162.594 Y151.536 E9.48489
G1 X162.56 Y151.793 E9.49351
G1 X162.48 Y152.299 E9.51055
G1 X162.292 Y153.148 E9.53947
G1 X162.229 Y153.384 E9.5476
G1 X161.923 Y154.34 E9.58098
G1 X161.846 Y154.545 E9.58827
G1 X161.492 Y155.373 E9.61822
G1 X161.371 Y155.625 E9.62752
G1 X160.844 Y156.587 E9.664
G1 X160.71 Y156.803 E9.67245
G1 X160.298 Y157.416 E9.69702
G1 X160.261 Y157.467 E9.69911
G1 X159.907 Y157.926 E9.71839
G1 X159.765 Y158.1 E9.72586
G1 X159.182 Y158.755 E9.75503
G1 X159.017 Y158.925 E9.76291
G1 X158.267 Y159.624 E9.79701
G1 X158.071 Y159.789 E9.80553
G1 X157.168 Y160.467 E9.84309
G1 X156.936 Y160.622 E9.85237
G1 X156.053 Y161.15 E9.88658
G1 X155.827 Y161.27 E9.8951
G1 X155.187 Y161.582 E9.91878
G1 X155.115 Y161.614 E9.9214
G1 X154.5 Y161.863 E9.94347
G1 X154.302 Y161.936 E9.95048
G1 X153.489 Y162.198 E9.97889
G1 X153.25 Y162.264 E9.98714
G1 X152.568 Y162.427 E10.01046
G1 X152.038 Y162.524 E10.02838
G1 X151.838 Y162.555 E10.03512
G1 X150.829 Y162.66 E10.06886
G1 X150.571 Y162.674 E10.07745
G1 X149.601 Y162.68 E10.10971
G1 X149.332 Y162.669 E10.11867
G1 X148.16 Y162.553 E10.15784
G1 X147.9 Y162.512 E10.16659
G1 X146.831 Y162.284 E10.20295
G1 X146.568 Y162.213 E10.21201
G1 X145.588 Y161.895 E10.24628
G1 X145.347 Y161.803 E10.25486
G1 X144.304 Y161.336 E10.29286
G1 X144.062 Y161.211 E10.30192
G1 X143.136 Y160.669 E10.33761
G1 X142.902 Y160.515 E10.34693
G1 X142.415 Y160.174 E10.3667
G1 X142.364 Y160.136 E10.36882
G1 X141.787 Y159.673 E10.39342
G1 X141.632 Y159.539 E10.40024
G1 X140.951 Y158.894 E10.43143
G1 X140.775 Y158.711 E10.43988
G1 X140.105 Y157.94 E10.47385
G1 X139.944 Y157.735 E10.48252
G1 X139.354 Y156.901 E10.5165
