;FLAVOR:Marlin
;TIME:59
;Filament used:0.00696196m
;Layer height: 0.1
;MINX:108.852
;MINY:108.874
;MINZ:0.1
;MAXX:111.145
;MAXY:110.872
;MAXZ:4
                              
;Creality Print GCode Generated by CXEngine:NO_MAGE_VERSION_GIT_HEAD_BRANCH
;CXEngine Release Time:2022-09-30 09:53:04
;Gcode Generated Time:2023-04-02 17:50:11
;----------Machine Config--------------
;Machine Name:Ender-3 V2
;Machine Height:250
;Machine Width:220
;Machine Depth:220
;Material name:PLA
;Number of Extruders:1
;ExtruderParams[0] Nozzle Diameter1000
;----------Profile Config---------------
;Engine Version:275f99b
;Engine Release Time:2022-09-30 09:42:18
;Layer Height:0.1
;Wall Thickness:0.8
;Top/Bottom Thickness:0.5
;Out Wall Line Width:0.4
;Inner Wall Line Width:0.4
;Inital Layer Height:100
;Wall Line Count:2
;Infill Line Distance:4
;Infill Pattern:grid
;Infill Sparse Density:20
;Infill Wipe Distance:0
;Print Temperature:200
;Bed Temperature:60
;Support Enable:false
;Support Density:30
;Support Angle:60
;Adhesion Type:none
;machine is belt:false
;machine belt offset:10
;machine belt offset Y:0
;Raft Base Line Spacing:1.6
;Wait Heatup Sync:true
;----------Shell Config----------------
;Outer Wall Wipe Distance:200
;Outer Inset First:false
;Infill Before Walls:false
;Infill Overlap:0.16
;Fill Gaps Between Walls:everywhere
;Minimum Infill Area:1
;Top Surface Skin Layer:0
;Top Layers:4
;Z Seam Alignment:sharpest_corner
;Seam Corner Preference:z_seam_corner_inner
;Z Seam X:110
;Z Seam Y:110
;Horizontal Expansion:0
;Top/Bottom Pattern:zigzag
;Ironing Pattern:zigzag
;Vase Model:false
;----------Support Config----------------
;Support Type:everywhere
;Support Pattern:zigzag
;Support Infill Layer Thickness:0.1
;Minimum Support Area:5
;Enable Support Roof:false
;Support Roof Thickness:0.8
;Support Roof Pattern:lines
;Connect Support Lines:0
;Connect Support ZigZags:1
;Minimum Support X/Y Distance:0.2
;Support Line Distance:1.33
; ---------PrintSpeed & Travel----------
;Enable Print Cool:true
;Avoid Printed Parts Traveling:true
;Enable Retraction:true
;Retraction Distance:8
;Retraction Speed:100
;Retraction Prime Speed:100
;Maximum Retraction Count:100
;Minimum Extrusion Distance Window:1
;Z Hop When Retracted:false
;Z Hop Height:0.2
;Retract Before Outer Wall:true
;Print Speed:50
;Infill Speed:50

;Prime Tower Speed:50
;Travel Speed:120
;Initial Layer Speed:25
;Skirt/Brim Speed:25
;Combing Mode:infill
; --------SpecialModel&Mesh Fixes--------
;Union Overlapping Volum:true
;Remove All Holes:false
;Maximum Travel Resolution:0.6
;Maximum Deviation:0.05
;Maximum Model Angle:0.872665
;IS Mold Print:false
;Make Overhang Printable:false
;Enable Coasting:false
;Coasting Volumes:0.06
;Coasting Speed:0.9
;Raft AirGap:0.25
;Layer0 ZOverLap:0.13
;---------------------End of Head--------------------------
M140 S60
M105
M104 S200
M105
M109 S200
M105
M190 S60
M82 ;absolute extrusion mode
M220 S100 ;Reset Feedrate
M221 S100 ;Reset Flowrate

G28 ;Home

G92 E0 ;Reset Extruder
G1 Z2.0 F3000 ;Move Z Axis up
G1 X10.1 Y20 Z0.28 F5000.0 ;Move to start position
G1 X10.1 Y145.0 Z0.28 F1500.0 E15 ;Draw the first line
G1 X10.4 Y145.0 Z0.28 F5000.0 ;Move to side a little
G1 X10.4 Y20 Z0.28 F1500.0 E30 ;Draw the second line
G92 E0  ;Reset Extruder
G1 E-1.0000 F1800 ;Retract a bit
G1 Z2.0 F3000 ;Move Z Axis up
G1 E0.0000 F1800 

G92 E0
G92 E0
G1 F6000 E-8

;LAYER_COUNT:40

;LAYER:0
M107
;MESH:
G0 F3600 X110.6 Y109.808 Z0.1
;TYPE:WALL-INNER
G1 F6000 E0
G1 F600 X110.522 Y109.739 E0.00191
G1 X110.395 Y109.714 E0.00427
G1 X110.223 Y109.68 E0.00748
G1 X110.041 Y109.643 E0.01088
G1 X109.903 Y109.615 E0.01345
G1 X109.852 Y109.632 E0.01444
G1 X109.675 Y109.691 E0.01785
G1 X109.513 Y109.745 E0.02097
G1 X109.372 Y109.793 E0.0237
G1 X109.307 Y109.815 E0.02495
G1 X109.274 Y109.852 E0.02586
G1 X109.289 Y109.809
G1 X109.334 Y109.682 E0.02678
G1 X109.439 Y109.527 E0.02856
G1 X109.579 Y109.403 E0.03092
G1 X109.746 Y109.317 E0.03366
G1 X109.832 Y109.298 E0.03504
G1 X109.925 Y109.277 E0.03654
G1 X110.113 Y109.282 E0.03963
G1 X110.292 Y109.333 E0.04274
G1 X110.452 Y109.425 E0.0455
G1 X110.586 Y109.558 E0.04785
G1 X110.648 Y109.662 E0.04891
G1 X110.681 Y109.716 E0.04907
G1 X110.737 Y109.929 E0.05274
G1 X110.6 Y109.808 E0.05309
G0 F3600 X110.338 Y110.11
;TYPE:WALL-OUTER
G1 F600 X109.929 Y110.028 E0.06072
G1 X109.535 Y110.16 E0.06832
G1 X109.269 Y110.459 E0.07564
G1 X109.258 Y110.471 E0.07594
G1 X109.222 Y110.647 E0.07922
G1 X109.184 Y110.827 E0.08259
G1 X109.04 Y110.64 E0.08421
G1 X109.012 Y110.604
G1 X109.003 Y110.582
G1 X108.898 Y110.339 E0.08863
G1 X108.896 Y110.323 E0.08892
G1 X108.852 Y110.052 E0.09395
G1 X108.879 Y109.768 E0.09916
G1 X108.974 Y109.501 E0.10435
G1 X109.136 Y109.262 E0.10963
G1 X109.354 Y109.069 E0.11496
G1 X109.607 Y108.939 E0.12016
G1 X109.886 Y108.876 E0.12539
G1 X110.175 Y108.883 E0.13068
G1 X110.449 Y108.961 E0.13589
G1 X110.697 Y109.105 E0.14114
G1 X110.903 Y109.308 E0.14643
G1 X111.05 Y109.553 E0.15166
G1 X111.133 Y109.826 E0.15688
G1 X111.145 Y110.113 E0.16213
G1 X111.085 Y110.397 E0.16744
G1 X111.004 Y110.56 E0.17077
G1 X111.003 Y110.562 E0.17081
G1 X110.958 Y110.651 E0.17263
G1 X110.821 Y110.81 E0.17647
G1 X110.767 Y110.872 E0.17798
G1 X110.785 Y110.78 E0.17798
G1 X110.764 Y110.718
G1 X110.65 Y110.386 E0.18343
G1 X110.648 Y110.385 E0.18347
G1 X110.338 Y110.11 E0.19105
G0 F3600 X110.142 Y110.071
G0 X110.229 Y109.64
;MESH:NONMESH
G0 F600 X110.229 Y109.64 Z0.2
G0 F3600 X110.6 Y109.808
;TIME_ELAPSED:6.471811

;LAYER:1
M140 S60
M106 S127.5
;TYPE:WALL-INNER
;MESH:
G1 F600 X110.522 Y109.739 E0.19278
G1 X110.395 Y109.714 E0.19493
G1 X110.223 Y109.68 E0.19785
G1 X110.041 Y109.643 E0.20094
G1 X109.903 Y109.615 E0.20328
G1 X109.852 Y109.632 E0.20417
G1 X109.675 Y109.691 E0.20727
G1 X109.513 Y109.745 E0.21011
G1 X109.372 Y109.793 E0.21259
G1 X109.307 Y109.815 E0.21373
G1 X109.274 Y109.852 E0.21456
G1 X109.289 Y109.809
G1 X109.334 Y109.682 E0.21539
G1 X109.439 Y109.527 E0.21701
G1 X109.579 Y109.403 E0.21916
G1 X109.746 Y109.317 E0.22164
G1 X109.832 Y109.298 E0.2229
G1 X109.925 Y109.277 E0.22426
G1 X110.113 Y109.282 E0.22708
G1 X110.292 Y109.333 E0.2299
G1 X110.452 Y109.425 E0.23241
G1 X110.586 Y109.558 E0.23455
G1 X110.648 Y109.662 E0.23551
G1 X110.681 Y109.716 E0.23565
G1 X110.737 Y109.929 E0.23899
G1 X110.6 Y109.808 E0.23931
G0 F5400 X110.338 Y110.11
;TYPE:WALL-OUTER
G1 F600 X109.929 Y110.028 E0.24624
G1 X109.535 Y110.16 E0.25315
G1 X109.269 Y110.459 E0.25981
G1 X109.258 Y110.471 E0.26008
G1 X109.222 Y110.647 E0.26307
G1 X109.184 Y110.827 E0.26613
G1 X109.04 Y110.64 E0.2676
G1 X109.012 Y110.604
G1 X109.003 Y110.582
G1 X108.898 Y110.339 E0.27162
G1 X108.896 Y110.323 E0.27189
G1 X108.852 Y110.052 E0.27645
G1 X108.879 Y109.768 E0.2812
G1 X108.974 Y109.501 E0.28591
G1 X109.136 Y109.262 E0.29071
G1 X109.354 Y109.069 E0.29555
G1 X109.607 Y108.939 E0.30028
G1 X109.886 Y108.876 E0.30504
G1 X110.175 Y108.883 E0.30985
G1 X110.449 Y108.961 E0.31459
G1 X110.697 Y109.105 E0.31935
G1 X110.903 Y109.308 E0.32416
G1 X111.05 Y109.553 E0.32892
G1 X111.133 Y109.826 E0.33366
G1 X111.145 Y110.113 E0.33844
G1 X111.085 Y110.397 E0.34326
G1 X111.004 Y110.56 E0.34629
G1 X111.003 Y110.562 E0.34633
G1 X110.958 Y110.651 E0.34799
G1 X110.821 Y110.81 E0.35148
G1 X110.767 Y110.872 E0.35285
G1 X110.785 Y110.78 E0.35285
G1 X110.764 Y110.718
G1 X110.65 Y110.386 E0.3578
G1 X110.648 Y110.385 E0.35783
G1 X110.338 Y110.11 E0.36473
G0 F5400 X110.142 Y110.071
G0 X110.229 Y109.64
;MESH:NONMESH
G0 F600 X110.229 Y109.64 Z0.3
G0 F5400 X110.6 Y109.808
;TIME_ELAPSED:7.866553

;LAYER:2
M106 S255
;TYPE:WALL-INNER
;MESH:
G1 F600 X110.522 Y109.739 E0.36646
G1 X110.395 Y109.714 E0.36861
G1 X110.223 Y109.68 E0.37153
G1 X110.041 Y109.643 E0.37461
G1 X109.903 Y109.615 E0.37696
G1 X109.852 Y109.632 E0.37785
G1 X109.675 Y109.691 E0.38095
G1 X109.513 Y109.745 E0.38379
G1 X109.372 Y109.793 E0.38627
G1 X109.307 Y109.815 E0.38741
G1 X109.274 Y109.852 E0.38824
G1 X109.289 Y109.809
G1 X109.334 Y109.682 E0.38907
G1 X109.439 Y109.527 E0.39069
G1 X109.579 Y109.403 E0.39283
G1 X109.746 Y109.317 E0.39532
G1 X109.832 Y109.298 E0.39658
G1 X109.925 Y109.277 E0.39794
G1 X110.113 Y109.282 E0.40076
G1 X110.292 Y109.333 E0.40358
G1 X110.452 Y109.425 E0.40609
G1 X110.586 Y109.558 E0.40823
G1 X110.648 Y109.662 E0.40919
G1 X110.681 Y109.716 E0.40933
G1 X110.737 Y109.929 E0.41267
G1 X110.6 Y109.808 E0.41299
G0 F7200 X110.338 Y110.11
;TYPE:WALL-OUTER
G1 F600 X109.929 Y110.028 E0.41992
G1 X109.535 Y110.16 E0.42683
G1 X109.269 Y110.459 E0.43349
G1 X109.258 Y110.471 E0.43376
G1 X109.222 Y110.647 E0.43675
G1 X109.184 Y110.827 E0.43981
G1 X109.04 Y110.64 E0.44128
G1 X109.012 Y110.604
G1 X109.003 Y110.582
G1 X108.898 Y110.339 E0.4453
G1 X108.896 Y110.323 E0.44557
G1 X108.852 Y110.052 E0.45013
G1 X108.879 Y109.768 E0.45488
G1 X108.974 Y109.501 E0.45959
G1 X109.136 Y109.262 E0.46439
G1 X109.354 Y109.069 E0.46923
G1 X109.607 Y108.939 E0.47396
G1 X109.886 Y108.876 E0.47872
G1 X110.175 Y108.883 E0.48353
G1 X110.449 Y108.961 E0.48826
G1 X110.697 Y109.105 E0.49303
G1 X110.903 Y109.308 E0.49784
G1 X111.05 Y109.553 E0.50259
G1 X111.133 Y109.826 E0.50734
G1 X111.145 Y110.113 E0.51212
G1 X111.085 Y110.397 E0.51694
G1 X111.004 Y110.56 E0.51997
G1 X111.003 Y110.562 E0.52001
G1 X110.958 Y110.651 E0.52167
G1 X110.821 Y110.81 E0.52516
G1 X110.767 Y110.872 E0.52652
G1 X110.785 Y110.78 E0.52653
G1 X110.764 Y110.718
G1 X110.65 Y110.386 E0.53148
G1 X110.648 Y110.385 E0.53151
G1 X110.338 Y110.11 E0.5384
G0 F7200 X110.142 Y110.071
G0 X110.229 Y109.64
;MESH:NONMESH
G0 F600 X110.229 Y109.64 Z0.4
G0 F7200 X110.6 Y109.808
;TIME_ELAPSED:9.260610

;LAYER:3
;TYPE:WALL-INNER
;MESH:
G1 F600 X110.522 Y109.739 E0.54014
G1 X110.395 Y109.714 E0.54229
G1 X110.223 Y109.68 E0.5452
G1 X110.041 Y109.643 E0.54829
G1 X109.903 Y109.615 E0.55064
G1 X109.852 Y109.632 E0.55153
G1 X109.675 Y109.691 E0.55463
G1 X109.513 Y109.745 E0.55747
G1 X109.372 Y109.793 E0.55995
G1 X109.307 Y109.815 E0.56109
G1 X109.274 Y109.852 E0.56191
G1 X109.289 Y109.809
G1 X109.334 Y109.682 E0.56275
G1 X109.439 Y109.527 E0.56437
G1 X109.579 Y109.403 E0.56651
G1 X109.746 Y109.317 E0.569
G1 X109.832 Y109.298 E0.57026
G1 X109.925 Y109.277 E0.57162
G1 X110.113 Y109.282 E0.57444
G1 X110.292 Y109.333 E0.57726
G1 X110.452 Y109.425 E0.57977
G1 X110.586 Y109.558 E0.58191
G1 X110.648 Y109.662 E0.58287
G1 X110.681 Y109.716 E0.58301
G1 X110.737 Y109.929 E0.58635
G1 X110.6 Y109.808 E0.58667
G0 F7200 X110.338 Y110.11
;TYPE:WALL-OUTER
G1 F600 X109.929 Y110.028 E0.5936
G1 X109.535 Y110.16 E0.60051
G1 X109.269 Y110.459 E0.60717
G1 X109.258 Y110.471 E0.60744
G1 X109.222 Y110.647 E0.61043
G1 X109.184 Y110.827 E0.61349
G1 X109.04 Y110.64 E0.61496
G1 X109.012 Y110.604
G1 X109.003 Y110.582
G1 X108.898 Y110.339 E0.61898
G1 X108.896 Y110.323 E0.61924
G1 X108.852 Y110.052 E0.62381
G1 X108.879 Y109.768 E0.62855
G1 X108.974 Y109.501 E0.63327
G1 X109.136 Y109.262 E0.63807
G1 X109.354 Y109.069 E0.64291
G1 X109.607 Y108.939 E0.64764
G1 X109.886 Y108.876 E0.6524
G1 X110.175 Y108.883 E0.65721
G1 X110.449 Y108.961 E0.66194
G1 X110.697 Y109.105 E0.66671
G1 X110.903 Y109.308 E0.67152
G1 X111.05 Y109.553 E0.67627
G1 X111.133 Y109.826 E0.68102
G1 X111.145 Y110.113 E0.6858
G1 X111.085 Y110.397 E0.69062
G1 X111.004 Y110.56 E0.69365
G1 X111.003 Y110.562 E0.69369
G1 X110.958 Y110.651 E0.69535
G1 X110.821 Y110.81 E0.69884
G1 X110.767 Y110.872 E0.7002
G1 X110.785 Y110.78 E0.70021
G1 X110.764 Y110.718
G1 X110.65 Y110.386 E0.70515
G1 X110.648 Y110.385 E0.70519
G1 X110.338 Y110.11 E0.71208
G0 F7200 X110.142 Y110.071
G0 X110.229 Y109.64
;MESH:NONMESH
G0 F600 X110.229 Y109.64 Z0.5
G0 F7200 X110.6 Y109.808
;TIME_ELAPSED:10.654667

;LAYER:4
;TYPE:WALL-INNER
;MESH:
G1 F600 X110.522 Y109.739 E0.71382
G1 X110.395 Y109.714 E0.71597
G1 X110.223 Y109.68 E0.71888
G1 X110.041 Y109.643 E0.72197
G1 X109.903 Y109.615 E0.72431
G1 X109.852 Y109.632 E0.72521
G1 X109.675 Y109.691 E0.72831
G1 X109.513 Y109.745 E0.73115
G1 X109.372 Y109.793 E0.73363
G1 X109.307 Y109.815 E0.73477
G1 X109.274 Y109.852 E0.73559
G1 X109.289 Y109.809
G1 X109.334 Y109.682 E0.73643
G1 X109.439 Y109.527 E0.73805
G1 X109.579 Y109.403 E0.74019
G1 X109.746 Y109.317 E0.74268
G1 X109.832 Y109.298 E0.74394
G1 X109.925 Y109.277 E0.7453
G1 X110.113 Y109.282 E0.74812
G1 X110.292 Y109.333 E0.75094
G1 X110.452 Y109.425 E0.75345
G1 X110.586 Y109.558 E0.75559
G1 X110.648 Y109.662 E0.75655
G1 X110.681 Y109.716 E0.75669
G1 X110.737 Y109.929 E0.76003
G1 X110.6 Y109.808 E0.76034
G0 F7200 X110.338 Y110.11
;TYPE:WALL-OUTER
G1 F600 X109.929 Y110.028 E0.76728
G1 X109.535 Y110.16 E0.77419
G1 X109.269 Y110.459 E0.78085
G1 X109.258 Y110.471 E0.78112
G1 X109.222 Y110.647 E0.78411
G1 X109.184 Y110.827 E0.78716
G1 X109.04 Y110.64 E0.78864
G1 X109.012 Y110.604
G1 X109.003 Y110.582
G1 X108.898 Y110.339 E0.79266
G1 X108.896 Y110.323 E0.79292
G1 X108.852 Y110.052 E0.79749
G1 X108.879 Y109.768 E0.80223
G1 X108.974 Y109.501 E0.80695
G1 X109.136 Y109.262 E0.81175
G1 X109.354 Y109.069 E0.81659
G1 X109.607 Y108.939 E0.82132
G1 X109.886 Y108.876 E0.82608
G1 X110.175 Y108.883 E0.83088
G1 X110.449 Y108.961 E0.83562
G1 X110.697 Y109.105 E0.84039
G1 X110.903 Y109.308 E0.8452
G1 X111.05 Y109.553 E0.84995
G1 X111.133 Y109.826 E0.8547
G1 X111.145 Y110.113 E0.85947
G1 X111.085 Y110.397 E0.8643
G1 X111.004 Y110.56 E0.86733
G1 X111.003 Y110.562 E0.86737
G1 X110.958 Y110.651 E0.86902
G1 X110.821 Y110.81 E0.87251
G1 X110.767 Y110.872 E0.87388
G1 X110.785 Y110.78 E0.87389
G1 X110.764 Y110.718
G1 X110.65 Y110.386 E0.87883
G1 X110.648 Y110.385 E0.87887
G1 X110.338 Y110.11 E0.88576
G0 F7200 X110.142 Y110.071
G0 X110.229 Y109.64
;MESH:NONMESH
G0 F600 X110.229 Y109.64 Z0.6
G0 F7200 X110.6 Y109.808
;TIME_ELAPSED:12.048724

;LAYER:5
;TYPE:WALL-INNER
;MESH:
G1 F600 X110.522 Y109.739 E0.88749
G1 X110.395 Y109.714 E0.88965
G1 X110.223 Y109.68 E0.89256
G1 X110.041 Y109.643 E0.89565
G1 X109.903 Y109.615 E0.89799
G1 X109.852 Y109.632 E0.89889
G1 X109.675 Y109.691 E0.90199
G1 X109.513 Y109.745 E0.90483
G1 X109.372 Y109.793 E0.90731
G1 X109.307 Y109.815 E0.90845
G1 X109.274 Y109.852 E0.90927
G1 X109.289 Y109.809
G1 X109.334 Y109.682 E0.91011
G1 X109.439 Y109.527 E0.91173
G1 X109.579 Y109.403 E0.91387
G1 X109.746 Y109.317 E0.91636
G1 X109.832 Y109.298 E0.91761
G1 X109.925 Y109.277 E0.91898
G1 X110.113 Y109.282 E0.92179
G1 X110.292 Y109.333 E0.92462
G1 X110.452 Y109.425 E0.92713
G1 X110.586 Y109.558 E0.92927
G1 X110.648 Y109.662 E0.93023
G1 X110.681 Y109.716 E0.93037
G1 X110.737 Y109.929 E0.93371
G1 X110.6 Y109.808 E0.93402
G0 F7200 X110.338 Y110.11
;TYPE:WALL-OUTER
G1 F600 X109.929 Y110.028 E0.94096
G1 X109.535 Y110.16 E0.94787
G1 X109.269 Y110.459 E0.95453
G1 X109.258 Y110.471 E0.9548
G1 X109.222 Y110.647 E0.95778
G1 X109.184 Y110.827 E0.96084
G1 X109.04 Y110.64 E0.96231
G1 X109.012 Y110.604
G1 X109.003 Y110.582
G1 X108.898 Y110.339 E0.96633
G1 X108.896 Y110.323 E0.9666
G1 X108.852 Y110.052 E0.97117
G1 X108.879 Y109.768 E0.97591
G1 X108.974 Y109.501 E0.98063
G1 X109.136 Y109.262 E0.98543
G1 X109.354 Y109.069 E0.99027
G1 X109.607 Y108.939 E0.995
G1 X109.886 Y108.876 E0.99976
G1 X110.175 Y108.883 E1.00456
G1 X110.449 Y108.961 E1.0093
G1 X110.697 Y109.105 E1.01407
G1 X110.903 Y109.308 E1.01888
G1 X111.05 Y109.553 E1.02363
G1 X111.133 Y109.826 E1.02838
G1 X111.145 Y110.113 E1.03315
G1 X111.085 Y110.397 E1.03798
G1 X111.004 Y110.56 E1.04101
G1 X111.003 Y110.562 E1.04104
G1 X110.958 Y110.651 E1.0427
G1 X110.821 Y110.81 E1.04619
G1 X110.767 Y110.872 E1.04756
G1 X110.785 Y110.78 E1.04757
G1 X110.764 Y110.718
G1 X110.65 Y110.386 E1.05251
G1 X110.648 Y110.385 E1.05255
G1 X110.338 Y110.11 E1.05944
G0 F7200 X110.142 Y110.071
G0 X110.229 Y109.64
;MESH:NONMESH
G0 F600 X110.229 Y109.64 Z0.7
G0 F7200 X110.6 Y109.808
;TIME_ELAPSED:13.442781

;LAYER:6
;TYPE:WALL-INNER
;MESH:
G1 F600 X110.522 Y109.739 E1.06117
G1 X110.395 Y109.714 E1.06333
G1 X110.223 Y109.68 E1.06624
G1 X110.041 Y109.643 E1.06933
G1 X109.903 Y109.615 E1.07167
G1 X109.852 Y109.632 E1.07257
G1 X109.675 Y109.691 E1.07567
G1 X109.513 Y109.745 E1.07851
G1 X109.372 Y109.793 E1.08099
G1 X109.307 Y109.815 E1.08213
