;FLAVOR:Marlin
;TIME:1075
;Filament used:0.146507m
;Layer height: 0.1
;MINX:104.33
;MINY:103.33
;MINZ:0.1
;MAXX:115.67
;MAXY:116.67
;MAXZ:5.2
                                
;Creality Print GCode Generated by CXEngine:NO_MAGE_VERSION_GIT_HEAD_BRANCH
;CXEngine Release Time:2022-09-30 09:53:04
;Gcode Generated Time:2023-03-09 07:10:18
;----------Machine Config--------------
;Machine Name:Creality Ender-3
;Machine Height:250
;Machine Width:220
;Machine Depth:220
;Material name:PLA
;Number of Extruders:1
;ExtruderParams[0] Nozzle Diameter1000
;----------Profile Config---------------
;Engine Version:275f99b
;Engine Release Time:2022-09-30 09:42:18
;Layer Height:0.1
;Wall Thickness:0.8
;Top/Bottom Thickness:0.5
;Out Wall Line Width:0.4
;Inner Wall Line Width:0.4
;Inital Layer Height:100
;Wall Line Count:2
;Infill Line Distance:4
;Infill Pattern:grid
;Infill Sparse Density:20
;Infill Wipe Distance:0
;Print Temperature:200
;Bed Temperature:60
;Support Enable:true
;Support Density:0
;Support Angle:60
;Adhesion Type:none
;machine is belt:false
;machine belt offset:10
;machine belt offset Y:0
;Raft Base Line Spacing:1.6
;Wait Heatup Sync:true
;----------Shell Config----------------
;Outer Wall Wipe Distance:200
;Outer Inset First:false
;Infill Before Walls:false
;Infill Overlap:0.16
;Fill Gaps Between Walls:everywhere
;Minimum Infill Area:1
;Top Surface Skin Layer:0
;Top Layers:4
;Z Seam Alignment:sharpest_corner
;Seam Corner Preference:z_seam_corner_inner
;Z Seam X:110
;Z Seam Y:110
;Horizontal Expansion:0
;Top/Bottom Pattern:zigzag
;Ironing Pattern:zigzag
;Vase Model:false
;----------Support Config----------------
;Support Type:everywhere
;Support Pattern:zigzag
;Support Infill Layer Thickness:0.1
;Minimum Support Area:5
;Enable Support Roof:true
;Support Roof Thickness:0.8
;Support Roof Pattern:lines
;Connect Support Lines:0
;Connect Support ZigZags:0
;Minimum Support X/Y Distance:0.2
;Support Line Distance:0
; ---------PrintSpeed & Travel----------
;Enable Print Cool:true
;Avoid Printed Parts Traveling:true
;Enable Retraction:true
;Retraction Distance:8
;Retraction Speed:100
;Retraction Prime Speed:100
;Maximum Retraction Count:100
;Minimum Extrusion Distance Window:1
;Z Hop When Retracted:false
;Z Hop Height:0.2
;Retract Before Outer Wall:true
;Print Speed:50
;Infill Speed:50

;Prime Tower Speed:50
;Travel Speed:120
;Initial Layer Speed:25
;Skirt/Brim Speed:25
;Combing Mode:infill
; --------SpecialModel&Mesh Fixes--------
;Union Overlapping Volum:true
;Remove All Holes:false
;Maximum Travel Resolution:0.6
;Maximum Deviation:0.05
;Maximum Model Angle:0.872665
;IS Mold Print:false
;Make Overhang Printable:false
;Enable Coasting:false
;Coasting Volumes:0.06
;Coasting Speed:0.9
;Raft AirGap:0.25
;Layer0 ZOverLap:0.13
;---------------------End of Head--------------------------
M140 S60
M105
M104 S200
M105
M109 S200
M105
M190 S60
M82 ;absolute extrusion mode
M220 S100 ;Reset Feedrate
M221 S100 ;Reset Flowrate

G28 ;Home

G92 E0 ;Reset Extruder
G1 Z2.0 F3000 ;Move Z Axis up
G1 X10.1 Y20 Z0.28 F5000.0 ;Move to start position
G1 X10.1 Y145.0 Z0.28 F1500.0 E15 ;Draw the first line
G1 X10.4 Y145.0 Z0.28 F5000.0 ;Move to side a little
G1 X10.4 Y20 Z0.28 F1500.0 E30 ;Draw the second line
G92 E0  ;Reset Extruder
G1 E-1.0000 F1800 ;Retract a bit
G1 Z2.0 F3000 ;Move Z Axis up
G1 E0.0000 F1800 

G92 E0
G92 E0
G1 F6000 E-8

;LAYER_COUNT:52

;LAYER:0
M107
;MESH:
G0 F3600 X108.914 Y104.6 Z0.1
;TYPE:WALL-INNER
G1 F6000 E0
G1 F1500 X108.821 Y104.706 E0.00258
G1 X108.784 Y104.883 E0.00589
G1 X108.682 Y105.357 E0.01476
G1 X108.876 Y105.992 E0.0269
G1 X108.93 Y106.044 E0.02827
G1 X108.898 Y106.055
G1 X108.385 Y106.232 E0.0382
G1 X107.897 Y106.481 E0.04822
G1 X107.446 Y106.791 E0.05823
G1 X107.04 Y107.162 E0.0683
G1 X106.689 Y107.582 E0.07831
G1 X106.397 Y108.043 E0.08829
G1 X106.168 Y108.542 E0.09833
G1 X106.008 Y109.066 E0.10836
G1 X105.998 Y109.126 E0.10947
G1 X105.92 Y109.606 E0.11837
G1 X105.902 Y110.152 E0.12836
G1 X105.958 Y110.691 E0.13827
G1 X105.998 Y110.857 E0.1414
G1 X106.089 Y111.231 E0.14844
G1 X106.288 Y111.74 E0.15843
G1 X106.552 Y112.219 E0.16844
G1 X106.879 Y112.66 E0.17848
G1 X107.261 Y113.052 E0.1885
G1 X107.67 Y113.373 E0.19801
G1 X107.693 Y113.391 E0.19854
G1 X107.81 Y113.459 E0.20102
G1 X108.05 Y113.6 E0.20611
G1 X108.165 Y113.667 E0.20854
G1 X108.586 Y113.843 E0.21689
G1 X108.67 Y113.879 E0.21856
G1 X109.069 Y113.986 E0.22612
G1 X109.209 Y114.024 E0.22877
G1 X110.009 Y114.103 E0.24348
G1 X110.822 Y114.017 E0.25843
G1 X110.93 Y113.987 E0.26048
G1 X111.359 Y113.868 E0.26863
G1 X111.413 Y113.845 E0.2697
G1 X111.864 Y113.653 E0.27867
G1 X111.949 Y113.603 E0.28047
G1 X112.186 Y113.461 E0.28553
G1 X112.334 Y113.372 E0.28869
G1 X112.346 Y113.363 E0.28896
G1 X112.763 Y113.03 E0.29872
G1 X113.142 Y112.635 E0.30874
G1 X113.465 Y112.192 E0.31876
G1 X113.726 Y111.712 E0.32876
G1 X113.92 Y111.207 E0.33866
G1 X114.002 Y110.856 E0.34525
G1 X114.046 Y110.665 E0.34883
G1 X114.099 Y110.121 E0.35883
G1 X114.078 Y109.575 E0.36883
G1 X114.002 Y109.117 E0.37732
G1 X113.99 Y109.047 E0.37862
G1 X113.82 Y108.511 E0.38891
G1 X113.588 Y108.015 E0.39892
G1 X113.292 Y107.554 E0.40895
G1 X112.937 Y107.138 E0.41895
G1 X112.529 Y106.771 E0.42899
G1 X112.076 Y106.464 E0.439
G1 X111.587 Y106.219 E0.449
G1 X111.104 Y106.052 E0.45835
G1 X111.072 Y106.041 E0.45897
G1 X111.124 Y105.992 E0.4595
G1 X111.318 Y105.357 E0.47165
G1 X111.216 Y104.883 E0.48052
G1 X111.179 Y104.706 E0.48382
G1 X111.086 Y104.6 E0.4864
G1 X111.179 Y104.6 E0.48641
G1 X111.36 Y104.6 E0.48878
G1 X114.4 Y104.6 E0.54439
G1 X114.4 Y109.11 E0.62689
G1 X114.4 Y109.575 E0.63458
G1 X114.4 Y110.121 E0.64238
G1 X114.4 Y110.665 E0.65054
G1 X114.4 Y110.861 E0.65393
G1 X114.4 Y115.4 E0.73696
G1 X113.518 Y115.4 E0.75309
G1 X113.428 Y115.4 E0.75474
G1 X113.518 Y115.107 E0.75836
G1 X113.379 Y114.456 E0.77054
G1 X112.939 Y113.956 E0.78272
G1 X112.376 Y113.758 E0.79364
G1 X112.361 Y113.753 E0.79393
G1 X112.334 Y113.753 E0.79422
G1 X112.039 Y113.753 E0.79774
G1 X111.915 Y113.796 E0.79891
G1 X111.461 Y113.956 E0.80184
G1 X111.168 Y114.29 E0.80738
G1 X111.021 Y114.456 E0.81144
G1 X110.882 Y115.107 E0.82361
G1 X110.972 Y115.4 E0.82922
G1 X110.882 Y115.4
G1 X109.118 Y115.4 E0.86149
G1 X109.028 Y115.4 E0.86314
G1 X109.118 Y115.107 E0.86675
G1 X108.979 Y114.456 E0.87893
G1 X108.832 Y114.289 E0.883
G1 X108.558 Y113.978 E0.88831
G1 X108.539 Y113.956
G1 X108.116 Y113.808 E0.89105
G1 X107.961 Y113.753 E0.89245
G1 X107.693 Y113.753 E0.89551
G1 X107.639 Y113.753 E0.89624
G1 X107.611 Y113.762 E0.89677
G1 X107.061 Y113.956 E0.90744
G1 X106.621 Y114.456 E0.91963
G1 X106.482 Y115.107 E0.9318
G1 X106.572 Y115.4 E0.93741
G1 X106.482 Y115.4
G1 X105.6 Y115.4 E0.95355
G1 X105.6 Y110.862 E1.03656
G1 X105.6 Y110.691 E1.03953
G1 X105.6 Y110.152 E1.04768
G1 X105.6 Y109.606 E1.05547
G1 X105.6 Y109.119 E1.0635
G1 X105.6 Y104.6 E1.14616
G1 X108.64 Y104.6 E1.20177
G1 X108.821 Y104.6 E1.20412
G1 X108.914 Y104.6 E1.20412
G0 F3600 X109.19 Y104.892
;TYPE:WALL-OUTER
G1 F600 X109.095 Y105.339 E1.21248
G1 X109.228 Y105.775 E1.22082
G1 X109.456 Y105.994 E1.2266
G1 X109.558 Y106.091 E1.22918
G1 X110 Y106.207 E1.23754
G1 X110.417 Y106.098 E1.24542
G1 X110.442 Y106.091 E1.2459
G1 X110.551 Y105.987 E1.24865
G1 X110.772 Y105.775 E1.25425
G1 X110.905 Y105.339 E1.26259
G1 X110.81 Y104.892 E1.27095
G1 X110.545 Y104.591 E1.27829
G1 X110.508 Y104.549 E1.27931
G1 X110.093 Y104.403 E1.28736
G1 X109.907 Y104.403 E1.29076
G1 X109.492 Y104.549 E1.29881
G1 X109.455 Y104.591 E1.29983
G1 X109.19 Y104.892 E1.30717
G0 F3600 X109.149 Y105.088
G0 X108.718 Y104.997
;;retract;;
G1 F6000 E-6.69283
G0 F3600 X109.99 Y105.302
G0 X110.003 Y112.826
G0 X110.008 Y113.701
G1 F6000 E1.30717
G1 F1500 X110.747 Y113.623 E1.32076
G1 X111.227 Y113.49 E1.32988
G1 X111.682 Y113.296 E1.33892
G1 X112.106 Y113.042 E1.34797
G1 X112.493 Y112.734 E1.35701
G1 X112.835 Y112.378 E1.36604
G1 X113.126 Y111.978 E1.37509
G1 X113.362 Y111.544 E1.38413
G1 X113.537 Y111.09 E1.39303
G1 X113.65 Y110.6 E1.40223
G1 X113.698 Y110.109 E1.41125
G1 X113.679 Y109.616 E1.42028
G1 X113.6 Y109.141 E1.42909
G1 X113.447 Y108.657 E1.43837
G1 X113.237 Y108.209 E1.44742
G1 X112.97 Y107.793 E1.45647
G1 X112.65 Y107.418 E1.46549
G1 X112.282 Y107.087 E1.47454
G1 X111.873 Y106.81 E1.48358
G1 X111.431 Y106.588 E1.49262
G1 X110.975 Y106.43 E1.50145
G1 X110.627 Y106.36 E1.50795
G1 X110.479 Y106.331 E1.51022
G1 X110.428 Y106.328 E1.51087
G1 X109.995 Y106.302 E1.51416
G1 X109.985 Y106.301 E1.51427
G1 X109.575 Y106.328 E1.5172
G1 X109.495 Y106.334 E1.51866
G1 X109.357 Y106.362 E1.52124
G1 X109.008 Y106.436 E1.52777
G1 X108.543 Y106.6 E1.53679
G1 X108.102 Y106.825 E1.54584
G1 X107.696 Y107.105 E1.55487
G1 X107.33 Y107.439 E1.56393
G1 X107.013 Y107.818 E1.57297
G1 X106.749 Y108.234 E1.58198
G1 X106.543 Y108.684 E1.59103
G1 X106.398 Y109.157 E1.60008
G1 X106.319 Y109.645 E1.60913
G1 X106.303 Y110.138 E1.61815
G1 X106.353 Y110.623 E1.62707
G1 X106.471 Y111.11 E1.63624
G1 X106.651 Y111.57 E1.64527
G1 X106.889 Y112.002 E1.6543
G1 X107.184 Y112.4 E1.66336
G1 X107.529 Y112.754 E1.6724
G1 X107.918 Y113.059 E1.68144
G1 X108.344 Y113.308 E1.69047
G1 X108.8 Y113.5 E1.69952
G1 X109.281 Y113.629 E1.70863
G1 X110.008 Y113.701 E1.72199
G0 F3600 X110.206 Y113.681
G0 X110.251 Y114.118
;;retract;;
G1 F6000 E-6.27801
G0 F3600 X113.01 Y114.642
G1 F6000 E1.72199
G1 F1500 X112.708 Y114.299 E1.73035
G1 X112.293 Y114.153 E1.7384
G1 X112.107 Y114.153 E1.7418
G1 X111.692 Y114.299 E1.74985
G1 X111.39 Y114.642 E1.75821
G1 X111.295 Y115.089 E1.76657
G1 X111.404 Y115.445 E1.77338
G1 X111.428 Y115.525 E1.77491
G1 X111.715 Y115.8 E1.78218
G1 X111.428 Y115.8 E1.78361
G1 X111.344 Y115.8 E1.78496
G1 X108.656 Y115.8 E1.83413
G1 X108.572 Y115.8 E1.83567
G1 X108.285 Y115.8 E1.84092
G1 X108.572 Y115.525 E1.84437
G1 X108.596 Y115.445 E1.8457
G1 X108.705 Y115.089 E1.85251
G1 X108.61 Y114.642 E1.86087
G1 X108.308 Y114.299 E1.86923
G1 X107.893 Y114.153 E1.87728
G1 X107.707 Y114.153 E1.88068
G1 X107.292 Y114.299 E1.88873
G1 X106.99 Y114.642 E1.89709
G1 X106.895 Y115.089 E1.90545
G1 X107.004 Y115.445 E1.91226
G1 X107.028 Y115.525 E1.91379
G1 X107.315 Y115.8 E1.92106
G1 X107.028 Y115.8 E1.92249
G1 X106.944 Y115.8 E1.92384
G1 X105.2 Y115.8 E1.95574
G1 X105.2 Y104.2 E2.16794
G1 X109.436 Y104.2 E2.24543
G1 X109.492 Y104.2 E2.24639
G1 X109.907 Y104.2 E2.2516
G1 X110.093 Y104.2 E2.25333
G1 X110.508 Y104.2 E2.25853
G1 X110.564 Y104.2 E2.2595
G1 X114.8 Y104.2 E2.33698
G1 X114.8 Y115.8 E2.54918
G1 X113.056 Y115.8 E2.58109
G1 X112.972 Y115.8 E2.58262
G1 X112.685 Y115.8 E2.58787
G1 X112.972 Y115.525 E2.59132
G1 X112.996 Y115.445 E2.59266
G1 X113.105 Y115.089 E2.59947
G1 X113.01 Y114.642 E2.60783
G0 F3600 X112.878 Y114.492
G0 X113.209 Y114.203
G0 X113.764 Y115.116
;TYPE:SKIN
G1 F600 X113.752 Y115.159 E2.60865
G1 X114.028 Y115.159 E2.61369
G1 X113.705 Y114.836 E2.62205
G1 X113.6 Y114.343 E2.63127
G1 X113.078 Y113.75 E2.64572
G1 X112.499 Y113.546 E2.65695
G1 X112.767 Y113.333 E2.66322
G1 X114.159 Y114.725 E2.69923
G1 X114.159 Y114.159 E2.70958
G1 X113.062 Y113.062 E2.73796
G1 X113.325 Y112.789 E2.74489
G1 X113.337 Y112.772 E2.74528
G1 X114.159 Y113.593 E2.76653
G1 X114.159 Y113.028 E2.77686
G1 X113.576 Y112.444 E2.79196
G1 X113.667 Y112.319 E2.79479
G1 X113.79 Y112.093 E2.79949
G1 X114.159 Y112.462 E2.80904
G1 X114.159 Y111.896 E2.81939
G1 X113.979 Y111.717 E2.82404
G1 X114.136 Y111.308 E2.83205
G1 X114.148 Y111.278 E2.83264
G1 X114.159 Y111.234 E2.83347
;;retract;;
G1 F6000 E-5.16653
G0 F3600 X112.704 Y110.831
G0 X110.588 Y112.765
G0 X110.884 Y114.248
G1 F6000 E2.83347
G1 F600 X110.866 Y114.252 E2.83381
G1 X110.859 Y114.253 E2.83394
G0 F3600 X110.87 Y114.264
G1 F600 X110.799 Y114.343 E2.83588
G1 X110.727 Y114.687 E2.84231
G1 X110.348 Y114.308 E2.85212
G1 X110.01 Y114.343 E2.85833
G1 X109.797 Y114.322 E2.86225
G1 X110.633 Y115.158 E2.88388
G1 X110.067 Y115.158 E2.89423
G1 X109.169 Y114.26 E2.91746
G0 F3600 X109.165 Y114.259
G1 F600 X109.115 Y114.245 E2.91841
G1 X109.201 Y114.343 E2.9208
G1 X109.339 Y114.996 E2.93301
G1 X109.501 Y115.158 E2.9372
G1 X109.351 Y115.158 E2.93994
G1 X109.365 Y115.116 E2.94075
;;retract;;
G1 F6000 E-5.05925
G0 F3600 X107.81 Y115.052
G0 X105.839 Y116.67
G0 X105.839 Y115.159
G1 F6000 E2.94075
G1 F600 X106.108 Y115.159 E2.94567
G1 X105.839 Y114.89 E2.95263
G1 X105.839 Y114.325 E2.96297
G1 X106.305 Y114.79 E2.97501
G1 X106.399 Y114.342 E2.98338
G1 X106.41 Y114.329 E2.98369
G1 X105.839 Y113.759 E2.99845
G1 X105.839 Y113.193 E3.00881
G1 X106.676 Y114.03 E3.03046
G1 X106.922 Y113.75 E3.03728
G1 X106.951 Y113.739 E3.03785
G1 X105.839 Y112.627 E3.06661
G1 X105.839 Y112.062 E3.07695
G1 X107.369 Y113.592 E3.11653
G1 X107.502 Y113.546 E3.1191
G1 X107.099 Y113.23 E3.12847
G1 X106.694 Y112.815 E3.13908
G1 X106.348 Y112.347 E3.14973
G1 X106.07 Y111.84 E3.1603
G1 X105.998 Y111.655 E3.16394
G1 X105.839 Y111.496 E3.16805
G1 X105.84 Y111.22 E3.1731
G1 X105.86 Y111.302 E3.17464
G0 F3600 X105.84 Y108.796
G1 F600 X105.87 Y108.699 E3.1765
G1 X105.944 Y108.456 E3.18115
G1 X106.022 Y108.285 E3.18458
G1 X105.839 Y108.102 E3.18932
G1 X105.839 Y107.536 E3.19967
G1 X106.203 Y107.9 E3.20909
G1 X106.422 Y107.553 E3.2166
G1 X105.839 Y106.971 E3.23167
G1 X105.839 Y106.405 E3.24202
G1 X106.667 Y107.232 E3.26343
G1 X106.865 Y106.994 E3.26909
G1 X106.932 Y106.932 E3.27076
G1 X105.839 Y105.839 E3.29904
G1 X105.839 Y105.274 E3.30937
G1 X107.228 Y106.662 E3.34529
G1 X107.295 Y106.602 E3.34694
G1 X107.555 Y106.423 E3.35271
G1 X105.971 Y104.839 E3.39369
G1 X106.536 Y104.839 E3.40403
G1 X107.903 Y106.206 E3.43939
G1 X108.278 Y106.015 E3.44709
G1 X107.102 Y104.839 E3.47751
G1 X107.668 Y104.839 E3.48787
G1 X108.539 Y105.711 E3.51041
G1 X108.434 Y105.368 E3.51698
G1 X108.492 Y105.097 E3.52204
G1 X108.234 Y104.839 E3.52872
G1 X108.546 Y104.839 E3.53443
;;retract;;
G1 F6000 E-4.46557
G0 F3600 X109.992 Y105.294
G0 X111.68 Y105.996
G1 F6000 E3.53443
G1 F600 X112.195 Y106.256 E3.54498
G1 X112.677 Y106.58 E3.5556
G1 X113.109 Y106.97 E3.56625
G1 X113.484 Y107.411 E3.57684
G1 X113.798 Y107.899 E3.58746
G1 X114.01 Y108.353 E3.59662
G1 X114.159 Y108.502 E3.60048
G1 X114.158 Y108.789 E3.60573
G1 X114.042 Y108.422 E3.61277
;;retract;;
G1 F6000 E-4.38723
G0 F3600 X112.634 Y108.97
G0 X111.089 Y107.388
G0 X111.401 Y105.901
G1 F6000 E3.61277
G1 F600 X111.639 Y105.982 E3.61737
G1 X111.437 Y105.78 E3.62259
G1 X111.563 Y105.368 E3.63047
G1 X111.555 Y105.333 E3.63113
G1 X114.159 Y107.937 E3.6985
G1 X114.159 Y107.371 E3.70885
G1 X111.628 Y104.839 E3.77434
G1 X112.193 Y104.839 E3.78468
G1 X114.159 Y106.805 E3.83554
G1 X114.159 Y106.239 E3.84589
G1 X112.759 Y104.839 E3.88211
G1 X113.325 Y104.839 E3.89246
G1 X114.159 Y105.674 E3.91405
G1 X114.159 Y105.108 E3.92441
G1 X113.89 Y104.839 E3.93137
G1 X114.159 Y104.839 E3.93629
;;retract;;
G1 F6000 E-4.06371
G0 F3600 X115.67 Y104.839
G0 X115.67 Y107.952
G0 X114.259 Y108.036
;TYPE:SKIN
G1 F6000 E3.93629
G1 F600 X114.144 Y108.204 E3.94366
G0 F3600 X114.029 Y108.372
G1 F600 X114.107 Y108.733 E3.95508
G1 X114.101 Y109.01 E3.96364
G0 F3600 X114.2 Y109.109
G0 X114.258 Y110.864
G0 X114.301 Y110.907
G1 F600 X114.192 Y111.081 E3.96791
G1 X114.09 Y111.828 E3.98358
G1 X113.866 Y111.886 E3.98839
G0 F3600 X113.754 Y111.774
G0 X112.635 Y113.201
G0 X112.695 Y113.261
G1 F600 X112.645 Y113.494 E3.99411
G1 X112.492 Y113.623 E3.99891
G0 F3600 X112.315 Y113.446
G0 X111.132 Y114.243
G0 X111.031 Y114.142
G1 F600 X110.861 Y114.256 E4.00108
G1 X110.748 Y114.425 E4.00324
G1 X110.772 Y115.015 E4.0095
G1 X110.505 Y115.313 E4.01374
G0 F3600 X109.412 Y115.069
G1 F600 X109.288 Y115.228 E4.01593
G1 X108.993 Y114.367 E4.02581
G1 X109.141 Y114.233 E4.02798
G0 F3600 X109.332 Y114.424
G0 X107.701 Y113.641
G1 F600 X107.262 Y113.202 E4.03366
G0 F3600 X107.368 Y113.59
G1 F600 X107.243 Y113.748 E4.03903
G0 F3600 X107.182 Y113.687
G0 X106.22 Y114.988
G0 X106.341 Y115.109
G1 F600 X106.197 Y115.248 E4.04461
G0 F3600 X106.103 Y115.154
G0 X105.825 Y112.048
G0 X105.74 Y111.962
G1 F600 X105.852 Y111.792 E4.05195
G0 F3600 X105.965 Y111.622
G1 F600 X105.898 Y111.272 E4.06324
G1 X105.882 Y110.974 E4.07269
