;FLAVOR:Marlin
;TIME:74
;Filament used:0.0187716m
;Layer height: 0.15
;MINX:106.7
;MINY:105.83
;MINZ:0.15
;MAXX:114.17
;MAXY:114.17
;MAXZ:0.9
                                 
;Creality Print GCode Generated by CXEngine:NO_MAGE_VERSION_GIT_HEAD_BRANCH
;CXEngine Release Time:2022-09-30 09:53:04
;Gcode Generated Time:2023-03-09 07:07:51
;----------Machine Config--------------
;Machine Name:Creality Ender-3
;Machine Height:250
;Machine Width:220
;Machine Depth:220
;Material name:PLA
;Number of Extruders:1
;ExtruderParams[0] Nozzle Diameter1000
;----------Profile Config---------------
;Engine Version:275f99b
;Engine Release Time:2022-09-30 09:42:18
;Layer Height:0.15
;Wall Thickness:0.8
;Top/Bottom Thickness:1
;Out Wall Line Width:0.4
;Inner Wall Line Width:0.4
;Inital Layer Height:150
;Wall Line Count:2
;Infill Line Distance:4
;Infill Pattern:grid
;Infill Sparse Density:20
;Infill Wipe Distance:0
;Print Temperature:200
;Bed Temperature:60
;Support Enable:true
;Support Density:30
;Support Angle:60
;Adhesion Type:none
;machine is belt:false
;machine belt offset:10
;machine belt offset Y:0
;Raft Base Line Spacing:1.6
;Wait Heatup Sync:true
;----------Shell Config----------------
;Outer Wall Wipe Distance:200
;Outer Inset First:false
;Infill Before Walls:false
;Infill Overlap:0.16
;Fill Gaps Between Walls:everywhere
;Minimum Infill Area:1
;Top Surface Skin Layer:0
;Top Layers:4
;Z Seam Alignment:sharpest_corner
;Seam Corner Preference:z_seam_corner_inner
;Z Seam X:110
;Z Seam Y:110
;Horizontal Expansion:0
;Top/Bottom Pattern:zigzag
;Ironing Pattern:zigzag
;Vase Model:false
;----------Support Config----------------
;Support Type:everywhere
;Support Pattern:zigzag
;Support Infill Layer Thickness:0.15
;Minimum Support Area:5
;Enable Support Roof:false
;Support Roof Thickness:0.8
;Support Roof Pattern:lines
;Connect Support Lines:0
;Connect Support ZigZags:1
;Minimum Support X/Y Distance:0.2
;Support Line Distance:1.33
; ---------PrintSpeed & Travel----------
;Enable Print Cool:true
;Avoid Printed Parts Traveling:true
;Enable Retraction:true
;Retraction Distance:8
;Retraction Speed:100
;Retraction Prime Speed:100
;Maximum Retraction Count:100
;Minimum Extrusion Distance Window:1
;Z Hop When Retracted:false
;Z Hop Height:0.2
;Retract Before Outer Wall:true
;Print Speed:50
;Infill Speed:50

;Prime Tower Speed:50
;Travel Speed:120
;Initial Layer Speed:25
;Skirt/Brim Speed:25
;Combing Mode:infill
; --------SpecialModel&Mesh Fixes--------
;Union Overlapping Volum:true
;Remove All Holes:false
;Maximum Travel Resolution:0.6
;Maximum Deviation:0.05
;Maximum Model Angle:0.872665
;IS Mold Print:false
;Make Overhang Printable:false
;Enable Coasting:false
;Coasting Volumes:0.06
;Coasting Speed:0.9
;Raft AirGap:0.25
;Layer0 ZOverLap:0.13
;---------------------End of Head--------------------------
M140 S60
M105
M104 S200
M105
M109 S200
M105
M190 S60
M82 ;absolute extrusion mode
M220 S100 ;Reset Feedrate
M221 S100 ;Reset Flowrate

G28 ;Home

G92 E0 ;Reset Extruder
G1 Z2.0 F3000 ;Move Z Axis up
G1 X10.1 Y20 Z0.28 F5000.0 ;Move to start position
G1 X10.1 Y145.0 Z0.28 F1500.0 E15 ;Draw the first line
G1 X10.4 Y145.0 Z0.28 F5000.0 ;Move to side a little
G1 X10.4 Y20 Z0.28 F1500.0 E30 ;Draw the second line
G92 E0  ;Reset Extruder
G1 E-1.0000 F1800 ;Retract a bit
G1 Z2.0 F3000 ;Move Z Axis up
G1 E0.0000 F1800 

G92 E0
G92 E0
G1 F6000 E-8

;LAYER_COUNT:6

;LAYER:0
M107
;MESH:
G0 F3600 X111.203 Y111.545 Z0.15
;TYPE:WALL-INNER
G1 F6000 E0
G1 F600 X111.639 Y111.071 E0.01767
G1 X111.899 Y110.48 E0.03539
G1 X111.951 Y109.838 E0.05306
G1 X111.793 Y109.214 E0.07073
G1 X111.44 Y108.675 E0.0884
G1 X110.933 Y108.279 E0.10606
G1 X110.322 Y108.068 E0.12379
G1 X109.678 Y108.068 E0.14147
G1 X109.067 Y108.279 E0.1592
G1 X108.56 Y108.675 E0.17686
G1 X108.207 Y109.214 E0.19453
G1 X108.049 Y109.838 E0.2122
G1 X108.101 Y110.48 E0.22987
G1 X108.361 Y111.071 E0.24759
G1 X108.797 Y111.545 E0.26526
G1 X109.364 Y111.853 E0.28297
G1 X110 Y111.959 E0.30066
G1 X110.636 Y111.853 E0.31835
G1 X111.203 Y111.545 E0.33606
G0 F3600 X110.954 Y111.225
;TYPE:WALL-OUTER
G1 F600 X111.3 Y110.849 E0.35008
G1 X111.506 Y110.381 E0.36411
G1 X111.547 Y109.872 E0.37812
G1 X111.422 Y109.377 E0.39213
G1 X111.142 Y108.949 E0.40616
G1 X110.74 Y108.635 E0.42016
G1 X110.255 Y108.468 E0.43423
G1 X109.745 Y108.468 E0.44823
G1 X109.26 Y108.635 E0.4623
G1 X108.858 Y108.949 E0.4763
G1 X108.578 Y109.377 E0.49033
G1 X108.453 Y109.872 E0.50434
G1 X108.494 Y110.381 E0.51836
G1 X108.7 Y110.849 E0.53239
G1 X109.046 Y111.225 E0.54641
G1 X109.496 Y111.469 E0.56045
G1 X110 Y111.553 E0.57447
G1 X110.504 Y111.469 E0.58849
G1 X110.954 Y111.225 E0.60254
G0 F3600 X111.089 Y111.078
G0 X111.413 Y111.377
G0 X112.9 Y112.9
;TYPE:WALL-INNER
G1 F1500 X107.1 Y112.9 E0.76169
G1 X107.1 Y107.1 E0.92084
G1 X112.9 Y107.1 E1.07999
G1 X112.9 Y112.9 E1.23914
G0 F3600 X113.3 Y113.3
;TYPE:WALL-OUTER
G1 F1500 X106.7 Y113.3 E1.42024
G1 X106.7 Y106.7 E1.60134
G1 X113.3 Y106.7 E1.78244
G1 X113.3 Y113.3 E1.96354
G0 F3600 X113.1 Y113.3
G0 X112.86 Y112.86
;;retract;;
G1 F6000 E-6.03646
G0 F3600 X114.17 Y112.86
G0 X114.17 Y107.568
G0 X112.659 Y107.568
;TYPE:SKIN
G1 F6000 E1.96354
G1 F600 X112.431 Y107.34 E1.97239
G1 X111.865 Y107.34 E1.98792
G1 X112.659 Y108.134 E2.01873
G1 X112.659 Y108.699 E2.03424
G1 X111.3 Y107.34 E2.08697
G1 X110.734 Y107.34 E2.10251
G1 X112.659 Y109.265 E2.17721
G1 X112.659 Y109.831 E2.19274
G1 X112.038 Y109.209 E2.21685
G1 X112.192 Y109.817 E2.23406
G1 X112.183 Y109.921 E2.23693
G1 X112.659 Y110.397 E2.2554
G1 X112.659 Y110.962 E2.2709
G1 X112.141 Y110.444 E2.29101
G1 X112.134 Y110.54 E2.29365
G1 X111.992 Y110.861 E2.30328
G1 X112.659 Y111.528 E2.32916
G1 X112.659 Y112.094 E2.34469
G1 X111.807 Y111.242 E2.37775
G1 X111.536 Y111.536 E2.38873
G1 X112.659 Y112.659 E2.4323
G1 X112.093 Y112.659 E2.44784
G1 X111.234 Y111.8 E2.48117
G1 X110.867 Y111.999 E2.49262
G1 X111.527 Y112.659 E2.51824
G1 X110.962 Y112.659 E2.53374
G1 X110.433 Y112.13 E2.55427
G1 X110 Y112.202 E2.56631
G1 X109.927 Y112.19 E2.56834
G1 X110.396 Y112.659 E2.58654
G1 X109.83 Y112.659 E2.60207
G1 X109.216 Y112.045 E2.6259
G0 F3600 X108.647 Y111.736
G1 F600 X108.156 Y111.203 E2.64578
G1 X107.986 Y110.814 E2.65743
G1 X107.864 Y110.539 E2.66569
G1 X107.829 Y110.092 E2.67799
G1 X107.339 Y109.602 E2.69701
G1 X107.339 Y109.036 E2.71254
G1 X107.87 Y109.567 E2.73314
G1 X107.983 Y109.115 E2.74593
G1 X107.339 Y108.47 E2.77094
G1 X107.339 Y107.905 E2.78644
G1 X108.208 Y108.774 E2.82016
G1 X108.381 Y108.509 E2.82885
G1 X108.453 Y108.453 E2.83135
G1 X107.339 Y107.339 E2.87458
G1 X107.905 Y107.34 E2.89011
G1 X108.77 Y108.205 E2.92368
G1 X108.95 Y108.065 E2.92993
G1 X109.132 Y108.001 E2.93523
G1 X108.471 Y107.34 E2.96088
G1 X109.037 Y107.34 E2.97641
G1 X109.552 Y107.855 E2.99639
G1 X109.636 Y107.827 E2.99882
G1 X110.09 Y107.827 E3.01128
G1 X109.602 Y107.34 E3.0302
G1 X110.168 Y107.34 E3.04573
G1 X110.81 Y107.982 E3.07064
G0 F3600 X111.048 Y108.064
G1 F600 X111.618 Y108.511 E3.09052
G1 X112.014 Y109.115 E3.11034
G1 X112.038 Y109.209 E3.113
G0 F3600 X112.431 Y107.34
G1 F600 X112.659 Y107.34 E3.11925
;;retract;;
G1 F6000 E-4.88075
G0 F3600 X112.659 Y105.83
G0 X109.347 Y110.163
G0 X107.986 Y110.814
G1 F6000 E3.11925
G1 F600 X107.339 Y110.167 E3.14436
G1 X107.339 Y110.733 E3.15989
G1 X109.264 Y112.659 E3.23461
G1 X108.699 Y112.659 E3.25012
G1 X107.339 Y111.299 E3.30289
G1 X107.339 Y111.864 E3.31839
G1 X108.133 Y112.659 E3.34923
G1 X107.567 Y112.659 E3.36476
G1 X107.34 Y112.659 E3.37099
G0 F3600 X107.339 Y112.43
G1 F600 X107.567 Y112.659 E3.37985
;;retract;;
G1 F6000 E-4.62015
;MESH:NONMESH
G0 F600 X107.567 Y112.659 Z0.3
G0 F3600 X107.567 Y114.17
G0 X110.414 Y110.529
G0 X111.203 Y111.545
;TIME_ELAPSED:17.639953

;LAYER:1
M140 S60
M106 S127.5
;TYPE:WALL-INNER
;MESH:
G1 F6000 E3.37985
G1 F600 X111.639 Y111.071 E3.39592
G1 X111.899 Y110.48 E3.41202
G1 X111.951 Y109.838 E3.42809
G1 X111.793 Y109.214 E3.44415
G1 X111.44 Y108.675 E3.46022
G1 X110.933 Y108.279 E3.47627
G1 X110.322 Y108.068 E3.49239
G1 X109.678 Y108.068 E3.50846
G1 X109.067 Y108.279 E3.52458
G1 X108.56 Y108.675 E3.54063
G1 X108.207 Y109.214 E3.5567
G1 X108.049 Y109.838 E3.57276
G1 X108.101 Y110.48 E3.58883
G1 X108.361 Y111.071 E3.60493
G1 X108.797 Y111.545 E3.621
G1 X109.364 Y111.853 E3.63709
G1 X110 Y111.959 E3.65318
G1 X110.636 Y111.853 E3.66926
G1 X111.203 Y111.545 E3.68536
G0 F5400 X110.954 Y111.225
;TYPE:WALL-OUTER
G1 F600 X111.3 Y110.849 E3.6981
G1 X111.506 Y110.381 E3.71086
G1 X111.547 Y109.872 E3.7236
G1 X111.422 Y109.377 E3.73633
G1 X111.142 Y108.949 E3.74909
G1 X110.74 Y108.635 E3.76182
G1 X110.255 Y108.468 E3.77461
G1 X109.745 Y108.468 E3.78733
G1 X109.26 Y108.635 E3.80013
G1 X108.858 Y108.949 E3.81285
G1 X108.578 Y109.377 E3.82561
G1 X108.453 Y109.872 E3.83835
G1 X108.494 Y110.381 E3.85108
G1 X108.7 Y110.849 E3.86384
G1 X109.046 Y111.225 E3.87659
G1 X109.496 Y111.469 E3.88936
G1 X110 Y111.553 E3.9021
G1 X110.504 Y111.469 E3.91485
G1 X110.954 Y111.225 E3.92762
G0 F5400 X111.089 Y111.078
G0 X111.413 Y111.377
G0 X112.9 Y112.9
;TYPE:WALL-INNER
G1 F1500 X107.1 Y112.9 E4.0723
G1 X107.1 Y107.1 E4.21698
G1 X112.9 Y107.1 E4.36166
G1 X112.9 Y112.9 E4.50634
G0 F5400 X113.3 Y113.3
;TYPE:WALL-OUTER
G1 F1500 X106.7 Y113.3 E4.67098
G1 X106.7 Y106.7 E4.83562
G1 X113.3 Y106.7 E5.00026
G1 X113.3 Y113.3 E5.16489
G0 F5400 X113.1 Y113.3
G0 X112.86 Y112.86
G0 X112.659 Y112.659
;TYPE:SKIN
G1 F600 X112.659 Y112.483 E5.16928
G1 X112.483 Y112.659 E5.17549
G1 X111.917 Y112.659 E5.18961
G1 X112.659 Y111.918 E5.21577
G1 X112.659 Y111.352 E5.22989
G1 X111.351 Y112.659 E5.27601
G1 X110.785 Y112.659 E5.29013
G1 X112.659 Y110.786 E5.35623
G1 X112.659 Y110.22 E5.37034
G1 X111.973 Y110.906 E5.39455
G1 X112.134 Y110.54 E5.40452
G1 X112.166 Y110.148 E5.41433
G1 X112.659 Y109.655 E5.43172
G1 X112.659 Y109.089 E5.44584
G1 X112.14 Y109.608 E5.46415
G1 X112.025 Y109.157 E5.47576
G1 X112.659 Y108.523 E5.49813
G1 X112.659 Y107.958 E5.51222
G1 X111.811 Y108.805 E5.54212
G1 X111.618 Y108.511 E5.55089
G1 X111.574 Y108.477 E5.55228
G1 X112.659 Y107.392 E5.59055
G1 X112.659 Y107.34 E5.59185
G1 X112.146 Y107.339 E5.60465
G1 X111.256 Y108.229 E5.63605
G1 X111.048 Y108.064 E5.64267
G1 X110.904 Y108.015 E5.64646
G1 X111.58 Y107.339 E5.67031
G1 X111.015 Y107.339 E5.68441
G1 X110.484 Y107.87 E5.70314
G1 X110.362 Y107.828 E5.70636
G1 X109.96 Y107.828 E5.71638
G1 X110.449 Y107.339 E5.73363
G1 X109.883 Y107.339 E5.74775
G1 X109.267 Y107.955 E5.76948
G1 X108.95 Y108.065 E5.77785
G1 X108.381 Y108.509 E5.79586
G1 X107.983 Y109.115 E5.81394
G0 F5400 X107.339 Y107.339
G1 F600 X107.34 Y107.62 E5.82095
G1 X107.62 Y107.339 E5.83085
G1 X108.186 Y107.339 E5.84497
G1 X107.34 Y108.185 E5.87481
G1 X107.34 Y108.751 E5.88893
G1 X108.752 Y107.339 E5.93874
G1 X109.318 Y107.339 E5.95286
G1 X107.34 Y109.317 E6.02264
G1 X107.34 Y109.882 E6.03674
G1 X107.941 Y109.281 E6.05794
G1 X107.807 Y109.817 E6.07172
G1 X107.819 Y109.969 E6.07552
G1 X107.34 Y110.448 E6.09242
G1 X107.34 Y111.014 E6.10654
G1 X107.86 Y110.493 E6.1249
G1 X107.864 Y110.539 E6.12605
G1 X108.021 Y110.898 E6.13583
G1 X107.34 Y111.58 E6.15987
G1 X107.34 Y112.145 E6.17396
G1 X108.217 Y111.268 E6.2049
G1 X108.487 Y111.563 E6.21488
G1 X107.391 Y112.659 E6.25354
G1 X107.957 Y112.659 E6.26766
G1 X108.798 Y111.818 E6.29733
G1 X109.165 Y112.017 E6.30774
G1 X108.523 Y112.659 E6.33039
G1 X109.088 Y112.659 E6.34449
G1 X109.612 Y112.136 E6.36295
G1 X110 Y112.202 E6.37277
G1 X110.134 Y112.179 E6.37616
G1 X109.654 Y112.659 E6.3931
G1 X110.22 Y112.659 E6.40722
G1 X110.896 Y111.983 E6.43106
G1 X111.353 Y111.736 E6.44402
G1 X111.842 Y111.204 E6.46205
;MESH:NONMESH
G0 X111.842 Y111.204 Z0.45
G0 F5400 X111.203 Y111.545
;TIME_ELAPSED:28.189631

;LAYER:2
M106 S255
;TYPE:WALL-INNER
;MESH:
G1 F600 X111.639 Y111.071 E6.47811
G1 X111.899 Y110.48 E6.49422
G1 X111.951 Y109.838 E6.51029
G1 X111.793 Y109.214 E6.52634
G1 X111.44 Y108.675 E6.54242
G1 X110.933 Y108.279 E6.55846
G1 X110.322 Y108.068 E6.57459
G1 X109.678 Y108.068 E6.59065
G1 X109.067 Y108.279 E6.60678
G1 X108.56 Y108.675 E6.62283
G1 X108.207 Y109.214 E6.6389
G1 X108.049 Y109.838 E6.65495
G1 X108.101 Y110.48 E6.67102
G1 X108.361 Y111.071 E6.68713
G1 X108.797 Y111.545 E6.70319
G1 X109.364 Y111.853 E6.71929
G1 X110 Y111.959 E6.73537
G1 X110.636 Y111.853 E6.75146
G1 X111.203 Y111.545 E6.76755
G0 F7200 X110.954 Y111.225
;TYPE:WALL-OUTER
G1 F600 X111.3 Y110.849 E6.7803
G1 X111.506 Y110.381 E6.79305
G1 X111.547 Y109.872 E6.80579
G1 X111.422 Y109.377 E6.81853
G1 X111.142 Y108.949 E6.83129
G1 X110.74 Y108.635 E6.84401
G1 X110.255 Y108.468 E6.85681
G1 X109.745 Y108.468 E6.86953
G1 X109.26 Y108.635 E6.88232
G1 X108.858 Y108.949 E6.89505
G1 X108.578 Y109.377 E6.90781
G1 X108.453 Y109.872 E6.92054
G1 X108.494 Y110.381 E6.93328
G1 X108.7 Y110.849 E6.94604
G1 X109.046 Y111.225 E6.95878
G1 X109.496 Y111.469 E6.97155
G1 X110 Y111.553 E6.9843
G1 X110.504 Y111.469 E6.99704
G1 X110.954 Y111.225 E7.00981
G0 F7200 X111.089 Y111.078
G0 X111.413 Y111.377
G0 X112.9 Y112.9
;TYPE:WALL-INNER
G1 F1500 X107.1 Y112.9 E7.15449
G1 X107.1 Y107.1 E7.29917
G1 X112.9 Y107.1 E7.44386
G1 X112.9 Y112.9 E7.58854
G0 F7200 X113.3 Y113.3
;TYPE:WALL-OUTER
G1 F1500 X106.7 Y113.3 E7.75318
G1 X106.7 Y106.7 E7.91781
G1 X113.3 Y106.7 E8.08245
G1 X113.3 Y113.3 E8.24709
G0 F7200 X113.1 Y113.3
G0 X112.86 Y112.86
;;retract;;
G1 F6000 E0.24709
G0 F7200 X114.17 Y112.86
G0 X114.17 Y107.568
G0 X112.659 Y107.568
;TYPE:SKIN
G1 F6000 E8.24709
G1 F600 X112.431 Y107.34 E8.25513
G1 X111.865 Y107.34 E8.26925
G1 X112.659 Y108.134 E8.29726
G1 X112.659 Y108.699 E8.31136
G1 X111.3 Y107.34 E8.3593
G1 X110.734 Y107.34 E8.37342
G1 X112.659 Y109.265 E8.44133
G1 X112.659 Y109.831 E8.45545
G1 X112.038 Y109.209 E8.47737
G1 X112.192 Y109.817 E8.49302
G1 X112.183 Y109.921 E8.49562
G1 X112.659 Y110.397 E8.51241
G1 X112.659 Y110.962 E8.52651
G1 X112.141 Y110.444 E8.54478
G1 X112.134 Y110.54 E8.54718
G1 X111.992 Y110.861 E8.55594
G1 X112.659 Y111.528 E8.57947
G1 X112.659 Y112.094 E8.59359
G1 X111.807 Y111.242 E8.62364
G1 X111.536 Y111.536 E8.63362
G1 X112.659 Y112.659 E8.67323
G1 X112.093 Y112.659 E8.68735
G1 X111.234 Y111.8 E8.71766
G1 X110.867 Y111.999 E8.72807
G1 X111.527 Y112.659 E8.75135
G1 X110.962 Y112.659 E8.76545
G1 X110.433 Y112.13 E8.78411
G1 X110 Y112.202 E8.79506
G1 X109.927 Y112.19 E8.7969
G1 X110.396 Y112.659 E8.81345
G1 X109.83 Y112.659 E8.82757
G1 X109.216 Y112.045 E8.84923
G0 F7200 X108.647 Y111.736
G1 F600 X108.156 Y111.203 E8.86731
G1 X107.986 Y110.814 E8.8779
G1 X107.864 Y110.539 E8.8854
G1 X107.829 Y110.092 E8.89659
G1 X107.339 Y109.602 E8.91387
G1 X107.339 Y109.036 E8.92799
G1 X107.87 Y109.567 E8.94672
G1 X107.983 Y109.115 E8.95834
G1 X107.339 Y108.47 E8.98108
G1 X107.339 Y107.905 E8.99518
G1 X108.208 Y108.774 E9.02583
G1 X108.381 Y108.509 E9.03373
G1 X108.453 Y108.453 E9.036
G1 X107.339 Y107.339 E9.0753
G1 X107.905 Y107.34 E9.08942
G1 X108.77 Y108.205 E9.11993
G1 X108.95 Y108.065 E9.12562
G1 X109.132 Y108.001 E9.13044
G1 X108.471 Y107.34 E9.15375
G1 X109.037 Y107.34 E9.16787
G1 X109.552 Y107.855 E9.18604
G1 X109.636 Y107.827 E9.18825
G1 X110.09 Y107.827 E9.19958
G1 X109.602 Y107.34 E9.21677
G1 X110.168 Y107.34 E9.23089
G1 X110.81 Y107.982 E9.25354
G0 F7200 X111.048 Y108.064
G1 F600 X111.618 Y108.511 E9.27161
G1 X112.014 Y109.115 E9.28963
G1 X112.038 Y109.209 E9.29205
G0 F7200 X112.431 Y107.34
G1 F600 X112.659 Y107.34 E9.29773
;;retract;;
G1 F6000 E1.29773
G0 F7200 X112.659 Y105.83
G0 X109.347 Y110.163
G0 X107.986 Y110.814
G1 F6000 E9.29773
G1 F600 X107.339 Y110.167 E9.32056
G1 X107.339 Y110.733 E9.33468
G1 X109.264 Y112.659 E9.4026
G1 X108.699 Y112.659 E9.4167
G1 X107.339 Y111.299 E9.46468
G1 X107.339 Y111.864 E9.47877
G1 X108.133 Y112.659 E9.5068
G1 X107.567 Y112.659 E9.52092
G1 X107.34 Y112.659 E9.52658
G0 F7200 X107.339 Y112.43
G1 F600 X107.567 Y112.659 E9.53464
;;retract;;
G1 F6000 E1.53464
;MESH:NONMESH
G0 F600 X107.567 Y112.659 Z0.6
G0 F7200 X107.567 Y114.17
G0 X110.414 Y110.529
G0 X111.203 Y111.545
;TIME_ELAPSED:40.728113

;LAYER:3
;TYPE:WALL-INNER
;MESH:
G1 F6000 E9.53464
G1 F600 X111.639 Y111.071 E9.55071
