;FLAVOR:Marlin
;TIME:4649
;Filament used:0.46777m
;Layer height: 0.1
;MINX:106.33
;MINY:106.33
;MINZ:0.1
;MAXX:113.67
;MAXY:113.67
;MAXZ:58
                                  
;Creality Print GCode Generated by CXEngine:NO_MAGE_VERSION_GIT_HEAD_BRANCH
;CXEngine Release Time:2022-09-30 09:53:04
;Gcode Generated Time:2023-03-09 07:06:54
;----------Machine Config--------------
;Machine Name:Creality Ender-3
;Machine Height:250
;Machine Width:220
;Machine Depth:220
;Material name:PLA
;Number of Extruders:1
;ExtruderParams[0] Nozzle Diameter1000
;----------Profile Config---------------
;Engine Version:275f99b
;Engine Release Time:2022-09-30 09:42:18
;Layer Height:0.1
;Wall Thickness:0.8
;Top/Bottom Thickness:0.5
;Out Wall Line Width:0.4
;Inner Wall Line Width:0.4
;Inital Layer Height:100
;Wall Line Count:2
;Infill Line Distance:4
;Infill Pattern:grid
;Infill Sparse Density:20
;Infill Wipe Distance:0
;Print Temperature:200
;Bed Temperature:60
;Support Enable:true
;Support Density:0
;Support Angle:60
;Adhesion Type:none
;machine is belt:false
;machine belt offset:10
;machine belt offset Y:0
;Raft Base Line Spacing:1.6
;Wait Heatup Sync:true
;----------Shell Config----------------
;Outer Wall Wipe Distance:200
;Outer Inset First:false
;Infill Before Walls:false
;Infill Overlap:0.16
;Fill Gaps Between Walls:everywhere
;Minimum Infill Area:1
;Top Surface Skin Layer:0
;Top Layers:4
;Z Seam Alignment:sharpest_corner
;Seam Corner Preference:z_seam_corner_inner
;Z Seam X:110
;Z Seam Y:110
;Horizontal Expansion:0
;Top/Bottom Pattern:zigzag
;Ironing Pattern:zigzag
;Vase Model:false
;----------Support Config----------------
;Support Type:everywhere
;Support Pattern:zigzag
;Support Infill Layer Thickness:0.1
;Minimum Support Area:5
;Enable Support Roof:true
;Support Roof Thickness:0.8
;Support Roof Pattern:lines
;Connect Support Lines:0
;Connect Support ZigZags:0
;Minimum Support X/Y Distance:0.2
;Support Line Distance:0
; ---------PrintSpeed & Travel----------
;Enable Print Cool:true
;Avoid Printed Parts Traveling:true
;Enable Retraction:true
;Retraction Distance:8
;Retraction Speed:100
;Retraction Prime Speed:100
;Maximum Retraction Count:100
;Minimum Extrusion Distance Window:1
;Z Hop When Retracted:false
;Z Hop Height:0.2
;Retract Before Outer Wall:true
;Print Speed:50
;Infill Speed:50

;Prime Tower Speed:50
;Travel Speed:120
;Initial Layer Speed:25
;Skirt/Brim Speed:25
;Combing Mode:infill
; --------SpecialModel&Mesh Fixes--------
;Union Overlapping Volum:true
;Remove All Holes:false
;Maximum Travel Resolution:0.6
;Maximum Deviation:0.05
;Maximum Model Angle:0.872665
;IS Mold Print:false
;Make Overhang Printable:false
;Enable Coasting:false
;Coasting Volumes:0.06
;Coasting Speed:0.9
;Raft AirGap:0.25
;Layer0 ZOverLap:0.13
;---------------------End of Head--------------------------
M140 S60
M105
M104 S200
M105
M109 S200
M105
M190 S60
M82 ;absolute extrusion mode
M220 S100 ;Reset Feedrate
M221 S100 ;Reset Flowrate

G28 ;Home

G92 E0 ;Reset Extruder
G1 Z2.0 F3000 ;Move Z Axis up
G1 X10.1 Y20 Z0.28 F5000.0 ;Move to start position
G1 X10.1 Y145.0 Z0.28 F1500.0 E15 ;Draw the first line
G1 X10.4 Y145.0 Z0.28 F5000.0 ;Move to side a little
G1 X10.4 Y20 Z0.28 F1500.0 E30 ;Draw the second line
G92 E0  ;Reset Extruder
G1 E-1.0000 F1800 ;Retract a bit
G1 Z2.0 F3000 ;Move Z Axis up
G1 E0.0000 F1800 

G92 E0
G92 E0
G1 F6000 E-8

;LAYER_COUNT:580

;LAYER:0
M107
G0 F3600 X109.427 Y109.702 Z0.1
;TYPE:SUPPORT
G1 F6000 E0
G1 F1500 X109.854 Y109.391 E0.00773
G1 X110.376 Y109.391 E0.01537
G1 X110.803 Y109.702 E0.0231
G1 X110.966 Y110.2 E0.03077
G1 X110.803 Y110.698 E0.03844
G1 X110.376 Y111.009 E0.04617
G1 X109.854 Y111.009 E0.05381
G1 X109.427 Y110.698 E0.06154
G1 X109.264 Y110.2 E0.06921
G1 X109.427 Y109.702 E0.07687
;;retract;;
G1 F6000 E-7.92313
;MESH:
G0 F3600 X108.915 Y108.999
G0 X109.505 Y108.571
G0 X111.095 Y108.236
G0 X112.193 Y107.6
G0 X112.4 Y107.958
;TYPE:WALL-INNER
G1 F6000 E0.07687
G1 F600 X112.245 Y107.69 E0.08254
G1 X112.193 Y107.6 E0.08444
G1 X112.4 Y107.6 E0.08628
G1 X112.4 Y107.958 E0.08826
;;retract;;
G1 F6000 E-7.91174
G0 F3600 X111.301 Y108.594
G0 X110.659 Y108.523
G0 X108.7 Y108.593
G0 X107.6 Y107.958
G1 F6000 E0.08826
G1 F600 X107.6 Y107.6 E0.09481
G1 X107.807 Y107.6 E0.0986
G1 X107.756 Y107.689
G1 X107.6 Y107.958 E0.09969
;;retract;;
G1 F6000 E-7.90031
G0 F3600 X107.2 Y109.45
;TYPE:WALL-OUTER
G1 F6000 E0.09969
G1 F723.3 X107.2 Y108.705 E0.11332
G1 X107.2 Y108.704 E0.11334
G1 X107.2 Y107.2 E0.14085
G1 X108.183 Y107.2 E0.15883
G1 X108.442 Y107.2 E0.16357
G1 X111.558 Y107.2 E0.22057
G1 X111.817 Y107.2 E0.22531
G1 X112.8 Y107.2 E0.24329
G1 X112.8 Y108.704 E0.2708
G1 X112.8 Y108.705 E0.27082
G1 X112.8 Y109.45 E0.28445
G1 X112.427 Y108.804 E0.2915
G1 X111.687 Y107.524 E0.31855
G1 X111.558 Y107.3 E0.32174
G1 X108.442 Y107.3 E0.33599
G1 X108.313 Y107.524 E0.33918
G1 X107.573 Y108.804 E0.36622
G1 X107.2 Y109.45 E0.37327
G0 F3600 X107.2 Y109.25
;;retract;;
G1 F6000 E-7.62673
G0 F3600 X108.04 Y109.735
G0 X108.689 Y111.234
G0 X109.571 Y111.877
G0 X110.659 Y111.877
G0 X112.193 Y112.4
;TYPE:WALL-INNER
G1 F6000 E0.37327
G1 F600 X112.244 Y112.311 E0.37515
G1 X112.4 Y112.042 E0.38084
G1 X112.4 Y112.4 E0.3828
G1 X112.193 Y112.4 E0.38466
;;retract;;
G1 F6000 E-7.61534
G0 F3600 X111.059 Y111.836
G0 X109.571 Y111.877
G0 X108.941 Y111.836
G0 X107.807 Y112.4
G1 F6000 E0.38466
G1 F600 X107.6 Y112.4 E0.38845
G1 X107.6 Y112.042 E0.395
G1 X107.755 Y112.31 E0.39608
G1 X107.807 Y112.4
G0 F3600 X108.442 Y112.7
;TYPE:WALL-OUTER
G1 F723.3 X111.558 Y112.7 E0.45308
G1 X111.687 Y112.476 E0.45781
G1 X112.427 Y111.196 E0.48486
G1 X112.8 Y110.55 E0.4985
G1 X112.8 Y111.295 E0.50555
G1 X112.8 Y111.296 E0.50557
G1 X112.8 Y112.8 E0.53308
G1 X111.817 Y112.8 E0.55106
G1 X111.558 Y112.8 E0.55426
G1 X108.442 Y112.8 E0.56851
G1 X108.183 Y112.8 E0.57325
G1 X107.2 Y112.8 E0.59123
G1 X107.2 Y111.296 E0.61874
G1 X107.2 Y111.295 E0.61876
G1 X107.2 Y110.55 E0.63239
G1 X107.573 Y111.196 E0.63944
G1 X108.313 Y112.476 E0.66649
G1 X108.442 Y112.7 E0.66968
G0 F3600 X108.642 Y112.7
;;retract;;
G1 F6000 E-7.33032
;MESH:NONMESH
G0 F600 X108.642 Y112.7 Z0.2
G0 F3600 X109.856 Y111
;TIME_ELAPSED:12.887080

;LAYER:1
M140 S60
M106 S127.5
;TYPE:SUPPORT
G1 F6000 E0.66968
G1 F2250 X109.434 Y110.693 E0.67662
G1 X109.273 Y110.2 E0.68352
G1 X109.434 Y109.707 E0.69042
G1 X109.856 Y109.4 E0.69736
G1 X110.374 Y109.4 E0.70426
G1 X110.796 Y109.707 E0.7112
G1 X110.957 Y110.2 E0.7181
G1 X110.796 Y110.693 E0.725
G1 X110.374 Y111 E0.73194
G1 X109.856 Y111 E0.73883
;;retract;;
G1 F6000 E-7.26117
;MESH:
G0 F5400 X109.856 Y111.87
G0 X108.696 Y111.229
G0 X108.36 Y110.2
G0 X108.696 Y109.171
G0 X109.573 Y108.532
G0 X111.095 Y108.236
G0 X112.193 Y107.6
G0 X112.4 Y107.958
;TYPE:WALL-INNER
G1 F6000 E0.73883
G1 F600 X112.245 Y107.69 E0.74398
G1 X112.193 Y107.6 E0.74571
G1 X112.4 Y107.6 E0.74738
G1 X112.4 Y107.958 E0.74918
;;retract;;
G1 F6000 E-7.25082
G0 F5400 X111.301 Y108.594
G0 X110.657 Y108.532
G0 X108.7 Y108.593
G0 X107.6 Y107.958
G1 F6000 E0.74918
G1 F600 X107.6 Y107.6 E0.75514
G1 X107.807 Y107.6 E0.75858
G1 X107.756 Y107.689
G1 X107.6 Y107.958 E0.75957
;;retract;;
G1 F6000 E-7.24043
G0 F5400 X107.2 Y109.45
;TYPE:WALL-OUTER
G1 F6000 E0.75957
G1 F723.3 X107.2 Y108.705 E0.77196
G1 X107.2 Y108.704 E0.77198
G1 X107.2 Y107.2 E0.79699
G1 X108.183 Y107.2 E0.81334
G1 X108.442 Y107.2 E0.81764
G1 X111.558 Y107.2 E0.86946
G1 X111.817 Y107.2 E0.87377
G1 X112.8 Y107.2 E0.89012
G1 X112.8 Y108.704 E0.91513
G1 X112.8 Y108.705 E0.91515
G1 X112.8 Y109.45 E0.92754
G1 X112.427 Y108.804 E0.93395
G1 X111.687 Y107.524 E0.95853
G1 X111.558 Y107.3 E0.96143
G1 X108.442 Y107.3 E0.97439
G1 X108.313 Y107.524 E0.97729
G1 X107.573 Y108.804 E1.00188
G1 X107.2 Y109.45 E1.00829
G0 F5400 X107.2 Y109.25
;;retract;;
G1 F6000 E-6.99171
G0 F5400 X108.04 Y109.735
G0 X108.696 Y111.229
G0 X109.573 Y111.868
G0 X110.45 Y111.868
G0 X111.093 Y111.766
G0 X112.193 Y112.4
;TYPE:WALL-INNER
G1 F6000 E1.00829
G1 F600 X112.244 Y112.311 E1.00999
G1 X112.4 Y112.042 E1.01516
G1 X112.4 Y112.4 E1.01695
G1 X112.193 Y112.4 E1.01864
;;retract;;
G1 F6000 E-6.98136
G0 F5400 X111.059 Y111.836
G0 X108.941 Y111.836
G0 X107.807 Y112.4
G1 F6000 E1.01864
G1 F600 X107.6 Y112.4 E1.02208
G1 X107.6 Y112.042 E1.02803
G1 X107.755 Y112.31 E1.02902
G1 X107.807 Y112.4
G0 F5400 X108.442 Y112.7
;TYPE:WALL-OUTER
G1 F723.3 X111.558 Y112.7 E1.08084
G1 X111.687 Y112.476 E1.08514
G1 X112.427 Y111.196 E1.10973
G1 X112.8 Y110.55 E1.12213
G1 X112.8 Y111.295 E1.12853
G1 X112.8 Y111.296 E1.12855
G1 X112.8 Y112.8 E1.15356
G1 X111.817 Y112.8 E1.16991
G1 X111.558 Y112.8 E1.17282
G1 X108.442 Y112.8 E1.18578
G1 X108.183 Y112.8 E1.19008
G1 X107.2 Y112.8 E1.20643
G1 X107.2 Y111.296 E1.23144
G1 X107.2 Y111.295 E1.23146
G1 X107.2 Y110.55 E1.24385
G1 X107.573 Y111.196 E1.25026
G1 X108.313 Y112.476 E1.27485
G1 X108.442 Y112.7 E1.27775
G0 F5400 X108.642 Y112.7
;;retract;;
G1 F6000 E-6.72225
;MESH:NONMESH
G0 F600 X108.642 Y112.7 Z0.3
G0 F5400 X109.471 Y110.669
;TIME_ELAPSED:21.108851

;LAYER:2
M106 S255
;TYPE:SUPPORT
G1 F6000 E1.27775
G1 F3000 X109.471 Y109.735 E1.29017
G1 X110.36 Y109.445 E1.30261
G1 X110.91 Y110.202 E1.31506
G1 X110.36 Y110.959 E1.32751
G1 X109.471 Y110.669 E1.33995
;;retract;;
G1 F6000 E-6.66005
;MESH:
G0 F7200 X108.601 Y110.669
G0 X108.609 Y109.11
G0 X111.095 Y108.236
G0 X112.193 Y107.6
G0 X112.4 Y107.958
;TYPE:WALL-INNER
G1 F6000 E1.33995
G1 F600 X112.245 Y107.69 E1.3451
G1 X112.193 Y107.6 E1.34683
G1 X112.4 Y107.6 E1.3485
G1 X112.4 Y107.958 E1.3503
;;retract;;
G1 F6000 E-6.6497
G0 F7200 X111.301 Y108.594
G0 X108.7 Y108.593
G0 X107.6 Y107.958
G1 F6000 E1.3503
G1 F600 X107.6 Y107.6 E1.35626
G1 X107.807 Y107.6 E1.3597
G1 X107.756 Y107.689
G1 X107.6 Y107.958 E1.36069
;;retract;;
G1 F6000 E-6.63931
G0 F7200 X107.2 Y109.45
;TYPE:WALL-OUTER
G1 F6000 E1.36069
G1 F723.3 X107.2 Y108.705 E1.37308
G1 X107.2 Y108.704 E1.3731
G1 X107.2 Y107.2 E1.39811
G1 X108.183 Y107.2 E1.41445
G1 X108.442 Y107.2 E1.41876
G1 X111.558 Y107.2 E1.47058
G1 X111.817 Y107.2 E1.47489
G1 X112.8 Y107.2 E1.49124
G1 X112.8 Y108.704 E1.51625
G1 X112.8 Y108.705 E1.51626
G1 X112.8 Y109.45 E1.52865
G1 X112.427 Y108.804 E1.53506
G1 X111.687 Y107.524 E1.55965
G1 X111.558 Y107.3 E1.56255
G1 X108.442 Y107.3 E1.57551
G1 X108.313 Y107.524 E1.57841
G1 X107.573 Y108.804 E1.60299
G1 X107.2 Y109.45 E1.6094
G0 F7200 X107.2 Y109.25
;;retract;;
G1 F6000 E-6.3906
G0 F7200 X108.04 Y109.735
G0 X108.609 Y109.11
G0 X110.689 Y108.431
G0 X111.977 Y110.202
G0 X111.094 Y111.765
G0 X112.193 Y112.4
;TYPE:WALL-INNER
G1 F6000 E1.6094
G1 F600 X112.244 Y112.311 E1.61111
G1 X112.4 Y112.042 E1.61628
G1 X112.4 Y112.4 E1.61807
G1 X112.193 Y112.4 E1.61976
;;retract;;
G1 F6000 E-6.38024
G0 F7200 X111.059 Y111.836
G0 X111.977 Y110.202
G0 X110.689 Y108.431
G0 X108.609 Y109.11
G0 X108.609 Y111.294
G0 X108.941 Y111.836
G0 X107.807 Y112.4
G1 F6000 E1.61976
G1 F600 X107.6 Y112.4 E1.6232
G1 X107.6 Y112.042 E1.62915
G1 X107.755 Y112.31 E1.63014
G1 X107.807 Y112.4
G0 F7200 X108.442 Y112.7
;TYPE:WALL-OUTER
G1 F723.3 X111.558 Y112.7 E1.68196
G1 X111.687 Y112.476 E1.68626
G1 X112.427 Y111.196 E1.71084
G1 X112.8 Y110.55 E1.72325
G1 X112.8 Y111.295 E1.72965
G1 X112.8 Y111.296 E1.72967
G1 X112.8 Y112.8 E1.75468
G1 X111.817 Y112.8 E1.77103
G1 X111.558 Y112.8 E1.77394
G1 X108.442 Y112.8 E1.78689
G1 X108.183 Y112.8 E1.7912
G1 X107.2 Y112.8 E1.80755
G1 X107.2 Y111.296 E1.83256
G1 X107.2 Y111.295 E1.83258
G1 X107.2 Y110.55 E1.84497
G1 X107.573 Y111.196 E1.85138
G1 X108.313 Y112.476 E1.87596
G1 X108.442 Y112.7 E1.87886
G0 F7200 X108.642 Y112.7
;;retract;;
G1 F6000 E-6.12114
;MESH:NONMESH
G0 F600 X108.642 Y112.7 Z0.4
G0 F7200 X109.479 Y110.663
;TIME_ELAPSED:29.806646

;LAYER:3
;TYPE:SUPPORT
G1 F6000 E1.87886
G1 F3000 X109.479 Y109.739 E1.89116
G1 X110.358 Y109.452 E1.90346
G1 X110.902 Y110.201 E1.91577
G1 X110.358 Y110.95 E1.92809
G1 X109.479 Y110.663 E1.94039
;;retract;;
G1 F6000 E-6.05961
;MESH:
G0 F7200 X108.609 Y110.663
G0 X108.617 Y109.114
G0 X111.095 Y108.236
G0 X112.193 Y107.6
G0 X112.4 Y107.958
;TYPE:WALL-INNER
G1 F6000 E1.94039
G1 F600 X112.245 Y107.69 E1.94554
G1 X112.193 Y107.6 E1.94727
G1 X112.4 Y107.6 E1.94894
G1 X112.4 Y107.958 E1.95074
;;retract;;
G1 F6000 E-6.04926
G0 F7200 X111.301 Y108.594
G0 X108.7 Y108.593
G0 X107.6 Y107.958
G1 F6000 E1.95074
G1 F600 X107.6 Y107.6 E1.9567
G1 X107.807 Y107.6 E1.96014
G1 X107.756 Y107.689
G1 X107.6 Y107.958 E1.96113
;;retract;;
G1 F6000 E-6.03887
G0 F7200 X107.2 Y109.45
;TYPE:WALL-OUTER
G1 F6000 E1.96113
G1 F723.3 X107.2 Y108.705 E1.97352
G1 X107.2 Y108.704 E1.97354
G1 X107.2 Y107.2 E1.99855
G1 X108.183 Y107.2 E2.0149
G1 X108.442 Y107.2 E2.0192
G1 X111.558 Y107.2 E2.07102
G1 X111.817 Y107.2 E2.07533
G1 X112.8 Y107.2 E2.09168
G1 X112.8 Y108.704 E2.11669
G1 X112.8 Y108.705 E2.11671
G1 X112.8 Y109.45 E2.12909
G1 X112.427 Y108.804 E2.13551
G1 X111.687 Y107.524 E2.16009
G1 X111.558 Y107.3 E2.16299
G1 X108.442 Y107.3 E2.17595
G1 X108.313 Y107.524 E2.17885
G1 X107.573 Y108.804 E2.20343
G1 X107.2 Y109.45 E2.20984
G0 F7200 X107.2 Y109.25
;;retract;;
G1 F6000 E-5.79016
G0 F7200 X108.04 Y109.735
G0 X108.617 Y109.114
G0 X110.687 Y108.438
G0 X111.969 Y110.201
G0 X111.094 Y111.765
G0 X112.193 Y112.4
;TYPE:WALL-INNER
G1 F6000 E2.20984
G1 F600 X112.244 Y112.311 E2.21155
G1 X112.4 Y112.042 E2.21672
G1 X112.4 Y112.4 E2.21851
G1 X112.193 Y112.4 E2.2202
;;retract;;
G1 F6000 E-5.7798
G0 F7200 X111.059 Y111.836
G0 X111.969 Y110.201
G0 X110.687 Y108.438
G0 X108.617 Y109.114
G0 X108.617 Y111.288
G0 X108.941 Y111.836
G0 X107.807 Y112.4
G1 F6000 E2.2202
G1 F600 X107.6 Y112.4 E2.22364
G1 X107.6 Y112.042 E2.22959
G1 X107.755 Y112.31 E2.23058
G1 X107.807 Y112.4
G0 F7200 X108.442 Y112.7
;TYPE:WALL-OUTER
G1 F723.3 X111.558 Y112.7 E2.2824
G1 X111.687 Y112.476 E2.2867
G1 X112.427 Y111.196 E2.31129
G1 X112.8 Y110.55 E2.32369
G1 X112.8 Y111.295 E2.33009
G1 X112.8 Y111.296 E2.33011
G1 X112.8 Y112.8 E2.35512
G1 X111.817 Y112.8 E2.37147
G1 X111.558 Y112.8 E2.37438
G1 X108.442 Y112.8 E2.38733
G1 X108.183 Y112.8 E2.39164
G1 X107.2 Y112.8 E2.40799
G1 X107.2 Y111.296 E2.433
G1 X107.2 Y111.295 E2.43302
G1 X107.2 Y110.55 E2.44541
G1 X107.573 Y111.196 E2.45182
G1 X108.313 Y112.476 E2.4764
G1 X108.442 Y112.7 E2.4793
G0 F7200 X108.642 Y112.7
;;retract;;
G1 F6000 E-5.5207
;MESH:NONMESH
G0 F600 X108.642 Y112.7 Z0.5
G0 F7200 X109.488 Y110.657
;TIME_ELAPSED:38.498712

;LAYER:4
;TYPE:SUPPORT
G1 F6000 E2.4793
G1 F3000 X109.488 Y109.743 E2.49146
G1 X110.358 Y109.46 E2.50364
G1 X110.896 Y110.2 E2.51581
G1 X110.358 Y110.94 E2.52798
G1 X109.488 Y110.657 E2.54015
;;retract;;
G1 F6000 E-5.45985
;MESH:
G0 F7200 X108.618 Y110.657
G0 X108.626 Y109.117
G0 X111.095 Y108.236
G0 X112.193 Y107.6
G0 X112.4 Y107.958
;TYPE:WALL-INNER
G1 F6000 E2.54015
G1 F600 X112.245 Y107.69 E2.5453
G1 X112.193 Y107.6 E2.54703
G1 X112.4 Y107.6 E2.5487
G1 X112.4 Y107.958 E2.5505
;;retract;;
G1 F6000 E-5.4495
G0 F7200 X111.301 Y108.594
G0 X108.7 Y108.593
G0 X107.6 Y107.958
G1 F6000 E2.5505
G1 F600 X107.6 Y107.6 E2.55646
G1 X107.807 Y107.6 E2.5599
G1 X107.756 Y107.689
G1 X107.6 Y107.958 E2.56089
;;retract;;
G1 F6000 E-5.43911
G0 F7200 X107.2 Y109.45
;TYPE:WALL-OUTER
G1 F6000 E2.56089
G1 F723.3 X107.2 Y108.705 E2.57328
G1 X107.2 Y108.704 E2.5733
G1 X107.2 Y107.2 E2.59831
G1 X108.183 Y107.2 E2.61466
G1 X108.442 Y107.2 E2.61896
G1 X111.558 Y107.2 E2.67078
G1 X111.817 Y107.2 E2.67509
G1 X112.8 Y107.2 E2.69144
G1 X112.8 Y108.704 E2.71645
G1 X112.8 Y108.705 E2.71646
G1 X112.8 Y109.45 E2.72885
G1 X112.427 Y108.804 E2.73526
G1 X111.687 Y107.524 E2.75985
G1 X111.558 Y107.3 E2.76275
G1 X108.442 Y107.3 E2.77571
G1 X108.313 Y107.524 E2.77861
G1 X107.573 Y108.804 E2.80319
G1 X107.2 Y109.45 E2.8096
G0 F7200 X107.2 Y109.25
;;retract;;
G1 F6000 E-5.1904
G0 F7200 X108.04 Y109.735
G0 X108.626 Y109.117
G0 X110.687 Y108.446
G0 X111.963 Y110.2
G0 X111.094 Y111.765
G0 X112.193 Y112.4
;TYPE:WALL-INNER
G1 F6000 E2.8096
G1 F600 X112.244 Y112.311 E2.81131
G1 X112.4 Y112.042 E2.81648
G1 X112.4 Y112.4 E2.81827
G1 X112.193 Y112.4 E2.81996
;;retract;;
G1 F6000 E-5.18004
G0 F7200 X111.059 Y111.836
G0 X111.963 Y110.2
