;FLAVOR:Marlin
;TIME:3724
;Filament used:0.436508m
;Layer height: 0.1
;MINX:99.33
;MINY:103.33
;MINZ:0.1
;MAXX:120.67
;MAXY:116.67
;MAXZ:8.8
                                 
;Creality Print GCode Generated by CXEngine:NO_MAGE_VERSION_GIT_HEAD_BRANCH
;CXEngine Release Time:2022-09-30 09:53:04
;Gcode Generated Time:2023-03-10 14:53:52
;----------Machine Config--------------
;Machine Name:Creality Ender-3
;Machine Height:250
;Machine Width:220
;Machine Depth:220
;Material name:PLA
;Number of Extruders:1
;ExtruderParams[0] Nozzle Diameter1000
;----------Profile Config---------------
;Engine Version:275f99b
;Engine Release Time:2022-09-30 09:42:18
;Layer Height:0.1
;Wall Thickness:0.8
;Top/Bottom Thickness:0.5
;Out Wall Line Width:0.4
;Inner Wall Line Width:0.4
;Inital Layer Height:100
;Wall Line Count:2
;Infill Line Distance:4
;Infill Pattern:grid
;Infill Sparse Density:20
;Infill Wipe Distance:0
;Print Temperature:200
;Bed Temperature:60
;Support Enable:true
;Support Density:0
;Support Angle:60
;Adhesion Type:none
;machine is belt:false
;machine belt offset:10
;machine belt offset Y:0
;Raft Base Line Spacing:1.6
;Wait Heatup Sync:true
;----------Shell Config----------------
;Outer Wall Wipe Distance:200
;Outer Inset First:false
;Infill Before Walls:false
;Infill Overlap:0.16
;Fill Gaps Between Walls:everywhere
;Minimum Infill Area:1
;Top Surface Skin Layer:0
;Top Layers:4
;Z Seam Alignment:sharpest_corner
;Seam Corner Preference:z_seam_corner_inner
;Z Seam X:110
;Z Seam Y:110
;Horizontal Expansion:0
;Top/Bottom Pattern:zigzag
;Ironing Pattern:zigzag
;Vase Model:false
;----------Support Config----------------
;Support Type:everywhere
;Support Pattern:zigzag
;Support Infill Layer Thickness:0.1
;Minimum Support Area:5
;Enable Support Roof:true
;Support Roof Thickness:0.8
;Support Roof Pattern:lines
;Connect Support Lines:0
;Connect Support ZigZags:0
;Minimum Support X/Y Distance:0.2
;Support Line Distance:0
; ---------PrintSpeed & Travel----------
;Enable Print Cool:true
;Avoid Printed Parts Traveling:true
;Enable Retraction:true
;Retraction Distance:8
;Retraction Speed:100
;Retraction Prime Speed:100
;Maximum Retraction Count:100
;Minimum Extrusion Distance Window:1
;Z Hop When Retracted:false
;Z Hop Height:0.2
;Retract Before Outer Wall:true
;Print Speed:50
;Infill Speed:50

;Prime Tower Speed:50
;Travel Speed:120
;Initial Layer Speed:25
;Skirt/Brim Speed:25
;Combing Mode:infill
; --------SpecialModel&Mesh Fixes--------
;Union Overlapping Volum:true
;Remove All Holes:false
;Maximum Travel Resolution:0.6
;Maximum Deviation:0.05
;Maximum Model Angle:0.872665
;IS Mold Print:false
;Make Overhang Printable:false
;Enable Coasting:false
;Coasting Volumes:0.06
;Coasting Speed:0.9
;Raft AirGap:0.25
;Layer0 ZOverLap:0.13
;---------------------End of Head--------------------------
M140 S60
M105
M104 S200
M105
M109 S200
M105
M190 S60
M82 ;absolute extrusion mode
M220 S100 ;Reset Feedrate
M221 S100 ;Reset Flowrate

G28 ;Home

G92 E0 ;Reset Extruder
G1 Z2.0 F3000 ;Move Z Axis up
G1 X10.1 Y20 Z0.28 F5000.0 ;Move to start position
G1 X10.1 Y145.0 Z0.28 F1500.0 E15 ;Draw the first line
G1 X10.4 Y145.0 Z0.28 F5000.0 ;Move to side a little
G1 X10.4 Y20 Z0.28 F1500.0 E30 ;Draw the second line
G92 E0  ;Reset Extruder
G1 E-1.0000 F1800 ;Retract a bit
G1 Z2.0 F3000 ;Move Z Axis up
G1 E0.0000 F1800 

G92 E0
G92 E0
G1 F6000 E-8

;LAYER_COUNT:88

;LAYER:0
M107
;MESH:
G0 F3600 X117.576 Y115.4 Z0.1
;;retract;;
G0 X119.4 Y113.589
;TYPE:WALL-INNER
G1 F6000 E0
G1 F1500 X119.239 Y113.406 E0.00446
G1 X119.081 Y113.351 E0.00752
G1 X118.611 Y113.185 E0.01664
G1 X118.052 Y113.281 E0.02701
G1 X117.957 Y113.297 E0.02878
G1 X117.728 Y113.482 E0.03416
G1 X117.439 Y113.715 E0.04095
G1 X117.413 Y113.78 E0.04223
G1 X117.191 Y114.332 E0.05312
G1 X117.274 Y114.992 E0.06528
G1 X117.341 Y115.083 E0.06735
G1 X117.576 Y115.4 E0.07457
G1 X117.182 Y115.4 E0.07856
G1 X117.181 Y115.4 E0.07858
G1 X112.791 Y115.4 E0.15888
G1 X112.49 Y115.4 E0.16439
G1 X112.447 Y115.4 E0.16518
G1 X112.49 Y115.371 E0.16532
G1 X112.626 Y115.103 E0.16864
G1 X112.79 Y114.779 E0.17528
G1 X112.762 Y114.113 E0.18748
G1 X112.532 Y113.742 E0.19546
G1 X112.44 Y113.593 E0.19867
G1 X112.296 Y113.476 E0.20206
G1 X112.186 Y113.386 E0.20466
G1 X111.983 Y113.315 E0.20859
G1 X111.61 Y113.185 E0.21582
G1 X110.957 Y113.297 E0.22794
G1 X110.439 Y113.715 E0.24012
G1 X110.191 Y114.332 E0.25228
G1 X110.274 Y114.992 E0.26445
G1 X110.341 Y115.083 E0.26652
G1 X110.575 Y115.4 E0.27372
G1 X110.181 Y115.4 E0.27772
G1 X110.18 Y115.4 E0.27773
G1 X103.198 Y115.4 E0.40546
G1 X102.814 Y115.4 E0.41248
G1 X102.328 Y115.4 E0.42137
G1 X102.033 Y115.4 E0.42677
G1 X101.574 Y115.4 E0.43516
G1 X101.421 Y115.4 E0.43796
G1 X100.6 Y115.4 E0.45298
G1 X100.6 Y114.522 E0.46904
G1 X100.6 Y114.36 E0.47201
G1 X100.6 Y113.864 E0.48108
G1 X100.6 Y113.356 E0.49037
G1 X100.6 Y113.046 E0.49604
G1 X100.6 Y104.6 E0.65055
G1 X106.813 Y104.6 E0.7642
G1 X106.845 Y104.6 E0.76479
G1 X107.307 Y104.6 E0.77324
G1 X107.82 Y104.6 E0.78262
G1 X108.31 Y104.6 E0.79159
G1 X108.582 Y104.6 E0.79656
G1 X110.229 Y104.6 E0.82669
G1 X110.439 Y104.6 E0.83053
G1 X110.582 Y104.6 E0.83315
G1 X110.439 Y104.715 E0.83409
G1 X110.361 Y104.91 E0.8368
G1 X110.191 Y105.332 E0.84512
G1 X110.274 Y105.992 E0.85729
G1 X110.671 Y106.528 E0.86949
G1 X111.229 Y106.779 E0.88069
G1 X111.551 Y106.806 E0.8866
G1 X111.971 Y106.697 E0.89453
G1 X112.144 Y106.652 E0.8978
G1 X112.258 Y106.543 E0.90069
G1 X112.6 Y106.215 E0.90936
G1 X112.624 Y106.192 E0.90997
G1 X112.818 Y105.557 E0.92211
G1 X112.69 Y104.961 E0.93326
G1 X112.679 Y104.906 E0.93429
G1 X112.41 Y104.6 E0.94174
G1 X112.679 Y104.6 E0.94318
G1 X112.736 Y104.6 E0.94413
G1 X117.229 Y104.6 E1.02632
G1 X117.439 Y104.6 E1.03016
G1 X117.582 Y104.6 E1.03278
G1 X117.439 Y104.715 E1.03372
G1 X117.361 Y104.91 E1.03643
G1 X117.191 Y105.332 E1.04475
G1 X117.274 Y105.992 E1.05692
G1 X117.474 Y106.262 E1.06307
G1 X117.671 Y106.528 E1.06912
G1 X118.008 Y106.679 E1.07588
G1 X118.229 Y106.779 E1.08031
G1 X118.551 Y106.806 E1.08622
G1 X119.055 Y106.675 E1.09575
G1 X119.144 Y106.652 E1.09743
G1 X119.4 Y106.407 E1.10391
G1 X119.4 Y106.652 E1.10497
G1 X119.4 Y106.744 E1.10641
G1 X119.4 Y109.143 E1.1503
G1 X119.4 Y109.655 E1.15966
G1 X119.4 Y110.332 E1.17205
G1 X119.4 Y110.864 E1.18178
G1 X119.4 Y113.238 E1.22521
G1 X119.4 Y113.406 E1.22702
G1 X119.4 Y113.589 E1.22745
;;retract;;
G1 F6000 E-6.77255
G0 F3600 X117.93 Y115.206
;TYPE:WALL-OUTER
G1 F6000 E1.22745
G1 F600 X118.331 Y115.386 E1.23549
G1 X118.494 Y115.401 E1.23849
G1 X118.517 Y115.402 E1.23891
G1 X118.523 Y115.401 E1.23902
G1 X118.942 Y115.291 E1.24694
G1 X119.272 Y114.975 E1.2553
G1 X119.401 Y114.554 E1.26336
G1 X119.405 Y114.539 E1.26364
G1 X119.401 Y114.517 E1.26405
G1 X119.31 Y114.092 E1.272
G1 X119.008 Y113.749 E1.28036
G1 X118.576 Y113.597 E1.28874
G1 X118.127 Y113.674 E1.29707
G1 X117.771 Y113.961 E1.30544
G1 X117.601 Y114.385 E1.31379
G1 X117.658 Y114.838 E1.32214
G1 X117.93 Y115.206 E1.33052
G0 F3600 X118.112 Y115.288
;;retract;;
G1 F6000 E-6.66948
G0 F3600 X118.493 Y114.508
G0 X111.509 Y114.497
G0 X112.367 Y114.234
G1 F6000 E1.33052
G1 F600 X112.136 Y113.861 E1.33854
G1 X111.988 Y113.741 E1.34203
G1 X111.576 Y113.597 E1.35001
G1 X111.127 Y113.674 E1.35834
G1 X110.771 Y113.961 E1.36671
G1 X110.601 Y114.385 E1.37507
G1 X110.658 Y114.838 E1.38342
G1 X110.93 Y115.206 E1.39179
G1 X111.347 Y115.394 E1.40016
G1 X111.802 Y115.355 E1.40851
G1 X112.18 Y115.098 E1.41687
G1 X112.386 Y114.691 E1.42522
G1 X112.367 Y114.234 E1.43358
G0 F3600 X112.262 Y114.064
G0 X112.636 Y113.832
;;retract;;
G1 F6000 E-6.56642
G0 F3600 X111.508 Y114.493
G0 X102.088 Y113.721
G0 X100.853 Y113.356
;TYPE:WALL-INNER
G1 F6000 E1.43358
G1 F600 X100.794 Y113.864 E1.43884
G1 X100.905 Y114.36 E1.44472
G1 X100.991 Y114.497 E1.44734
G1 X101.177 Y114.79 E1.45369
G1 X101.455 Y115.014 E1.46022
G1 X101.574 Y115.109 E1.46265
G1 X102.033 Y115.266 E1.46754
G1 X102.328 Y115.29 E1.4692
G1 X102.814 Y115.204 E1.47272
G1 X103.148 Y115.015 E1.47801
G1 X103.258 Y114.952 E1.48033
G1 X103.59 Y114.566 E1.48965
G1 X103.778 Y114.09 E1.49901
G1 X103.794 Y113.582 E1.50831
G1 X103.642 Y113.096 E1.51762
G1 X103.334 Y112.687 E1.52699
G1 X102.91 Y112.407 E1.53628
G1 X102.42 Y112.282 E1.54553
G1 X101.908 Y112.33 E1.55494
G1 X101.445 Y112.544 E1.56427
G1 X101.08 Y112.9 E1.5736
G1 X100.991 Y113.079 E1.57725
G1 X100.853 Y113.356 E1.5819
G0 F3600 X101.242 Y113.472
;TYPE:WALL-OUTER
G1 F600 X101.199 Y113.843 E1.58874
G1 X101.28 Y114.205 E1.59552
G1 X101.479 Y114.52 E1.60234
G1 X101.77 Y114.753 E1.60916
G1 X102.115 Y114.871 E1.61583
G1 X102.309 Y114.887 E1.61939
G1 X102.676 Y114.822 E1.62621
G1 X103 Y114.638 E1.63302
G1 X103.243 Y114.356 E1.63983
G1 X103.38 Y114.008 E1.64667
G1 X103.392 Y113.637 E1.65346
G1 X103.281 Y113.281 E1.66029
G1 X103.056 Y112.983 E1.66712
G1 X102.746 Y112.778 E1.67391
G1 X102.388 Y112.687 E1.68067
G1 X102.013 Y112.722 E1.68756
G1 X101.675 Y112.878 E1.69437
G1 X101.408 Y113.139 E1.7012
G1 X101.242 Y113.472 E1.70801
G0 F3600 X101.219 Y113.67
G0 X100.783 Y113.619
;;retract;;
G1 F6000 E-6.29199
G0 F3600 X102.088 Y113.721
G0 X104.999 Y108.624
G0 X104.998 Y107.345
;TYPE:WALL-INNER
G1 F6000 E1.70801
G1 F661.4 X104.341 Y107.429 E1.72012
G1 X103.905 Y107.585 E1.7286
G1 X103.512 Y107.805 E1.73683
G1 X103.164 Y108.087 E1.74503
G1 X102.867 Y108.426 E1.75327
G1 X102.631 Y108.809 E1.7615
G1 X102.464 Y109.227 E1.76974
G1 X102.37 Y109.666 E1.77795
G1 X102.35 Y110.115 E1.78617
G1 X102.409 Y110.563 E1.79444
G1 X102.54 Y110.991 E1.80263
G1 X102.742 Y111.393 E1.81086
G1 X103.011 Y111.754 E1.81909
G1 X103.336 Y112.064 E1.82731
G1 X103.708 Y112.316 E1.83553
G1 X104.119 Y112.502 E1.84378
G1 X104.555 Y112.615 E1.85202
G1 X105.002 Y112.652 E1.86022
G1 X105.451 Y112.614 E1.86847
G1 X105.887 Y112.499 E1.87671
G1 X106.297 Y112.313 E1.88495
G1 X106.67 Y112.061 E1.89319
G1 X106.994 Y111.747 E1.90144
G1 X107.26 Y111.387 E1.90963
G1 X107.462 Y110.984 E1.91787
G1 X107.592 Y110.556 E1.92606
G1 X107.65 Y110.108 E1.93432
G1 X107.629 Y109.659 E1.94254
G1 X107.535 Y109.22 E1.95075
G1 X107.365 Y108.801 E1.95903
G1 X107.129 Y108.42 E1.96722
G1 X106.831 Y108.083 E1.97545
G1 X106.481 Y107.801 E1.98368
G1 X106.09 Y107.582 E1.99187
G1 X105.653 Y107.428 E2.00035
G1 X104.998 Y107.345 E2.01243
G0 F3600 X104.998 Y107.748
;TYPE:WALL-OUTER
G1 F600 X104.435 Y107.82 E2.02281
G1 X104.071 Y107.95 E2.02988
G1 X103.737 Y108.137 E2.03688
G1 X103.442 Y108.376 E2.04383
G1 X103.19 Y108.664 E2.05083
G1 X102.99 Y108.989 E2.05781
G1 X102.848 Y109.344 E2.0648
G1 X102.768 Y109.717 E2.07178
G1 X102.751 Y110.098 E2.07876
G1 X102.801 Y110.477 E2.08575
G1 X102.913 Y110.841 E2.09272
G1 X103.084 Y111.182 E2.0997
G1 X103.312 Y111.488 E2.10668
G1 X103.588 Y111.752 E2.11367
G1 X103.904 Y111.966 E2.12065
G1 X104.252 Y112.123 E2.12763
G1 X104.622 Y112.219 E2.13462
G1 X105.002 Y112.251 E2.1416
G1 X105.383 Y112.218 E2.1486
G1 X105.753 Y112.121 E2.15559
G1 X106.101 Y111.963 E2.16258
G1 X106.417 Y111.749 E2.16957
G1 X106.692 Y111.483 E2.17656
G1 X106.918 Y111.177 E2.18352
G1 X107.089 Y110.835 E2.19052
G1 X107.2 Y110.471 E2.19748
G1 X107.249 Y110.092 E2.20447
G1 X107.231 Y109.711 E2.21145
G1 X107.151 Y109.338 E2.21843
G1 X107.007 Y108.983 E2.22543
G1 X106.807 Y108.659 E2.2324
G1 X106.554 Y108.373 E2.23938
G1 X106.257 Y108.134 E2.24636
G1 X105.924 Y107.948 E2.25334
G1 X105.56 Y107.819 E2.2604
G1 X104.998 Y107.748 E2.27076
G0 F3600 X104.8 Y107.773
G0 X104.746 Y107.337
;;retract;;
G1 F6000 E-5.72924
G0 F3600 X104.999 Y108.624
G0 X107.684 Y106.439
G0 X108.214 Y107.633
;TYPE:WALL-INNER
G1 F6000 E2.27076
G1 F600 X108.658 Y107.379 E2.28012
G1 X108.99 Y106.994 E2.28942
G1 X109.178 Y106.519 E2.29876
G1 X109.194 Y106.012 E2.30804
G1 X109.042 Y105.524 E2.31739
G1 X108.734 Y105.115 E2.32676
G1 X108.537 Y104.984 E2.33109
G1 X108.31 Y104.835 E2.33508
G1 X107.82 Y104.71 E2.33919
G1 X107.307 Y104.758 E2.34238
G1 X106.845 Y104.973 E2.34879
G1 X106.823 Y104.995 E2.34935
G1 X106.48 Y105.327 E2.35808
G1 X106.253 Y105.784 E2.36741
G1 X106.194 Y106.291 E2.37675
G1 X106.305 Y106.789 E2.38608
G1 X106.577 Y107.22 E2.39541
G1 X106.976 Y107.537 E2.40473
G1 X107.432 Y107.694 E2.41355
G1 X107.727 Y107.718 E2.41897
G1 X108.214 Y107.633 E2.42801
G0 F3600 X108.076 Y107.251
;TYPE:WALL-OUTER
G1 F600 X108.4 Y107.066 E2.43483
G1 X108.643 Y106.784 E2.44164
G1 X108.78 Y106.437 E2.44847
G1 X108.792 Y106.066 E2.45526
G1 X108.681 Y105.709 E2.4621
G1 X108.456 Y105.411 E2.46893
G1 X108.146 Y105.206 E2.47573
G1 X107.788 Y105.115 E2.48248
G1 X107.413 Y105.15 E2.48937
G1 X107.075 Y105.307 E2.49619
G1 X106.808 Y105.566 E2.503
G1 X106.642 Y105.9 E2.50982
G1 X106.599 Y106.27 E2.51663
G1 X106.68 Y106.634 E2.52345
G1 X106.879 Y106.949 E2.53027
G1 X107.171 Y107.181 E2.53709
G1 X107.515 Y107.299 E2.54375
G1 X107.709 Y107.315 E2.54731
G1 X108.076 Y107.251 E2.55412
G0 F3600 X108.249 Y107.152
G0 X108.466 Y107.535
;;retract;;
G1 F6000 E-5.44588
G0 F3600 X107.839 Y106.386
G0 X112.257 Y109.309
G0 X111.021 Y109
;TYPE:WALL-INNER
G1 F6000 E2.55412
G1 F1500 X110.912 Y109.684 E2.56679
G1 X110.915 Y110.361 E2.57918
G1 X111.03 Y111.028 E2.59156
G1 X111.254 Y111.668 E2.60396
G1 X111.579 Y112.26 E2.61632
G1 X111.983 Y112.78 E2.62836
G1 X112.236 Y113.012 E2.63464
G1 X112.395 Y113.157 E2.63815
G1 X112.486 Y113.241 E2.63984
G1 X112.614 Y113.324 E2.64195
G1 X112.761 Y113.42 E2.64485
G1 X113.054 Y113.61 E2.65124
G1 X113.674 Y113.881 E2.66362
G1 X114.33 Y114.046 E2.67599
G1 X115.005 Y114.102 E2.68838
G1 X115.681 Y114.045 E2.70079
G1 X116.337 Y113.877 E2.71318
G1 X116.959 Y113.604 E2.72561
G1 X117.185 Y113.456 E2.73055
G1 X117.243 Y113.418 E2.73175
G1 X117.525 Y113.232 E2.73695
G1 X117.725 Y113.047 E2.74105
G1 X117.796 Y112.982 E2.74269
G1 X118.022 Y112.773 E2.74832
G1 X118.437 Y112.238 E2.76071
G1 X118.759 Y111.642 E2.7731
G1 X118.978 Y111.001 E2.78549
G1 X119.002 Y110.857 E2.78816
G1 X119.088 Y110.332 E2.79684
G1 X119.087 Y109.655 E2.80654
G1 X119.002 Y109.15 E2.8149
G1 X118.974 Y108.987 E2.81792
G1 X118.753 Y108.346 E2.83033
G1 X118.431 Y107.752 E2.84269
G1 X118.013 Y107.218 E2.85509
G1 X117.786 Y107.009 E2.86074
G1 X117.514 Y106.759 E2.86649
G1 X117.236 Y106.579 E2.87165
G1 X116.946 Y106.39 E2.87798
G1 X116.326 Y106.119 E2.89036
G1 X115.67 Y105.954 E2.90274
G1 X114.995 Y105.898 E2.91513
G1 X114.319 Y105.955 E2.92754
G1 X113.663 Y106.123 E2.93992
G1 X113.041 Y106.396 E2.95235
G1 X112.871 Y106.508 E2.95607
G1 X112.475 Y106.768 E2.9638
G1 X112.355 Y106.879 E2.96614
G1 X112.224 Y107 E2.96904
G1 X111.978 Y107.227 E2.97516
G1 X111.563 Y107.762 E2.98755
G1 X111.241 Y108.358 E2.99994
G1 X111.021 Y109 E3.01236
G0 F3600 X111.411 Y109.097
;TYPE:WALL-OUTER
G1 F1500 X111.312 Y109.715 E3.02381
G1 X111.315 Y110.326 E3.03498
G1 X111.419 Y110.927 E3.04614
G1 X111.621 Y111.505 E3.05734
G1 X111.914 Y112.04 E3.0685
G1 X112.278 Y112.508 E3.07935
G1 X112.732 Y112.924 E3.09061
G1 X113.244 Y113.257 E3.10178
G1 X113.804 Y113.501 E3.11296
G1 X114.396 Y113.65 E3.12412
G1 X115.005 Y113.701 E3.1353
G1 X115.614 Y113.649 E3.14648
G1 X116.206 Y113.498 E3.15766
G1 X116.767 Y113.251 E3.16887
G1 X117.278 Y112.916 E3.18005
G1 X117.726 Y112.502 E3.19121
G1 X118.101 Y112.019 E3.2024
G1 X118.391 Y111.481 E3.21358
G1 X118.589 Y110.903 E3.22475
G1 X118.688 Y110.3 E3.23593
G1 X118.687 Y109.689 E3.24711
G1 X118.585 Y109.086 E3.2583
G1 X118.386 Y108.508 E3.26948
G1 X118.095 Y107.972 E3.28064
G1 X117.718 Y107.49 E3.29183
G1 X117.268 Y107.076 E3.30301
G1 X116.756 Y106.743 E3.31419
G1 X116.196 Y106.499 E3.32536
G1 X115.604 Y106.35 E3.33653
G1 X114.995 Y106.299 E3.34771
G1 X114.386 Y106.351 E3.35889
G1 X113.794 Y106.502 E3.37007
G1 X113.233 Y106.749 E3.38128
G1 X112.722 Y107.084 E3.39246
G1 X112.274 Y107.498 E3.40362
G1 X111.899 Y107.981 E3.4148
G1 X111.609 Y108.519 E3.42598
G1 X111.411 Y109.097 E3.43716
G0 F3600 X111.38 Y109.294
G0 X110.945 Y109.224
;;retract;;
G1 F6000 E-4.56284
G0 F3600 X112.257 Y109.309
G0 X111.51 Y105.502
G0 X112.31 Y105.092
G1 F6000 E3.43716
G1 F600 X112.008 Y104.749 E3.44552
G1 X111.583 Y104.599 E3.45376
G1 X111.576 Y104.597 E3.4539
G1 X111.56 Y104.599 E3.45419
