;FLAVOR:Marlin
;TIME:2357
;Filament used:0.430445m
;Layer height: 0.1
;MINX:99.33
;MINY:103.33
;MINZ:0.1
;MAXX:120.67
;MAXY:116.67
;MAXZ:7.5
                                 
;Creality Print GCode Generated by CXEngine:NO_MAGE_VERSION_GIT_HEAD_BRANCH
;CXEngine Release Time:2022-09-30 09:53:04
;Gcode Generated Time:2023-03-10 14:55:46
;----------Machine Config--------------
;Machine Name:Creality Ender-3
;Machine Height:250
;Machine Width:220
;Machine Depth:220
;Material name:PLA
;Number of Extruders:1
;ExtruderParams[0] Nozzle Diameter1000
;----------Profile Config---------------
;Engine Version:275f99b
;Engine Release Time:2022-09-30 09:42:18
;Layer Height:0.1
;Wall Thickness:0.8
;Top/Bottom Thickness:0.5
;Out Wall Line Width:0.4
;Inner Wall Line Width:0.4
;Inital Layer Height:100
;Wall Line Count:2
;Infill Line Distance:4
;Infill Pattern:grid
;Infill Sparse Density:20
;Infill Wipe Distance:0
;Print Temperature:200
;Bed Temperature:60
;Support Enable:true
;Support Density:0
;Support Angle:60
;Adhesion Type:none
;machine is belt:false
;machine belt offset:10
;machine belt offset Y:0
;Raft Base Line Spacing:1.6
;Wait Heatup Sync:true
;----------Shell Config----------------
;Outer Wall Wipe Distance:200
;Outer Inset First:false
;Infill Before Walls:false
;Infill Overlap:0.16
;Fill Gaps Between Walls:everywhere
;Minimum Infill Area:1
;Top Surface Skin Layer:0
;Top Layers:4
;Z Seam Alignment:sharpest_corner
;Seam Corner Preference:z_seam_corner_inner
;Z Seam X:110
;Z Seam Y:110
;Horizontal Expansion:0
;Top/Bottom Pattern:zigzag
;Ironing Pattern:zigzag
;Vase Model:false
;----------Support Config----------------
;Support Type:everywhere
;Support Pattern:zigzag
;Support Infill Layer Thickness:0.1
;Minimum Support Area:5
;Enable Support Roof:true
;Support Roof Thickness:0.8
;Support Roof Pattern:lines
;Connect Support Lines:0
;Connect Support ZigZags:0
;Minimum Support X/Y Distance:0.2
;Support Line Distance:0
; ---------PrintSpeed & Travel----------
;Enable Print Cool:true
;Avoid Printed Parts Traveling:true
;Enable Retraction:true
;Retraction Distance:8
;Retraction Speed:100
;Retraction Prime Speed:100
;Maximum Retraction Count:100
;Minimum Extrusion Distance Window:1
;Z Hop When Retracted:false
;Z Hop Height:0.2
;Retract Before Outer Wall:true
;Print Speed:50
;Infill Speed:50

;Prime Tower Speed:50
;Travel Speed:120
;Initial Layer Speed:25
;Skirt/Brim Speed:25
;Combing Mode:infill
; --------SpecialModel&Mesh Fixes--------
;Union Overlapping Volum:true
;Remove All Holes:false
;Maximum Travel Resolution:0.6
;Maximum Deviation:0.05
;Maximum Model Angle:0.872665
;IS Mold Print:false
;Make Overhang Printable:false
;Enable Coasting:false
;Coasting Volumes:0.06
;Coasting Speed:0.9
;Raft AirGap:0.25
;Layer0 ZOverLap:0.13
;---------------------End of Head--------------------------
M140 S60
M105
M104 S200
M105
M109 S200
M105
M190 S60
M82 ;absolute extrusion mode
M220 S100 ;Reset Feedrate
M221 S100 ;Reset Flowrate

G28 ;Home

G92 E0 ;Reset Extruder
G1 Z2.0 F3000 ;Move Z Axis up
G1 X10.1 Y20 Z0.28 F5000.0 ;Move to start position
G1 X10.1 Y145.0 Z0.28 F1500.0 E15 ;Draw the first line
G1 X10.4 Y145.0 Z0.28 F5000.0 ;Move to side a little
G1 X10.4 Y20 Z0.28 F1500.0 E30 ;Draw the second line
G92 E0  ;Reset Extruder
G1 E-1.0000 F1800 ;Retract a bit
G1 Z2.0 F3000 ;Move Z Axis up
G1 E0.0000 F1800 

G92 E0
G92 E0
G1 F6000 E-8

;LAYER_COUNT:75

;LAYER:0
M107
G0 F3600 X109.122 Y111.842 Z0.1
;TYPE:SUPPORT
G1 F6000 E0
G1 F1500 X109.57 Y111.516 E0.00811
G1 X110.12 Y111.516 E0.01616
G1 X110.568 Y111.842 E0.02427
G1 X110.739 Y112.366 E0.03233
G1 X110.568 Y112.89 E0.0404
G1 X110.12 Y113.216 E0.04851
G1 X109.57 Y113.216 E0.05656
G1 X109.122 Y112.89 E0.06466
G1 X108.951 Y112.366 E0.07273
G1 X109.122 Y111.842 E0.0808
;;retract;;
G1 F6000 E-7.9192
;MESH:
G0 F3600 X108.294 Y111.573
G0 X101.508 Y109.994
G0 X102.679 Y109.406
;TYPE:WALL-INNER
G1 F6000 E0.0808
G1 F1500 X102.239 Y108.906 E0.09298
G1 X101.611 Y108.685 E0.10516
G1 X100.981 Y108.793 E0.11685
G1 X100.957 Y108.797 E0.1173
G1 X100.601 Y109.084 E0.12566
G1 X100.601 Y108.797 E0.12749
G1 X100.601 Y108.772 E0.12793
G1 X100.602 Y104.6 E0.20425
G1 X113.691 Y104.601 E0.44369
G1 X113.824 Y104.602 E0.44612
G1 X113.691 Y104.932 E0.45036
G1 X113.774 Y105.592 E0.46253
G1 X114.171 Y106.128 E0.47473
G1 X114.729 Y106.379 E0.48592
G1 X115.051 Y106.406 E0.49184
G1 X115.644 Y106.252 E0.50304
G1 X116.124 Y105.792 E0.5152
G1 X116.318 Y105.157 E0.52735
G1 X116.251 Y104.842 E0.53324
G1 X116.2 Y104.602 E0.53773
G1 X116.445 Y104.602 E0.54047
G1 X116.446 Y104.602 E0.54049
G1 X119.4 Y104.603 E0.59453
G1 X119.4 Y115.201 E0.7884
G1 X119.4 Y115.4 E0.79204
G1 X119.201 Y115.4 E0.79439
G1 X117.952 Y115.399 E0.81724
G1 X117.951 Y115.399 E0.81726
G1 X117.683 Y115.399 E0.82216
G1 X117.761 Y115.142 E0.8251
G1 X117.818 Y114.957 E0.82864
G1 X117.679 Y114.306 E0.84082
G1 X117.239 Y113.806 E0.853
G1 X116.611 Y113.585 E0.86518
G1 X115.957 Y113.697 E0.87732
G1 X115.439 Y114.115 E0.88949
G1 X115.191 Y114.732 E0.90166
G1 X115.246 Y115.164 E0.90962
G1 X115.273 Y115.387 E0.91373
G1 X115.049 Y115.387 E0.9163
G1 X115.048 Y115.387 E0.91632
G1 X111.427 Y115.388 E0.98256
G1 X110.925 Y115.388 E0.99174
G1 X110.401 Y115.389 E1.00132
G1 X109.903 Y115.39 E1.01043
G1 X110.4 Y115.346 E1.01093
G1 X110.924 Y115.207 E1.01389
G1 X111.381 Y114.999 E1.02062
G1 X111.418 Y114.982 E1.02137
G1 X111.866 Y114.676 E1.03129
G1 X112.257 Y114.299 E1.04123
G1 X112.578 Y113.863 E1.05113
G1 X112.822 Y113.377 E1.06108
G1 X112.979 Y112.859 E1.07098
G1 X113.047 Y112.318 E1.08095
G1 X113.021 Y111.774 E1.09092
G1 X112.906 Y111.245 E1.10082
G1 X112.701 Y110.741 E1.11077
G1 X112.414 Y110.281 E1.12069
G1 X112.059 Y109.877 E1.13053
G1 X111.63 Y109.534 E1.14058
G1 X111.156 Y109.271 E1.15049
G1 X110.631 Y109.087 E1.16067
G1 X109.843 Y108.988 E1.1752
G1 X109.051 Y109.089 E1.1898
G1 X108.518 Y109.279 E1.20016
G1 X108.045 Y109.546 E1.21009
G1 X107.623 Y109.889 E1.22004
G1 X107.266 Y110.299 E1.22998
G1 X106.984 Y110.76 E1.23987
G1 X106.783 Y111.266 E1.24983
G1 X106.671 Y111.796 E1.25974
G1 X106.648 Y112.339 E1.26968
G1 X106.72 Y112.877 E1.27961
G1 X106.881 Y113.395 E1.28953
G1 X107.126 Y113.88 E1.29947
G1 X107.451 Y114.315 E1.30941
G1 X107.844 Y114.69 E1.31934
G1 X108.294 Y114.992 E1.32926
G1 X108.296 Y114.993 E1.3293
G1 X108.792 Y115.214 E1.33923
G1 X109.317 Y115.35 E1.34915
G1 X109.809 Y115.39 E1.35818
G1 X109.317 Y115.39 E1.35863
G1 X108.792 Y115.39 E1.36118
G1 X108.297 Y115.39 E1.36798
G1 X108.294 Y115.39 E1.36803
G1 X100.6 Y115.396 E1.50878
G1 X100.6 Y111.281 E1.58406
G1 X100.6 Y111.028 E1.58868
G1 X100.601 Y110.933 E1.59042
G1 X100.671 Y111.028 E1.5909
G1 X100.902 Y111.131 E1.59393
G1 X101.229 Y111.279 E1.60049
G1 X101.551 Y111.306 E1.6064
G1 X102.144 Y111.152 E1.61761
G1 X102.624 Y110.692 E1.62977
G1 X102.818 Y110.057 E1.64192
G1 X102.679 Y109.406 E1.65409
G0 F3600 X102.31 Y109.592
;TYPE:WALL-OUTER
G1 F600 X102.008 Y109.249 E1.66245
G1 X101.576 Y109.097 E1.67083
G1 X101.127 Y109.174 E1.67917
G1 X100.771 Y109.461 E1.68753
G1 X100.601 Y109.885 E1.69589
G1 X100.658 Y110.338 E1.70424
G1 X100.93 Y110.706 E1.71261
G1 X101.331 Y110.886 E1.72065
G1 X101.517 Y110.902 E1.72407
G1 X101.942 Y110.791 E1.7321
G1 X102.272 Y110.475 E1.74046
G1 X102.405 Y110.039 E1.7488
G1 X102.31 Y109.592 E1.75716
G0 F3600 X102.178 Y109.442
G0 X102.509 Y109.153
G0 X106.839 Y107.772
;TYPE:WALL-INNER
G1 F600 X107.31 Y108.086 E1.76751
G1 X107.873 Y108.133 E1.77785
G1 X108.384 Y107.897 E1.78814
G1 X108.72 Y107.445 E1.79845
G1 X108.79 Y106.883 E1.80881
G1 X108.577 Y106.36 E1.81914
G1 X108.176 Y106.039 E1.82853
G1 X107.902 Y105.946 E1.83383
G1 X107.397 Y105.946 E1.84307
G1 X106.903 Y106.222 E1.85342
G1 X106.608 Y106.702 E1.86372
G1 X106.584 Y107.265 E1.87403
G1 X106.839 Y107.772 E1.88441
G0 F3600 X107.149 Y107.498
;TYPE:WALL-OUTER
G1 F600 X107.446 Y107.696 E1.89094
G1 X107.801 Y107.726 E1.89746
G1 X108.124 Y107.577 E1.90397
G1 X108.336 Y107.291 E1.91048
G1 X108.38 Y106.937 E1.91701
G1 X108.246 Y106.607 E1.92352
G1 X107.981 Y106.395 E1.92973
G1 X107.836 Y106.346 E1.93253
G1 X107.501 Y106.346 E1.93866
G1 X107.189 Y106.52 E1.94519
G1 X107.003 Y106.823 E1.9517
G1 X106.988 Y107.178 E1.9582
G1 X107.149 Y107.498 E1.96475
G0 F3600 X107.315 Y107.609
G0 X107.071 Y107.976
;;retract;;
G1 F6000 E-6.03525
G0 F3600 X109.843 Y109.391
G1 F6000 E1.96475
G1 F698.3 X109.145 Y109.48 E1.97762
G1 X108.685 Y109.644 E1.98655
G1 X108.271 Y109.878 E1.99525
G1 X107.902 Y110.178 E2.00395
G1 X107.59 Y110.536 E2.01264
G1 X107.343 Y110.94 E2.0213
G1 X107.167 Y111.382 E2.03
G1 X107.069 Y111.846 E2.03868
G1 X107.049 Y112.321 E2.04738
G1 X107.112 Y112.791 E2.05605
G1 X107.253 Y113.245 E2.06475
G1 X107.467 Y113.669 E2.07344
G1 X107.751 Y114.049 E2.08211
G1 X108.095 Y114.377 E2.09081
G1 X108.49 Y114.642 E2.09951
G1 X108.924 Y114.835 E2.1082
G1 X109.384 Y114.954 E2.11689
G1 X109.857 Y114.993 E2.12557
G1 X110.33 Y114.951 E2.13426
G1 X110.789 Y114.829 E2.14295
G1 X111.221 Y114.632 E2.15163
G1 X111.613 Y114.365 E2.16031
G1 X111.955 Y114.035 E2.169
G1 X112.236 Y113.653 E2.17768
G1 X112.449 Y113.228 E2.18637
G1 X112.586 Y112.775 E2.19503
G1 X112.646 Y112.302 E2.20375
G1 X112.623 Y111.827 E2.21245
G1 X112.522 Y111.364 E2.22112
G1 X112.343 Y110.923 E2.22983
G1 X112.092 Y110.52 E2.23851
G1 X111.782 Y110.167 E2.24711
G1 X111.407 Y109.867 E2.25589
G1 X110.992 Y109.637 E2.26457
G1 X110.539 Y109.479 E2.27335
G1 X109.843 Y109.391 E2.28618
G0 F3600 X109.645 Y109.416
G0 X109.591 Y108.98
;;retract;;
G1 F6000 E-5.71382
G0 F3600 X109.844 Y110.267
G0 X115.558 Y110.118
G0 X116.819 Y110.385
;TYPE:WALL-INNER
G1 F6000 E2.28618
G1 F600 X116.842 Y109.757 E2.29768
G1 X116.657 Y109.157 E2.30916
G1 X116.282 Y108.654 E2.32064
G1 X115.76 Y108.305 E2.33213
G1 X115.155 Y108.149 E2.34356
G1 X114.531 Y108.201 E2.35501
G1 X113.955 Y108.463 E2.36659
G1 X113.502 Y108.901 E2.37811
G1 X113.222 Y109.461 E2.38957
G1 X113.144 Y110.084 E2.40105
G1 X113.278 Y110.698 E2.41255
G1 X113.609 Y111.233 E2.42406
G1 X114.1 Y111.626 E2.43556
G1 X114.666 Y111.823 E2.44653
G1 X115.026 Y111.855 E2.45314
G1 X115.625 Y111.75 E2.46426
G1 X116.172 Y111.442 E2.47574
G1 X116.585 Y110.969 E2.48723
G1 X116.819 Y110.385 E2.49874
G0 F3600 X116.422 Y110.301
;TYPE:WALL-OUTER
G1 F600 X116.44 Y109.81 E2.50773
G1 X116.295 Y109.341 E2.51671
G1 X116.002 Y108.948 E2.52568
G1 X115.594 Y108.675 E2.53466
G1 X115.121 Y108.553 E2.54359
G1 X114.634 Y108.594 E2.55253
G1 X114.183 Y108.799 E2.56159
G1 X113.829 Y109.141 E2.5706
G1 X113.61 Y109.579 E2.57956
G1 X113.549 Y110.066 E2.58854
G1 X113.654 Y110.546 E2.59752
G1 X113.913 Y110.964 E2.60652
G1 X114.296 Y111.271 E2.6155
G1 X114.751 Y111.429 E2.62431
G1 X115.009 Y111.452 E2.62905
G1 X115.488 Y111.368 E2.63794
G1 X115.916 Y111.127 E2.64693
G1 X116.239 Y110.757 E2.65591
G1 X116.422 Y110.301 E2.6649
G0 F3600 X116.429 Y110.101
G0 X116.869 Y110.117
;;retract;;
G1 F6000 E-5.3351
G0 F3600 X115.566 Y109.925
G0 X115.01 Y105.102
G0 X115.81 Y104.692
G1 F6000 E2.6649
G1 F1500 X115.693 Y104.559 E2.66814
G1 X115.508 Y104.349 E2.67326
G1 X115.091 Y104.202 E2.68135
G1 X115.508 Y104.202 E2.68266
G1 X115.788 Y104.202 E2.68631
G1 X119.8 Y104.203 E2.7597
G1 X119.8 Y115.8 E2.97185
G1 X117.304 Y115.8 E3.01751
G1 X116.942 Y115.8 E3.02413
G1 X116.527 Y115.799 E3.03172
G1 X116.942 Y115.691 E3.03295
G1 X117.203 Y115.441 E3.03732
G1 X117.272 Y115.375 E3.03907
G1 X117.405 Y114.939 E3.04741
G1 X117.31 Y114.492 E3.05577
G1 X117.008 Y114.149 E3.06413
G1 X116.576 Y113.997 E3.0725
G1 X116.127 Y114.074 E3.08084
G1 X115.771 Y114.361 E3.0892
G1 X115.601 Y114.785 E3.09756
G1 X115.658 Y115.238 E3.10591
G1 X115.801 Y115.432 E3.11032
G1 X115.93 Y115.606 E3.11428
G1 X116.331 Y115.786 E3.12232
G1 X115.931 Y115.786 E3.12383
G1 X115.714 Y115.786 E3.12682
G1 X100.2 Y115.796 E3.41062
G1 X100.201 Y109.885 E3.51875
G1 X100.202 Y104.2 E3.62275
G1 X114.243 Y104.2 E3.8796
G1 X114.271 Y104.2 E3.88012
G1 X114.627 Y104.201 E3.88663
G1 X115.045 Y104.202 E3.89427
G1 X114.627 Y104.274 E3.89506
G1 X114.271 Y104.561 E3.90021
G1 X114.261 Y104.587 E3.9007
G1 X114.101 Y104.985 E3.90855
G1 X114.158 Y105.438 E3.9169
G1 X114.43 Y105.806 E3.92527
G1 X114.831 Y105.986 E3.93331
G1 X115.017 Y106.002 E3.93672
G1 X115.442 Y105.891 E3.94476
G1 X115.772 Y105.575 E3.95312
G1 X115.905 Y105.139 E3.96146
G1 X115.81 Y104.692 E3.96982
G0 F3600 X115.693 Y104.559
G0 X115.678 Y104.542
;;retract;;
G1 F6000 E-4.03018
G0 F3600 X115.008 Y105.094
G0 X119.159 Y103.332
G0 X119.159 Y104.843
;TYPE:SKIN
G1 F6000 E3.96982
G1 F600 X118.985 Y104.843 E3.973
G1 X118.419 Y104.843 E3.98335
G1 X119.159 Y105.583 E4.0025
G1 X119.159 Y106.148 E4.01283
G1 X117.854 Y104.843 E4.04659
G1 X117.287 Y104.842 E4.05697
G1 X119.159 Y106.714 E4.1054
G1 X119.159 Y107.28 E4.11575
G1 X116.722 Y104.842 E4.17881
G1 X116.495 Y104.842 E4.18296
G1 X116.563 Y105.167 E4.18903
G1 X116.543 Y105.23 E4.19024
G1 X119.159 Y107.845 E4.25791
G1 X119.159 Y108.411 E4.26826
G1 X116.412 Y105.664 E4.33933
G1 X116.334 Y105.921 E4.34424
G1 X116.217 Y106.034 E4.34722
G1 X119.159 Y108.977 E4.42334
G1 X119.159 Y109.542 E4.43367
G1 X115.928 Y106.311 E4.51726
G1 X115.763 Y106.468 E4.52143
G1 X115.57 Y106.519 E4.52508
G1 X119.159 Y110.108 E4.61793
G1 X119.159 Y110.674 E4.62828
G1 X115.121 Y106.635 E4.73276
G1 X115.07 Y106.648 E4.73372
G1 X114.667 Y106.614 E4.74112
G1 X114.424 Y106.505 E4.74599
G1 X116.291 Y108.371 E4.79428
G1 X115.859 Y108.082 E4.80379
G1 X115.29 Y107.936 E4.81453
G1 X112.195 Y104.842 E4.89459
G1 X111.63 Y104.842 E4.90492
G1 X114.731 Y107.943 E4.98515
G1 X114.469 Y107.966 E4.98996
G1 X114.275 Y108.052 E4.99384
G1 X111.064 Y104.842 E5.0769
G1 X110.498 Y104.842 E5.08725
G1 X113.885 Y108.229 E5.17487
G1 X113.817 Y108.26 E5.17624
G1 X113.58 Y108.489 E5.18227
G1 X109.933 Y104.842 E5.27662
G1 X109.367 Y104.842 E5.28697
G1 X113.297 Y108.772 E5.38864
G1 X113.108 Y109.149 E5.39636
G1 F1500 X108.801 Y104.841 E5.5078
G1 F600 X108.235 Y104.841 E5.51815
G1 F1500 X112.965 Y109.571 E5.64052
G1 F600 X112.902 Y110.073 E5.64977
G1 F1500 X107.669 Y104.841 E5.78514
G1 F600 X107.104 Y104.841 E5.79547
G1 X107.981 Y105.718 E5.81816
G1 X107.941 Y105.705 E5.81893
G1 X107.402 Y105.705 E5.82879
G1 X106.538 Y104.841 E5.85114
G1 X105.972 Y104.841 E5.8615
G1 X107.014 Y105.883 E5.88845
G1 X106.729 Y106.042 E5.89442
G1 X106.684 Y106.118 E5.89604
G1 X105.406 Y104.841 E5.92909
G1 X104.84 Y104.84 E5.93944
G1 X106.469 Y106.469 E5.98158
G1 X106.37 Y106.628 E5.98501
G1 X106.358 Y106.923 E5.99041
G1 X104.274 Y104.84 E6.04431
G1 X103.709 Y104.84 E6.05465
G1 X106.5 Y107.632 E6.12687
G1 X106.652 Y107.935 E6.13307
G0 F3600 X108.292 Y105.824
G1 F600 X108.774 Y106.21 E6.14436
G1 X108.982 Y106.719 E6.15442
G1 X111.389 Y109.126 E6.21669
G1 X111.253 Y109.051 E6.21953
G1 X110.684 Y108.852 E6.23056
G1 X110.529 Y108.832 E6.23342
G1 X108.98 Y107.283 E6.27349
G1 X108.949 Y107.536 E6.27815
G1 X108.829 Y107.698 E6.28184
G1 X109.882 Y108.75 E6.30907
G1 X109.841 Y108.745 E6.30983
G1 X109.371 Y108.805 E6.31849
G1 X108.587 Y108.021 E6.33878
G1 X108.538 Y108.089 E6.34031
G1 X108.231 Y108.231 E6.3465
G1 X108.89 Y108.89 E6.36355
G1 X108.473 Y109.038 E6.37164
G1 X107.801 Y108.367 E6.38901
G1 X107.227 Y108.319 E6.39955
G1 X107.108 Y108.24 E6.40216
G1 X108.103 Y109.235 E6.4279
G1 X107.909 Y109.346 E6.43199
G1 X107.765 Y109.462 E6.43537
G1 F1500 X103.143 Y104.84 E6.55495
G1 F600 X102.577 Y104.84 E6.5653
G1 F1500 X107.454 Y109.717 E6.69147
G1 F600 X107.191 Y110.019 E6.6988
G1 F1500 X102.012 Y104.84 E6.83278
G1 F600 X101.446 Y104.84 E6.84313
G1 F1500 X106.954 Y110.348 E6.98563
G1 F600 X106.768 Y110.651 E6.99213
G1 X106.746 Y110.706 E6.99321
G1 F1500 X100.88 Y104.84 E7.14497
G1 F600 X100.841 Y104.839 E7.14568
G1 X100.841 Y105.366 E7.15532
G1 F1500 X106.586 Y111.111 E7.30395
G1 F600 X106.552 Y111.195 E7.3056
G1 X106.474 Y111.565 E7.31252
G1 F1500 X100.841 Y105.932 E7.45825
G1 F600 X100.841 Y106.498 E7.4686
G1 F1500 X106.418 Y112.075 E7.61288
G1 F600 X106.406 Y112.349 E7.6179
G1 X106.451 Y112.673 E7.62388
G1 F1500 X100.841 Y107.063 E7.76902
G1 F600 X100.841 Y107.629 E7.77937
G1 X101.659 Y108.447 E7.80053
G1 X101.631 Y108.437 E7.80108
