;FLAVOR:Marlin
;TIME:319
;Filament used:0.0389885m
;Layer height: 0.1
;MINX:105.23
;MINY:105.06
;MINZ:0.1
;MAXX:114.737
;MAXY:114.232
;MAXZ:6.3
                              
;Creality Print GCode Generated by CXEngine:NO_MAGE_VERSION_GIT_HEAD_BRANCH
;CXEngine Release Time:2022-09-30 09:53:04
;Gcode Generated Time:2023-03-11 13:59:55
;----------Machine Config--------------
;Machine Name:Creality Ender-3
;Machine Height:250
;Machine Width:220
;Machine Depth:220
;Material name:PLA
;Number of Extruders:1
;ExtruderParams[0] Nozzle Diameter1000
;----------Profile Config---------------
;Engine Version:275f99b
;Engine Release Time:2022-09-30 09:42:18
;Layer Height:0.1
;Wall Thickness:0.8
;Top/Bottom Thickness:0.5
;Out Wall Line Width:0.4
;Inner Wall Line Width:0.4
;Inital Layer Height:100
;Wall Line Count:2
;Infill Line Distance:4
;Infill Pattern:grid
;Infill Sparse Density:20
;Infill Wipe Distance:0
;Print Temperature:200
;Bed Temperature:60
;Support Enable:true
;Support Density:0
;Support Angle:60
;Adhesion Type:none
;machine is belt:false
;machine belt offset:10
;machine belt offset Y:0
;Raft Base Line Spacing:1.6
;Wait Heatup Sync:true
;----------Shell Config----------------
;Outer Wall Wipe Distance:200
;Outer Inset First:false
;Infill Before Walls:false
;Infill Overlap:0.16
;Fill Gaps Between Walls:everywhere
;Minimum Infill Area:1
;Top Surface Skin Layer:0
;Top Layers:4
;Z Seam Alignment:sharpest_corner
;Seam Corner Preference:z_seam_corner_inner
;Z Seam X:110
;Z Seam Y:110
;Horizontal Expansion:0
;Top/Bottom Pattern:zigzag
;Ironing Pattern:zigzag
;Vase Model:false
;----------Support Config----------------
;Support Type:everywhere
;Support Pattern:zigzag
;Support Infill Layer Thickness:0.1
;Minimum Support Area:5
;Enable Support Roof:true
;Support Roof Thickness:0.8
;Support Roof Pattern:lines
;Connect Support Lines:0
;Connect Support ZigZags:0
;Minimum Support X/Y Distance:0.2
;Support Line Distance:0
; ---------PrintSpeed & Travel----------
;Enable Print Cool:true
;Avoid Printed Parts Traveling:true
;Enable Retraction:true
;Retraction Distance:8
;Retraction Speed:100
;Retraction Prime Speed:100
;Maximum Retraction Count:100
;Minimum Extrusion Distance Window:1
;Z Hop When Retracted:false
;Z Hop Height:0.2
;Retract Before Outer Wall:true
;Print Speed:50
;Infill Speed:50

;Prime Tower Speed:50
;Travel Speed:120
;Initial Layer Speed:25
;Skirt/Brim Speed:25
;Combing Mode:infill
; --------SpecialModel&Mesh Fixes--------
;Union Overlapping Volum:true
;Remove All Holes:false
;Maximum Travel Resolution:0.6
;Maximum Deviation:0.05
;Maximum Model Angle:0.872665
;IS Mold Print:false
;Make Overhang Printable:false
;Enable Coasting:false
;Coasting Volumes:0.06
;Coasting Speed:0.9
;Raft AirGap:0.25
;Layer0 ZOverLap:0.13
;---------------------End of Head--------------------------
M140 S60
M105
M104 S200
M105
M109 S200
M105
M190 S60
M82 ;absolute extrusion mode
M220 S100 ;Reset Feedrate
M221 S100 ;Reset Flowrate

G28 ;Home

G92 E0 ;Reset Extruder
G1 Z2.0 F3000 ;Move Z Axis up
G1 X10.1 Y20 Z0.28 F5000.0 ;Move to start position
G1 X10.1 Y145.0 Z0.28 F1500.0 E15 ;Draw the first line
G1 X10.4 Y145.0 Z0.28 F5000.0 ;Move to side a little
G1 X10.4 Y20 Z0.28 F1500.0 E30 ;Draw the second line
G92 E0  ;Reset Extruder
G1 E-1.0000 F1800 ;Retract a bit
G1 Z2.0 F3000 ;Move Z Axis up
G1 E0.0000 F1800 

G92 E0
G92 E0
G1 F6000 E-8

;LAYER_COUNT:63

;LAYER:0
M107
G0 F3600 X107.399 Y106.581 Z0.1
;TYPE:SUPPORT
G1 F6000 E0
G1 F1500 X108.539 Y105.928 E0.01923
G1 X109.011 Y105.928 E0.02613
G1 X109.568 Y106.695 E0.04001
G1 X108.985 Y107.498 E0.05453
G1 X108.167 Y107.819 E0.06739
G1 X107.52 Y108.669 E0.08302
G1 X107.372 Y109.356 E0.09331
G1 X107.096 Y109.556 E0.09829
G1 X107.167 Y110.667 E0.11459
G1 X107.784 Y111.596 E0.13091
G1 X108.467 Y112.536 E0.14791
G1 X109.575 Y112.848 E0.16476
G1 X110.531 Y112.63 E0.17911
G1 X111.655 Y112.424 E0.19583
G1 X112.351 Y111.546 E0.21223
G1 X112.502 Y110.868 E0.22239
G1 X112.858 Y110.609 E0.22883
G1 X112.661 Y109.461 E0.24588
G1 X111.562 Y107.415 E0.27987
G1 X112.107 Y106.665 E0.29344
G1 X113.028 Y106.965 E0.30761
G1 X114.121 Y109.004 E0.34147
G1 X114.338 Y110.097 E0.35777
G1 X113.843 Y110.899 E0.37157
G1 X113.773 Y111.884 E0.38602
G1 X113.195 Y112.841 E0.40238
G1 X112.31 Y113.206 E0.41639
G1 X111.676 Y113.989 E0.43113
G1 X110.507 Y114.163 E0.44843
G1 X109.487 Y113.881 E0.46392
G1 X108.641 Y114.074 E0.47662
G1 X108.054 Y113.386 E0.48985
G1 X106.986 Y113.032 E0.50632
G1 X106.8 Y112.361 E0.51651
G1 X106.136 Y111.446 E0.53305
G1 X106.258 Y111.069 E0.53885
G1 X105.688 Y110.21 E0.55394
G1 X106.095 Y109.495 E0.56598
G1 X106.105 Y108.333 E0.58298
G1 X106.662 Y107.36 E0.59939
G1 X107.399 Y106.581 E0.61508
;;retract;;
G1 F6000 E-7.38492
;MESH:
G0 F3600 X106.967 Y105.828
G0 X108.307 Y105.06
G0 X109.452 Y105.063
G0 X110.635 Y106.695
G0 X110.186 Y108.245
G0 X111.156 Y108.467
G0 X111.627 Y109.327
G0 X110.577 Y110
;TYPE:WALL-INNER
G1 F6000 E0.61508
G1 F600 X110.288 Y110.5 E0.62565
G1 X109.712 Y110.5 E0.63619
G1 X109.423 Y110 E0.64675
G1 X109.712 Y109.5 E0.65731
G1 X110.288 Y109.5 E0.66785
G1 X110.577 Y110 E0.67842
G0 F3600 X111.039 Y110
;TYPE:WALL-OUTER
G1 F600 X110.52 Y110.9 E0.69742
G1 X109.48 Y110.9 E0.71645
G1 X108.961 Y110 E0.73545
G1 X109.48 Y109.1 E0.75446
G1 X110.52 Y109.1 E0.77348
G1 X111.039 Y110 E0.79249
G0 F3600 X110.939 Y110.173
G0 X110.518 Y109.977
G0 X110.148 Y109.74
;TYPE:SKIN
G1 F600 X109.849 Y109.74 E0.79796
G1 X109.809 Y109.809 E0.79941
G1 X110.189 Y110.189 E0.80925
G1 X110.15 Y110.259 E0.81071
G1 X109.85 Y110.259 E0.8162
G1 X109.701 Y109.999 E0.82168
G0 F3600 X110.298 Y109.999
G1 F600 X110.148 Y109.74 E0.82716
;;retract;;
G1 F6000 E-7.17284
;MESH:NONMESH
G0 F600 X110.148 Y109.74 Z0.2
G0 F3600 X112.501 Y110.887
;TIME_ELAPSED:9.853916

;LAYER:1
M140 S60
M106 S127.5
;TYPE:SUPPORT
G1 F6000 E0.82716
G1 F2250 X112.874 Y110.615 E0.8333
G1 X112.647 Y109.41 E0.84961
G1 X111.518 Y107.353 E0.88083
G1 X112.056 Y106.613 E0.893
G1 X112.968 Y106.91 E0.90576
G1 X114.064 Y108.91 E0.9361
G1 X113.907 Y109.394 E0.94287
G1 X114.309 Y110.123 E0.95395
G1 X113.822 Y110.899 E0.96614
G1 X113.758 Y111.893 E0.97939
G1 X113.195 Y112.826 E0.99389
G1 X112.301 Y113.187 E1.00671
G1 X111.667 Y113.983 E1.02025
G1 X110.501 Y114.155 E1.03593
G1 X109.5 Y113.884 E1.04973
G1 X108.667 Y114.073 E1.06109
G1 X108.049 Y113.324 E1.07401
G1 X107.422 Y113.333 E1.08235
G1 X106.786 Y112.458 E1.09674
G1 X106.147 Y111.462 E1.11249
G1 X106.273 Y111.075 E1.1179
G1 X105.699 Y110.218 E1.13163
G1 X106.125 Y109.491 E1.14284
G1 X106.126 Y108.309 E1.15856
G1 X106.67 Y107.362 E1.17309
G1 X107.454 Y106.555 E1.18806
G1 X108.618 Y105.918 E1.20571
G1 X109.088 Y105.918 E1.21197
G1 X109.639 Y106.677 E1.22444
G1 X109.065 Y107.468 E1.23745
G1 X108.173 Y107.777 E1.25001
G1 X107.527 Y108.65 E1.26445
G1 X107.379 Y109.323 E1.27362
G1 X107.081 Y109.539 E1.27852
G1 X107.158 Y110.676 E1.29368
G1 X108.458 Y112.562 E1.32415
G1 X109.582 Y112.852 E1.3396
G1 X110.524 Y112.638 E1.35245
G1 X111.665 Y112.435 E1.36787
G1 X112.35 Y111.552 E1.38274
G1 X112.501 Y110.887 E1.39181
;;retract;;
G1 F6000 E-6.60819
;MESH:
G0 F5400 X110.577 Y110
;TYPE:WALL-INNER
G1 F6000 E1.39181
G1 F600 X110.288 Y110.5 E1.40141
G1 X109.712 Y110.5 E1.41099
G1 X109.423 Y110 E1.42059
G1 X109.712 Y109.5 E1.4302
G1 X110.288 Y109.5 E1.43978
G1 X110.577 Y110 E1.44938
G0 F5400 X111.039 Y110
;TYPE:WALL-OUTER
G1 F600 X110.52 Y110.9 E1.46666
G1 X109.48 Y110.9 E1.48395
G1 X108.961 Y110 E1.50123
G1 X109.48 Y109.1 E1.51851
G1 X110.52 Y109.1 E1.5358
G1 X111.039 Y110 E1.55308
G0 F5400 X110.939 Y110.173
G0 X110.518 Y109.977
G0 X109.85 Y110.259
;TYPE:SKIN
G1 F600 X110.15 Y110.259 E1.55807
G1 X110.298 Y109.999 E1.56305
G1 X110.207 Y109.844 E1.56604
G1 X109.829 Y110.221 E1.57491
G1 X109.701 Y109.999 E1.57917
G1 X109.849 Y109.74 E1.58414
G1 X110.148 Y109.74 E1.58911
;;retract;;
G1 F6000 E-6.41089
;MESH:NONMESH
G0 F600 X110.148 Y109.74 Z0.3
G0 F5400 X112.333 Y110.797
;TIME_ELAPSED:14.417931

;LAYER:2
M106 S255
;TYPE:SUPPORT
G1 F6000 E1.58911
G1 F3000 X112.674 Y110.549 E1.59472
G1 X112.457 Y109.449 E1.60963
G1 X111.325 Y107.427 E1.64046
G1 X111.857 Y106.695 E1.6525
G1 X112.761 Y106.99 E1.66515
G1 X113.888 Y109.007 E1.69589
G1 X114.123 Y110.066 E1.71032
G1 X113.651 Y110.843 E1.72242
G1 X113.578 Y111.791 E1.73507
G1 X113.028 Y112.705 E1.74926
G1 X112.186 Y113.063 E1.76143
G1 X111.577 Y113.796 E1.77411
G1 X110.491 Y113.948 E1.7887
G1 X109.55 Y113.716 E1.80159
G1 X108.754 Y113.883 E1.81242
G1 X108.174 Y113.199 E1.82435
G1 X107.091 Y112.839 E1.83953
G1 X106.494 Y111.91 E1.85422
G1 X106.411 Y110.992 E1.86648
G1 X105.897 Y110.183 E1.87924
G1 X106.121 Y108.994 E1.89533
G1 X106.73 Y108.105 E1.90967
G1 X106.881 Y107.431 E1.91886
G1 X107.612 Y106.702 E1.93259
G1 X108.39 Y106.361 E1.94389
G1 X109.233 Y106.131 E1.95552
G1 X109.757 Y106.853 E1.96739
G1 X109.191 Y107.633 E1.98021
G1 X108.336 Y107.901 E1.99213
G1 X107.724 Y108.707 E2.00559
G1 X107.291 Y109.667 E2.01961
G1 X107.737 Y110.892 E2.03695
G1 X108.398 Y111.919 E2.0532
G1 X108.544 Y112.369 E2.05949
G1 X109.608 Y112.637 E2.07409
G1 X111.529 Y112.265 E2.10012
G1 X112.18 Y111.453 E2.11397
G1 X112.333 Y110.797 E2.12293
;MESH:
G0 F7200 X110.577 Y110
;TYPE:WALL-INNER
G1 F600 X110.288 Y110.5 E2.13253
G1 X109.712 Y110.5 E2.14211
G1 X109.423 Y110 E2.15172
G1 X109.712 Y109.5 E2.16132
G1 X110.288 Y109.5 E2.1709
G1 X110.577 Y110 E2.1805
G0 F7200 X111.039 Y110
;TYPE:WALL-OUTER
G1 F600 X110.52 Y110.9 E2.19778
G1 X109.48 Y110.9 E2.21508
G1 X108.961 Y110 E2.23235
G1 X109.48 Y109.1 E2.24963
G1 X110.52 Y109.1 E2.26693
G1 X111.039 Y110 E2.2842
G0 F7200 X110.939 Y110.173
G0 X110.518 Y109.977
G0 X110.148 Y109.74
;TYPE:SKIN
G1 F600 X109.849 Y109.74 E2.28918
G1 X109.809 Y109.809 E2.2905
G1 X110.189 Y110.189 E2.29944
G1 X110.15 Y110.259 E2.30077
G1 X109.85 Y110.259 E2.30576
G1 X109.701 Y109.999 E2.31074
G0 F7200 X110.298 Y109.999
G1 F600 X110.148 Y109.74 E2.31572
;MESH:NONMESH
G0 X110.148 Y109.74 Z0.4
G0 F7200 X112.431 Y109.401
;TIME_ELAPSED:18.055532

;LAYER:3
;TYPE:SUPPORT
G1 F3000 X111.933 Y108.537 E2.32899
G1 X111.396 Y107.862 E2.34046
G1 X111.396 Y106.903 E2.35322
G1 X112.246 Y106.626 E2.36512
G1 X112.789 Y107.282 E2.37645
G1 X113.407 Y108.169 E2.39083
G1 X113.833 Y108.91 E2.4022
G1 X113.688 Y109.358 E2.40846
G1 X114.104 Y110.094 E2.41971
G1 X113.639 Y110.848 E2.4315
G1 X113.568 Y111.806 E2.44428
G1 X113.032 Y112.698 E2.45812
G1 X112.181 Y113.056 E2.47041
G1 X111.569 Y113.8 E2.48322
G1 X110.48 Y113.948 E2.49784
G1 X109.546 Y113.72 E2.51063
G1 X108.755 Y113.884 E2.52138
G1 X108.169 Y113.182 E2.53355
G1 X107.078 Y112.822 E2.54883
G1 X106.498 Y111.916 E2.56314
G1 X106.414 Y111 E2.57538
G1 X105.92 Y110.225 E2.58761
G1 X106.33 Y109.514 E2.59853
G1 X106.336 Y108.359 E2.61389
G1 X106.855 Y107.461 E2.62769
G1 X107.656 Y106.678 E2.6426
G1 X108.492 Y106.331 E2.65464
G1 X109.312 Y106.113 E2.66593
G1 X109.837 Y106.836 E2.67781
G1 X109.273 Y107.613 E2.69059
G1 X108.344 Y107.871 E2.70341
G1 X107.743 Y108.697 E2.717
G1 X107.297 Y109.626 E2.73071
G1 X107.384 Y110.626 E2.74407
G1 X107.946 Y111.508 E2.75798
G1 X108.573 Y112.379 E2.77226
G1 X109.602 Y112.633 E2.78636
G1 X111.531 Y112.269 E2.81248
G1 X112.168 Y111.458 E2.8262
G1 X112.323 Y110.813 E2.83502
G1 X112.679 Y110.553 E2.84089
G1 X112.431 Y109.401 E2.85657
;MESH:
G0 F7200 X110.577 Y110
;TYPE:WALL-INNER
G1 F600 X110.288 Y110.5 E2.86617
G1 X109.712 Y110.5 E2.87575
G1 X109.423 Y110 E2.88535
G1 X109.712 Y109.5 E2.89496
G1 X110.288 Y109.5 E2.90454
G1 X110.577 Y110 E2.91414
G0 F7200 X111.039 Y110
;TYPE:WALL-OUTER
G1 F600 X110.52 Y110.9 E2.93142
G1 X109.48 Y110.9 E2.94871
G1 X108.961 Y110 E2.96599
G1 X109.48 Y109.1 E2.98327
G1 X110.52 Y109.1 E3.00056
G1 X111.039 Y110 E3.01784
G0 F7200 X110.939 Y110.173
G0 X110.518 Y109.977
G0 X110.447 Y109.887
;TYPE:SKIN
G1 F600 X109.89 Y110.444 E3.02439
G0 F7200 X109.694 Y110.357
G1 F600 X110.343 Y109.708 E3.03202
G0 F7200 X110.213 Y109.554
G1 F600 X109.59 Y110.178 E3.03935
G0 F7200 X109.486 Y109.999
G1 F600 X109.931 Y109.554 E3.04459
G0 F7200 X110.37 Y110.247
G1 F600 X110.172 Y110.444 E3.04691
;;retract;;
G1 F6000 E-4.95309
;MESH:NONMESH
G0 F600 X110.172 Y110.444 Z0.5
G0 F7200 X109.868 Y111.733
G0 X108.384 Y109.408
G0 X106.554 Y106.54
G0 X107.198 Y107.198
;TIME_ELAPSED:22.282499

;LAYER:4
;TYPE:SUPPORT-INTERFACE
G1 F6000 E3.04691
G1 F1999.8 X108.509 Y108.509 E3.07157
G0 F7200 X107.898 Y109.595
G1 F1999.8 X106.538 Y108.235 E3.09716
G0 F7200 X106.158 Y109.552
G1 F1999.8 X110.515 Y113.909 E3.17914
G0 F7200 X111.885 Y113.582
G1 F1999.8 X110.432 Y112.129 E3.20648
G0 F7200 X111.492 Y111.492
G1 F1999.8 X112.852 Y112.852 E3.23206
G0 F7200 X113.518 Y111.821
G1 F1999.8 X112.159 Y110.462 E3.25763
G0 F7200 X113.962 Y110.568
G1 F1999.8 X110.911 Y107.517 E3.31504
G0 F7200 X111.64 Y106.548
G1 F1999.8 X113.312 Y108.221 E3.34651
G0 F7200 X113.338 Y108.247
G1 F1999.8 X113.639 Y108.548 E3.35217
;;retract;;
G1 F6000 E-4.64783
G0 F7200 X113.92 Y107.848
G0 X110.229 Y108.259
G0 X109.606 Y107.909
G1 F6000 E3.35217
G1 F1999.8 X108.079 Y106.382 E3.3809
G0 F7200 X109.785 Y106.391
G1 F1999.8 X109.974 Y106.58 E3.38445
;;retract;;
G1 F6000 E-4.61555
G0 F7200 X110.592 Y106.365
G0 X109.695 Y105.488
G0 X108.675 Y105.434
G0 X107.967 Y105.645
G0 X107.128 Y106.235
G0 X106.308 Y107.008
G0 X105.751 Y107.974
G0 X105.475 Y108.961
G0 X105.23 Y110.184
G0 X105.816 Y111.768
G0 X106.443 Y111.534
G1 F6000 E3.38445
G1 F1999.8 X108.084 Y113.175 E3.41533
G0 F7200 X108.267 Y113.358
G1 F1999.8 X108.605 Y113.697 E3.4217
;;retract;;
G1 F6000 E-4.5783
;MESH:
G0 F7200 X108.203 Y114.232
G0 X110.488 Y108.248
G0 X110.577 Y110
;TYPE:WALL-INNER
G1 F6000 E3.4217
G1 F600 X110.288 Y110.5 E3.4313
G1 X109.712 Y110.5 E3.44088
G1 X109.423 Y110 E3.45049
G1 X109.712 Y109.5 E3.46009
G1 X110.288 Y109.5 E3.46967
G1 X110.577 Y110 E3.47927
G0 F7200 X111.039 Y110
;TYPE:WALL-OUTER
G1 F600 X110.52 Y110.9 E3.49655
G1 X109.48 Y110.9 E3.51385
G1 X108.961 Y110 E3.53112
G1 X109.48 Y109.1 E3.5484
G1 X110.52 Y109.1 E3.5657
G1 X111.039 Y110 E3.58297
G0 F7200 X110.939 Y110.173
G0 X110.518 Y109.977
G0 X110.44 Y109.875
;TYPE:SKIN
G1 F600 X110.12 Y109.554 E3.58674
G0 F7200 X109.837 Y109.554
G1 F600 X110.428 Y110.146 E3.5937
G0 F7200 X110.325 Y110.325
G1 F600 X109.673 Y109.673 E3.60136
G0 F7200 X109.57 Y109.853
G1 F600 X110.161 Y110.444 E3.60831
G0 F7200 X109.878 Y110.444
G1 F600 X109.558 Y110.124 E3.61208
;;retract;;
G1 F6000 E-4.38792
;MESH:NONMESH
G0 F600 X109.558 Y110.124 Z0.6
G0 F7200 X110.229 Y108.259
G0 X105.558 Y109.168
G0 X106.367 Y109.158
;TIME_ELAPSED:29.387663

;LAYER:5
;TYPE:SUPPORT-INTERFACE
G1 F6000 E3.61208
G1 F1999.8 X109.347 Y106.178 E3.66814
G0 F7200 X110.558 Y106.664
G1 F1999.8 X109.002 Y108.22 E3.69742
G0 F7200 X108.6 Y108.622
G1 F1999.8 X106.411 Y110.812 E3.73862
G0 F7200 X106.93 Y111.989
G1 F1999.8 X108.213 Y110.706 E3.76275
G0 F7200 X108.9 Y111.717
G1 F1999.8 X107.613 Y113.004 E3.78697
G0 F7200 X108.685 Y113.628
G1 F1999.8 X110.415 Y111.898 E3.81952
G0 F7200 X110.163 Y113.847
G1 F1999.8 X113.985 Y110.025 E3.89143
G0 F7200 X113.606 Y108.707
G1 F1999.8 X112.026 Y110.287 E3.92116
G0 F7200 X111.616 Y109.001
G1 F1999.8 X112.994 Y107.623 E3.94708
G0 F7200 X112.162 Y106.757
G1 F1999.8 X110.808 Y108.111 E3.97256
;;retract;;
G1 F6000 E-4.02744
G0 F7200 X110.889 Y106.056
G0 X112.203 Y105.942
G0 X112.976 Y106.544
G0 X113.584 Y107.236
G0 X114.058 Y108.058
G0 X114.44 Y108.961
G0 X114.737 Y110.086
G0 X114.516 Y111.067
G0 X114.144 Y112.223
G0 X112.994 Y112.713
G1 F6000 E3.97256
G1 F1999.8 X112.877 Y112.83 E3.97476
;MESH:
G0 F7200 X110.577 Y110
;TYPE:WALL-INNER
G1 F600 X110.288 Y110.5 E3.98436
G1 X109.712 Y110.5 E3.99394
G1 X109.423 Y110 E4.00355
G1 X109.712 Y109.5 E4.01315
G1 X110.288 Y109.5 E4.02273
G1 X110.577 Y110 E4.03233
G0 F7200 X111.039 Y110
;TYPE:WALL-OUTER
G1 F600 X110.52 Y110.9 E4.04961
G1 X109.48 Y110.9 E4.06691
G1 X108.961 Y110 E4.08418
G1 X109.48 Y109.1 E4.10146
G1 X110.52 Y109.1 E4.11876
G1 X111.039 Y110 E4.13603
G0 F7200 X110.939 Y110.173
G0 X110.518 Y109.977
G0 X110.447 Y109.887
;TYPE:SKIN
G1 F600 X109.89 Y110.444 E4.14258
G0 F7200 X109.694 Y110.357
G1 F600 X110.343 Y109.708 E4.15022
