;FLAVOR:Marlin
;TIME:3753
;Filament used:0.437982m
;Layer height: 0.1
;MINX:99.33
;MINY:103.33
;MINZ:0.1
;MAXX:120.67
;MAXY:116.67
;MAXZ:8.8
                                 
;Creality Print GCode Generated by CXEngine:NO_MAGE_VERSION_GIT_HEAD_BRANCH
;CXEngine Release Time:2022-09-30 09:53:04
;Gcode Generated Time:2023-04-02 17:49:28
;----------Machine Config--------------
;Machine Name:Ender-3 V2
;Machine Height:250
;Machine Width:220
;Machine Depth:220
;Material name:PLA
;Number of Extruders:1
;ExtruderParams[0] Nozzle Diameter1000
;----------Profile Config---------------
;Engine Version:275f99b
;Engine Release Time:2022-09-30 09:42:18
;Layer Height:0.1
;Wall Thickness:0.8
;Top/Bottom Thickness:0.5
;Out Wall Line Width:0.4
;Inner Wall Line Width:0.4
;Inital Layer Height:100
;Wall Line Count:2
;Infill Line Distance:4
;Infill Pattern:grid
;Infill Sparse Density:20
;Infill Wipe Distance:0
;Print Temperature:200
;Bed Temperature:60
;Support Enable:false
;Support Density:30
;Support Angle:60
;Adhesion Type:none
;machine is belt:false
;machine belt offset:10
;machine belt offset Y:0
;Raft Base Line Spacing:1.6
;Wait Heatup Sync:true
;----------Shell Config----------------
;Outer Wall Wipe Distance:200
;Outer Inset First:false
;Infill Before Walls:false
;Infill Overlap:0.16
;Fill Gaps Between Walls:everywhere
;Minimum Infill Area:1
;Top Surface Skin Layer:0
;Top Layers:4
;Z Seam Alignment:sharpest_corner
;Seam Corner Preference:z_seam_corner_inner
;Z Seam X:110
;Z Seam Y:110
;Horizontal Expansion:0
;Top/Bottom Pattern:zigzag
;Ironing Pattern:zigzag
;Vase Model:false
;----------Support Config----------------
;Support Type:everywhere
;Support Pattern:zigzag
;Support Infill Layer Thickness:0.1
;Minimum Support Area:5
;Enable Support Roof:false
;Support Roof Thickness:0.8
;Support Roof Pattern:lines
;Connect Support Lines:0
;Connect Support ZigZags:1
;Minimum Support X/Y Distance:0.2
;Support Line Distance:1.33
; ---------PrintSpeed & Travel----------
;Enable Print Cool:true
;Avoid Printed Parts Traveling:true
;Enable Retraction:true
;Retraction Distance:8
;Retraction Speed:100
;Retraction Prime Speed:100
;Maximum Retraction Count:100
;Minimum Extrusion Distance Window:1
;Z Hop When Retracted:false
;Z Hop Height:0.2
;Retract Before Outer Wall:true
;Print Speed:50
;Infill Speed:50

;Prime Tower Speed:50
;Travel Speed:120
;Initial Layer Speed:25
;Skirt/Brim Speed:25
;Combing Mode:infill
; --------SpecialModel&Mesh Fixes--------
;Union Overlapping Volum:true
;Remove All Holes:false
;Maximum Travel Resolution:0.6
;Maximum Deviation:0.05
;Maximum Model Angle:0.872665
;IS Mold Print:false
;Make Overhang Printable:false
;Enable Coasting:false
;Coasting Volumes:0.06
;Coasting Speed:0.9
;Raft AirGap:0.25
;Layer0 ZOverLap:0.13
;---------------------End of Head--------------------------
M140 S60
M105
M104 S200
M105
M109 S200
M105
M190 S60
M82 ;absolute extrusion mode
M220 S100 ;Reset Feedrate
M221 S100 ;Reset Flowrate

G28 ;Home

G92 E0 ;Reset Extruder
G1 Z2.0 F3000 ;Move Z Axis up
G1 X10.1 Y20 Z0.28 F5000.0 ;Move to start position
G1 X10.1 Y145.0 Z0.28 F1500.0 E15 ;Draw the first line
G1 X10.4 Y145.0 Z0.28 F5000.0 ;Move to side a little
G1 X10.4 Y20 Z0.28 F1500.0 E30 ;Draw the second line
G92 E0  ;Reset Extruder
G1 E-1.0000 F1800 ;Retract a bit
G1 Z2.0 F3000 ;Move Z Axis up
G1 E0.0000 F1800 

G92 E0
G92 E0
G1 F6000 E-8

;LAYER_COUNT:88

;LAYER:0
M107
;MESH:
G0 F3600 X117.576 Y115.4 Z0.1
;;retract;;
G0 X118.491 Y114.503
G0 X120.67 Y106.407
G0 X119.4 Y106.407
;TYPE:WALL-INNER
G1 F6000 E0
G1 F1500 X119.4 Y106.652 E0.00448
G1 X119.4 Y106.744 E0.00616
G1 X119.4 Y109.143 E0.05005
G1 X119.4 Y109.655 E0.05942
G1 X119.4 Y110.332 E0.0718
G1 X119.4 Y110.864 E0.08153
G1 X119.4 Y113.238 E0.12496
G1 X119.4 Y113.406 E0.12803
G1 X119.4 Y113.589 E0.13138
G1 X119.239 Y113.406 E0.13292
G1 X119.081 Y113.351 E0.13523
G1 X118.611 Y113.185 E0.14435
G1 X118.052 Y113.281 E0.15473
G1 X117.957 Y113.297 E0.15649
G1 X117.728 Y113.482 E0.16187
G1 X117.439 Y113.715 E0.16866
G1 X117.413 Y113.78 E0.16994
G1 X117.191 Y114.332 E0.18083
G1 X117.274 Y114.992 E0.193
G1 X117.341 Y115.083 E0.19506
G1 X117.576 Y115.4 E0.20228
G1 X117.182 Y115.4 E0.20627
G1 X117.181 Y115.4 E0.20629
G1 X112.791 Y115.4 E0.2866
G1 X112.49 Y115.4 E0.2921
G1 X112.447 Y115.4 E0.29289
G1 X112.49 Y115.371 E0.29303
G1 X112.626 Y115.103 E0.29635
G1 X112.79 Y114.779 E0.303
G1 X112.762 Y114.113 E0.31519
G1 X112.532 Y113.742 E0.32318
G1 X112.44 Y113.593 E0.32638
G1 X112.296 Y113.476 E0.32977
G1 X112.186 Y113.386 E0.33237
G1 X111.983 Y113.315 E0.33631
G1 X111.61 Y113.185 E0.34353
G1 X110.957 Y113.297 E0.35565
G1 X110.439 Y113.715 E0.36783
G1 X110.191 Y114.332 E0.37999
G1 X110.274 Y114.992 E0.39216
G1 X110.341 Y115.083 E0.39423
G1 X110.575 Y115.4 E0.40144
G1 X110.181 Y115.4 E0.40543
G1 X110.18 Y115.4 E0.40545
G1 X103.198 Y115.4 E0.53317
G1 X102.814 Y115.4 E0.54019
G1 X102.328 Y115.4 E0.54908
G1 X102.033 Y115.4 E0.55448
G1 X101.574 Y115.4 E0.56288
G1 X101.421 Y115.4 E0.56568
G1 X100.6 Y115.4 E0.58069
G1 X100.6 Y114.522 E0.59676
G1 X100.6 Y114.36 E0.59972
G1 X100.6 Y113.864 E0.60879
G1 X100.6 Y113.356 E0.61809
G1 X100.6 Y113.046 E0.62376
G1 X100.6 Y104.6 E0.77826
G1 X106.813 Y104.6 E0.89191
G1 X106.845 Y104.6 E0.8925
G1 X107.307 Y104.6 E0.90095
G1 X107.82 Y104.6 E0.91034
G1 X108.31 Y104.6 E0.9193
G1 X108.582 Y104.6 E0.92428
G1 X110.229 Y104.6 E0.9544
G1 X110.439 Y104.6 E0.95825
G1 X110.582 Y104.6 E0.96086
G1 X110.439 Y104.715 E0.9618
G1 X110.361 Y104.91 E0.96451
G1 X110.191 Y105.332 E0.97284
G1 X110.274 Y105.992 E0.985
G1 X110.671 Y106.528 E0.99721
G1 X111.229 Y106.779 E1.0084
G1 X111.551 Y106.806 E1.01431
G1 X111.971 Y106.697 E1.02225
G1 X112.144 Y106.652 E1.02552
G1 X112.258 Y106.543 E1.0284
G1 X112.6 Y106.215 E1.03707
G1 X112.624 Y106.192 E1.03768
G1 X112.818 Y105.557 E1.04982
G1 X112.69 Y104.961 E1.06098
G1 X112.679 Y104.906 E1.062
G1 X112.41 Y104.6 E1.06946
G1 X112.679 Y104.6 E1.07089
G1 X112.736 Y104.6 E1.07184
G1 X117.229 Y104.6 E1.15403
G1 X117.439 Y104.6 E1.15787
G1 X117.582 Y104.6 E1.16049
G1 X117.439 Y104.715 E1.16143
G1 X117.361 Y104.91 E1.16414
G1 X117.191 Y105.332 E1.17246
G1 X117.274 Y105.992 E1.18463
G1 X117.474 Y106.262 E1.19078
G1 X117.671 Y106.528 E1.19683
G1 X118.008 Y106.679 E1.20359
G1 X118.229 Y106.779 E1.20803
G1 X118.551 Y106.806 E1.21394
G1 X119.055 Y106.675 E1.22346
G1 X119.144 Y106.652 E1.22461
G1 X119.4 Y106.407 E1.22766
;;retract;;
G1 F6000 E-6.77234
G0 F3600 X120.67 Y106.407
G0 X118.494 Y114.508
G0 X117.93 Y115.206
;TYPE:WALL-OUTER
G1 F6000 E1.22766
G1 F600 X118.331 Y115.386 E1.2357
G1 X118.494 Y115.401 E1.2387
G1 X118.517 Y115.402 E1.23912
G1 X118.523 Y115.401 E1.23923
G1 X118.942 Y115.291 E1.24715
G1 X119.272 Y114.975 E1.25551
G1 X119.401 Y114.554 E1.26357
G1 X119.405 Y114.539 E1.26385
G1 X119.401 Y114.517 E1.26426
G1 X119.31 Y114.092 E1.27221
G1 X119.008 Y113.749 E1.28057
G1 X118.576 Y113.597 E1.28895
G1 X118.127 Y113.674 E1.29728
G1 X117.771 Y113.961 E1.30565
G1 X117.601 Y114.385 E1.314
G1 X117.658 Y114.838 E1.32235
G1 X117.93 Y115.206 E1.33073
G0 F3600 X118.112 Y115.288
;;retract;;
G1 F6000 E-6.66927
G0 F3600 X118.494 Y114.508
G0 X111.509 Y114.498
G0 X112.367 Y114.234
G1 F6000 E1.33073
G1 F600 X112.136 Y113.861 E1.33875
G1 X111.988 Y113.741 E1.34224
G1 X111.576 Y113.597 E1.35022
G1 X111.127 Y113.674 E1.35855
G1 X110.771 Y113.961 E1.36692
G1 X110.601 Y114.385 E1.37528
G1 X110.658 Y114.838 E1.38363
G1 X110.93 Y115.206 E1.392
G1 X111.347 Y115.394 E1.40037
G1 X111.802 Y115.355 E1.40872
G1 X112.18 Y115.098 E1.41708
G1 X112.386 Y114.691 E1.42543
G1 X112.367 Y114.234 E1.43379
G0 F3600 X112.262 Y114.064
G0 X112.636 Y113.832
;;retract;;
G1 F6000 E-6.56621
G0 F3600 X111.506 Y114.491
G0 X102.089 Y113.72
G0 X100.853 Y113.356
;TYPE:WALL-INNER
G1 F6000 E1.43379
G1 F600 X100.794 Y113.864 E1.43905
G1 X100.905 Y114.36 E1.44493
G1 X100.991 Y114.497 E1.44755
G1 X101.177 Y114.79 E1.4539
G1 X101.455 Y115.014 E1.46043
G1 X101.574 Y115.109 E1.46286
G1 X102.033 Y115.266 E1.46775
G1 X102.328 Y115.29 E1.46941
G1 X102.814 Y115.204 E1.47293
G1 X103.148 Y115.015 E1.47822
G1 X103.258 Y114.952 E1.48054
G1 X103.59 Y114.566 E1.48986
G1 X103.778 Y114.09 E1.49922
G1 X103.794 Y113.582 E1.50852
G1 X103.642 Y113.096 E1.51783
G1 X103.334 Y112.687 E1.5272
G1 X102.91 Y112.407 E1.53649
G1 X102.42 Y112.282 E1.54574
G1 X101.908 Y112.33 E1.55515
G1 X101.445 Y112.544 E1.56448
G1 X101.08 Y112.9 E1.57381
G1 X100.991 Y113.079 E1.57746
G1 X100.853 Y113.356 E1.58211
G0 F3600 X101.242 Y113.472
;TYPE:WALL-OUTER
G1 F600 X101.199 Y113.843 E1.58895
G1 X101.28 Y114.205 E1.59573
G1 X101.479 Y114.52 E1.60255
G1 X101.77 Y114.753 E1.60937
G1 X102.115 Y114.871 E1.61604
G1 X102.309 Y114.887 E1.6196
G1 X102.676 Y114.822 E1.62642
G1 X103 Y114.638 E1.63323
G1 X103.243 Y114.356 E1.64004
G1 X103.38 Y114.008 E1.64688
G1 X103.392 Y113.637 E1.65367
G1 X103.281 Y113.281 E1.6605
G1 X103.056 Y112.983 E1.66733
G1 X102.746 Y112.778 E1.67413
G1 X102.388 Y112.687 E1.68088
G1 X102.013 Y112.722 E1.68777
G1 X101.675 Y112.878 E1.69458
G1 X101.408 Y113.139 E1.70141
G1 X101.242 Y113.472 E1.70822
G0 F3600 X101.219 Y113.67
G0 X100.783 Y113.619
;;retract;;
G1 F6000 E-6.29178
G0 F3600 X102.089 Y113.72
G0 X104.999 Y108.625
G0 X104.998 Y107.345
;TYPE:WALL-INNER
G1 F6000 E1.70822
G1 F661.4 X104.341 Y107.429 E1.72034
G1 X103.905 Y107.585 E1.72881
G1 X103.512 Y107.805 E1.73705
G1 X103.164 Y108.087 E1.74524
G1 X102.867 Y108.426 E1.75348
G1 X102.631 Y108.809 E1.76171
G1 X102.464 Y109.227 E1.76995
G1 X102.37 Y109.666 E1.77816
G1 X102.35 Y110.115 E1.78638
G1 X102.409 Y110.563 E1.79465
G1 X102.54 Y110.991 E1.80284
G1 X102.742 Y111.393 E1.81107
G1 X103.011 Y111.754 E1.8193
G1 X103.336 Y112.064 E1.82752
G1 X103.708 Y112.316 E1.83574
G1 X104.119 Y112.502 E1.84399
G1 X104.555 Y112.615 E1.85223
G1 X105.002 Y112.652 E1.86043
G1 X105.451 Y112.614 E1.86868
G1 X105.887 Y112.499 E1.87693
G1 X106.297 Y112.313 E1.88516
G1 X106.67 Y112.061 E1.8934
G1 X106.994 Y111.747 E1.90165
G1 X107.26 Y111.387 E1.90984
G1 X107.462 Y110.984 E1.91808
G1 X107.592 Y110.556 E1.92627
G1 X107.65 Y110.108 E1.93453
G1 X107.629 Y109.659 E1.94275
G1 X107.535 Y109.22 E1.95097
G1 X107.365 Y108.801 E1.95924
G1 X107.129 Y108.42 E1.96744
G1 X106.831 Y108.083 E1.97566
G1 X106.481 Y107.801 E1.98389
G1 X106.09 Y107.582 E1.99209
G1 X105.653 Y107.428 E2.00056
G1 X104.998 Y107.345 E2.01264
G0 F3600 X104.998 Y107.748
;TYPE:WALL-OUTER
G1 F600 X104.435 Y107.82 E2.02302
G1 X104.071 Y107.95 E2.03009
G1 X103.737 Y108.137 E2.03709
G1 X103.442 Y108.376 E2.04404
G1 X103.19 Y108.664 E2.05104
G1 X102.99 Y108.989 E2.05802
G1 X102.848 Y109.344 E2.06502
G1 X102.768 Y109.717 E2.07199
G1 X102.751 Y110.098 E2.07897
G1 X102.801 Y110.477 E2.08596
G1 X102.913 Y110.841 E2.09293
G1 X103.084 Y111.182 E2.09991
G1 X103.312 Y111.488 E2.10689
G1 X103.588 Y111.752 E2.11388
G1 X103.904 Y111.966 E2.12086
G1 X104.252 Y112.123 E2.12784
G1 X104.622 Y112.219 E2.13483
G1 X105.002 Y112.251 E2.14181
G1 X105.383 Y112.218 E2.14881
G1 X105.753 Y112.121 E2.1558
G1 X106.101 Y111.963 E2.16279
G1 X106.417 Y111.749 E2.16978
G1 X106.692 Y111.483 E2.17677
G1 X106.918 Y111.177 E2.18373
G1 X107.089 Y110.835 E2.19073
G1 X107.2 Y110.471 E2.19769
G1 X107.249 Y110.092 E2.20468
G1 X107.231 Y109.711 E2.21166
G1 X107.151 Y109.338 E2.21864
G1 X107.007 Y108.983 E2.22564
G1 X106.807 Y108.659 E2.23261
G1 X106.554 Y108.373 E2.23959
G1 X106.257 Y108.134 E2.24657
G1 X105.924 Y107.948 E2.25355
G1 X105.56 Y107.819 E2.26061
G1 X104.998 Y107.748 E2.27097
G0 F3600 X104.8 Y107.773
G0 X104.746 Y107.337
;;retract;;
G1 F6000 E-5.72903
G0 F3600 X104.999 Y108.625
G0 X107.683 Y106.439
G0 X108.214 Y107.633
;TYPE:WALL-INNER
G1 F6000 E2.27097
G1 F600 X108.658 Y107.379 E2.28033
G1 X108.99 Y106.994 E2.28963
G1 X109.178 Y106.519 E2.29897
G1 X109.194 Y106.012 E2.30825
G1 X109.042 Y105.524 E2.3176
G1 X108.734 Y105.115 E2.32697
G1 X108.537 Y104.984 E2.3313
G1 X108.31 Y104.835 E2.33529
G1 X107.82 Y104.71 E2.3394
G1 X107.307 Y104.758 E2.34259
G1 X106.845 Y104.973 E2.34901
G1 X106.823 Y104.995 E2.34956
G1 X106.48 Y105.327 E2.35829
G1 X106.253 Y105.784 E2.36762
G1 X106.194 Y106.291 E2.37696
G1 X106.305 Y106.789 E2.38629
G1 X106.577 Y107.22 E2.39562
G1 X106.976 Y107.537 E2.40494
G1 X107.432 Y107.694 E2.41376
G1 X107.727 Y107.718 E2.41918
G1 X108.214 Y107.633 E2.42822
G0 F3600 X108.076 Y107.251
;TYPE:WALL-OUTER
G1 F600 X108.4 Y107.066 E2.43505
G1 X108.643 Y106.784 E2.44185
G1 X108.78 Y106.437 E2.44868
G1 X108.792 Y106.066 E2.45547
G1 X108.681 Y105.709 E2.46231
G1 X108.456 Y105.411 E2.46914
G1 X108.146 Y105.206 E2.47594
G1 X107.788 Y105.115 E2.4827
G1 X107.413 Y105.15 E2.48958
G1 X107.075 Y105.307 E2.4964
G1 X106.808 Y105.566 E2.50321
G1 X106.642 Y105.9 E2.51003
G1 X106.599 Y106.27 E2.51684
G1 X106.68 Y106.634 E2.52367
G1 X106.879 Y106.949 E2.53048
G1 X107.171 Y107.181 E2.5373
G1 X107.515 Y107.299 E2.54396
G1 X107.709 Y107.315 E2.54752
G1 X108.076 Y107.251 E2.55433
G0 F3600 X108.249 Y107.152
G0 X108.466 Y107.535
;;retract;;
G1 F6000 E-5.44567
G0 F3600 X107.841 Y106.385
G0 X112.257 Y109.308
G0 X111.021 Y109
;TYPE:WALL-INNER
G1 F6000 E2.55433
G1 F1500 X110.912 Y109.684 E2.567
G1 X110.915 Y110.361 E2.57939
G1 X111.03 Y111.028 E2.59177
G1 X111.254 Y111.668 E2.60417
G1 X111.579 Y112.26 E2.61653
G1 X111.983 Y112.78 E2.62857
G1 X112.236 Y113.012 E2.63485
G1 X112.395 Y113.157 E2.63836
G1 X112.486 Y113.241 E2.64006
G1 X112.614 Y113.324 E2.64216
G1 X112.761 Y113.42 E2.64506
G1 X113.054 Y113.61 E2.65145
G1 X113.674 Y113.881 E2.66383
G1 X114.33 Y114.046 E2.6762
G1 X115.005 Y114.102 E2.68859
G1 X115.681 Y114.045 E2.701
G1 X116.337 Y113.877 E2.71339
G1 X116.959 Y113.604 E2.72582
G1 X117.185 Y113.456 E2.73076
G1 X117.243 Y113.418 E2.73196
G1 X117.525 Y113.232 E2.73716
G1 X117.725 Y113.047 E2.74126
G1 X117.796 Y112.982 E2.7429
G1 X118.022 Y112.773 E2.74853
G1 X118.437 Y112.238 E2.76092
G1 X118.759 Y111.642 E2.77331
G1 X118.978 Y111.001 E2.7857
G1 X119.002 Y110.857 E2.78837
G1 X119.088 Y110.332 E2.79705
G1 X119.087 Y109.655 E2.80675
G1 X119.002 Y109.15 E2.81511
G1 X118.974 Y108.987 E2.81813
G1 X118.753 Y108.346 E2.83054
G1 X118.431 Y107.752 E2.8429
G1 X118.013 Y107.218 E2.8553
G1 X117.786 Y107.009 E2.86095
G1 X117.514 Y106.759 E2.8667
G1 X117.236 Y106.579 E2.87186
G1 X116.946 Y106.39 E2.8782
G1 X116.326 Y106.119 E2.89057
G1 X115.67 Y105.954 E2.90295
G1 X114.995 Y105.898 E2.91534
G1 X114.319 Y105.955 E2.92775
G1 X113.663 Y106.123 E2.94014
G1 X113.041 Y106.396 E2.95256
G1 X112.871 Y106.508 E2.95629
G1 X112.475 Y106.768 E2.96401
G1 X112.355 Y106.879 E2.96635
G1 X112.224 Y107 E2.96925
G1 X111.978 Y107.227 E2.97537
G1 X111.563 Y107.762 E2.98776
G1 X111.241 Y108.358 E3.00015
G1 X111.021 Y109 E3.01257
G0 F3600 X111.411 Y109.097
;TYPE:WALL-OUTER
G1 F1500 X111.312 Y109.715 E3.02402
G1 X111.315 Y110.326 E3.03519
G1 X111.419 Y110.927 E3.04635
G1 X111.621 Y111.505 E3.05755
G1 X111.914 Y112.04 E3.06871
G1 X112.278 Y112.508 E3.07956
G1 X112.732 Y112.924 E3.09082
G1 X113.244 Y113.257 E3.10199
G1 X113.804 Y113.501 E3.11317
G1 X114.396 Y113.65 E3.12433
G1 X115.005 Y113.701 E3.13551
G1 X115.614 Y113.649 E3.14669
G1 X116.206 Y113.498 E3.15787
G1 X116.767 Y113.251 E3.16908
G1 X117.278 Y112.916 E3.18026
G1 X117.726 Y112.502 E3.19142
G1 X118.101 Y112.019 E3.20261
G1 X118.391 Y111.481 E3.21379
G1 X118.589 Y110.903 E3.22496
G1 X118.688 Y110.3 E3.23614
G1 X118.687 Y109.689 E3.24732
G1 X118.585 Y109.086 E3.25851
G1 X118.386 Y108.508 E3.26969
G1 X118.095 Y107.972 E3.28085
G1 X117.718 Y107.49 E3.29204
G1 X117.268 Y107.076 E3.30323
G1 X116.756 Y106.743 E3.3144
G1 X116.196 Y106.499 E3.32557
G1 X115.604 Y106.35 E3.33674
G1 X114.995 Y106.299 E3.34792
G1 X114.386 Y106.351 E3.3591
G1 X113.794 Y106.502 E3.37028
G1 X113.233 Y106.749 E3.38149
G1 X112.722 Y107.084 E3.39267
G1 X112.274 Y107.498 E3.40383
G1 X111.899 Y107.981 E3.41501
G1 X111.609 Y108.519 E3.42619
G1 X111.411 Y109.097 E3.43737
G0 F3600 X111.38 Y109.294
G0 X110.945 Y109.224
;;retract;;
G1 F6000 E-4.56263
G0 F3600 X112.257 Y109.308
G0 X111.51 Y105.502
G0 X112.31 Y105.092
G1 F6000 E3.43737
G1 F600 X112.008 Y104.749 E3.44573
G1 X111.583 Y104.599 E3.45397
