;FLAVOR:Marlin
;TIME:6822
;Filament used:1.94978m
;Layer height: 0.1
;MINX:103.303
;MINY:104.33
;MINZ:0.1
;MAXX:116.701
;MAXY:115.67
;MAXZ:57.4
                              
;Creality Print GCode Generated by CXEngine:NO_MAGE_VERSION_GIT_HEAD_BRANCH
;CXEngine Release Time:2022-09-30 09:53:04
;Gcode Generated Time:2023-03-09 05:44:55
;----------Machine Config--------------
;Machine Name:Creality Ender-3
;Machine Height:250
;Machine Width:220
;Machine Depth:220
;Material name:PLA
;Number of Extruders:1
;ExtruderParams[0] Nozzle Diameter1000
;----------Profile Config---------------
;Engine Version:275f99b
;Engine Release Time:2022-09-30 09:42:18
;Layer Height:0.1
;Wall Thickness:0.8
;Top/Bottom Thickness:0.5
;Out Wall Line Width:0.4
;Inner Wall Line Width:0.4
;Inital Layer Height:100
;Wall Line Count:2
;Infill Line Distance:4
;Infill Pattern:grid
;Infill Sparse Density:20
;Infill Wipe Distance:0
;Print Temperature:200
;Bed Temperature:60
;Support Enable:true
;Support Density:0
;Support Angle:60
;Adhesion Type:none
;machine is belt:false
;machine belt offset:10
;machine belt offset Y:0
;Raft Base Line Spacing:1.6
;Wait Heatup Sync:true
;----------Shell Config----------------
;Outer Wall Wipe Distance:200
;Outer Inset First:false
;Infill Before Walls:false
;Infill Overlap:0.16
;Fill Gaps Between Walls:everywhere
;Minimum Infill Area:1
;Top Surface Skin Layer:0
;Top Layers:4
;Z Seam Alignment:sharpest_corner
;Seam Corner Preference:z_seam_corner_inner
;Z Seam X:110
;Z Seam Y:110
;Horizontal Expansion:0
;Top/Bottom Pattern:zigzag
;Ironing Pattern:zigzag
;Vase Model:false
;----------Support Config----------------
;Support Type:everywhere
;Support Pattern:zigzag
;Support Infill Layer Thickness:0.1
;Minimum Support Area:5
;Enable Support Roof:true
;Support Roof Thickness:0.8
;Support Roof Pattern:lines
;Connect Support Lines:0
;Connect Support ZigZags:0
;Minimum Support X/Y Distance:0.2
;Support Line Distance:0
; ---------PrintSpeed & Travel----------
;Enable Print Cool:true
;Avoid Printed Parts Traveling:true
;Enable Retraction:true
;Retraction Distance:8
;Retraction Speed:100
;Retraction Prime Speed:100
;Maximum Retraction Count:100
;Minimum Extrusion Distance Window:1
;Z Hop When Retracted:false
;Z Hop Height:0.2
;Retract Before Outer Wall:true
;Print Speed:50
;Infill Speed:50

;Prime Tower Speed:50
;Travel Speed:120
;Initial Layer Speed:25
;Skirt/Brim Speed:25
;Combing Mode:infill
; --------SpecialModel&Mesh Fixes--------
;Union Overlapping Volum:true
;Remove All Holes:false
;Maximum Travel Resolution:0.6
;Maximum Deviation:0.05
;Maximum Model Angle:0.872665
;IS Mold Print:false
;Make Overhang Printable:false
;Enable Coasting:false
;Coasting Volumes:0.06
;Coasting Speed:0.9
;Raft AirGap:0.25
;Layer0 ZOverLap:0.13
;---------------------End of Head--------------------------
M140 S60
M105
M104 S200
M105
M109 S200
M105
M190 S60
M82 ;absolute extrusion mode
M220 S100 ;Reset Feedrate
M221 S100 ;Reset Flowrate

G28 ;Home

G92 E0 ;Reset Extruder
G1 Z2.0 F3000 ;Move Z Axis up
G1 X10.1 Y20 Z0.28 F5000.0 ;Move to start position
G1 X10.1 Y145.0 Z0.28 F1500.0 E15 ;Draw the first line
G1 X10.4 Y145.0 Z0.28 F5000.0 ;Move to side a little
G1 X10.4 Y20 Z0.28 F1500.0 E30 ;Draw the second line
G92 E0  ;Reset Extruder
G1 E-1.0000 F1800 ;Retract a bit
G1 Z2.0 F3000 ;Move Z Axis up
G1 E0.0000 F1800 

G92 E0
G92 E0
G1 F6000 E-8

;LAYER_COUNT:574

;LAYER:0
M107
;MESH:
G0 F3600 X106.669 Y106.7 Z0.1
;TYPE:WALL-INNER
G1 F6000 E0
G1 F1500 X106.669 Y113.3 E0.12073
G1 X113.269 Y113.3 E0.24147
G1 X113.269 Y106.7 E0.3622
G1 X106.669 Y106.7 E0.48294
G0 F3600 X107.069 Y107.1
;TYPE:WALL-OUTER
G1 F1500 X107.069 Y112.9 E0.58904
G1 X112.869 Y112.9 E0.69514
G1 X112.869 Y107.1 E0.80124
G1 X107.069 Y107.1 E0.90734
G0 F3600 X107.069 Y107.3
G0 X106.629 Y107.3
;;retract;;
G1 F6000 E-7.09266
G0 F3600 X107.927 Y107.958
G0 X115.36 Y115.67
G0 X115.36 Y114.4
;TYPE:WALL-INNER
G1 F6000 E0.90734
G1 F1500 X104.569 Y114.397 E1.10474
G1 X104.57 Y105.6 E1.26566
G1 X115.17 Y105.6 E1.45957
G1 X115.369 Y105.6 E1.46321
G1 X115.369 Y105.799 E1.46556
G1 X115.36 Y114.4 E1.6229
;;retract;;
G1 F6000 E-6.3771
G0 F3600 X116.631 Y114.401
G0 X116.639 Y105.4
G0 X115.769 Y105.4
;TYPE:WALL-OUTER
G1 F6000 E1.6229
G1 F1500 X115.76 Y114.8 E1.79486
G1 X104.169 Y114.797 E2.00689
G1 X104.17 Y105.2 E2.18245
G1 X115.569 Y105.2 E2.39097
G1 X115.769 Y105.2 E2.39463
G1 X115.769 Y105.4 E2.397
G0 F3600 X115.769 Y105.6
G0 X115.329 Y105.64
;;retract;;
G1 F6000 E-5.603
G0 F3600 X115.329 Y104.33
G0 X107.927 Y112.042
G0 X106.428 Y113.539
;TYPE:SKIN
G1 F6000 E2.397
G1 F1500 X106.429 Y113.217 E2.40289
G1 X104.808 Y111.597 E2.44481
G1 X104.808 Y111.031 E2.45517
G1 X106.429 Y112.652 E2.4971
G1 X106.429 Y112.086 E2.50746
G1 X104.808 Y110.465 E2.54939
G1 X104.809 Y109.9 E2.55973
G1 X106.429 Y111.52 E2.60164
G1 X106.429 Y110.954 E2.61199
G1 X104.809 Y109.334 E2.6539
G1 X104.809 Y108.769 E2.66424
G1 X106.429 Y110.389 E2.70615
G1 X106.429 Y109.823 E2.7165
G1 X104.809 Y108.203 E2.75841
G1 X104.809 Y107.637 E2.76877
G1 X106.429 Y109.257 E2.81068
G1 X106.429 Y108.692 E2.82101
G1 X104.809 Y107.072 E2.86292
G1 X104.809 Y106.506 E2.87328
G1 X106.429 Y108.126 E2.91519
G1 X106.429 Y107.56 E2.92554
G1 X104.809 Y105.94 E2.96745
G1 X104.81 Y105.839 E2.9693
G1 X105.274 Y105.839 E2.97779
G1 X106.429 Y106.995 E3.00768
G1 X106.429 Y106.459 E3.01748
G1 X106.459 Y106.459 E3.01803
G1 X105.839 Y105.839 E3.03407
G1 X106.405 Y105.839 E3.04443
G1 X107.024 Y106.459 E3.06045
G1 X107.59 Y106.459 E3.07081
G1 X106.971 Y105.839 E3.08683
G1 X107.536 Y105.839 E3.09717
G1 X108.156 Y106.459 E3.11321
G1 X108.721 Y106.459 E3.12354
G1 X108.102 Y105.839 E3.13957
G1 X108.668 Y105.839 E3.14992
G1 X109.287 Y106.459 E3.16595
G1 X109.853 Y106.459 E3.1763
G1 X109.233 Y105.839 E3.19234
G1 X109.799 Y105.839 E3.2027
G1 X110.418 Y106.459 E3.21872
G1 X110.984 Y106.459 E3.22908
G1 X110.365 Y105.839 E3.24511
G1 X110.93 Y105.839 E3.25544
G1 X111.55 Y106.459 E3.27148
G1 X112.116 Y106.459 E3.28183
G1 X111.496 Y105.839 E3.29787
G1 X112.062 Y105.839 E3.30823
G1 X112.681 Y106.459 E3.32425
G1 X113.247 Y106.459 E3.33461
G1 X112.627 Y105.839 E3.35065
G1 X113.193 Y105.839 E3.361
G1 X115.126 Y107.772 E3.41101
G1 X115.126 Y107.207 E3.42134
G1 X113.759 Y105.839 E3.45672
G1 X114.325 Y105.839 E3.46708
G1 X115.127 Y106.642 E3.48784
G1 X115.128 Y106.077 E3.49817
G1 X114.89 Y105.839 E3.50433
G1 X115.128 Y105.839 E3.50868
;;retract;;
G1 F6000 E-4.49132
G0 F3600 X115.128 Y104.33
G0 X103.811 Y104.334
G0 X103.304 Y104.841
G0 X103.303 Y115.156
G0 X103.81 Y115.663
G0 X104.808 Y115.668
G0 X104.808 Y114.156
G1 F6000 E3.50868
G1 F1500 X105.105 Y114.156 E3.51412
G1 X104.808 Y113.859 E3.5218
G1 X104.808 Y113.294 E3.53214
G1 X105.671 Y114.156 E3.55445
G1 X106.237 Y114.156 E3.5648
G1 X104.808 Y112.728 E3.60176
G1 X104.808 Y112.162 E3.61211
G1 X106.802 Y114.156 E3.6637
G1 X107.369 Y114.157 E3.67407
G1 X106.751 Y113.539 E3.69006
G1 X107.316 Y113.539 E3.70039
G1 X107.934 Y114.157 E3.71638
G1 X108.5 Y114.157 E3.72674
G1 X107.882 Y113.539 E3.74272
G1 X108.448 Y113.539 E3.75308
G1 X109.066 Y114.158 E3.76908
G1 X109.632 Y114.158 E3.77943
G1 X109.013 Y113.539 E3.79545
G1 X109.579 Y113.539 E3.8058
G1 X110.198 Y114.158 E3.82181
G1 X110.764 Y114.158 E3.83217
G1 X110.145 Y113.539 E3.84818
G1 X110.711 Y113.539 E3.85853
G1 X111.33 Y114.158 E3.87455
G1 X111.896 Y114.158 E3.8849
G1 X111.276 Y113.539 E3.90093
G1 X111.842 Y113.539 E3.91128
G1 X112.461 Y114.158 E3.9273
G1 X113.027 Y114.158 E3.93765
G1 X112.408 Y113.539 E3.95366
G1 X112.973 Y113.539 E3.964
G1 X113.593 Y114.159 E3.98004
G1 X114.159 Y114.159 E3.99039
G1 X113.508 Y113.508 E4.00723
G1 X113.508 Y112.942 E4.01759
G1 X114.725 Y114.159 E4.04907
G1 X115.119 Y114.16 E4.05628
G1 X115.119 Y113.988 E4.05943
G1 X113.508 Y112.376 E4.10112
G1 X113.508 Y111.811 E4.11145
G1 X115.12 Y113.423 E4.15316
G1 X115.121 Y112.858 E4.16349
G1 X113.508 Y111.245 E4.20522
G1 X113.508 Y110.679 E4.21557
G1 X115.121 Y112.292 E4.2573
G1 X115.121 Y111.727 E4.26764
G1 X113.508 Y110.114 E4.30937
G1 X113.508 Y109.548 E4.31972
G1 X115.122 Y111.162 E4.36148
G1 X115.123 Y110.597 E4.37181
G1 X113.508 Y108.982 E4.41359
G1 X113.508 Y108.417 E4.42393
G1 X115.124 Y110.032 E4.46572
G1 X115.124 Y109.467 E4.47606
G1 X113.508 Y107.851 E4.51786
G1 X113.508 Y107.285 E4.52822
G1 X115.125 Y108.902 E4.57005
G1 X115.126 Y108.337 E4.58038
G1 X113.508 Y106.72 E4.62223
G1 X113.508 Y106.459 E4.627
;;retract;;
G1 F6000 E-3.373
;MESH:NONMESH
G0 F600 X113.508 Y106.459 Z0.2
G0 F3600 X112.011 Y107.958
G0 X107.927 Y107.958
G0 X106.669 Y106.7
;TIME_ELAPSED:22.615855

;LAYER:1
M140 S60
M106 S127.5
;TYPE:WALL-INNER
;MESH:
G1 F6000 E4.627
G1 F1500 X106.669 Y113.3 E4.73676
G1 X113.269 Y113.3 E4.84652
G1 X113.269 Y106.7 E4.95628
G1 X106.669 Y106.7 E5.06604
G0 F5400 X107.069 Y107.1
;TYPE:WALL-OUTER
G1 F1500 X107.069 Y112.9 E5.16249
G1 X112.869 Y112.9 E5.25895
G1 X112.869 Y107.1 E5.3554
G1 X107.069 Y107.1 E5.45186
G0 F5400 X107.069 Y107.3
G0 X106.629 Y107.3
;;retract;;
G1 F6000 E-2.54814
G0 F5400 X107.927 Y107.958
G0 X115.368 Y115.67
G0 X115.369 Y114.4
;TYPE:WALL-INNER
G1 F6000 E5.45186
G1 F1500 X115.17 Y114.4 E5.45516
G1 X104.569 Y114.388 E5.63146
G1 X104.574 Y105.6 E5.77761
G1 X115.369 Y105.6 E5.95713
G1 X115.369 Y114.201 E6.10016
G1 X115.369 Y114.4 E6.1023
G0 F5400 X115.769 Y114.6
;TYPE:WALL-OUTER
G1 F1500 X115.769 Y114.8 E6.10563
G1 X115.569 Y114.8 E6.10778
G1 X104.169 Y114.788 E6.29737
G1 X104.174 Y105.2 E6.45682
G1 X115.769 Y105.2 E6.64964
G1 X115.769 Y114.6 E6.80596
G0 F5400 X115.769 Y114.8
G0 X115.128 Y114.159
;TYPE:SKIN
G1 F1500 X115.128 Y113.974 E6.80904
G1 X115.128 Y113.408 E6.81845
G1 X114.378 Y114.158 E6.83609
G1 X113.813 Y114.158 E6.84549
G1 X115.128 Y112.842 E6.87643
G1 X115.128 Y112.277 E6.88582
G1 X113.248 Y114.157 E6.93004
G1 X112.683 Y114.156 E6.93943
G1 X113.301 Y113.538 E6.95397
G1 X112.735 Y113.538 E6.96338
G1 X112.118 Y114.156 E6.9779
G1 X111.553 Y114.155 E6.9873
G1 X112.169 Y113.538 E7.0018
G1 X111.604 Y113.538 E7.01119
G1 X110.988 Y114.154 E7.02568
G1 X110.423 Y114.153 E7.03508
G1 X111.038 Y113.538 E7.04954
G1 X110.472 Y113.538 E7.05895
G1 X109.858 Y114.153 E7.07341
G1 X109.293 Y114.152 E7.0828
G1 X109.907 Y113.538 E7.09724
G1 X109.341 Y113.538 E7.10665
G1 X108.728 Y114.151 E7.12107
G1 X108.163 Y114.151 E7.13047
G1 X108.775 Y113.538 E7.14487
G1 X108.209 Y113.538 E7.15428
G1 X107.598 Y114.15 E7.16867
G1 X107.033 Y114.149 E7.17806
G1 X107.644 Y113.538 E7.19243
G1 X107.078 Y113.538 E7.20184
G1 X106.468 Y114.148 E7.21619
G1 X105.903 Y114.148 E7.22559
G1 X106.512 Y113.538 E7.23992
G1 X106.428 Y113.539 E7.24132
G1 X106.428 Y113.057 E7.24933
G1 X105.338 Y114.147 E7.27497
G1 X104.808 Y114.146 E7.28378
G1 X104.809 Y114.11 E7.28438
G1 X106.428 Y112.491 E7.32246
G1 X106.428 Y111.925 E7.33187
G1 X104.809 Y113.545 E7.36996
G1 X104.809 Y112.979 E7.37937
G1 X106.428 Y111.36 E7.41745
G1 X106.428 Y110.794 E7.42686
G1 X104.81 Y112.413 E7.46493
G1 X104.81 Y111.847 E7.47434
G1 X106.428 Y110.228 E7.5124
G1 X106.428 Y109.663 E7.5218
G1 X104.81 Y111.28 E7.55984
G1 X104.81 Y110.715 E7.56924
G1 X106.428 Y109.097 E7.60729
G1 X106.428 Y108.531 E7.6167
G1 X104.811 Y110.148 E7.65473
G1 X104.811 Y109.583 E7.66413
G1 X106.428 Y107.966 E7.70216
G1 X106.428 Y107.4 E7.71157
G1 X104.812 Y109.016 E7.74957
G1 X104.812 Y108.451 E7.75897
G1 X106.428 Y106.834 E7.79699
G0 F5400 X106.429 Y106.459
G1 F1500 X106.803 Y106.459 E7.80321
G1 X107.369 Y106.459 E7.81262
G1 X107.99 Y105.839 E7.82721
G1 X108.555 Y105.839 E7.83661
G1 X107.934 Y106.459 E7.8512
G1 X108.5 Y106.459 E7.86062
G1 X109.121 Y105.839 E7.87521
G1 X109.687 Y105.839 E7.88462
G1 X109.066 Y106.459 E7.89921
G1 X109.631 Y106.459 E7.90861
G1 X110.252 Y105.839 E7.9232
G1 X110.818 Y105.839 E7.93262
G1 X110.197 Y106.459 E7.94721
G1 X110.763 Y106.459 E7.95662
G1 X111.384 Y105.839 E7.97122
G1 X111.949 Y105.839 E7.98061
G1 X111.329 Y106.459 E7.99519
G1 X111.894 Y106.459 E8.00459
G1 X112.515 Y105.839 E8.01918
G1 X113.081 Y105.839 E8.02859
G1 X112.46 Y106.459 E8.04319
G1 X113.026 Y106.459 E8.0526
G1 X113.646 Y105.839 E8.06718
G1 X114.212 Y105.839 E8.07659
G1 X113.509 Y106.542 E8.09313
G1 X113.509 Y107.108 E8.10254
G1 X114.778 Y105.839 E8.13239
G1 X115.128 Y105.839 E8.13821
G1 X115.128 Y106.054 E8.14178
G1 X113.509 Y107.673 E8.17986
G1 X113.509 Y108.239 E8.18927
G1 X115.128 Y106.62 E8.22735
G1 X115.128 Y107.186 E8.23676
G1 X113.509 Y108.805 E8.27484
G1 X113.509 Y109.371 E8.28425
G1 X115.128 Y107.751 E8.32234
G1 X115.128 Y108.317 E8.33175
G1 X113.509 Y109.936 E8.36983
G1 X113.509 Y110.502 E8.37924
G1 X115.128 Y108.883 E8.41732
G1 X115.128 Y109.448 E8.42671
G1 X113.509 Y111.068 E8.4648
G1 X113.509 Y111.633 E8.4742
G1 X115.128 Y110.014 E8.51227
G1 X115.128 Y110.58 E8.52168
G1 X113.509 Y112.199 E8.55976
G1 X113.509 Y112.765 E8.56917
G1 X115.128 Y111.145 E8.60726
G1 X115.128 Y111.711 E8.61667
G1 X113.509 Y113.33 E8.65475
G0 F5400 X113.509 Y113.538
G1 F1500 X113.301 Y113.538 E8.65821
G0 F5400 X114.943 Y114.159
G1 F1500 X115.128 Y113.974 E8.66256
;;retract;;
G1 F6000 E0.66256
G0 F5400 X116.639 Y113.974
G0 X107.927 Y107.958
G0 X106.803 Y106.459
G1 F6000 E8.66256
G1 F1500 X107.424 Y105.839 E8.67715
G1 X106.858 Y105.839 E8.68657
G1 X104.813 Y107.884 E8.73466
G1 X104.813 Y107.319 E8.74406
G1 X106.292 Y105.839 E8.77885
G1 X105.727 Y105.839 E8.78825
G1 X104.813 Y106.752 E8.80973
G1 X104.813 Y106.186 E8.81915
G1 X104.813 Y105.839 E8.82492
G0 F5400 X105.161 Y105.839
G1 F1500 X104.813 Y106.186 E8.83309
;MESH:NONMESH
G0 F600 X104.813 Y106.186 Z0.3
G0 F5400 X106.669 Y106.7
;TIME_ELAPSED:38.078146

;LAYER:2
M106 S255
;TYPE:WALL-INNER
;MESH:
G1 F1500 X106.669 Y113.3 E8.94285
G1 X113.269 Y113.3 E9.05261
G1 X113.269 Y106.7 E9.16236
G1 X106.669 Y106.7 E9.27212
G0 F7200 X107.069 Y107.1
;TYPE:WALL-OUTER
G1 F1500 X107.069 Y112.9 E9.36858
G1 X112.869 Y112.9 E9.46503
G1 X112.869 Y107.1 E9.56149
G1 X107.069 Y107.1 E9.65794
G0 F7200 X107.069 Y107.3
G0 X106.629 Y107.3
;;retract;;
G1 F6000 E1.65794
G0 F7200 X107.927 Y107.958
G0 X115.369 Y115.67
G0 X115.369 Y114.4
;TYPE:WALL-INNER
G1 F6000 E9.65794
G1 F1500 X104.768 Y114.4 E9.83424
G1 X104.569 Y114.4 E9.83755
G1 X104.569 Y114.201 E9.83969
G1 X104.578 Y105.6 E9.98272
G1 X115.369 Y105.6 E10.16218
G1 X115.369 Y114.4 E10.30852
G0 F7200 X115.769 Y114.8
;TYPE:WALL-OUTER
G1 F1500 X104.369 Y114.8 E10.4981
G1 X104.169 Y114.8 E10.50143
G1 X104.169 Y114.6 E10.50358
G1 X104.178 Y105.2 E10.65991
G1 X115.769 Y105.2 E10.85267
G1 X115.769 Y114.8 E11.01231
G0 F7200 X115.569 Y114.8
G0 X115.329 Y114.36
;;retract;;
G1 F6000 E3.01231
G0 F7200 X115.329 Y115.67
G0 X107.927 Y112.042
G0 X106.428 Y113.539
;TYPE:SKIN
G1 F6000 E11.01231
G1 F1500 X106.429 Y113.217 E11.01767
G1 X104.81 Y111.599 E11.05573
G1 X104.811 Y111.034 E11.06513
G1 X106.429 Y112.652 E11.10318
G1 X106.429 Y112.086 E11.1126
G1 X104.812 Y110.469 E11.15062
G1 X104.813 Y109.904 E11.16002
G1 X106.429 Y111.52 E11.19803
G1 X106.429 Y110.954 E11.20744
G1 X104.813 Y109.339 E11.24543
G1 X104.814 Y108.774 E11.25483
G1 X106.429 Y110.389 E11.29281
G1 X106.429 Y109.823 E11.30222
G1 X104.815 Y108.209 E11.34018
G1 X104.815 Y107.644 E11.34958
G1 X106.429 Y109.257 E11.38753
G1 X106.429 Y108.692 E11.39692
G1 X104.816 Y107.079 E11.43486
G1 X104.816 Y106.513 E11.44427
G1 X106.429 Y108.126 E11.48221
G1 X106.429 Y107.56 E11.49162
G1 X104.817 Y105.948 E11.52953
G1 X104.817 Y105.839 E11.53134
G1 X105.274 Y105.839 E11.53894
G1 X106.429 Y106.995 E11.56612
G1 X106.429 Y106.459 E11.57503
G1 X106.459 Y106.459 E11.57553
G1 X105.839 Y105.839 E11.59011
G1 X106.405 Y105.839 E11.59952
G1 X107.024 Y106.459 E11.61409
G1 X107.59 Y106.459 E11.62351
G1 X106.971 Y105.839 E11.63808
G1 X107.536 Y105.839 E11.64747
G1 X108.156 Y106.459 E11.66205
G1 X108.721 Y106.459 E11.67145
G1 X108.102 Y105.839 E11.68602
G1 X108.668 Y105.839 E11.69543
G1 X109.287 Y106.459 E11.71
G1 X109.853 Y106.459 E11.71941
G1 X109.233 Y105.839 E11.734
G1 X109.799 Y105.839 E11.74341
G1 X110.418 Y106.459 E11.75798
G1 X110.984 Y106.459 E11.76739
G1 X110.365 Y105.839 E11.78196
G1 X110.93 Y105.839 E11.79136
G1 X111.55 Y106.459 E11.80594
G1 X112.116 Y106.459 E11.81535
