;FLAVOR:Marlin
;TIME:1132
;Filament used:0.865002m
;Layer height: 0.2
;MINX:89.21
;MINY:89.215
;MINZ:0.24
;MAXX:130.791
;MAXY:130.785
;MAXZ:11.89
                            
;Creality Print GCode Generated by CXEngine:NO_MAGE_VERSION_GIT_HEAD_BRANCH
;CXEngine Release Time:2022-09-30 09:53:04
;Gcode Generated Time:2023-05-27 19:41:25
;----------Machine Config--------------
;Machine Name:Ender-3 V2
;Machine Height:250
;Machine Width:220
;Machine Depth:220
;Material name:PLA
;Number of Extruders:1
;ExtruderParams[0] Nozzle Diameter1000
;----------Profile Config---------------
;Engine Version:275f99b
;Engine Release Time:2022-09-30 09:42:18
;Layer Height:0.2
;Wall Thickness:0.8
;Top/Bottom Thickness:1
;Out Wall Line Width:0.4
;Inner Wall Line Width:0.4
;Inital Layer Height:200
;Wall Line Count:2
;Infill Line Distance:4
;Infill Pattern:grid
;Infill Sparse Density:20
;Infill Wipe Distance:0
;Print Temperature:200
;Bed Temperature:60
;Support Enable:true
;Support Density:0
;Support Angle:60
;Adhesion Type:simpleraft
;machine is belt:false
;machine belt offset:10
;machine belt offset Y:0
;Raft Base Line Spacing:1.6
;Wait Heatup Sync:true
;----------Shell Config----------------
;Outer Wall Wipe Distance:200
;Outer Inset First:false
;Infill Before Walls:false
;Infill Overlap:0.16
;Fill Gaps Between Walls:everywhere
;Minimum Infill Area:1
;Top Surface Skin Layer:0
;Top Layers:3
;Z Seam Alignment:sharpest_corner
;Seam Corner Preference:z_seam_corner_inner
;Z Seam X:110
;Z Seam Y:110
;Horizontal Expansion:0
;Top/Bottom Pattern:zigzag
;Ironing Pattern:zigzag
;Vase Model:false
;----------Support Config----------------
;Support Type:everywhere
;Support Pattern:zigzag
;Support Infill Layer Thickness:0.2
;Minimum Support Area:5
;Enable Support Roof:false
;Support Roof Thickness:0.8
;Support Roof Pattern:lines
;Connect Support Lines:0
;Connect Support ZigZags:1
;Minimum Support X/Y Distance:0.2
;Support Line Distance:0
; ---------PrintSpeed & Travel----------
;Enable Print Cool:true
;Avoid Printed Parts Traveling:true
;Enable Retraction:true
;Retraction Distance:8
;Retraction Speed:100
;Retraction Prime Speed:100
;Maximum Retraction Count:100
;Minimum Extrusion Distance Window:1
;Z Hop When Retracted:false
;Z Hop Height:0.2
;Retract Before Outer Wall:true
;Print Speed:50
;Infill Speed:50

;Prime Tower Speed:50
;Travel Speed:120
;Initial Layer Speed:25
;Skirt/Brim Speed:25
;Combing Mode:infill
; --------SpecialModel&Mesh Fixes--------
;Union Overlapping Volum:true
;Remove All Holes:false
;Maximum Travel Resolution:0.6
;Maximum Deviation:0.05
;Maximum Model Angle:0.872665
;IS Mold Print:false
;Make Overhang Printable:false
;Enable Coasting:false
;Coasting Volumes:0.06
;Coasting Speed:0.9
;Raft AirGap:0.25
;Layer0 ZOverLap:0.13
;---------------------End of Head--------------------------
M140 S60
M105
M104 S200
M105
M109 S200
M105
M190 S60
M82 ;absolute extrusion mode
M220 S100 ;Reset Feedrate
M221 S100 ;Reset Flowrate

G28 ;Home

G92 E0 ;Reset Extruder
G1 Z2.0 F3000 ;Move Z Axis up
G1 X10.1 Y20 Z0.28 F5000.0 ;Move to start position
G1 X10.1 Y145.0 Z0.28 F1500.0 E15 ;Draw the first line
G1 X10.4 Y145.0 Z0.28 F5000.0 ;Move to side a little
G1 X10.4 Y20 Z0.28 F1500.0 E30 ;Draw the second line
G92 E0  ;Reset Extruder
G1 E-1.0000 F1800 ;Retract a bit
G1 Z2.0 F3000 ;Move Z Axis up
G1 E0.0000 F1800 

G92 E0
G92 E0
G1 F6000 E-8

;LAYER_COUNT:55

;LAYER:-4
M107
G0 F7200 X91.2 Y102.644 Z0.24
;TYPE:SUPPORT-INTERFACE
G1 F6000 E0
G1 F1200 X91.2 Y117.357 E1.2919
G1 X91.164 Y117.272 E1.30001
G1 X90.799 Y116.244 E1.39579
G1 X90.502 Y115.246 E1.48722
G1 X90.254 Y114.216 E1.58025
G1 X90.05 Y113.108 E1.67917
G1 X89.915 Y112.061 E1.77187
G1 X89.833 Y110.972 E1.86776
G1 X89.81 Y109.969 E1.95585
G1 X89.844 Y108.827 E2.05617
G1 X89.931 Y107.784 E2.14807
G1 X90.076 Y106.721 E2.24228
G1 X90.277 Y105.676 E2.33572
G1 X90.542 Y104.609 E2.43225
G1 X90.841 Y103.627 E2.52239
G1 X91.236 Y102.546 E2.62344
G1 X91.622 Y101.641 E2.70984
G1 X92.118 Y100.624 E2.80919
G1 X92.624 Y99.72 E2.90016
G1 X92.8 Y99.44 E2.92919
G1 X92.8 Y120.56 E4.78367
G1 X93.09 Y121.03 E4.83217
G1 X93.771 Y122.012 E4.9371
G1 X94.391 Y122.807 E5.02562
G1 X94.4 Y122.817 E5.0268
G1 X94.4 Y97.188 E7.2772
G1 X94.517 Y97.041 E7.2937
G1 X95.21 Y96.257 E7.38558
G1 X95.975 Y95.474 E7.4817
G1 X96 Y95.451 E7.48468
G1 X96 Y124.54 E10.03889
G1 X96.692 Y125.185 E10.12196
G1 X97.437 Y125.806 E10.20712
G1 X97.6 Y125.928 E10.225
G1 X97.6 Y94.066 E13.0227
G1 X97.605 Y94.062 E13.02326
G1 X98.427 Y93.457 E13.11288
G1 X99.2 Y92.946 E13.19424
G1 X99.2 Y127.057 E16.18942
G1 X99.215 Y127.068 E16.19105
G1 X100.174 Y127.637 E16.28896
G1 X100.8 Y127.965 E16.35102
G1 X100.8 Y92.036 E19.50583
G1 X101.274 Y91.793 E19.5526
G1 X102.17 Y91.39 E19.63887
G1 X102.4 Y91.3 E19.66055
G1 X102.4 Y128.699 E22.94444
G1 X103.063 Y128.963 E23.0071
G1 X104 Y129.274 E23.09379
G1 X104 Y90.725 E26.47865
G1 X104.202 Y90.659 E26.49731
G1 X105.296 Y90.364 E26.5968
G1 X105.6 Y90.299 E26.6241
G1 X105.6 Y129.698 E30.0836
G1 X106.209 Y129.832 E30.13835
G1 X107.2 Y129.993 E30.22651
G1 X107.2 Y90.01 E33.73729
G1 X107.418 Y89.976 E33.75666
G1 X108.411 Y89.872 E33.84433
G1 X108.8 Y89.852 E33.87853
G1 X108.8 Y130.148 E37.41679
G1 X109.362 Y130.181 E37.46622
G1 X110.4 Y130.184 E37.55737
G1 X110.4 Y89.818 E41.10177
G1 X110.575 Y89.818 E41.11714
G1 X111.71 Y89.883 E41.21696
G1 X112 Y89.915 E41.24258
G1 X112 Y130.082 E44.76952
G1 X112.649 Y130.016 E44.8268
G1 X113.6 Y129.866 E44.91133
G1 X113.6 Y90.138 E48.39972
G1 X113.812 Y90.172 E48.41857
G1 X114.831 Y90.397 E48.5102
G1 X115.2 Y90.499 E48.54382
G1 X115.2 Y129.503 E51.96864
G1 X115.74 Y129.358 E52.01773
G1 X116.773 Y129.019 E52.11319
G1 X116.8 Y129.009 E52.11572
G1 X116.8 Y90.991 E55.45396
G1 X116.878 Y91.017 E55.46118
G1 X117.918 Y91.426 E55.55931
G1 X118.4 Y91.648 E55.6059
G1 X118.4 Y128.353 E58.82885
G1 X118.772 Y128.185 E58.86469
G1 X119.714 Y127.701 E58.95768
G1 X120 Y127.534 E58.98676
G1 X120 Y92.464 E62.06615
G1 X120.739 Y92.904 E62.14167
G1 X121.6 Y93.48 E62.23263
G1 X121.6 Y126.525 E65.1342
G1 X122.419 Y125.919 E65.22366
G1 X123.2 Y125.278 E65.31238
G1 X123.2 Y94.73 E67.9947
G1 X123.36 Y94.863 E68.01297
G1 X124.115 Y95.564 E68.10343
G1 X124.8 Y96.274 E68.19006
G1 X124.8 Y123.73 E70.60088
G1 X125.515 Y122.919 E70.69582
G1 X126.147 Y122.121 E70.7852
G1 X126.4 Y121.764 E70.82362
G1 X126.4 Y98.231 E72.88998
G1 X126.836 Y98.854 E72.95674
G1 X127.436 Y99.82 E73.0566
G1 X127.951 Y100.758 E73.15056
G1 X128 Y100.86 E73.16049
G1 X128 Y119.141 E74.76569
G1 X128.349 Y118.424 E74.83571
G1 X128.779 Y117.418 E74.93177
G1 X129.145 Y116.417 E75.02536
G1 X129.471 Y115.346 E75.12366
G1 X129.707 Y114.392 E75.20995
G1 X129.929 Y113.238 E75.31314
G1 X130.068 Y112.227 E75.40275
G1 X130.16 Y111.111 E75.50107
G1 X130.191 Y110.09 E75.59076
G1 X130.164 Y108.965 E75.68957
G1 X130.089 Y107.975 E75.77675
G1 X129.941 Y106.838 E75.87743
G1 X129.757 Y105.837 E75.9668
G1 X129.6 Y105.187 E76.02551
G1 X129.6 Y114.825 E76.87179
G0 F600 X129.6 Y114.825 Z0.47
G0 F7200 X127.581 Y99.296
;TIME_ELAPSED:49.387709

;LAYER:-3
;TYPE:SUPPORT
G1 F1800 X120.698 Y92.414 E77.61638
G1 X120.949 Y92.563 E77.63871
G1 X121.92 Y93.212 E77.72805
G1 X122.731 Y93.819 E77.80554
G1 X123.616 Y94.555 E77.8936
G1 X124.403 Y95.286 E77.97577
G1 X125.214 Y96.126 E78.06509
G1 X125.892 Y96.906 E78.14415
G1 X126.571 Y97.777 E78.22863
G1 X127.171 Y98.636 E78.30878
G1 X127.781 Y99.617 E78.39715
G1 X128.302 Y100.566 E78.47997
G1 X128.794 Y101.588 E78.56674
G1 X129.032 Y102.162 E78.61428
G1 X117.833 Y90.963 E79.82584
G1 X117.013 Y90.641 E79.89323
G1 X116.035 Y90.314 E79.97212
G1 X115.669 Y90.213 E80.00116
G1 X129.788 Y104.332 E81.52863
G1 X129.88 Y104.642 E81.55336
G1 X130.146 Y105.743 E81.64001
G1 X130.226 Y106.184 E81.6743
G1 X113.808 Y89.766 E83.45048
G1 X112.782 Y89.598 E83.53001
G1 X112.157 Y89.529 E83.57811
G1 X130.476 Y107.848 E85.55995
G1 X130.486 Y107.923 E85.56574
G1 X130.564 Y108.945 E85.64415
G1 X130.572 Y109.359 E85.67582
G1 X110.634 Y89.421 E87.83282
G1 X110.581 Y89.418 E87.83688
G1 X109.546 Y89.415 E87.91605
G1 X109.229 Y89.43 E87.94033
G1 X130.57 Y110.771 E90.24911
G1 X130.559 Y111.144 E90.27765
G1 X130.48 Y112.095 E90.35065
G1 X107.907 Y89.522 E92.79271
G1 X107.373 Y89.578 E92.83378
G1 X106.66 Y89.69 E92.889
G1 X130.315 Y113.344 E95.44806
G1 X130.1 Y114.468 E95.5356
G1 X130.084 Y114.527 E95.54028
G1 X105.474 Y89.917 E98.20271
G1 X105.198 Y89.976 E98.2243
G1 X104.348 Y90.206 E98.29166
G1 X129.795 Y115.652 E101.04459
G1 X129.525 Y116.544 E101.11588
G1 X129.457 Y116.729 E101.13096
G1 X103.271 Y90.543 E103.96389
G1 X103.095 Y90.601 E103.97807
G1 X102.245 Y90.931 E104.04782
G1 X129.069 Y117.755 E106.94977
G1 X128.709 Y118.599 E107.01997
G1 X128.64 Y118.74 E107.03197
G1 X101.259 Y91.36 E109.99413
G1 X101.098 Y91.433 E110.00766
G1 X100.319 Y91.834 E110.07468
G1 X128.165 Y119.679 E113.08714
G1 X127.687 Y120.542 E113.16261
G1 X127.658 Y120.587 E113.16671
G1 X99.415 Y92.344 E116.22218
G1 X99.168 Y92.489 E116.24409
G1 X98.551 Y92.894 E116.30054
G1 X127.11 Y121.453 E119.3902
G1 X126.523 Y122.28 E119.46778
G1 X97.722 Y93.479 E122.58361
G1 X97.357 Y93.748 E122.6183
G1 X96.928 Y94.1 E122.66075
G1 X125.902 Y123.074 E125.7953
G1 X125.828 Y123.168 E125.80445
G1 X125.244 Y123.829 E125.87193
G1 X96.168 Y94.754 E129.01746
G1 X95.689 Y95.194 E129.06721
G1 X95.443 Y95.443 E129.09399
G1 X124.554 Y124.554 E132.24336
G1 X124.318 Y124.797 E132.26928
G1 X123.828 Y125.242 E132.31991
G1 X94.753 Y96.167 E135.46539
G1 X94.212 Y96.782 E135.52805
G1 X94.097 Y96.925 E135.54209
G1 X123.071 Y125.899 E138.67664
G1 X122.657 Y126.241 E138.71771
G1 X122.277 Y126.52 E138.75378
G1 X93.473 Y97.716 E141.86994
G1 X92.896 Y98.536 E141.94664
G1 X92.888 Y98.545 E141.94756
G1 X121.449 Y127.105 E145.03738
G1 X120.911 Y127.463 E145.08681
G1 X120.582 Y127.653 E145.11588
G1 X92.342 Y99.413 E148.17102
G1 X92.285 Y99.507 E148.17943
G1 X91.831 Y100.316 E148.25039
G1 X119.68 Y128.165 E151.26324
G1 X118.948 Y128.545 E151.32633
G1 X118.738 Y128.637 E151.34387
G1 X91.361 Y101.26 E154.30565
G1 X91.262 Y101.466 E154.32313
G1 X90.929 Y102.243 E154.3878
G1 X117.755 Y129.068 E157.28991
G1 X116.904 Y129.397 E157.35971
G1 X116.726 Y129.454 E157.37401
G1 X90.544 Y103.272 E160.20651
G1 X90.461 Y103.5 E160.22507
G1 X90.203 Y104.345 E160.29265
G1 X115.651 Y129.793 E163.04575
G1 X114.823 Y130.017 E163.11136
G1 X114.523 Y130.08 E163.13481
G1 X89.915 Y105.472 E165.79703
G1 X89.884 Y105.6 E165.8071
G1 X89.683 Y106.645 E165.88851
G1 X89.681 Y106.652 E165.88907
G1 X113.34 Y130.31 E168.44856
G1 X112.696 Y130.413 E168.49845
G1 X112.089 Y130.473 E168.54511
G1 X89.519 Y107.903 E170.98685
G1 X89.445 Y108.794 E171.05524
G1 X89.432 Y109.231 E171.08868
G1 X110.77 Y130.569 E173.39714
G1 X110.474 Y130.585 E173.41981
G1 X109.367 Y130.58 E173.5045
G1 X89.424 Y110.638 E175.66197
G1 X89.433 Y110.992 E175.68906
G1 X89.518 Y112.112 E175.77499
G1 X89.522 Y112.149 E175.77784
G1 X107.839 Y130.466 E177.75946
G1 X107.183 Y130.397 E177.80992
G1 X106.191 Y130.233 E177.88683
G1 X89.773 Y113.815 E179.66302
G1 X89.865 Y114.31 E179.70153
G1 X90.113 Y115.34 E179.78258
G1 X90.209 Y115.665 E179.8085
G1 X104.332 Y129.788 E181.3364
G1 X104.017 Y129.702 E181.36137
G1 X102.932 Y129.341 E181.44885
G1 X102.167 Y129.037 E181.51182
G1 X90.965 Y117.835 E182.72371
G1 X91.235 Y118.478 E182.77706
G1 X91.679 Y119.394 E182.85493
G1 X92.227 Y120.394 E182.94216
G1 X92.761 Y121.258 E183.01986
G1 X93.442 Y122.24 E183.11128
G1 X94.084 Y123.063 E183.19112
G1 X94.841 Y123.936 E183.27952
G1 X95.556 Y124.674 E183.35812
G1 X96.419 Y125.478 E183.44835
G1 X97.197 Y126.126 E183.52581
G1 X98.133 Y126.827 E183.61527
G1 X98.997 Y127.404 E183.69474
G1 X99.295 Y127.579 E183.72118
G1 X92.416 Y120.701 E184.46533
G0 F600 X92.416 Y120.701 Z0.62
G0 F7200 X105.992 Y130.4
;TIME_ELAPSED:99.220985

;LAYER:-2
;TYPE:SUPPORT-INTERFACE
G1 F2400 X113.986 Y130.4 E184.66474
G1 X113.757 Y130.449 E184.67058
G1 X112.717 Y130.612 E184.69684
G1 X111.505 Y130.735 E184.72723
G1 X110.478 Y130.785 E184.75288
G1 X109.355 Y130.78 E184.7809
G1 X108.321 Y130.722 E184.80673
G1 X107.158 Y130.596 E184.83591
G1 X106.094 Y130.422 E184.8628
G1 X104.993 Y130.18 E184.89092
G1 X104.341 Y130 E184.9078
G1 X115.661 Y130 E185.19018
G1 X115.912 Y129.933 E185.19666
G1 X116.926 Y129.6 E185.22328
G1 X103.078 Y129.6 E185.56872
G1 X102.855 Y129.525 E185.57459
G1 X102.032 Y129.2 E185.59666
G1 X117.973 Y129.2 E185.99431
G1 X117.995 Y129.192 E185.99489
G1 X118.865 Y128.8 E186.0187
G1 X101.135 Y128.8 E186.46097
G1 X100.827 Y128.659 E186.46942
G1 X100.333 Y128.4 E186.48334
G1 X119.663 Y128.4 E186.96553
G1 X119.983 Y128.237 E186.97449
G1 X120.386 Y128 E186.98615
G1 X99.608 Y128 E187.50446
G1 X98.934 Y127.6 E187.52401
G1 X121.063 Y127.6 E188.07602
G1 X121.669 Y127.2 E188.09413
G1 X98.331 Y127.2 E188.6763
G1 X98.018 Y126.99 E188.6857
G1 X97.763 Y126.8 E188.69363
G1 X122.233 Y126.8 E189.30404
G1 X122.774 Y126.4 E189.32083
G1 X97.228 Y126.4 E189.95807
G1 X97.073 Y126.283 E189.96292
G1 X96.732 Y126 E189.97397
G1 X123.263 Y126 E190.63579
G1 X123.6 Y125.726 E190.64662
G1 X123.735 Y125.6 E190.65123
G1 X96.255 Y125.6 E191.33672
G1 X95.826 Y125.2 E191.35135
G1 X124.171 Y125.2 E192.05842
G1 X124.453 Y124.944 E192.06792
G1 X124.592 Y124.8 E192.07292
G1 X95.398 Y124.8 E192.80116
G1 X95.011 Y124.4 E192.81505
G1 X124.984 Y124.4 E193.56273
G1 X125.199 Y124.184 E193.57033
G1 X125.359 Y124 E193.57641
G1 X94.632 Y124 E194.3429
G1 X94.284 Y123.6 E194.35612
G1 X125.712 Y123.6 E195.1401
G1 X125.979 Y123.3 E195.15012
G1 X126.056 Y123.2 E195.15327
G1 X93.935 Y123.2 E195.95453
G1 X93.929 Y123.191 E195.9548
G1 X93.623 Y122.8 E195.96718
G1 X126.373 Y122.8 E196.78413
G1 X126.626 Y122.483 E196.79425
G1 X126.683 Y122.4 E196.79676
G1 X93.312 Y122.4 E197.62921
G1 X93.275 Y122.35 E197.63076
G1 X93.031 Y122 E197.6414
G1 X126.966 Y122 E198.48791
G1 X127.249 Y121.6 E198.50014
G1 X92.754 Y121.6 E199.36062
G1 X92.597 Y121.372 E199.36752
G1 X92.489 Y121.2 E199.37259
G1 X127.506 Y121.2 E200.24609
G1 X127.758 Y120.8 E200.25789
G1 X92.242 Y120.8 E201.14384
G1 X92.055 Y120.496 E201.15274
G1 X92.001 Y120.4 E201.15549
G1 X127.993 Y120.4 E202.05331
G1 X128.216 Y120 E202.06473
G1 X91.782 Y120 E202.97358
G1 X91.563 Y119.6 E202.98496
G1 X128.439 Y119.6 E203.90484
G1 X128.635 Y119.2 E203.91595
G1 X91.362 Y119.2 E204.84573
G1 X91.169 Y118.8 E204.8568
G1 X128.832 Y118.8 E205.79631
G1 X128.889 Y118.686 E205.79949
G1 X129.011 Y118.4 E205.80725
G1 X90.986 Y118.4 E206.75578
G1 X90.818 Y118 E206.76661
G1 X129.182 Y118 E207.7236
G1 X129.336 Y117.642 E207.73332
G1 X129.351 Y117.6 E207.73444
G1 X90.65 Y117.6 E208.69984
G1 X90.606 Y117.495 E208.70268
G1 X90.501 Y117.2 E208.71049
G1 X129.497 Y117.2 E209.68325
G1 X129.643 Y116.8 E209.69387
G1 X90.359 Y116.8 E210.67381
G1 X90.233 Y116.443 E210.68325
G1 X90.22 Y116.4 E210.68438
G1 X129.777 Y116.4 E211.67113
G1 X129.899 Y116 E211.68156
G1 X90.1 Y116 E212.67435
G1 X89.981 Y115.6 E212.68476
G1 X130.02 Y115.6 E213.68354
G1 X130.044 Y115.525 E213.6855
G1 X130.124 Y115.2 E213.69385
G1 X89.873 Y115.2 E214.69792
G1 X89.777 Y114.8 E214.70818
G1 X130.223 Y114.8 E215.71711
G1 X130.295 Y114.515 E215.72444
G1 X130.316 Y114.4 E215.72736
G1 X89.681 Y114.4 E216.741
G1 X89.67 Y114.352 E216.74223
G1 X89.604 Y114 E216.75116
G1 X130.393 Y114 E217.76865
G1 X130.47 Y113.6 E217.77881
G1 X89.53 Y113.6 E218.80006
G1 X89.456 Y113.2 E218.81021
G1 X130.539 Y113.2 E219.83503
G1 X130.594 Y112.8 E219.8451
G1 X89.404 Y112.8 E220.87259
G1 X89.353 Y112.4 E220.88265
G1 X130.649 Y112.4 E221.91278
G1 X130.667 Y112.276 E221.91591
G1 X130.689 Y112 E221.92281
G1 X89.308 Y112 E222.95507
G1 X89.278 Y111.6 E222.96507
G1 X130.722 Y111.6 E223.9989
G1 X130.756 Y111.2 E224.00891
G1 X89.248 Y111.2 E225.04433
G1 X89.233 Y110.992 E225.04954
G1 X89.228 Y110.8 E225.05433
G1 X130.77 Y110.8 E226.0906
G1 X130.782 Y110.4 E226.10058
G1 X89.219 Y110.4 E227.13737
G1 X89.211 Y110 E227.14735
G1 X130.789 Y110 E228.18452
G1 X130.78 Y109.6 E228.1945
G1 X89.221 Y109.6 E229.23119
G1 X89.233 Y109.2 E229.24118
G1 X130.771 Y109.2 E230.27735
G1 X130.764 Y108.94 E230.28383
G1 X130.754 Y108.8 E230.28733
