;FLAVOR:Marlin
;TIME:1511
;Filament used:0.457357m
;Layer height: 0.1
;MINX:98.338
;MINY:98.33
;MINZ:0.1
;MAXX:120.796
;MAXY:120.798
;MAXZ:11
                                
;Creality Print GCode Generated by CXEngine:NO_MAGE_VERSION_GIT_HEAD_BRANCH
;CXEngine Release Time:2022-09-30 09:53:04
;Gcode Generated Time:2023-05-01 12:19:24
;----------Machine Config--------------
;Machine Name:Ender-3 V2
;Machine Height:250
;Machine Width:220
;Machine Depth:220
;Material name:PLA
;Number of Extruders:1
;ExtruderParams[0] Nozzle Diameter1000
;----------Profile Config---------------
;Engine Version:275f99b
;Engine Release Time:2022-09-30 09:42:18
;Layer Height:0.1
;Wall Thickness:0.8
;Top/Bottom Thickness:0.5
;Out Wall Line Width:0.4
;Inner Wall Line Width:0.4
;Inital Layer Height:100
;Wall Line Count:2
;Infill Line Distance:4
;Infill Pattern:grid
;Infill Sparse Density:20
;Infill Wipe Distance:0
;Print Temperature:200
;Bed Temperature:60
;Support Enable:true
;Support Density:0
;Support Angle:60
;Adhesion Type:none
;machine is belt:false
;machine belt offset:10
;machine belt offset Y:0
;Raft Base Line Spacing:1.6
;Wait Heatup Sync:true
;----------Shell Config----------------
;Outer Wall Wipe Distance:200
;Outer Inset First:false
;Infill Before Walls:false
;Infill Overlap:0.16
;Fill Gaps Between Walls:everywhere
;Minimum Infill Area:1
;Top Surface Skin Layer:0
;Top Layers:4
;Z Seam Alignment:sharpest_corner
;Seam Corner Preference:z_seam_corner_inner
;Z Seam X:110
;Z Seam Y:110
;Horizontal Expansion:0
;Top/Bottom Pattern:zigzag
;Ironing Pattern:zigzag
;Vase Model:false
;----------Support Config----------------
;Support Type:everywhere
;Support Pattern:zigzag
;Support Infill Layer Thickness:0.1
;Minimum Support Area:5
;Enable Support Roof:false
;Support Roof Thickness:0.8
;Support Roof Pattern:lines
;Connect Support Lines:0
;Connect Support ZigZags:1
;Minimum Support X/Y Distance:0.2
;Support Line Distance:0
; ---------PrintSpeed & Travel----------
;Enable Print Cool:true
;Avoid Printed Parts Traveling:true
;Enable Retraction:true
;Retraction Distance:8
;Retraction Speed:100
;Retraction Prime Speed:100
;Maximum Retraction Count:100
;Minimum Extrusion Distance Window:1
;Z Hop When Retracted:false
;Z Hop Height:0.2
;Retract Before Outer Wall:true
;Print Speed:50
;Infill Speed:50

;Prime Tower Speed:50
;Travel Speed:120
;Initial Layer Speed:25
;Skirt/Brim Speed:25
;Combing Mode:infill
; --------SpecialModel&Mesh Fixes--------
;Union Overlapping Volum:true
;Remove All Holes:false
;Maximum Travel Resolution:0.6
;Maximum Deviation:0.05
;Maximum Model Angle:0.872665
;IS Mold Print:false
;Make Overhang Printable:false
;Enable Coasting:false
;Coasting Volumes:0.06
;Coasting Speed:0.9
;Raft AirGap:0.25
;Layer0 ZOverLap:0.13
;---------------------End of Head--------------------------
M140 S60
M105
M104 S200
M105
M109 S200
M105
M190 S60
M82 ;absolute extrusion mode
M220 S100 ;Reset Feedrate
M221 S100 ;Reset Flowrate

G28 ;Home

G92 E0 ;Reset Extruder
G1 Z2.0 F3000 ;Move Z Axis up
G1 X10.1 Y20 Z0.28 F5000.0 ;Move to start position
G1 X10.1 Y145.0 Z0.28 F1500.0 E15 ;Draw the first line
G1 X10.4 Y145.0 Z0.28 F5000.0 ;Move to side a little
G1 X10.4 Y20 Z0.28 F1500.0 E30 ;Draw the second line
G92 E0  ;Reset Extruder
G1 E-1.0000 F1800 ;Retract a bit
G1 Z2.0 F3000 ;Move Z Axis up
G1 E0.0000 F1800 

G92 E0
G92 E0
G1 F6000 E-8

;LAYER_COUNT:110

;LAYER:0
M107
G0 F3600 X109.338 Y109.638 Z0.1
;TYPE:SUPPORT
G1 F6000 E0
G1 F1500 X109.795 Y109.305 E0.00828
G1 X110.355 Y109.305 E0.01647
G1 X110.812 Y109.638 E0.02475
G1 X110.987 Y110.172 E0.03297
G1 X110.812 Y110.706 E0.04119
G1 X110.355 Y111.039 E0.04947
G1 X109.795 Y111.039 E0.05766
G1 X109.338 Y110.706 E0.06594
G1 X109.163 Y110.172 E0.07416
G1 X109.338 Y109.638 E0.08239
;;retract;;
G1 F6000 E-7.91761
;MESH:
G0 F3600 X108.51 Y109.369
G0 X107.831 Y108.91
G0 X106.689 Y108.343
;TYPE:WALL-INNER
G1 F6000 E0.08239
G1 F1500 X106.458 Y108.928 E0.09389
G1 X106.328 Y109.541 E0.10535
G1 X106.302 Y110.169 E0.11685
G1 X106.385 Y110.791 E0.12833
G1 X106.57 Y111.39 E0.1398
G1 X106.854 Y111.951 E0.1513
G1 X107.23 Y112.454 E0.16279
G1 X107.684 Y112.887 E0.17427
G1 X108.206 Y113.236 E0.18575
G1 X108.777 Y113.493 E0.19721
G1 X109.384 Y113.65 E0.20868
G1 X110 Y113.703 E0.21999
G1 X110.636 Y113.646 E0.23167
G1 X111.244 Y113.486 E0.24317
G1 X111.816 Y113.226 E0.25466
G1 X112.334 Y112.872 E0.26614
G1 X112.786 Y112.436 E0.27763
G1 X113.157 Y111.931 E0.28909
G1 X113.439 Y111.369 E0.30059
G1 X113.62 Y110.768 E0.31208
G1 X113.699 Y110.146 E0.32355
G1 X113.67 Y109.517 E0.33506
G1 X113.535 Y108.905 E0.34653
G1 X113.3 Y108.323 E0.35801
G1 X112.969 Y107.79 E0.36949
G1 X112.552 Y107.32 E0.38098
G1 X112.063 Y106.927 E0.39246
G1 X111.514 Y106.623 E0.40394
G1 X110.921 Y106.415 E0.41543
G1 X110.302 Y106.311 E0.42692
G1 X109.674 Y106.313 E0.4384
G1 X109.057 Y106.421 E0.44986
G1 X108.465 Y106.632 E0.46136
G1 X107.917 Y106.94 E0.47286
G1 X107.431 Y107.336 E0.48433
G1 X107.018 Y107.808 E0.4958
G1 X106.689 Y108.343 E0.50729
G0 F3600 X107.048 Y108.523
;TYPE:WALL-OUTER
G1 F1500 X106.842 Y109.044 E0.51754
G1 X106.726 Y109.591 E0.52777
G1 X106.703 Y110.151 E0.53802
G1 X106.777 Y110.705 E0.54824
G1 X106.942 Y111.24 E0.55849
G1 X107.195 Y111.739 E0.56872
G1 X107.53 Y112.188 E0.57897
G1 X107.935 Y112.574 E0.5892
G1 X108.4 Y112.885 E0.59944
G1 X108.91 Y113.114 E0.60966
G1 X109.452 Y113.254 E0.6199
G1 X110 Y113.301 E0.62996
G1 X110.567 Y113.251 E0.64038
G1 X111.109 Y113.108 E0.65063
G1 X111.619 Y112.876 E0.66088
G1 X112.081 Y112.561 E0.67111
G1 X112.484 Y112.172 E0.68136
G1 X112.815 Y111.721 E0.69159
G1 X113.066 Y111.221 E0.70182
G1 X113.227 Y110.685 E0.71206
G1 X113.298 Y110.13 E0.7223
G1 X113.272 Y109.57 E0.73255
G1 X113.152 Y109.024 E0.74278
G1 X112.942 Y108.505 E0.75302
G1 X112.647 Y108.03 E0.76325
G1 X112.275 Y107.611 E0.7735
G1 X111.839 Y107.26 E0.78374
G1 X111.35 Y106.989 E0.79396
G1 X110.821 Y106.804 E0.80422
G1 X110.269 Y106.711 E0.81446
G1 X109.709 Y106.713 E0.8247
G1 X109.159 Y106.809 E0.83491
G1 X108.631 Y106.997 E0.84517
G1 X108.143 Y107.272 E0.85541
G1 X107.71 Y107.625 E0.86563
G1 X107.341 Y108.046 E0.87587
G1 X107.048 Y108.523 E0.88611
G0 F3600 X106.975 Y108.709
G0 X106.566 Y108.547
;;retract;;
G1 F6000 E-7.11389
G0 F3600 X107.831 Y108.91
G0 X111.174 Y98.393
G0 X111.106 Y99.66
;TYPE:WALL-INNER
G1 F6000 E0.88611
G1 F1500 X112.193 Y99.835 E0.90626
G1 X113.264 Y100.127 E0.92656
G1 X114.305 Y100.534 E0.94701
G1 X115.271 Y101.036 E0.96692
G1 X116.202 Y101.653 E0.98736
G1 X117.052 Y102.357 E1.00755
G1 X117.83 Y103.157 E1.02796
G1 X118.506 Y104.017 E1.04797
G1 X119.096 Y104.961 E1.06833
G1 X119.583 Y105.961 E1.08868
G1 X119.956 Y106.995 E1.10879
G1 X120.221 Y108.08 E1.12922
G1 X120.365 Y109.161 E1.14917
G1 X120.395 Y110.28 E1.16965
G1 X120.309 Y111.369 E1.18963
G1 X120.101 Y112.476 E1.21023
G1 X119.784 Y113.528 E1.23033
G1 X119.355 Y114.541 E1.25046
G1 X118.814 Y115.518 E1.27089
G1 X118.184 Y116.415 E1.29094
G1 X117.444 Y117.26 E1.31149
G1 X116.636 Y118.007 E1.33162
G1 X115.745 Y118.668 E1.35191
G1 X114.797 Y119.227 E1.37204
G1 X113.792 Y119.684 E1.39224
G1 X112.73 Y120.034 E1.41269
G1 X111.661 Y120.266 E1.4327
G1 X110.54 Y120.384 E1.45332
G1 X109.45 Y120.384 E1.47326
G1 X108.339 Y120.266 E1.4937
G1 X107.27 Y120.034 E1.51371
G1 X106.208 Y119.684 E1.53417
G1 X105.203 Y119.227 E1.55436
G1 X104.255 Y118.668 E1.5745
G1 X103.364 Y118.007 E1.59479
G1 X102.556 Y117.26 E1.61492
G1 X101.816 Y116.415 E1.63547
G1 X101.186 Y115.518 E1.65552
G1 X100.645 Y114.541 E1.67595
G1 X100.216 Y113.528 E1.69607
G1 X99.899 Y112.476 E1.71617
G1 X99.691 Y111.369 E1.73678
G1 X99.605 Y110.28 E1.75676
G1 X99.635 Y109.161 E1.77724
G1 X99.779 Y108.08 E1.79719
G1 X100.044 Y106.995 E1.81762
G1 X100.417 Y105.961 E1.83773
G1 X100.904 Y104.961 E1.85807
G1 X101.494 Y104.017 E1.87844
G1 X102.17 Y103.157 E1.89845
G1 X102.948 Y102.357 E1.91886
G1 X103.798 Y101.653 E1.93905
G1 X104.729 Y101.036 E1.95948
G1 X105.695 Y100.534 E1.9794
G1 X106.736 Y100.127 E1.99984
G1 X107.807 Y99.835 E2.02015
G1 X108.894 Y99.66 E2.04029
G1 X110 Y99.601 E2.06055
G1 X111.106 Y99.66 E2.08081
G0 F3600 X111.154 Y99.262
;TYPE:WALL-OUTER
G1 F1500 X112.277 Y99.443 E2.10162
G1 X113.395 Y99.748 E2.12282
G1 X114.465 Y100.166 E2.14383
G1 X115.473 Y100.69 E2.16462
G1 X116.442 Y101.333 E2.18589
G1 X117.326 Y102.065 E2.20689
G1 X118.132 Y102.893 E2.22802
G1 X118.831 Y103.783 E2.24873
G1 X119.449 Y104.771 E2.27004
G1 X119.95 Y105.801 E2.291
G1 X120.341 Y106.885 E2.31208
G1 X120.613 Y107.998 E2.33304
G1 X120.765 Y109.135 E2.35402
G1 X120.796 Y110.292 E2.37519
G1 X120.706 Y111.423 E2.39595
G1 X120.49 Y112.571 E2.41732
G1 X120.161 Y113.662 E2.43816
G1 X119.713 Y114.72 E2.45918
G1 X119.156 Y115.727 E2.48023
G1 X118.496 Y116.667 E2.50124
G1 X117.735 Y117.536 E2.52237
G1 X116.893 Y118.314 E2.54334
G1 X115.968 Y119 E2.56441
G1 X114.98 Y119.583 E2.5854
G1 X113.934 Y120.058 E2.60641
G1 X112.835 Y120.421 E2.62758
G1 X111.724 Y120.662 E2.64838
G1 X110.563 Y120.784 E2.66973
G1 X109.427 Y120.784 E2.69052
G1 X108.276 Y120.662 E2.71169
G1 X107.165 Y120.421 E2.73248
G1 X106.066 Y120.058 E2.75366
G1 X105.02 Y119.583 E2.77467
G1 X104.032 Y119 E2.79566
G1 X103.107 Y118.314 E2.81672
G1 X102.265 Y117.536 E2.8377
G1 X101.504 Y116.667 E2.85883
G1 X100.844 Y115.727 E2.87984
G1 X100.287 Y114.72 E2.90089
G1 X99.839 Y113.662 E2.92191
G1 X99.51 Y112.571 E2.94275
G1 X99.294 Y111.423 E2.96412
G1 X99.204 Y110.292 E2.98488
G1 X99.235 Y109.135 E3.00605
G1 X99.387 Y107.998 E3.02703
G1 X99.659 Y106.885 E3.04799
G1 X100.05 Y105.801 E3.06907
G1 X100.551 Y104.771 E3.09002
G1 X101.169 Y103.783 E3.11134
G1 X101.868 Y102.893 E3.13204
G1 X102.674 Y102.065 E3.15318
G1 X103.558 Y101.333 E3.17418
G1 X104.527 Y100.69 E3.19545
G1 X105.535 Y100.166 E3.21623
G1 X106.605 Y99.748 E3.23725
G1 X107.723 Y99.443 E3.25845
G1 X108.846 Y99.262 E3.27925
G1 X110 Y99.201 E3.30039
G1 X111.154 Y99.262 E3.32153
G0 F3600 X111.351 Y99.293
G0 X111.28 Y99.727
;;retract;;
G1 F6000 E-4.67847
G0 F3600 X111.487 Y98.435
G0 X112.466 Y98.593
G0 X113.673 Y98.924
G0 X114.83 Y99.376
G0 X115.447 Y99.697
G0 X116.685 Y100.452
G0 X115.85 Y101.708
;TYPE:SKIN
G1 F6000 E3.32153
G1 F1500 X115.143 Y101.238 E3.33706
G1 X114.462 Y100.885 E3.3511
G1 X119.102 Y105.526 E3.47115
G1 X119.361 Y106.056 E3.48194
G1 X119.527 Y106.516 E3.49088
G1 X113.48 Y100.469 E3.64732
G1 X113.192 Y100.356 E3.65298
G1 X112.656 Y100.211 E3.66314
G1 X119.794 Y107.349 E3.8478
G1 X119.978 Y108.098 E3.86191
G1 X111.912 Y100.032 E4.07058
G1 X111.238 Y99.924 E4.08307
G1 X120.068 Y108.754 E4.3115
G1 X120.124 Y109.177 E4.31931
G1 X120.129 Y109.381 E4.32304
G1 X110.624 Y99.876 E4.56894
G1 X110.026 Y99.844 E4.57989
G1 X120.145 Y109.963 E4.84167
G1 X120.154 Y110.276 E4.8474
G1 X120.136 Y110.519 E4.85186
G1 X109.486 Y99.869 E5.12738
G1 X108.949 Y99.898 E5.13722
G1 X120.094 Y111.043 E5.42554
G1 X120.071 Y111.329 E5.43079
G1 X120.031 Y111.546 E5.43483
G1 X108.458 Y99.972 E5.73424
G1 X107.97 Y100.05 E5.74328
G1 X119.941 Y112.021 E6.05297
G1 X119.865 Y112.424 E6.06047
G1 X119.846 Y112.492 E6.06176
G1 X107.517 Y100.163 E6.38072
G1 X107.073 Y100.285 E6.38914
G1 X119.715 Y112.927 E6.71619
G1 X119.584 Y113.361 E6.72449
G1 X106.643 Y100.421 E7.05926
G1 X106.237 Y100.58 E7.06724
G1 X119.422 Y113.765 E7.40834
G1 X119.254 Y114.163 E7.41624
G1 X113.655 Y108.564 E7.56109
G1 X113.764 Y108.834 E7.56642
G1 X113.878 Y109.353 E7.57614
G1 X119.075 Y114.549 E7.71057
G1 X118.873 Y114.914 E7.7182
G1 X113.93 Y109.97 E7.84609
G1 X113.938 Y110.155 E7.84948
G1 X113.894 Y110.5 E7.85584
G1 X118.672 Y115.278 E7.97945
G1 X118.611 Y115.387 E7.98174
G1 X118.448 Y115.619 E7.98692
G1 X113.806 Y110.977 E8.10701
G1 X113.675 Y111.412 E8.11532
G1 X118.214 Y115.952 E8.23276
G1 X117.989 Y116.271 E8.2399
G1 X117.98 Y116.283 E8.24018
G1 X113.492 Y111.794 E8.3563
G1 X113.361 Y112.057 E8.36167
G1 X113.287 Y112.156 E8.36393
G1 X117.716 Y116.584 E8.4785
G1 X117.452 Y116.886 E8.48584
G1 X113.047 Y112.482 E8.59978
G1 X112.965 Y112.594 E8.60232
G1 X112.777 Y112.777 E8.60712
G1 X117.177 Y117.177 E8.72095
G1 X116.884 Y117.449 E8.72826
G1 X112.49 Y113.055 E8.84194
G1 X112.485 Y113.058 E8.84204
G1 X112.154 Y113.285 E8.84939
G1 X116.589 Y117.721 E8.96413
G1 X116.483 Y117.82 E8.96679
G1 X116.276 Y117.973 E8.9715
G1 X111.799 Y113.497 E9.0873
G1 X111.411 Y113.673 E9.0951
G1 X115.951 Y118.214 E9.21256
G1 X115.626 Y118.455 E9.21996
G1 X110.976 Y113.804 E9.34027
G1 X110.678 Y113.883 E9.34591
G1 X110.504 Y113.898 E9.34911
G1 X115.272 Y118.666 E9.47246
G1 X114.916 Y118.876 E9.48002
G1 X109.981 Y113.941 E9.60769
G1 X109.363 Y113.889 E9.61903
G1 X114.549 Y119.074 E9.75318
G1 X114.16 Y119.251 E9.761
G1 X108.571 Y113.662 E9.90559
G0 F3600 X108.09 Y113.446
G1 F1500 X107.533 Y113.074 E9.91784
G1 X107.049 Y112.613 E9.93007
G1 X106.649 Y112.077 E9.94231
G1 X106.346 Y111.478 E9.95459
G1 X106.329 Y111.42 E9.95569
G1 X106.15 Y110.842 E9.96676
G1 X106.124 Y110.65 E9.9703
G1 X100.93 Y105.455 E10.10469
G1 X101.115 Y105.075 E10.11242
G1 X106.068 Y110.027 E10.24054
G1 X106.089 Y109.51 E10.25001
G1 X106.094 Y109.488 E10.25042
G1 X101.332 Y104.726 E10.37361
G1 X101.55 Y104.378 E10.38113
G1 X106.193 Y109.021 E10.50124
G1 X106.227 Y108.856 E10.50432
G1 X106.331 Y108.594 E10.50948
G1 X101.778 Y104.041 E10.62727
G1 X102.027 Y103.724 E10.63464
G1 X106.498 Y108.195 E10.75031
G1 X106.713 Y107.845 E10.75782
G1 X102.276 Y103.408 E10.87261
G1 X102.353 Y103.311 E10.87487
G1 X102.546 Y103.112 E10.87995
G1 X106.952 Y107.518 E10.99393
G1 X107.216 Y107.216 E11.00127
G1 X102.825 Y102.825 E11.11486
G1 X103.101 Y102.542 E11.1221
G1 X103.105 Y102.539 E11.12219
G1 X107.519 Y106.953 E11.23638
G1 X107.78 Y106.74 E11.24254
G1 X107.838 Y106.707 E11.24376
G1 X103.414 Y102.282 E11.35823
G1 X103.724 Y102.027 E11.36557
G1 X108.2 Y106.503 E11.48136
G1 X108.364 Y106.412 E11.48479
G1 X108.593 Y106.33 E11.48924
G1 X104.041 Y101.778 E11.60701
G1 X104.382 Y101.553 E11.61448
G1 X109.013 Y106.184 E11.73429
G1 X109.494 Y106.099 E11.74322
G1 X104.722 Y101.328 E11.86666
G1 X104.855 Y101.239 E11.86959
G1 X105.081 Y101.121 E11.87425
G1 X110.031 Y106.071 E12.00231
G1 X110.32 Y106.07 E12.0076
G1 X110.651 Y106.126 E12.01374
G1 X105.454 Y100.928 E12.1482
G1 X105.788 Y100.754 E12.15509
G1 X105.829 Y100.738 E12.15589
G1 X111.43 Y106.338 E12.30078
G0 F3600 X111.611 Y106.402
G1 F1500 X112.195 Y106.727 E12.31301
G1 X112.717 Y107.146 E12.32525
G1 X113.161 Y107.645 E12.33747
G1 X113.514 Y108.214 E12.34972
G1 X113.655 Y108.564 E12.35662
;;retract;;
G1 F6000 E4.35662
G0 F3600 X112.257 Y109.13
G0 X119.606 Y103.383
G0 X118.326 Y104.184
G1 F6000 E12.35662
G1 F1500 X115.85 Y101.708 E12.42068
G1 X116.053 Y101.843 E12.42514
G1 X116.897 Y102.541 E12.44517
G1 X117.644 Y103.311 E12.4648
G1 X118.305 Y104.15 E12.48433
;;retract;;
G1 F6000 E4.48433
G0 F3600 X119.492 Y103.218
G0 X111.057 Y108.744
G0 X109.512 Y108.437
G0 X108.6 Y109.102
G0 X107.75 Y110.912
G0 X106.329 Y111.42
G1 F6000 E12.48433
G1 F1500 X100.745 Y105.836 E12.62879
G1 X100.638 Y106.056 E12.63327
G1 X100.574 Y106.231 E12.63668
G1 X113.772 Y119.428 E12.9781
G1 X113.707 Y119.458 E12.97941
G1 X113.352 Y119.574 E12.98624
G1 X100.424 Y106.647 E13.32068
G1 X100.274 Y107.063 E13.32877
G1 X112.927 Y119.715 E13.6561
G1 X112.656 Y119.804 E13.66131
G1 X112.487 Y119.841 E13.66448
G1 X100.163 Y107.517 E13.9833
G1 X100.052 Y107.971 E13.99185
G1 X112.021 Y119.941 E14.30151
G1 X111.63 Y120.027 E14.30883
G1 X111.549 Y120.034 E14.31032
G1 X99.97 Y108.456 E14.60986
G1 X99.903 Y108.954 E14.61905
G1 X111.037 Y120.088 E14.90709
G1 X110.525 Y120.142 E14.91651
G1 X99.866 Y109.482 E15.19227
G1 X99.851 Y110.033 E15.20236
G1 X109.96 Y120.143 E15.46389
G1 X109.465 Y120.143 E15.47295
G1 X109.386 Y120.134 E15.4744
G1 X99.871 Y110.619 E15.72056
G1 X99.92 Y111.234 E15.73184
G1 X108.754 Y120.068 E15.96038
G1 X108.369 Y120.027 E15.96746
G1 X108.086 Y119.965 E15.97276
G1 X100.037 Y111.917 E16.18098
G1 X100.132 Y112.423 E16.1904
G1 X100.199 Y112.644 E16.19462
G1 X107.362 Y119.807 E16.37993
G1 X107.343 Y119.803 E16.38029
G1 X106.522 Y119.533 E16.3961
G1 X100.447 Y113.458 E16.55326
G1 X100.861 Y114.434 E16.57265
