;FLAVOR:Marlin
;TIME:2549
;Filament used:0.578802m
;Layer height: 0.1
;MINX:96.733
;MINY:95.833
;MINZ:0.1
;MAXX:123.252
;MAXY:124.167
;MAXZ:5
                                
;Creality Print GCode Generated by CXEngine:NO_MAGE_VERSION_GIT_HEAD_BRANCH
;CXEngine Release Time:2022-09-30 09:53:04
;Gcode Generated Time:2023-05-02 00:11:04
;----------Machine Config--------------
;Machine Name:Ender-3 V2
;Machine Height:250
;Machine Width:220
;Machine Depth:220
;Material name:PLA
;Number of Extruders:1
;ExtruderParams[0] Nozzle Diameter1000
;----------Profile Config---------------
;Engine Version:275f99b
;Engine Release Time:2022-09-30 09:42:18
;Layer Height:0.1
;Wall Thickness:0.8
;Top/Bottom Thickness:0.5
;Out Wall Line Width:0.4
;Inner Wall Line Width:0.4
;Inital Layer Height:100
;Wall Line Count:2
;Infill Line Distance:4
;Infill Pattern:grid
;Infill Sparse Density:20
;Infill Wipe Distance:0
;Print Temperature:200
;Bed Temperature:60
;Support Enable:true
;Support Density:0
;Support Angle:60
;Adhesion Type:none
;machine is belt:false
;machine belt offset:10
;machine belt offset Y:0
;Raft Base Line Spacing:1.6
;Wait Heatup Sync:true
;----------Shell Config----------------
;Outer Wall Wipe Distance:200
;Outer Inset First:false
;Infill Before Walls:false
;Infill Overlap:0.16
;Fill Gaps Between Walls:everywhere
;Minimum Infill Area:1
;Top Surface Skin Layer:0
;Top Layers:4
;Z Seam Alignment:sharpest_corner
;Seam Corner Preference:z_seam_corner_inner
;Z Seam X:110
;Z Seam Y:110
;Horizontal Expansion:0
;Top/Bottom Pattern:zigzag
;Ironing Pattern:zigzag
;Vase Model:false
;----------Support Config----------------
;Support Type:everywhere
;Support Pattern:zigzag
;Support Infill Layer Thickness:0.1
;Minimum Support Area:5
;Enable Support Roof:false
;Support Roof Thickness:0.8
;Support Roof Pattern:lines
;Connect Support Lines:0
;Connect Support ZigZags:1
;Minimum Support X/Y Distance:0.2
;Support Line Distance:0
; ---------PrintSpeed & Travel----------
;Enable Print Cool:true
;Avoid Printed Parts Traveling:true
;Enable Retraction:true
;Retraction Distance:8
;Retraction Speed:100
;Retraction Prime Speed:100
;Maximum Retraction Count:100
;Minimum Extrusion Distance Window:1
;Z Hop When Retracted:false
;Z Hop Height:0.2
;Retract Before Outer Wall:true
;Print Speed:50
;Infill Speed:50

;Prime Tower Speed:50
;Travel Speed:120
;Initial Layer Speed:25
;Skirt/Brim Speed:25
;Combing Mode:infill
; --------SpecialModel&Mesh Fixes--------
;Union Overlapping Volum:true
;Remove All Holes:false
;Maximum Travel Resolution:0.6
;Maximum Deviation:0.05
;Maximum Model Angle:0.872665
;IS Mold Print:false
;Make Overhang Printable:false
;Enable Coasting:false
;Coasting Volumes:0.06
;Coasting Speed:0.9
;Raft AirGap:0.25
;Layer0 ZOverLap:0.13
;---------------------End of Head--------------------------
M140 S60
M105
M104 S200
M105
M109 S200
M105
M190 S60
M82 ;absolute extrusion mode
M220 S100 ;Reset Feedrate
M221 S100 ;Reset Flowrate

G28 ;Home

G92 E0 ;Reset Extruder
G1 Z2.0 F3000 ;Move Z Axis up
G1 X10.1 Y20 Z0.28 F5000.0 ;Move to start position
G1 X10.1 Y145.0 Z0.28 F1500.0 E15 ;Draw the first line
G1 X10.4 Y145.0 Z0.28 F5000.0 ;Move to side a little
G1 X10.4 Y20 Z0.28 F1500.0 E30 ;Draw the second line
G92 E0  ;Reset Extruder
G1 E-1.0000 F1800 ;Retract a bit
G1 Z2.0 F3000 ;Move Z Axis up
G1 E0.0000 F1800 

G92 E0
G92 E0
G1 F6000 E-8

;LAYER_COUNT:50

;LAYER:0
M107
;MESH:
G0 F3600 X112.132 Y109.999 Z0.1
;TYPE:WALL-INNER
G1 F6000 E0
G1 F600 X112.065 Y109.479 E0.00959
G1 X111.941 Y109.131 E0.01635
G1 X111.766 Y108.82 E0.02288
G1 X111.542 Y108.543 E0.02939
G1 X111.274 Y108.307 E0.03593
G1 X110.97 Y108.122 E0.04244
G1 X110.64 Y107.989 E0.04894
G1 X110.29 Y107.915 E0.05549
G1 X109.933 Y107.899 E0.06203
G1 X109.58 Y107.947 E0.06854
G1 X109.241 Y108.051 E0.07503
G1 X108.921 Y108.213 E0.08159
G1 X108.635 Y108.426 E0.08811
G1 X108.391 Y108.682 E0.09458
G1 X108.191 Y108.976 E0.10109
G1 X108.043 Y109.303 E0.10765
G1 X107.955 Y109.648 E0.11417
G1 X107.924 Y110 E0.12063
G1 X107.957 Y110.359 E0.12723
G1 X108.046 Y110.702 E0.13371
G1 X108.193 Y111.028 E0.14025
G1 X108.394 Y111.324 E0.1468
G1 X108.641 Y111.581 E0.15332
G1 X108.927 Y111.791 E0.15981
G1 X109.248 Y111.953 E0.16638
G1 X109.588 Y112.054 E0.17287
G1 X109.941 Y112.101 E0.17939
G1 X110.297 Y112.084 E0.18591
G1 X110.645 Y112.009 E0.19242
G1 X110.977 Y111.875 E0.19897
G1 X111.279 Y111.688 E0.20547
G1 X111.547 Y111.453 E0.21199
G1 X111.77 Y111.174 E0.21852
G1 X111.944 Y110.863 E0.22504
G1 X112.066 Y110.513 E0.23182
G1 X112.132 Y109.999 E0.2413
G0 F3600 X111.729 Y109.999
;TYPE:WALL-OUTER
G1 F600 X111.674 Y109.573 E0.24916
G1 X111.576 Y109.297 E0.25451
G1 X111.434 Y109.045 E0.25981
G1 X111.253 Y108.821 E0.26507
G1 X111.036 Y108.631 E0.27035
G1 X110.79 Y108.481 E0.27562
G1 X110.523 Y108.373 E0.28089
G1 X110.239 Y108.313 E0.2862
G1 X109.951 Y108.3 E0.29147
G1 X109.666 Y108.339 E0.29674
G1 X109.391 Y108.423 E0.302
G1 X109.132 Y108.554 E0.30731
G1 X108.901 Y108.726 E0.31257
G1 X108.703 Y108.934 E0.31783
G1 X108.541 Y109.172 E0.32309
G1 X108.422 Y109.436 E0.32839
G1 X108.351 Y109.715 E0.33366
G1 X108.326 Y110 E0.33889
G1 X108.352 Y110.29 E0.34422
G1 X108.425 Y110.569 E0.34949
G1 X108.543 Y110.832 E0.35477
G1 X108.706 Y111.071 E0.36006
G1 X108.906 Y111.279 E0.36534
G1 X109.137 Y111.449 E0.37058
G1 X109.396 Y111.58 E0.37589
G1 X109.672 Y111.662 E0.38116
G1 X109.958 Y111.7 E0.38644
G1 X110.245 Y111.686 E0.39169
G1 X110.527 Y111.625 E0.39697
G1 X110.795 Y111.517 E0.40226
G1 X111.04 Y111.365 E0.40753
G1 X111.257 Y111.175 E0.41281
G1 X111.437 Y110.95 E0.41808
G1 X111.578 Y110.698 E0.42336
G1 X111.675 Y110.421 E0.42873
G1 X111.729 Y109.999 E0.43651
G0 F3600 X111.704 Y109.801
G0 X112.14 Y109.746
;;retract;;
G1 F6000 E-7.56349
G0 F3600 X110.824 Y109.774
G0 X104.91 Y99.125
G0 X104.474 Y100.859
;TYPE:WALL-INNER
G1 F6000 E0.43651
G1 F1500 X106.523 Y99.895 E0.47794
G1 X106.092 Y98.766 E0.50004
G1 X106.032 Y98.405 E0.50674
G1 X106.03 Y98.321 E0.50827
G1 X106.023 Y97.743 E0.51885
G1 X106.061 Y97.731 E0.51958
G1 X106.395 Y98.202 E0.52559
G1 X106.445 Y98.272 E0.52716
G1 X106.609 Y98.6 E0.53387
G1 X106.922 Y99.765 E0.55593
G1 X109.147 Y99.341 E0.59737
G1 X109.009 Y98.137 E0.61954
G1 X109.039 Y97.785 E0.626
G1 X109.061 Y97.696 E0.62768
G1 X109.197 Y97.133 E0.63827
G1 X109.238 Y97.131 E0.63902
G1 X109.443 Y97.672 E0.64506
G1 X109.475 Y97.757 E0.64673
G1 X109.55 Y98.104 E0.65322
G1 X109.564 Y99.315 E0.67537
G1 X111.824 Y99.456 E0.7168
G1 X111.989 Y98.261 E0.73887
G1 X112.111 Y97.918 E0.74552
G1 X112.151 Y97.842 E0.7471
G1 X112.423 Y97.331 E0.75769
G1 X112.463 Y97.338 E0.75843
G1 X112.527 Y97.913 E0.76446
G1 X112.537 Y97.994 E0.76595
G1 X112.524 Y98.36 E0.77265
G1 X112.237 Y99.536 E0.7948
G1 X114.39 Y100.234 E0.8362
G1 X114.85 Y99.115 E0.85833
G1 X115.051 Y98.813 E0.86497
G1 X115.108 Y98.751 E0.86651
G1 X115.499 Y98.325 E0.87709
G1 X115.535 Y98.342 E0.87782
G1 X115.455 Y98.914 E0.88382
G1 X115.442 Y99.004 E0.88549
G1 X115.339 Y99.352 E0.89213
G1 X114.769 Y100.414 E0.91418
G1 X116.683 Y101.627 E0.95563
G1 X117.401 Y100.661 E0.97765
G1 X117.678 Y100.411 E0.98447
G1 X117.748 Y100.365 E0.986
G1 X118.23 Y100.052 E0.99652
G1 X118.262 Y100.078 E0.99727
G1 X118.043 Y100.609 E1.00327
G1 X118.009 Y100.692 E1.00492
G1 X117.82 Y101.005 E1.0116
G1 X117.004 Y101.896 E1.03371
G1 X118.555 Y103.544 E1.0751
G1 X119.494 Y102.786 E1.09718
G1 X119.82 Y102.618 E1.10389
G1 X119.9 Y102.59 E1.10544
G1 X120.446 Y102.405 E1.11598
G1 X120.47 Y102.437 E1.11672
G1 X120.126 Y102.899 E1.12273
G1 X120.069 Y102.975 E1.12446
G1 X119.818 Y103.222 E1.13091
G1 X118.8 Y103.884 E1.15312
G1 X119.892 Y105.868 E1.19455
G1 X120.989 Y105.368 E1.2166
G1 X121.354 Y105.284 E1.22345
G1 X121.432 Y105.278 E1.22488
G1 X122.007 Y105.235 E1.23543
G1 X122.022 Y105.273 E1.23618
G1 X121.574 Y105.634 E1.24218
G1 X121.506 Y105.689 E1.24378
G1 X121.189 Y105.873 E1.25048
G1 X120.046 Y106.259 E1.27255
G1 X120.609 Y108.451 E1.31395
G1 X121.799 Y108.239 E1.33606
G1 X122.164 Y108.248 E1.34274
G1 X122.249 Y108.263 E1.34432
G1 X122.816 Y108.363 E1.35485
G1 X122.822 Y108.404 E1.35561
G1 X122.298 Y108.642 E1.36163
G1 X122.212 Y108.682 E1.36336
G1 X121.87 Y108.778 E1.36986
G1 X120.662 Y108.868 E1.39202
G1 X120.662 Y111.132 E1.43344
G1 X121.87 Y111.222 E1.45559
G1 X122.212 Y111.318 E1.46209
G1 X122.298 Y111.358 E1.46383
G1 X122.822 Y111.596 E1.47436
G1 X122.816 Y111.637 E1.47511
G1 X122.249 Y111.737 E1.48113
G1 X122.164 Y111.752 E1.48271
G1 X121.799 Y111.761 E1.48939
G1 X120.609 Y111.549 E1.5115
G1 X120.046 Y113.741 E1.5529
G1 X121.189 Y114.127 E1.57497
G1 X121.506 Y114.311 E1.58167
G1 X121.574 Y114.366 E1.58327
G1 X122.022 Y114.727 E1.5938
G1 X122.007 Y114.765 E1.59455
G1 X121.432 Y114.722 E1.60057
G1 X121.354 Y114.716 E1.602
G1 X120.989 Y114.632 E1.60885
G1 X119.892 Y114.132 E1.6309
G1 X118.8 Y116.116 E1.67233
G1 X119.818 Y116.778 E1.69454
G1 X120.069 Y117.025 E1.70099
G1 X120.126 Y117.101 E1.70272
G1 X120.47 Y117.563 E1.71326
G1 X120.446 Y117.595 E1.71399
G1 X119.9 Y117.41 E1.72001
G1 X119.82 Y117.382 E1.72156
G1 X119.494 Y117.214 E1.72827
G1 X118.555 Y116.456 E1.75034
G1 X117.004 Y118.104 E1.79174
G1 X117.82 Y118.995 E1.81384
G1 X118.009 Y119.308 E1.82053
G1 X118.043 Y119.391 E1.82217
G1 X118.262 Y119.922 E1.83268
G1 X118.23 Y119.948 E1.83343
G1 X117.748 Y119.635 E1.83944
G1 X117.678 Y119.589 E1.84097
G1 X117.401 Y119.339 E1.8478
G1 X116.683 Y118.373 E1.86982
G1 X114.769 Y119.586 E1.91127
G1 X115.339 Y120.648 E1.93332
G1 X115.442 Y120.996 E1.93996
G1 X115.455 Y121.087 E1.94164
G1 X115.534 Y121.659 E1.9522
G1 X115.499 Y121.675 E1.9529
G1 X115.108 Y121.249 E1.95892
G1 X115.051 Y121.187 E1.96046
G1 X114.849 Y120.883 E1.96713
G1 X114.39 Y119.766 E1.98923
G1 X112.237 Y120.464 E2.03063
G1 X112.524 Y121.636 E2.0527
G1 X112.537 Y122.006 E2.05947
G1 X112.527 Y122.087 E2.06097
G1 X112.463 Y122.662 E2.07155
G1 X112.423 Y122.669 E2.07229
G1 X112.151 Y122.158 E2.07833
G1 X112.111 Y122.082 E2.0799
G1 X111.989 Y121.739 E2.08656
G1 X111.824 Y120.544 E2.10863
G1 X109.564 Y120.685 E2.15005
G1 X109.55 Y121.896 E2.1722
G1 X109.474 Y122.249 E2.17881
G1 X109.443 Y122.33 E2.1804
G1 X109.238 Y122.869 E2.19095
G1 X109.197 Y122.867 E2.1917
G1 X109.061 Y122.306 E2.19773
G1 X109.04 Y122.219 E2.19937
G1 X109.009 Y121.854 E2.20607
G1 X109.147 Y120.659 E2.22808
G1 X106.922 Y120.235 E2.26951
G1 X106.609 Y121.4 E2.29158
G1 X106.445 Y121.728 E2.29829
G1 X106.395 Y121.798 E2.29986
G1 X106.061 Y122.269 E2.31042
G1 X106.023 Y122.257 E2.31115
G1 X106.03 Y121.679 E2.31717
G1 X106.032 Y121.595 E2.31871
G1 X106.092 Y121.234 E2.32541
G1 X106.523 Y120.105 E2.34751
G1 X104.474 Y119.141 E2.38894
G1 X103.883 Y120.191 E2.41098
G1 X103.644 Y120.464 E2.41761
G1 X103.576 Y120.522 E2.41925
G1 X103.136 Y120.898 E2.42984
G1 X103.1 Y120.875 E2.43062
G1 X103.252 Y120.317 E2.43667
G1 X103.274 Y120.237 E2.43819
G1 X103.421 Y119.903 E2.44487
G1 X104.119 Y118.917 E2.46697
G1 X102.376 Y117.472 E2.50838
G1 X101.542 Y118.34 E2.5304
G1 X101.235 Y118.552 E2.53723
G1 X101.162 Y118.588 E2.53872
G1 X100.643 Y118.841 E2.54928
G1 X100.615 Y118.811 E2.55003
G1 X100.899 Y118.309 E2.55605
G1 X100.942 Y118.234 E2.55763
G1 X101.169 Y117.945 E2.56436
G1 X102.088 Y117.166 E2.5864
G1 X100.757 Y115.336 E2.62779
G1 X99.733 Y115.969 E2.64981
G1 X99.388 Y116.097 E2.65654
G1 X99.301 Y116.115 E2.65817
G1 X98.739 Y116.228 E2.66865
G1 X98.719 Y116.193 E2.66939
G1 X99.117 Y115.78 E2.67538
G1 X99.176 Y115.718 E2.67694
G1 X99.469 Y115.493 E2.6837
G1 X100.554 Y114.968 E2.70575
G1 X99.723 Y112.863 E2.74715
G1 X98.568 Y113.222 E2.76928
G1 X98.208 Y113.259 E2.7759
G1 X98.12 Y113.254 E2.77751
G1 X97.544 Y113.226 E2.78806
G1 X97.534 Y113.186 E2.78881
G1 X98.024 Y112.884 E2.79482
G1 X98.099 Y112.838 E2.79643
G1 X98.432 Y112.696 E2.80305
G1 X99.617 Y112.456 E2.82517
G1 X99.333 Y110.209 E2.8666
G1 X98.128 Y110.272 E2.88868
G1 X97.767 Y110.217 E2.89536
G1 X97.684 Y110.191 E2.89695
G1 X97.133 Y110.021 E2.9075
G1 X97.133 Y109.979 E2.90826
G1 X97.684 Y109.809 E2.9143
G1 X97.767 Y109.783 E2.91589
G1 X98.128 Y109.728 E2.92257
G1 X99.333 Y109.791 E2.94464
G1 X99.617 Y107.544 E2.98607
G1 X98.432 Y107.304 E3.00819
G1 X98.099 Y107.162 E3.01481
G1 X98.024 Y107.116 E3.01642
G1 X97.534 Y106.814 E3.02695
G1 X97.544 Y106.774 E3.02771
G1 X98.12 Y106.746 E3.03374
G1 X98.208 Y106.741 E3.03535
G1 X98.568 Y106.778 E3.04197
G1 X99.723 Y107.137 E3.0641
G1 X100.554 Y105.032 E3.10549
G1 X99.469 Y104.507 E3.12754
G1 X99.176 Y104.282 E3.1343
G1 X99.117 Y104.22 E3.13587
G1 X98.719 Y103.807 E3.14636
G1 X98.739 Y103.772 E3.1471
G1 X99.301 Y103.885 E3.15308
G1 X99.388 Y103.903 E3.15471
G1 X99.733 Y104.031 E3.16144
G1 X100.757 Y104.664 E3.18346
G1 X102.088 Y102.834 E3.22485
G1 X101.169 Y102.055 E3.24689
G1 X100.942 Y101.766 E3.25361
G1 X100.899 Y101.691 E3.2552
G1 X100.615 Y101.189 E3.26575
G1 X100.643 Y101.159 E3.2665
G1 X101.162 Y101.412 E3.27253
G1 X101.235 Y101.448 E3.27402
G1 X101.542 Y101.66 E3.28085
G1 X102.376 Y102.528 E3.30287
G1 X104.119 Y101.083 E3.34429
G1 X103.421 Y100.097 E3.36638
G1 X103.274 Y99.763 E3.37306
G1 X103.252 Y99.683 E3.37458
G1 X103.1 Y99.125 E3.38516
G1 X103.136 Y99.102 E3.38594
G1 X103.576 Y99.478 E3.392
G1 X103.644 Y99.536 E3.39363
G1 X103.883 Y99.809 E3.40027
G1 X104.474 Y100.859 E3.42231
G0 F3600 X104.64 Y100.339
;TYPE:WALL-OUTER
G1 F1500 X106.017 Y99.691 E3.45015
G1 X105.704 Y98.871 E3.46621
G1 X105.633 Y98.446 E3.47409
G1 X105.617 Y97.796 E3.48598
G1 X105.646 Y97.446 E3.49241
G1 X106.191 Y97.268 E3.5029
G1 X106.426 Y97.542 E3.5095
G1 X106.79 Y98.067 E3.52119
G1 X106.984 Y98.455 E3.52912
G1 X107.212 Y99.303 E3.54519
G1 X108.707 Y99.018 E3.57303
G1 X108.607 Y98.143 E3.58914
G1 X108.644 Y97.717 E3.59696
G1 X108.791 Y97.084 E3.60885
G1 X108.906 Y96.751 E3.61529
G1 X109.478 Y96.715 E3.62578
G1 X109.636 Y97.032 E3.63225
G1 X109.86 Y97.643 E3.64416
G1 X109.95 Y98.059 E3.65195
G1 X109.96 Y98.939 E3.66804
G1 X111.479 Y99.034 E3.69589
G1 X111.599 Y98.166 E3.71192
G1 X111.743 Y97.758 E3.71983
G1 X112.038 Y97.187 E3.73159
G1 X112.237 Y96.888 E3.73816
G1 X112.798 Y96.995 E3.7486
G1 X112.874 Y97.349 E3.75523
G1 X112.938 Y97.983 E3.76688
G1 X112.922 Y98.42 E3.77488
G1 X112.714 Y99.27 E3.79089
G1 X114.161 Y99.739 E3.81872
G1 X114.495 Y98.925 E3.83481
G1 X114.733 Y98.568 E3.84266
G1 X115.158 Y98.093 E3.85432
G1 X115.429 Y97.85 E3.86098
G1 X115.946 Y98.093 E3.87143
G1 X115.931 Y98.445 E3.87788
G1 X115.835 Y99.086 E3.88973
G1 X115.71 Y99.505 E3.89773
G1 X115.297 Y100.275 E3.91371
G1 X116.583 Y101.09 E3.94157
G1 X117.103 Y100.39 E3.95752
G1 X117.433 Y100.094 E3.96563
G1 X117.965 Y99.739 E3.97733
G1 X118.28 Y99.575 E3.98382
G1 X118.722 Y99.939 E3.9943
G1 X118.619 Y100.28 E4.00081
G1 X118.366 Y100.875 E4.01264
G1 X118.143 Y101.245 E4.02054
G1 X117.55 Y101.892 E4.0366
G1 X118.592 Y103 E4.06442
G1 X119.275 Y102.449 E4.08048
G1 X119.66 Y102.25 E4.0884
G1 X120.264 Y102.037 E4.10012
G1 X120.613 Y101.955 E4.10668
G1 X120.95 Y102.418 E4.11715
G1 X120.763 Y102.726 E4.12374
G1 X120.373 Y103.237 E4.1355
G1 X120.069 Y103.536 E4.1433
G1 X119.33 Y104.017 E4.15943
G1 X120.064 Y105.35 E4.18727
G1 X120.861 Y104.987 E4.20329
G1 X121.286 Y104.889 E4.21127
G1 X121.922 Y104.833 E4.22295
G1 X122.281 Y104.84 E4.22952
G1 X122.492 Y105.373 E4.24
G1 X122.236 Y105.623 E4.24655
G1 X121.731 Y106.021 E4.25831
G1 X121.356 Y106.239 E4.26625
G1 X120.526 Y106.519 E4.28227
G1 X120.904 Y107.992 E4.31009
G1 X121.768 Y107.838 E4.32614
G1 X122.203 Y107.849 E4.3341
G1 X122.83 Y107.952 E4.34573
G1 X123.18 Y108.05 E4.35238
G1 X123.252 Y108.618 E4.36285
G1 X122.945 Y108.795 E4.36933
G1 X122.35 Y109.058 E4.38123
G1 X121.938 Y109.174 E4.38906
G1 X121.062 Y109.239 E4.40513
G1 X121.062 Y110.761 E4.43297
G1 X121.938 Y110.826 E4.44904
G1 X122.35 Y110.942 E4.45687
G1 X122.945 Y111.205 E4.46877
G1 X123.252 Y111.382 E4.47525
G1 X123.18 Y111.95 E4.48573
G1 X122.83 Y112.048 E4.49238
G1 X122.203 Y112.151 E4.504
G1 X121.768 Y112.162 E4.51196
G1 X120.904 Y112.008 E4.52802
G1 X120.526 Y113.481 E4.55583
G1 X121.356 Y113.761 E4.57186
G1 X121.731 Y113.979 E4.57979
G1 X122.236 Y114.377 E4.59155
G1 X122.492 Y114.627 E4.5981
G1 X122.281 Y115.16 E4.60859
