;FLAVOR:Marlin
;TIME:2547
;Filament used:0.579908m
;Layer height: 0.1
;MINX:96.733
;MINY:95.833
;MINZ:0.1
;MAXX:123.252
;MAXY:124.167
;MAXZ:5
                                
;Creality Print GCode Generated by CXEngine:NO_MAGE_VERSION_GIT_HEAD_BRANCH
;CXEngine Release Time:2022-09-30 09:53:04
;Gcode Generated Time:2023-05-02 22:22:45
;----------Machine Config--------------
;Machine Name:Ender-3 V2
;Machine Height:250
;Machine Width:220
;Machine Depth:220
;Material name:PLA
;Number of Extruders:1
;ExtruderParams[0] Nozzle Diameter1000
;----------Profile Config---------------
;Engine Version:275f99b
;Engine Release Time:2022-09-30 09:42:18
;Layer Height:0.1
;Wall Thickness:0.8
;Top/Bottom Thickness:0.5
;Out Wall Line Width:0.4
;Inner Wall Line Width:0.4
;Inital Layer Height:100
;Wall Line Count:2
;Infill Line Distance:4
;Infill Pattern:grid
;Infill Sparse Density:20
;Infill Wipe Distance:0
;Print Temperature:200
;Bed Temperature:60
;Support Enable:true
;Support Density:0
;Support Angle:60
;Adhesion Type:none
;machine is belt:false
;machine belt offset:10
;machine belt offset Y:0
;Raft Base Line Spacing:1.6
;Wait Heatup Sync:true
;----------Shell Config----------------
;Outer Wall Wipe Distance:200
;Outer Inset First:false
;Infill Before Walls:false
;Infill Overlap:0.16
;Fill Gaps Between Walls:everywhere
;Minimum Infill Area:1
;Top Surface Skin Layer:0
;Top Layers:4
;Z Seam Alignment:sharpest_corner
;Seam Corner Preference:z_seam_corner_inner
;Z Seam X:110
;Z Seam Y:110
;Horizontal Expansion:0
;Top/Bottom Pattern:zigzag
;Ironing Pattern:zigzag
;Vase Model:false
;----------Support Config----------------
;Support Type:everywhere
;Support Pattern:zigzag
;Support Infill Layer Thickness:0.1
;Minimum Support Area:5
;Enable Support Roof:false
;Support Roof Thickness:0.8
;Support Roof Pattern:lines
;Connect Support Lines:0
;Connect Support ZigZags:1
;Minimum Support X/Y Distance:0.2
;Support Line Distance:0
; ---------PrintSpeed & Travel----------
;Enable Print Cool:true
;Avoid Printed Parts Traveling:true
;Enable Retraction:true
;Retraction Distance:8
;Retraction Speed:100
;Retraction Prime Speed:100
;Maximum Retraction Count:100
;Minimum Extrusion Distance Window:1
;Z Hop When Retracted:false
;Z Hop Height:0.2
;Retract Before Outer Wall:true
;Print Speed:50
;Infill Speed:50

;Prime Tower Speed:50
;Travel Speed:120
;Initial Layer Speed:25
;Skirt/Brim Speed:25
;Combing Mode:infill
; --------SpecialModel&Mesh Fixes--------
;Union Overlapping Volum:true
;Remove All Holes:false
;Maximum Travel Resolution:0.6
;Maximum Deviation:0.05
;Maximum Model Angle:0.872665
;IS Mold Print:false
;Make Overhang Printable:false
;Enable Coasting:false
;Coasting Volumes:0.06
;Coasting Speed:0.9
;Raft AirGap:0.25
;Layer0 ZOverLap:0.13
;---------------------End of Head--------------------------
M140 S60
M105
M104 S200
M105
M109 S200
M105
M190 S60
M82 ;absolute extrusion mode
M220 S100 ;Reset Feedrate
M221 S100 ;Reset Flowrate

G28 ;Home

G92 E0 ;Reset Extruder
G1 Z2.0 F3000 ;Move Z Axis up
G1 X10.1 Y20 Z0.28 F5000.0 ;Move to start position
G1 X10.1 Y145.0 Z0.28 F1500.0 E15 ;Draw the first line
G1 X10.4 Y145.0 Z0.28 F5000.0 ;Move to side a little
G1 X10.4 Y20 Z0.28 F1500.0 E30 ;Draw the second line
G92 E0  ;Reset Extruder
G1 E-1.0000 F1800 ;Retract a bit
G1 Z2.0 F3000 ;Move Z Axis up
G1 E0.0000 F1800 

G92 E0
G92 E0
G1 F6000 E-8

;LAYER_COUNT:50

;LAYER:0
M107
;MESH:
G0 F3600 X108.427 Y108.507 Z0.1
;TYPE:WALL-INNER
G1 F6000 E0
G1 F600 X108.427 Y111.441 E0.05367
G1 X108.913 Y111.844 E0.06522
G1 X109.264 Y112.013 E0.07235
G1 X109.612 Y112.111 E0.07896
G1 X109.97 Y112.151 E0.08555
G1 X110.332 Y112.13 E0.09218
G1 X110.684 Y112.049 E0.09879
G1 X111.018 Y111.91 E0.10541
G1 X111.324 Y111.716 E0.11204
G1 X111.593 Y111.477 E0.11862
G1 X111.818 Y111.192 E0.12526
G1 X111.993 Y110.876 E0.13187
G1 X112.112 Y110.532 E0.13853
G1 X112.171 Y110.177 E0.14511
G1 X112.171 Y109.816 E0.15172
G1 X112.11 Y109.46 E0.15832
G1 X111.99 Y109.119 E0.16494
G1 X111.814 Y108.802 E0.17157
G1 X111.588 Y108.518 E0.17821
G1 X111.317 Y108.279 E0.18482
G1 X111.012 Y108.087 E0.19141
G1 X110.678 Y107.948 E0.19803
G1 X110.323 Y107.868 E0.20469
G1 X109.962 Y107.849 E0.2113
G1 X109.604 Y107.891 E0.21789
G1 X109.256 Y107.991 E0.22452
G1 X108.931 Y108.148 E0.23112
G1 X108.427 Y108.507 E0.24244
G0 F3600 X108.827 Y108.713
;TYPE:WALL-OUTER
G1 F600 X108.827 Y111.253 E0.2889
G1 X109.13 Y111.505 E0.29611
G1 X109.406 Y111.637 E0.30171
G1 X109.689 Y111.717 E0.30709
G1 X109.981 Y111.75 E0.31246
G1 X110.275 Y111.733 E0.31785
G1 X110.561 Y111.667 E0.32322
G1 X110.833 Y111.554 E0.32861
G1 X111.082 Y111.396 E0.334
G1 X111.301 Y111.201 E0.33937
G1 X111.484 Y110.97 E0.34476
G1 X111.626 Y110.713 E0.35013
G1 X111.723 Y110.433 E0.35555
G1 X111.771 Y110.144 E0.36091
G1 X111.771 Y109.85 E0.36629
G1 X111.721 Y109.561 E0.37165
G1 X111.624 Y109.283 E0.37704
G1 X111.481 Y109.025 E0.38243
G1 X111.297 Y108.795 E0.38782
G1 X111.077 Y108.6 E0.3932
G1 X110.828 Y108.444 E0.39858
G1 X110.556 Y108.331 E0.40396
G1 X110.268 Y108.266 E0.40936
G1 X109.974 Y108.25 E0.41475
G1 X109.683 Y108.284 E0.42011
G1 X109.4 Y108.366 E0.4255
G1 X109.135 Y108.494 E0.43088
G1 X108.827 Y108.713 E0.4378
G0 F3600 X108.827 Y108.913
G0 X108.387 Y108.913
;;retract;;
G1 F6000 E-7.5622
G0 F3600 X109.69 Y109.185
G0 X104.91 Y99.125
G0 X104.474 Y100.859
;TYPE:WALL-INNER
G1 F6000 E0.4378
G1 F1500 X106.523 Y99.895 E0.47922
G1 X106.092 Y98.766 E0.50133
G1 X106.032 Y98.405 E0.50802
G1 X106.03 Y98.321 E0.50956
G1 X106.023 Y97.743 E0.52013
G1 X106.061 Y97.731 E0.52086
G1 X106.395 Y98.202 E0.52687
G1 X106.445 Y98.272 E0.52844
G1 X106.609 Y98.6 E0.53515
G1 X106.922 Y99.765 E0.55722
G1 X109.147 Y99.341 E0.59865
G1 X109.009 Y98.137 E0.62082
G1 X109.039 Y97.785 E0.62729
G1 X109.061 Y97.696 E0.62896
G1 X109.197 Y97.133 E0.63956
G1 X109.238 Y97.131 E0.64031
G1 X109.443 Y97.672 E0.64635
G1 X109.475 Y97.757 E0.64801
G1 X109.55 Y98.104 E0.6545
G1 X109.564 Y99.315 E0.67666
G1 X111.824 Y99.456 E0.71808
G1 X111.989 Y98.261 E0.74015
G1 X112.111 Y97.918 E0.74681
G1 X112.151 Y97.842 E0.74838
G1 X112.423 Y97.331 E0.75897
G1 X112.463 Y97.338 E0.75971
G1 X112.527 Y97.913 E0.76575
G1 X112.537 Y97.994 E0.76724
G1 X112.524 Y98.36 E0.77394
G1 X112.237 Y99.536 E0.79608
G1 X114.39 Y100.234 E0.83748
G1 X114.85 Y99.115 E0.85962
G1 X115.051 Y98.813 E0.86625
G1 X115.108 Y98.751 E0.86779
G1 X115.499 Y98.325 E0.87837
G1 X115.535 Y98.342 E0.8791
G1 X115.455 Y98.914 E0.88511
G1 X115.442 Y99.004 E0.88677
G1 X115.339 Y99.352 E0.89341
G1 X114.769 Y100.414 E0.91546
G1 X116.683 Y101.627 E0.95691
G1 X117.401 Y100.661 E0.97893
G1 X117.678 Y100.411 E0.98576
G1 X117.748 Y100.365 E0.98729
G1 X118.23 Y100.052 E0.9978
G1 X118.262 Y100.078 E0.99856
G1 X118.043 Y100.609 E1.00456
G1 X118.009 Y100.692 E1.0062
G1 X117.82 Y101.005 E1.01289
G1 X117.004 Y101.896 E1.03499
G1 X118.555 Y103.544 E1.07639
G1 X119.494 Y102.786 E1.09846
G1 X119.82 Y102.618 E1.10517
G1 X119.9 Y102.59 E1.10672
G1 X120.446 Y102.405 E1.11727
G1 X120.47 Y102.437 E1.118
G1 X120.126 Y102.899 E1.12401
G1 X120.069 Y102.975 E1.12575
G1 X119.818 Y103.222 E1.13219
G1 X118.8 Y103.884 E1.1544
G1 X119.892 Y105.868 E1.19583
G1 X120.989 Y105.368 E1.21789
G1 X121.354 Y105.284 E1.22474
G1 X121.432 Y105.278 E1.22617
G1 X122.007 Y105.235 E1.23672
G1 X122.022 Y105.273 E1.23746
G1 X121.574 Y105.634 E1.24346
G1 X121.506 Y105.689 E1.24506
G1 X121.189 Y105.873 E1.25177
G1 X120.046 Y106.259 E1.27384
G1 X120.609 Y108.451 E1.31524
G1 X121.799 Y108.239 E1.33735
G1 X122.164 Y108.248 E1.34403
G1 X122.249 Y108.263 E1.34561
G1 X122.816 Y108.363 E1.35614
G1 X122.822 Y108.404 E1.3569
G1 X122.298 Y108.642 E1.36291
G1 X122.212 Y108.682 E1.36465
G1 X121.87 Y108.778 E1.37114
G1 X120.662 Y108.868 E1.3933
G1 X120.662 Y111.132 E1.43472
G1 X121.87 Y111.222 E1.45688
G1 X122.212 Y111.318 E1.46338
G1 X122.298 Y111.358 E1.46511
G1 X122.822 Y111.596 E1.47564
G1 X122.816 Y111.637 E1.4764
G1 X122.249 Y111.737 E1.48241
G1 X122.164 Y111.752 E1.48399
G1 X121.799 Y111.761 E1.49067
G1 X120.609 Y111.549 E1.51278
G1 X120.046 Y113.741 E1.55418
G1 X121.189 Y114.127 E1.57625
G1 X121.506 Y114.311 E1.58296
G1 X121.574 Y114.366 E1.58456
G1 X122.022 Y114.727 E1.59508
G1 X122.007 Y114.765 E1.59583
G1 X121.432 Y114.722 E1.60185
G1 X121.354 Y114.716 E1.60328
G1 X120.989 Y114.632 E1.61013
G1 X119.892 Y114.132 E1.63219
G1 X118.8 Y116.116 E1.67362
G1 X119.818 Y116.778 E1.69583
G1 X120.069 Y117.025 E1.70227
G1 X120.126 Y117.101 E1.70401
G1 X120.47 Y117.563 E1.71455
G1 X120.446 Y117.595 E1.71528
G1 X119.9 Y117.41 E1.72129
G1 X119.82 Y117.382 E1.72284
G1 X119.494 Y117.214 E1.72955
G1 X118.555 Y116.456 E1.75163
G1 X117.004 Y118.104 E1.79303
G1 X117.82 Y118.995 E1.81513
G1 X118.009 Y119.308 E1.82182
G1 X118.043 Y119.391 E1.82346
G1 X118.262 Y119.922 E1.83396
G1 X118.23 Y119.948 E1.83472
G1 X117.748 Y119.635 E1.84073
G1 X117.678 Y119.589 E1.84226
G1 X117.401 Y119.339 E1.84908
G1 X116.683 Y118.373 E1.8711
G1 X114.769 Y119.586 E1.91255
G1 X115.339 Y120.648 E1.9346
G1 X115.442 Y120.996 E1.94124
G1 X115.455 Y121.087 E1.94292
G1 X115.534 Y121.659 E1.95349
G1 X115.499 Y121.675 E1.95419
G1 X115.108 Y121.249 E1.9602
G1 X115.051 Y121.187 E1.96174
G1 X114.849 Y120.883 E1.96842
G1 X114.39 Y119.766 E1.99051
G1 X112.237 Y120.464 E2.03191
G1 X112.524 Y121.636 E2.05399
G1 X112.537 Y122.006 E2.06076
G1 X112.527 Y122.087 E2.06225
G1 X112.463 Y122.662 E2.07284
G1 X112.423 Y122.669 E2.07358
G1 X112.151 Y122.158 E2.07961
G1 X112.111 Y122.082 E2.08118
G1 X111.989 Y121.739 E2.08784
G1 X111.824 Y120.544 E2.10991
G1 X109.564 Y120.685 E2.15133
G1 X109.55 Y121.896 E2.17349
G1 X109.474 Y122.249 E2.18009
G1 X109.443 Y122.33 E2.18168
G1 X109.238 Y122.869 E2.19223
G1 X109.197 Y122.867 E2.19298
G1 X109.061 Y122.306 E2.19902
G1 X109.04 Y122.219 E2.20065
G1 X109.009 Y121.854 E2.20736
G1 X109.147 Y120.659 E2.22936
G1 X106.922 Y120.235 E2.2708
G1 X106.609 Y121.4 E2.29286
G1 X106.445 Y121.728 E2.29957
G1 X106.395 Y121.798 E2.30114
G1 X106.061 Y122.269 E2.31171
G1 X106.023 Y122.257 E2.31244
G1 X106.03 Y121.679 E2.31846
G1 X106.032 Y121.595 E2.32
G1 X106.092 Y121.234 E2.32669
G1 X106.523 Y120.105 E2.3488
G1 X104.474 Y119.141 E2.39022
G1 X103.883 Y120.191 E2.41226
G1 X103.644 Y120.464 E2.4189
G1 X103.576 Y120.522 E2.42053
G1 X103.136 Y120.898 E2.43112
G1 X103.1 Y120.875 E2.4319
G1 X103.252 Y120.317 E2.43796
G1 X103.274 Y120.237 E2.43948
G1 X103.421 Y119.903 E2.44615
G1 X104.119 Y118.917 E2.46825
G1 X102.376 Y117.472 E2.50967
G1 X101.542 Y118.34 E2.53169
G1 X101.235 Y118.552 E2.53851
G1 X101.162 Y118.588 E2.54
G1 X100.643 Y118.841 E2.55056
G1 X100.615 Y118.811 E2.55131
G1 X100.899 Y118.309 E2.55734
G1 X100.942 Y118.234 E2.55892
G1 X101.169 Y117.945 E2.56564
G1 X102.088 Y117.166 E2.58768
G1 X100.757 Y115.336 E2.62907
G1 X99.733 Y115.969 E2.6511
G1 X99.388 Y116.097 E2.65783
G1 X99.301 Y116.115 E2.65945
G1 X98.739 Y116.228 E2.66994
G1 X98.719 Y116.193 E2.67068
G1 X99.117 Y115.78 E2.67666
G1 X99.176 Y115.718 E2.67823
G1 X99.469 Y115.493 E2.68499
G1 X100.554 Y114.968 E2.70704
G1 X99.723 Y112.863 E2.74843
G1 X98.568 Y113.222 E2.77056
G1 X98.208 Y113.259 E2.77718
G1 X98.12 Y113.254 E2.77879
G1 X97.544 Y113.226 E2.78934
G1 X97.534 Y113.186 E2.7901
G1 X98.024 Y112.884 E2.79611
G1 X98.099 Y112.838 E2.79772
G1 X98.432 Y112.696 E2.80434
G1 X99.617 Y112.456 E2.82646
G1 X99.333 Y110.209 E2.86789
G1 X98.128 Y110.272 E2.88996
G1 X97.767 Y110.217 E2.89664
G1 X97.684 Y110.191 E2.89823
G1 X97.133 Y110.021 E2.90878
G1 X97.133 Y109.979 E2.90955
G1 X97.684 Y109.809 E2.91558
G1 X97.767 Y109.783 E2.91717
G1 X98.128 Y109.728 E2.92385
G1 X99.333 Y109.791 E2.94593
G1 X99.617 Y107.544 E2.98736
G1 X98.432 Y107.304 E3.00948
G1 X98.099 Y107.162 E3.0161
G1 X98.024 Y107.116 E3.01771
G1 X97.534 Y106.814 E3.02824
G1 X97.544 Y106.774 E3.02899
G1 X98.12 Y106.746 E3.03502
G1 X98.208 Y106.741 E3.03663
G1 X98.568 Y106.778 E3.04325
G1 X99.723 Y107.137 E3.06538
G1 X100.554 Y105.032 E3.10678
G1 X99.469 Y104.507 E3.12883
G1 X99.176 Y104.282 E3.13559
G1 X99.117 Y104.22 E3.13715
G1 X98.719 Y103.807 E3.14764
G1 X98.739 Y103.772 E3.14838
G1 X99.301 Y103.885 E3.15436
G1 X99.388 Y103.903 E3.15599
G1 X99.733 Y104.031 E3.16272
G1 X100.757 Y104.664 E3.18474
G1 X102.088 Y102.834 E3.22614
G1 X101.169 Y102.055 E3.24818
G1 X100.942 Y101.766 E3.2549
G1 X100.899 Y101.691 E3.25648
G1 X100.615 Y101.189 E3.26703
G1 X100.643 Y101.159 E3.26778
G1 X101.162 Y101.412 E3.27382
G1 X101.235 Y101.448 E3.27531
G1 X101.542 Y101.66 E3.28213
G1 X102.376 Y102.528 E3.30415
G1 X104.119 Y101.083 E3.34557
G1 X103.421 Y100.097 E3.36767
G1 X103.274 Y99.763 E3.37434
G1 X103.252 Y99.683 E3.37586
G1 X103.1 Y99.125 E3.38644
G1 X103.136 Y99.102 E3.38722
G1 X103.576 Y99.478 E3.39328
G1 X103.644 Y99.536 E3.39492
G1 X103.883 Y99.809 E3.40156
G1 X104.474 Y100.859 E3.4236
G0 F3600 X104.64 Y100.339
;TYPE:WALL-OUTER
G1 F1500 X106.017 Y99.691 E3.45144
G1 X105.704 Y98.871 E3.46749
G1 X105.633 Y98.446 E3.47537
G1 X105.617 Y97.796 E3.48727
G1 X105.646 Y97.446 E3.49369
G1 X106.191 Y97.268 E3.50418
G1 X106.426 Y97.542 E3.51078
G1 X106.79 Y98.067 E3.52247
G1 X106.984 Y98.455 E3.53041
G1 X107.212 Y99.303 E3.54647
G1 X108.707 Y99.018 E3.57431
G1 X108.607 Y98.143 E3.59042
G1 X108.644 Y97.717 E3.59824
G1 X108.791 Y97.084 E3.61013
G1 X108.906 Y96.751 E3.61658
G1 X109.478 Y96.715 E3.62706
G1 X109.636 Y97.032 E3.63354
G1 X109.86 Y97.643 E3.64544
G1 X109.95 Y98.059 E3.65323
G1 X109.96 Y98.939 E3.66933
G1 X111.479 Y99.034 E3.69717
G1 X111.599 Y98.166 E3.7132
G1 X111.743 Y97.758 E3.72111
G1 X112.038 Y97.187 E3.73287
G1 X112.237 Y96.888 E3.73944
G1 X112.798 Y96.995 E3.74989
G1 X112.874 Y97.349 E3.75651
G1 X112.938 Y97.983 E3.76817
G1 X112.922 Y98.42 E3.77617
G1 X112.714 Y99.27 E3.79218
G1 X114.161 Y99.739 E3.82
G1 X114.495 Y98.925 E3.8361
G1 X114.733 Y98.568 E3.84395
G1 X115.158 Y98.093 E3.85561
G1 X115.429 Y97.85 E3.86226
G1 X115.946 Y98.093 E3.87271
G1 X115.931 Y98.445 E3.87916
G1 X115.835 Y99.086 E3.89102
G1 X115.71 Y99.505 E3.89901
G1 X115.297 Y100.275 E3.915
G1 X116.583 Y101.09 E3.94285
G1 X117.103 Y100.39 E3.9588
G1 X117.433 Y100.094 E3.96691
G1 X117.965 Y99.739 E3.97861
G1 X118.28 Y99.575 E3.98511
G1 X118.722 Y99.939 E3.99558
G1 X118.619 Y100.28 E4.0021
G1 X118.366 Y100.875 E4.01393
G1 X118.143 Y101.245 E4.02183
G1 X117.55 Y101.892 E4.03788
G1 X118.592 Y103 E4.06571
G1 X119.275 Y102.449 E4.08176
G1 X119.66 Y102.25 E4.08969
G1 X120.264 Y102.037 E4.1014
G1 X120.613 Y101.955 E4.10796
G1 X120.95 Y102.418 E4.11844
G1 X120.763 Y102.726 E4.12503
G1 X120.373 Y103.237 E4.13679
G1 X120.069 Y103.536 E4.14459
G1 X119.33 Y104.017 E4.16072
G1 X120.064 Y105.35 E4.18856
G1 X120.861 Y104.987 E4.20458
G1 X121.286 Y104.889 E4.21255
G1 X121.922 Y104.833 E4.22423
G1 X122.281 Y104.84 E4.2308
G1 X122.492 Y105.373 E4.24129
G1 X122.236 Y105.623 E4.24783
G1 X121.731 Y106.021 E4.2596
G1 X121.356 Y106.239 E4.26753
G1 X120.526 Y106.519 E4.28356
G1 X120.904 Y107.992 E4.31137
G1 X121.768 Y107.838 E4.32743
G1 X122.203 Y107.849 E4.33539
G1 X122.83 Y107.952 E4.34701
G1 X123.18 Y108.05 E4.35366
G1 X123.252 Y108.618 E4.36413
G1 X122.945 Y108.795 E4.37062
G1 X122.35 Y109.058 E4.38252
G1 X121.938 Y109.174 E4.39035
G1 X121.062 Y109.239 E4.40642
G1 X121.062 Y110.761 E4.43426
G1 X121.938 Y110.826 E4.45033
G1 X122.35 Y110.942 E4.45816
G1 X122.945 Y111.205 E4.47006
G1 X123.252 Y111.382 E4.47654
G1 X123.18 Y111.95 E4.48701
G1 X122.83 Y112.048 E4.49366
G1 X122.203 Y112.151 E4.50529
G1 X121.768 Y112.162 E4.51325
G1 X120.904 Y112.008 E4.5293
G1 X120.526 Y113.481 E4.55712
G1 X121.356 Y113.761 E4.57314
G1 X121.731 Y113.979 E4.58108
G1 X122.236 Y114.377 E4.59284
G1 X122.492 Y114.627 E4.59938
G1 X122.281 Y115.16 E4.60987
G1 X121.922 Y115.167 E4.61644
G1 X121.286 Y115.111 E4.62812
G1 X120.861 Y115.013 E4.6361
G1 X120.064 Y114.65 E4.65212
G1 X119.33 Y115.983 E4.67996
G1 X120.069 Y116.464 E4.69609
G1 X120.373 Y116.763 E4.70389
G1 X120.763 Y117.274 E4.71564
G1 X120.95 Y117.582 E4.72224
G1 X120.613 Y118.045 E4.73271
G1 X120.264 Y117.963 E4.73927
G1 X119.66 Y117.75 E4.75099
G1 X119.275 Y117.551 E4.75891
G1 X118.592 Y117 E4.77497
G1 X117.55 Y118.108 E4.80279
