;FLAVOR:Marlin
;TIME:15403
;Filament used:5.38752m
;Layer height: 0.1
;MINX:94.83
;MINY:93.536
;MINZ:0.1
;MAXX:125.17
;MAXY:125.284
;MAXZ:65
                                 
;Creality Print GCode Generated by CXEngine:NO_MAGE_VERSION_GIT_HEAD_BRANCH
;CXEngine Release Time:2022-09-30 09:53:04
;Gcode Generated Time:2023-05-01 12:26:51
;----------Machine Config--------------
;Machine Name:Ender-3 V2
;Machine Height:250
;Machine Width:220
;Machine Depth:220
;Material name:PLA
;Number of Extruders:1
;ExtruderParams[0] Nozzle Diameter1000
;----------Profile Config---------------
;Engine Version:275f99b
;Engine Release Time:2022-09-30 09:42:18
;Layer Height:0.1
;Wall Thickness:0.8
;Top/Bottom Thickness:0.5
;Out Wall Line Width:0.4
;Inner Wall Line Width:0.4
;Inital Layer Height:100
;Wall Line Count:2
;Infill Line Distance:4
;Infill Pattern:grid
;Infill Sparse Density:20
;Infill Wipe Distance:0
;Print Temperature:200
;Bed Temperature:60
;Support Enable:true
;Support Density:0
;Support Angle:60
;Adhesion Type:none
;machine is belt:false
;machine belt offset:10
;machine belt offset Y:0
;Raft Base Line Spacing:1.6
;Wait Heatup Sync:true
;----------Shell Config----------------
;Outer Wall Wipe Distance:200
;Outer Inset First:false
;Infill Before Walls:false
;Infill Overlap:0.16
;Fill Gaps Between Walls:everywhere
;Minimum Infill Area:1
;Top Surface Skin Layer:0
;Top Layers:4
;Z Seam Alignment:sharpest_corner
;Seam Corner Preference:z_seam_corner_inner
;Z Seam X:110
;Z Seam Y:110
;Horizontal Expansion:0
;Top/Bottom Pattern:zigzag
;Ironing Pattern:zigzag
;Vase Model:false
;----------Support Config----------------
;Support Type:everywhere
;Support Pattern:zigzag
;Support Infill Layer Thickness:0.1
;Minimum Support Area:5
;Enable Support Roof:false
;Support Roof Thickness:0.8
;Support Roof Pattern:lines
;Connect Support Lines:0
;Connect Support ZigZags:1
;Minimum Support X/Y Distance:0.2
;Support Line Distance:0
; ---------PrintSpeed & Travel----------
;Enable Print Cool:true
;Avoid Printed Parts Traveling:true
;Enable Retraction:true
;Retraction Distance:8
;Retraction Speed:100
;Retraction Prime Speed:100
;Maximum Retraction Count:100
;Minimum Extrusion Distance Window:1
;Z Hop When Retracted:false
;Z Hop Height:0.2
;Retract Before Outer Wall:true
;Print Speed:50
;Infill Speed:50

;Prime Tower Speed:50
;Travel Speed:120
;Initial Layer Speed:25
;Skirt/Brim Speed:25
;Combing Mode:infill
; --------SpecialModel&Mesh Fixes--------
;Union Overlapping Volum:true
;Remove All Holes:false
;Maximum Travel Resolution:0.6
;Maximum Deviation:0.05
;Maximum Model Angle:0.872665
;IS Mold Print:false
;Make Overhang Printable:false
;Enable Coasting:false
;Coasting Volumes:0.06
;Coasting Speed:0.9
;Raft AirGap:0.25
;Layer0 ZOverLap:0.13
;---------------------End of Head--------------------------
M140 S60
M105
M104 S200
M105
M109 S200
M105
M190 S60
M82 ;absolute extrusion mode
M220 S100 ;Reset Feedrate
M221 S100 ;Reset Flowrate

G28 ;Home

G92 E0 ;Reset Extruder
G1 Z2.0 F3000 ;Move Z Axis up
G1 X10.1 Y20 Z0.28 F5000.0 ;Move to start position
G1 X10.1 Y145.0 Z0.28 F1500.0 E15 ;Draw the first line
G1 X10.4 Y145.0 Z0.28 F5000.0 ;Move to side a little
G1 X10.4 Y20 Z0.28 F1500.0 E30 ;Draw the second line
G92 E0  ;Reset Extruder
G1 E-1.0000 F1800 ;Retract a bit
G1 Z2.0 F3000 ;Move Z Axis up
G1 E0.0000 F1800 

G92 E0
G92 E0
G1 F6000 E-8

;LAYER_COUNT:650

;LAYER:0
M107
G0 F3600 X106.667 Y99.329 Z0.1
;TYPE:SUPPORT
G1 F6000 E0
G1 F1500 X106.734 Y99.34 E0.00099
G1 X107.455 Y100.38 E0.01951
G1 X106.717 Y100.98 E0.03343
G1 X106.942 Y101.783 E0.04564
G1 X107.06 Y101.735 E0.0475
G1 X106.36 Y102.518 E0.06287
G1 X105.589 Y102.579 E0.07419
G1 X105.162 Y101.903 E0.08589
G1 X105.561 Y101.308 E0.09637
G1 X106.049 Y101.284 E0.10353
G1 X107.223 Y100.143 E0.12748
G1 X106.667 Y99.329 E0.14191
;;retract;;
G1 F6000 E-7.85809
G0 F3600 X106.105 Y100.03
G0 X105.085 Y100.465
G0 X104.134 Y101.89
G0 X105.137 Y103.48
G0 X106.774 Y103.354
G0 X107.653 Y102.346
G0 X108.584 Y102.462
G1 F6000 E0.14191
G1 F1500 X108.26 Y101.466 E0.15724
G1 X108.448 Y101.018 E0.16435
G1 X108.584 Y102.462 E0.18557
G0 F3600 X109.058 Y102.806
G1 F1500 X109.448 Y103.007 E0.19199
G1 X110.897 Y102.795 E0.21343
G1 X110.498 Y103.086 E0.22065
G1 X109.442 Y103.086 E0.23611
G1 X109.058 Y102.806 E0.24306
;;retract;;
G1 F6000 E-7.75694
G0 F3600 X108.547 Y103.51
G0 X109.159 Y103.954
G0 X110.781 Y103.954
G0 X112.094 Y102.998
G0 X112.293 Y102.381
G0 X111.656 Y101.539
G1 F6000 E0.24306
G1 F1500 X111.664 Y101.4 E0.2451
G1 X111.683 Y101.457 E0.24598
G1 X111.656 Y101.539 E0.24724
;;retract;;
G1 F6000 E-7.75276
G0 F3600 X112.293 Y102.381
G0 X111.75 Y98.28
G0 X112.475 Y98.759
G1 F6000 E0.24724
G1 F1500 X112.92 Y98.087 E0.25904
G1 X112.543 Y97.389 E0.27065
G1 X113.725 Y96.696 E0.2907
G1 X113.79 Y96.846 E0.29309
G1 X113.093 Y97.869 E0.31121
G1 X113.334 Y98.315 E0.31862
G1 X113.047 Y98.23 E0.32301
G1 X112.475 Y98.759 E0.33441
G0 F3600 X113.47 Y99.582
G1 F1500 X113.678 Y99.492 E0.33772
G1 X113.754 Y99.665 E0.34049
G1 X113.001 Y100.752 E0.35984
G1 X112.815 Y100.324 E0.36667
G1 X113.47 Y99.582 E0.38115
;;retract;;
G1 F6000 E-7.61885
G0 F3600 X114.414 Y100.224
G0 X116.008 Y102.332
G0 X114.717 Y103.95
G0 X112.935 Y103.663
G0 X112.881 Y103.065
G0 X113.731 Y102.917
G1 F6000 E0.38115
G1 F1500 X113.672 Y102.281 E0.3905
G1 X113.19 Y102.232 E0.39759
G1 X113.399 Y101.512 E0.40856
G1 X114.087 Y101.219 E0.41951
G1 X114.917 Y102.318 E0.43966
G1 X114.357 Y103.017 E0.45277
G1 X113.731 Y102.917 E0.46205
;;retract;;
G1 F6000 E-7.53795
G0 F3600 X113.595 Y103.777
G0 X111.317 Y105.024
G0 X108.992 Y106.716
G0 X107.175 Y109.508
G0 X106.388 Y111.918
G0 X107.216 Y112.187
G1 F6000 E0.46205
G1 F1500 X107.943 Y109.953 E0.49643
G1 X109.157 Y108.613 E0.52289
G1 X109.702 Y107.273 E0.54406
G1 X111.6 Y105.892 E0.57841
G1 X113.932 Y105.892 E0.61254
G1 X115.823 Y107.268 E0.64676
G1 X116.542 Y109.478 E0.68077
G1 X114.484 Y114.615 E0.76176
G1 X112.612 Y115.977 E0.79564
G1 X111.384 Y115.977 E0.81361
G1 X111.726 Y117.029 E0.8298
G1 X111.427 Y117.664 E0.84007
G1 X111.215 Y117.251 E0.84686
G1 X109.447 Y116.993 E0.87301
G1 X108.653 Y117.401 E0.88608
G1 X108.495 Y117.682 E0.89079
G1 X108.287 Y117.043 E0.90063
G1 X108.616 Y116.033 E0.91617
G1 X109.398 Y115.464 E0.93033
G1 X107.936 Y114.399 E0.9568
G1 X107.216 Y112.187 E0.99084
;;retract;;
G1 F6000 E-7.00916
G0 F3600 X106.389 Y112.456
G0 X104.756 Y116.718
G0 X105.24 Y117.439
G1 F6000 E0.99084
G1 F1500 X105.483 Y117.276 E0.99512
G1 X107.319 Y117.843 E1.02324
G1 X106.968 Y118.357 E1.03235
G1 X107.16 Y118.8 E1.03942
G1 X106.526 Y119.519 E1.05345
G1 X106.268 Y119.55 E1.05725
G1 X106.639 Y118.653 E1.07145
G1 X105.594 Y118.667 E1.08675
G1 X105.24 Y118.106 E1.09646
G1 X105.24 Y117.439 E1.10622
;;retract;;
G1 F6000 E-6.89378
G0 F3600 X104.37 Y117.439
G0 X104.372 Y118.357
G0 X104.927 Y120.568
G0 X105.815 Y120.462
G0 X106.596 Y120.817
G1 F6000 E1.10622
G1 F1500 X106.793 Y120.913 E1.10942
G1 X107.035 Y121.245 E1.11544
G1 X106.589 Y120.839 E1.12426
G1 X106.596 Y120.817 E1.1246
;;retract;;
G1 F6000 E-6.8754
G0 F3600 X107.857 Y120.914
G0 X108.698 Y121.71
G0 X108.699 Y124.159
G0 X109.206 Y124.666
G0 X110.795 Y124.666
G0 X111.302 Y124.159
G0 X111.302 Y122.834
G0 X112.292 Y122.083
G0 X113.225 Y121.897
G1 F6000 E1.1246
G1 F1500 X113.408 Y122.034 E1.12795
G1 X113.354 Y122.18 E1.13022
G1 X113.235 Y122.268 E1.13239
G1 X113.369 Y122.092 E1.13563
G1 X113.225 Y121.897 E1.13918
;;retract;;
G1 F6000 E-6.86082
G0 F3600 X113.749 Y121.202
G0 X114.438 Y121.732
G0 X114.817 Y123.438
G0 X113.604 Y124.82
G0 X112.298 Y124.974
G0 X111.838 Y124.359
G0 X111.362 Y123.309
G0 X111.372 Y121.511
G0 X111.249 Y120.492
G0 X112.056 Y119.694
G0 X112.56 Y118.897
G1 F6000 E1.13918
G1 F1500 X113.169 Y118.662 E1.14873
G1 X113.313 Y117.378 E1.16764
G1 X114.086 Y117.17 E1.17935
G1 X114.663 Y117.44 E1.18867
G1 X114.749 Y118.384 E1.20255
G1 X113.901 Y118.573 E1.21526
G1 X113.056 Y119.322 E1.23179
G1 X113.325 Y119.821 E1.24008
G1 X113.141 Y119.774 E1.24286
G1 X112.56 Y118.897 E1.25826
;;retract;;
G1 F6000 E-6.74174
G0 F3600 X112.056 Y119.694
G0 X111.475 Y120.265
G0 X111.372 Y121.511
G0 X111.362 Y123.309
G0 X111.838 Y124.359
G0 X112.298 Y124.974
G0 X113.604 Y124.82
G0 X114.817 Y123.438
G0 X114.55 Y122.81
G0 X113.754 Y123.156
G1 F6000 E1.25826
G1 F1500 X113.807 Y123.279 E1.26022
G1 X113.173 Y123.998 E1.27424
G1 X112.92 Y124.028 E1.27797
G1 X113.112 Y123.581 E1.28509
G1 X113.754 Y123.156 E1.29636
;;retract;;
G1 F6000 E-6.70364
;MESH:
G0 F3600 X114.55 Y122.81
G0 X114.817 Y123.438
G0 X113.604 Y124.82
G0 X112.298 Y124.974
G0 X111.838 Y124.359
G0 X111.362 Y123.309
G0 X111.372 Y121.511
G0 X111.249 Y120.492
G0 X111.293 Y118.778
G0 X109.964 Y118.6
;TYPE:WALL-INNER
G1 F6000 E1.29636
G1 F600 X110.035 Y118.6 E1.29766
G1 X110.036 Y123.4 E1.38547
G1 X109.965 Y123.4 E1.38676
G1 X109.964 Y118.6 E1.4024
;;retract;;
G1 F6000 E-6.5976
G0 F3600 X108.705 Y118.865
G0 X108.706 Y121.168
G0 X108.699 Y124.159
G0 X109.206 Y124.666
G0 X110.795 Y124.666
G0 X111.302 Y124.159
G0 X110.436 Y123.6
;TYPE:WALL-OUTER
G1 F6000 E1.4024
G1 F600 X110.436 Y123.8 E1.40606
G1 X110.236 Y123.8 E1.40843
G1 X109.565 Y123.8 E1.42071
G1 X109.564 Y118.4 E1.51949
G1 X109.564 Y118.2 E1.52315
G1 X109.764 Y118.2 E1.52552
G1 X110.435 Y118.2 E1.53779
G1 X110.436 Y123.6 E1.63657
G0 F3600 X110.436 Y123.8
;;retract;;
G1 F6000 E-6.36343
G0 F3600 X111.305 Y123.799
G0 X110.795 Y124.666
G0 X109.206 Y124.666
G0 X108.699 Y124.159
G0 X106.891 Y123.953
G0 X106.123 Y123.672
G0 X104.927 Y120.568
G0 X104.372 Y118.357
G0 X104.375 Y116.979
G0 X107.175 Y109.508
G0 X109.965 Y103.956
G0 X109.965 Y101.4
;TYPE:WALL-INNER
G1 F6000 E1.63657
G1 F600 X109.964 Y96.6 E1.72438
G1 X110.035 Y96.6 E1.72568
G1 X110.036 Y101.4 E1.74132
G1 X109.965 Y101.4 E1.74262
G0 F3600 X110.436 Y101.6
;TYPE:WALL-OUTER
G1 F600 X110.436 Y101.8 E1.74628
G1 X110.236 Y101.8 E1.74865
G1 X109.565 Y101.8 E1.76092
G1 X109.564 Y96.4 E1.8597
G1 X109.564 Y96.2 E1.86336
G1 X109.764 Y96.2 E1.86573
G1 X110.435 Y96.2 E1.87801
G1 X110.436 Y101.6 E1.97679
G0 F3600 X110.436 Y101.8
;;retract;;
G1 F6000 E-6.02321
;MESH:NONMESH
G0 F600 X110.436 Y101.8 Z0.2
G0 F3600 X111.582 Y103.373
G0 X110.781 Y103.954
G0 X109.159 Y103.954
G0 X105.137 Y103.48
G0 X104.134 Y101.89
G0 X105.477 Y99.116
G0 X105.904 Y98.39
G0 X107.858 Y97.287
G0 X108.626 Y97.568
G0 X108.749 Y98.594
G0 X108.055 Y99.756
G0 X107.383 Y100.16
;TIME_ELAPSED:28.447392

;LAYER:1
M140 S60
M106 S127.5
;TYPE:SUPPORT
G1 F6000 E1.97679
G1 F2250 X107.247 Y100.161 E1.9786
G1 X107.331 Y100.083 E1.98012
G1 X107.383 Y100.16 E1.98136
G0 F5400 X106.748 Y101.523
G1 F2250 X106.392 Y102.425 E1.99426
G1 X105.506 Y102.599 E2.00627
G1 X105.237 Y102.137 E2.01338
G1 X105.178 Y101.499 E2.02191
G1 X105.593 Y101.318 E2.02793
G1 X106.074 Y101.25 E2.0344
G1 X107.043 Y100.35 E2.05199
G1 X106.536 Y101.035 E2.06333
G1 X106.748 Y101.523 E2.07041
G0 F5400 X108.268 Y101.466
G1 F2250 X108.448 Y101.032 E2.07666
G1 X108.591 Y102.457 E2.09571
G1 X108.268 Y101.466 E2.10958
G0 F5400 X109.105 Y102.831
G1 F2250 X109.448 Y103.007 E2.11471
G1 X110.88 Y102.798 E2.13396
G1 X110.495 Y103.078 E2.14029
G1 X109.445 Y103.078 E2.15426
G1 X109.105 Y102.831 E2.15985
;;retract;;
G1 F6000 E-5.84015
G0 F5400 X108.594 Y103.535
G0 X109.162 Y103.946
G0 X110.778 Y103.946
G0 X112.087 Y102.993
G0 X112.291 Y102.354
G0 X111.656 Y101.516
G1 F6000 E2.15985
G1 F2250 X111.661 Y101.415 E2.1612
G1 X111.675 Y101.457 E2.16179
G1 X111.656 Y101.516 E2.16261
;;retract;;
G1 F6000 E-5.83739
G0 F5400 X112.282 Y100.576
G0 X113.327 Y99.137
G0 X113.013 Y97.828
G1 F6000 E2.16261
G1 F2250 X112.856 Y97.767 E2.16485
G1 X112.772 Y97.64 E2.16688
G1 X113.747 Y96.762 E2.18433
G1 X113.013 Y97.828 E2.20155
;;retract;;
G1 F6000 E-5.79845
G0 F5400 X114.026 Y97.879
G0 X114.523 Y98.626
G0 X114.383 Y100.329
G0 X114.165 Y101.296
G1 F6000 E2.20155
G1 F2250 X114.934 Y102.255 E2.21791
G1 X114.905 Y102.667 E2.2234
G1 X113.993 Y102.972 E2.2362
G1 X113.667 Y102.413 E2.24481
G1 X113.29 Y102.335 E2.24993
G1 X113.744 Y101.41 E2.26364
G1 X114.165 Y101.296 E2.26944
;;retract;;
G1 F6000 E-5.73056
G0 F5400 X114.843 Y100.751
G0 X115.823 Y101.979
G0 X115.723 Y103.303
G0 X113.913 Y105.111
G0 X113.913 Y105.981
G1 F6000 E2.26944
G1 F2250 X115.799 Y107.354 E2.30047
G1 X116.516 Y109.559 E2.33132
G1 X115.004 Y113.27 E2.38463
G1 X114.45 Y114.53 E2.40295
G1 X112.58 Y115.891 E2.43372
G1 X111.348 Y115.891 E2.45011
G1 X111.717 Y117.029 E2.46602
G1 X111.425 Y117.661 E2.47529
G1 X111.215 Y117.251 E2.48141
G1 X109.447 Y116.993 E2.50518
G1 X108.653 Y117.401 E2.51706
G1 X108.501 Y117.674 E2.52122
G1 X108.296 Y117.043 E2.53004
G1 X108.623 Y116.038 E2.54411
G1 X109.427 Y115.453 E2.55733
G1 X107.888 Y114.332 E2.58266
G1 X107.169 Y112.125 E2.61354
G1 X107.893 Y109.903 E2.64464
G1 X109.172 Y108.679 E2.66819
G1 X109.693 Y107.358 E2.68708
G1 X111.585 Y105.981 E2.71821
G1 X113.913 Y105.981 E2.74918
;;retract;;
G1 F6000 E-5.25082
G0 F5400 X114.424 Y105.277
G0 X116.537 Y106.818
G0 X117.438 Y109.591
G0 X115.15 Y115.095
G0 X113.713 Y116.475
G0 X113.609 Y117.338
G1 F6000 E2.74918
G1 F2250 X114.739 Y117.476 E2.76433
G1 X114.82 Y118.396 E2.77662
G1 X114.082 Y118.514 E2.78656
G1 X112.889 Y119.066 E2.80405
G1 X113.609 Y117.338 E2.82895
;;retract;;
G1 F6000 E-5.17105
G0 F5400 X112.807 Y117.004
G0 X107.209 Y117.028
G0 X106.748 Y117.886
G1 F6000 E2.82895
G1 F2250 X106.43 Y118.528 E2.83849
G1 X105.578 Y118.619 E2.84988
G1 X105.272 Y118.45 E2.85454
G1 X105.178 Y117.426 E2.86822
G1 X105.379 Y117.298 E2.87139
G1 X106.491 Y117.494 E2.88641
G1 X106.748 Y117.886 E2.89264
G0 F5400 X106.776 Y118.889
G1 F2250 X106.399 Y119.402 E2.90111
G1 X106.213 Y119.45 E2.90367
G1 X106.378 Y118.911 E2.91117
G1 X106.481 Y119.019 E2.91315
G1 X106.776 Y118.889 E2.91744
;;retract;;
G1 F6000 E-5.08256
G0 F5400 X107.732 Y119.013
G0 X112.118 Y102.981
G0 X112.291 Y102.354
G0 X112.241 Y101.587
;TYPE:SUPPORT-INTERFACE
G1 F6000 E2.91744
G1 F1749.9 X113.476 Y100.352 E2.94068
;;retract;;
G1 F6000 E-5.05932
G0 F5400 X113.05 Y99.834
G0 X113.871 Y99.389
G0 X114.523 Y98.626
G0 X114.733 Y96.853
G0 X114.204 Y95.202
G0 X108.286 Y95.335
G0 X107.782 Y95.864
G1 F6000 E2.94068
G1 F1749.9 X106.421 Y97.225 E2.96629
;;retract;;
G1 F6000 E-5.03371
;MESH:
G0 F5400 X106.561 Y97.88
G0 X105.479 Y99.015
G0 X104.263 Y100.959
G0 X104.389 Y102.41
G0 X105.071 Y103.564
G0 X107.49 Y103.084
G0 X107.681 Y102.407
G0 X108.976 Y101.4
;TYPE:WALL-INNER
G1 F6000 E2.96629
G1 F600 X108.976 Y96.6 E3.04611
G1 X111.024 Y96.6 E3.08017
G1 X111.024 Y101.4 E3.15999
G1 X108.976 Y101.4 E3.19405
G0 F5400 X108.576 Y101.8
;TYPE:WALL-OUTER
G1 F672.3 X108.576 Y96.2 E3.28718
G1 X111.424 Y96.2 E3.33454
G1 X111.424 Y101.8 E3.42767
G1 X108.576 Y101.8 E3.47503
G0 F5400 X108.576 Y101.6
G0 X109.016 Y101.36
G0 X110.783 Y101.16
;TYPE:SKIN
G1 F672.3 X110.783 Y100.783 E3.4813
G1 X110.406 Y101.16 E3.49017
G1 X109.84 Y101.16 E3.49958
G1 X110.783 Y100.217 E3.52176
G1 X110.783 Y99.651 E3.53117
G1 X109.274 Y101.16 E3.56666
G1 X109.215 Y101.16 E3.56764
G1 X109.215 Y100.653 E3.57608
G1 X110.783 Y99.086 E3.61294
G1 X110.783 Y98.52 E3.62235
G1 X109.215 Y100.088 E3.65923
G1 X109.215 Y99.522 E3.66864
G1 X110.783 Y97.954 E3.70552
G1 X110.783 Y97.389 E3.71492
G1 X109.215 Y98.956 E3.75178
G1 X109.215 Y98.391 E3.76118
G1 X110.766 Y96.839 E3.79767
G1 X110.201 Y96.839 E3.80706
G1 X109.215 Y97.825 E3.83025
G1 X109.215 Y97.259 E3.83966
G1 X109.215 Y96.839 E3.84665
G0 F5400 X109.635 Y96.839
G1 F672.3 X109.215 Y97.259 E3.85653
;;retract;;
G1 F6000 E-4.14347
G0 F5400 X107.715 Y97.483
G0 X106.102 Y98.2
G0 X105.479 Y99.015
G0 X104.263 Y100.959
G0 X104.389 Y102.41
G0 X106.256 Y112.125
G0 X107.15 Y114.868
G0 X107.729 Y115.284
G0 X107.734 Y119.008
G0 X108.976 Y118.6
;TYPE:WALL-INNER
G1 F6000 E3.85653
G1 F600 X111.024 Y118.6 E3.89058
G1 X111.024 Y123.4 E3.97041
G1 X108.976 Y123.4 E4.00447
G1 X108.976 Y118.6 E4.08429
G0 F5400 X108.576 Y118.2
;TYPE:WALL-OUTER
G1 F672.3 X111.424 Y118.2 E4.13165
G1 X111.424 Y123.8 E4.22478
G1 X108.576 Y123.8 E4.27214
G1 X108.576 Y118.2 E4.36527
G0 F5400 X108.776 Y118.2
G0 X109.016 Y118.64
G0 X109.215 Y118.839
;TYPE:SKIN
G1 F672.3 X109.216 Y119.32 E4.37327
