;FLAVOR:Marlin
;TIME:3208
;Filament used:0.577281m
;Layer height: 0.1
;MINX:90.009
;MINY:99.982
;MINZ:0.1
;MAXX:130.509
;MAXY:120.226
;MAXZ:8.4
                              
;Creality Print GCode Generated by CXEngine:NO_MAGE_VERSION_GIT_HEAD_BRANCH
;CXEngine Release Time:2022-09-30 09:53:04
;Gcode Generated Time:2023-05-08 08:34:54
;----------Machine Config--------------
;Machine Name:Ender-3 V2
;Machine Height:250
;Machine Width:220
;Machine Depth:220
;Material name:PLA
;Number of Extruders:1
;ExtruderParams[0] Nozzle Diameter1000
;----------Profile Config---------------
;Engine Version:275f99b
;Engine Release Time:2022-09-30 09:42:18
;Layer Height:0.1
;Wall Thickness:0.8
;Top/Bottom Thickness:0.5
;Out Wall Line Width:0.4
;Inner Wall Line Width:0.4
;Inital Layer Height:100
;Wall Line Count:2
;Infill Line Distance:4
;Infill Pattern:grid
;Infill Sparse Density:20
;Infill Wipe Distance:0
;Print Temperature:200
;Bed Temperature:60
;Support Enable:true
;Support Density:0
;Support Angle:60
;Adhesion Type:none
;machine is belt:false
;machine belt offset:10
;machine belt offset Y:0
;Raft Base Line Spacing:1.6
;Wait Heatup Sync:true
;----------Shell Config----------------
;Outer Wall Wipe Distance:200
;Outer Inset First:false
;Infill Before Walls:false
;Infill Overlap:0.16
;Fill Gaps Between Walls:everywhere
;Minimum Infill Area:1
;Top Surface Skin Layer:0
;Top Layers:4
;Z Seam Alignment:sharpest_corner
;Seam Corner Preference:z_seam_corner_inner
;Z Seam X:110
;Z Seam Y:110
;Horizontal Expansion:0
;Top/Bottom Pattern:zigzag
;Ironing Pattern:zigzag
;Vase Model:false
;----------Support Config----------------
;Support Type:everywhere
;Support Pattern:zigzag
;Support Infill Layer Thickness:0.1
;Minimum Support Area:5
;Enable Support Roof:false
;Support Roof Thickness:0.8
;Support Roof Pattern:lines
;Connect Support Lines:0
;Connect Support ZigZags:1
;Minimum Support X/Y Distance:0.2
;Support Line Distance:0
; ---------PrintSpeed & Travel----------
;Enable Print Cool:true
;Avoid Printed Parts Traveling:true
;Enable Retraction:true
;Retraction Distance:8
;Retraction Speed:100
;Retraction Prime Speed:100
;Maximum Retraction Count:100
;Minimum Extrusion Distance Window:1
;Z Hop When Retracted:false
;Z Hop Height:0.2
;Retract Before Outer Wall:true
;Print Speed:50
;Infill Speed:50

;Prime Tower Speed:50
;Travel Speed:120
;Initial Layer Speed:25
;Skirt/Brim Speed:25
;Combing Mode:infill
; --------SpecialModel&Mesh Fixes--------
;Union Overlapping Volum:true
;Remove All Holes:false
;Maximum Travel Resolution:0.6
;Maximum Deviation:0.05
;Maximum Model Angle:0.872665
;IS Mold Print:false
;Make Overhang Printable:false
;Enable Coasting:false
;Coasting Volumes:0.06
;Coasting Speed:0.9
;Raft AirGap:0.25
;Layer0 ZOverLap:0.13
;---------------------End of Head--------------------------
M140 S60
M105
M104 S200
M105
M109 S200
M105
M190 S60
M82 ;absolute extrusion mode
M220 S100 ;Reset Feedrate
M221 S100 ;Reset Flowrate

G28 ;Home

G92 E0 ;Reset Extruder
G1 Z2.0 F3000 ;Move Z Axis up
G1 X10.1 Y20 Z0.28 F5000.0 ;Move to start position
G1 X10.1 Y145.0 Z0.28 F1500.0 E15 ;Draw the first line
G1 X10.4 Y145.0 Z0.28 F5000.0 ;Move to side a little
G1 X10.4 Y20 Z0.28 F1500.0 E30 ;Draw the second line
G92 E0  ;Reset Extruder
G1 E-1.0000 F1800 ;Retract a bit
G1 Z2.0 F3000 ;Move Z Axis up
G1 E0.0000 F1800 

G92 E0
G92 E0
G1 F6000 E-8

;LAYER_COUNT:84

;LAYER:0
M107
G0 F3600 X92.593 Y102.385 Z0.1
;TYPE:SUPPORT
G1 F6000 E0
G1 F1500 X93.959 Y102.385 E0.01999
G1 X95.13 Y102.312 E0.03716
G1 X95.643 Y102.312 E0.04467
G1 X96.2 Y103.079 E0.05854
G1 X95.639 Y103.85 E0.07249
G1 X94.161 Y103.919 E0.09415
G1 X92.593 Y103.919 E0.11709
G1 X92.036 Y103.152 E0.13097
G1 X92.593 Y102.385 E0.14484
;;retract;;
G1 F6000 E-7.85516
G0 F3600 X91.889 Y101.874
G0 X90.969 Y103.152
G0 X90.334 Y105.293
G0 X90.334 Y106.611
G0 X91.459 Y107.452
G1 F6000 E0.14484
G1 F1500 X94.041 Y107.452 E0.18263
G1 X95.304 Y107.564 E0.20118
G1 X95.459 Y107.452 E0.20398
G1 X96.5 Y107.452 E0.21921
G1 X96.5 Y108.452 E0.23385
G1 X91.842 Y108.452 E0.30202
G1 X91.366 Y107.738 E0.31457
G1 X91.459 Y107.452 E0.31898
;;retract;;
G1 F6000 E-7.68102
G0 F3600 X90.539 Y108.066
G0 X90.334 Y109.293
G0 X90.334 Y110.611
G0 X90.892 Y111.121
G0 X91.668 Y111.452
G1 F6000 E0.31898
G1 F1500 X96.079 Y111.452 E0.38353
G1 X96.02 Y111.997 E0.39155
G1 X95.044 Y112.315 E0.40657
G1 X94.293 Y112.251 E0.4176
G1 X94.016 Y112.452 E0.42261
G1 X91.58 Y112.452 E0.45826
G1 X91.383 Y111.996 E0.46553
G1 X91.668 Y111.452 E0.47452
;;retract;;
G1 F6000 E-7.52548
G0 F3600 X90.891 Y111.102
G0 X90.426 Y111.961
G0 X90.334 Y113.293
G0 X90.334 Y114.611
G0 X90.841 Y115.118
G0 X91.961 Y115.115
G0 X91.961 Y115.985
G1 F6000 E0.47452
G1 F1500 X94.075 Y115.985 E0.50546
G1 X95.115 Y116.129 E0.52082
G1 X95.677 Y116.115 E0.52905
G1 X96.232 Y116.879 E0.54287
G1 X95.681 Y117.637 E0.55658
G1 X94.309 Y117.519 E0.57673
G1 X91.961 Y117.519 E0.61109
G1 X91.404 Y116.752 E0.62497
G1 X91.961 Y115.985 E0.63884
;;retract;;
G1 F6000 E-7.36116
G0 F3600 X91.961 Y115.115
G0 X99.647 Y115.213
G0 X100.121 Y115.919
G1 F6000 E0.63884
G1 F1500 X100.694 Y115.452 E0.64966
G1 X101.187 Y115.452 E0.65687
G1 X101.586 Y116.245 E0.66986
G1 X101.589 Y116.7 E0.67652
G1 X101.017 Y117.164 E0.6873
G1 X100.121 Y116.873 E0.70109
G1 X100.121 Y115.919 E0.71505
;;retract;;
G1 F6000 E-7.28495
G0 F3600 X99.276 Y116.472
G0 X99.259 Y117.499
G0 X101.196 Y118.132
G0 X101.688 Y117.702
G0 X102.509 Y117.897
G1 F6000 E0.71505
G1 F1500 X102.983 Y117.552 E0.72363
G1 X104.489 Y117.544 E0.74567
G1 X105.87 Y116.869 E0.76816
G1 X106.951 Y116.428 E0.78525
G1 X108.004 Y116.124 E0.80129
G1 X109.075 Y115.754 E0.81787
G1 X110.151 Y115.087 E0.8364
G1 X110.798 Y115.087 E0.84587
G1 X112.285 Y116.265 E0.87363
G1 X113.304 Y116.76 E0.89021
G1 X114.352 Y117.157 E0.90661
G1 X115.659 Y117.526 E0.92648
G1 X116.395 Y117.543 E0.93726
G1 X116.875 Y117.892 E0.94594
G1 X117.058 Y118.452 E0.95456
G1 X116.875 Y119.012 E0.96319
G1 X116.399 Y119.358 E0.9718
G1 X115.003 Y119.328 E0.99223
G1 X113.882 Y119.028 E1.00921
G1 X112.572 Y118.524 E1.02976
G1 X111.435 Y117.984 E1.04818
G1 X110.448 Y117.379 E1.06512
G1 X109.224 Y118.045 E1.08551
G1 X108.114 Y118.322 E1.10225
G1 X105.845 Y119.085 E1.13729
G1 X104.524 Y119.32 E1.15692
G1 X102.981 Y119.351 E1.17951
G1 X102.509 Y119.007 E1.18805
G1 X102.328 Y118.452 E1.1966
G1 X102.509 Y117.897 E1.20514
;;retract;;
G1 F6000 E-6.79486
G0 F3600 X102.438 Y116.899
G0 X102.622 Y111.691
G0 X101.499 Y112.452
G1 F6000 E1.20514
G1 F1500 X100.139 Y112.452 E1.22504
G1 X100.176 Y111.638 E1.23697
G1 X100.235 Y111.452 E1.23982
G1 X101.803 Y111.452 E1.26277
G1 X101.499 Y112.452 E1.27807
G0 F3600 X100 Y108.452
G1 F1500 X100 Y107.452 E1.2927
G1 X101.602 Y107.452 E1.31614
G1 X102.219 Y107.703 E1.32589
G1 X103.6 Y107.486 E1.34635
G1 X103.6 Y108.452 E1.36049
G1 X100 Y108.452 E1.41317
G0 F3600 X100.258 Y104.415
G1 F1500 X99.913 Y103.663 E1.42528
G1 X99.906 Y103.226 E1.43168
G1 X100.463 Y102.742 E1.44248
G1 X100.914 Y102.742 E1.44908
G1 X101.489 Y103.534 E1.4634
G1 X101.207 Y104.161 E1.47346
G1 X100.258 Y104.415 E1.48784
;;retract;;
G1 F6000 E-6.51216
G0 F3600 X101.853 Y104.801
G0 X107.358 Y111.11
G0 X107.703 Y107.452
G1 F6000 E1.48784
G1 F1500 X112.3 Y107.452 E1.55511
G1 X112.3 Y108.452 E1.56975
G1 X107.7 Y108.452 E1.63706
G1 X107.703 Y107.452 E1.6517
;;retract;;
G1 F6000 E-6.3483
G0 F3600 X107.703 Y111.122
G0 X108.778 Y111.994
G1 F6000 E1.6517
G1 F1500 X110.6 Y111.985 E1.67836
G1 X111.222 Y111.923 E1.68751
G1 X111.807 Y112.728 E1.70207
G1 X111.628 Y113.648 E1.71579
G1 X111.035 Y114.463 E1.73054
G1 X110.135 Y114.17 E1.74439
G1 X109.932 Y113.518 E1.75438
G1 X108.777 Y113.527 E1.77129
G1 X108.22 Y112.761 E1.78515
G1 X108.778 Y111.994 E1.79903
;;retract;;
G1 F6000 E-6.20097
G0 F3600 X108.773 Y111.124
G0 X111.622 Y111.117
G0 X112.642 Y111.11
G0 X116.285 Y111.108
G0 X116.4 Y108.452
G1 F6000 E1.79903
G1 F1500 X116.4 Y107.47 E1.8134
G1 X117.568 Y107.572 E1.83056
G1 X118.806 Y108.003 E1.84974
G1 X119.16 Y107.452 E1.85933
G1 X120 Y107.452 E1.87162
G1 X120 Y108.452 E1.88625
G1 X116.4 Y108.452 E1.93894
G0 F3600 X117.851 Y111.459
G1 F1500 X119.617 Y111.455 E1.96478
G1 X119.532 Y112.021 E1.97316
G1 X119.031 Y112.434 E1.98266
G1 X118.42 Y112.285 E1.99186
G1 X117.851 Y111.459 E2.00654
;;retract;;
G1 F6000 E-5.99346
G0 F3600 X117.014 Y111.64
G0 X119.954 Y115.1
G0 X118.775 Y115.501
G1 F6000 E2.00654
G1 F1500 X119.197 Y115.501 E2.01272
G1 X119.754 Y116.268 E2.02659
G1 X119.222 Y117 E2.03983
G1 X118.382 Y116.726 E2.05276
G1 X118.492 Y115.909 E2.06483
G1 X118.775 Y115.501 E2.07209
;;retract;;
G1 F6000 E-5.92791
G0 F3600 X119.954 Y115.1
G0 X123.091 Y116.241
G0 X123.795 Y116.752
G1 F6000 E2.07209
G1 F1500 X124.352 Y115.985 E2.08597
G1 X124.866 Y115.985 E2.09349
G1 X126.043 Y116.109 E2.11081
G1 X127.096 Y115.989 E2.12632
G1 X128.052 Y116.3 E2.14103
G1 X128.052 Y117.204 E2.15426
G1 X127.096 Y117.515 E2.16897
G1 X126.038 Y117.394 E2.18456
G1 X125.227 Y117.519 E2.19657
G1 X124.352 Y117.519 E2.20937
G1 X123.795 Y116.752 E2.22324
;;retract;;
G1 F6000 E-5.77676
G0 F3600 X123.091 Y116.241
G0 X123.623 Y112.809
G0 X124.521 Y112.452
G1 F6000 E2.22324
G1 F1500 X123.656 Y111.751 E2.23954
G1 X123.568 Y111.452 E2.2441
G1 X128.194 Y111.452 E2.3118
G1 X128.48 Y111.66 E2.31697
G1 X128.503 Y112.452 E2.32857
G1 X124.521 Y112.452 E2.38684
G0 F3600 X123.5 Y108.452
G1 F1500 X123.5 Y107.462 E2.40133
G1 X124.124 Y107.491 E2.41047
G1 X124.294 Y108.015 E2.41853
G1 X125.578 Y107.542 E2.43856
G1 X126.778 Y107.452 E2.45617
G1 X128.358 Y107.452 E2.47929
G1 X128.647 Y107.662 E2.48452
G1 X128.67 Y108.452 E2.49609
G1 X123.5 Y108.452 E2.57175
;;retract;;
G1 F6000 E-5.42825
G0 F3600 X123.5 Y104.782
G0 X124.821 Y104.749
G0 X125.084 Y103.919
G1 F6000 E2.57175
G1 F1500 X123.96 Y103.562 E2.58901
G1 X123.96 Y102.66 E2.60221
G1 X124.925 Y102.346 E2.61706
G1 X127.674 Y102.385 E2.65729
G1 X128.231 Y103.152 E2.67116
G1 X127.674 Y103.919 E2.68504
G1 X125.084 Y103.919 E2.72294
;;retract;;
G1 F6000 E-5.27706
G0 F3600 X124.821 Y104.749
G0 X128.115 Y104.784
G0 X129.298 Y103.152
G0 X128.118 Y101.524
G0 X124.796 Y101.475
G0 X123.421 Y101.927
G0 X120.825 Y102.934
G0 X120.194 Y103.531
G1 F6000 E2.72294
G1 F1500 X119.717 Y104.429 E2.73782
G1 X119.034 Y104.307 E2.74797
G1 X118.464 Y103.523 E2.76216
G1 X119.021 Y102.756 E2.77603
G1 X119.462 Y102.756 E2.78248
G1 X120.194 Y103.531 E2.79809
;;retract;;
G1 F6000 E-5.20191
G0 F3600 X120.825 Y102.934
G0 X119.833 Y101.89
G0 X113.141 Y102.015
G0 X112.472 Y102.689
G0 X111.769 Y103.201
G1 F6000 E2.79809
G1 F1500 X111.215 Y103.964 E2.81188
G1 X110.075 Y103.919 E2.82858
G1 X108.788 Y103.919 E2.84742
G1 X108.231 Y103.152 E2.86129
G1 X108.788 Y102.385 E2.87516
G1 X109.916 Y102.385 E2.89167
G1 X111.209 Y102.431 E2.9106
G1 X111.769 Y103.201 E2.92453
;;retract;;
G1 F6000 E-5.07547
;MESH:
G0 F3600 X112.473 Y103.712
G0 X111.874 Y104.525
G0 X110.046 Y104.788
G0 X108.347 Y104.784
G0 X107.905 Y104.176
G0 X101.842 Y104.794
G0 X103.1 Y105.852
;TYPE:WALL-INNER
G1 F6000 E2.92453
G1 F1500 X103.1 Y104.552 E2.94832
G1 X105.2 Y104.552 E2.98673
G1 X105.2 Y103.281 E3.00998
G1 X105.901 Y103.28 E3.02281
G1 X106.1 Y103.28 E3.02645
G1 X106.1 Y103.479 E3.0288
G1 X106.1 Y112.152 E3.18746
G1 X104.883 Y112.152 E3.20972
G1 X104.882 Y112.152 E3.20974
G1 X104.47 Y112.152 E3.21727
G1 X104.727 Y111.829 E3.22143
G1 X104.818 Y111.714 E3.22411
G1 X105.015 Y111.323 E3.23212
G1 X105.145 Y110.905 E3.24013
G1 X105.282 Y109.863 E3.25935
G1 X105.284 Y109.852 E3.25956
G1 X105.2 Y109.852 E3.26039
G1 X105.2 Y105.852 E3.33356
G1 X103.1 Y105.852 E3.37197
;;retract;;
G1 F6000 E-4.62803
G0 F3600 X101.842 Y104.794
G0 X98.4 Y103.282
G0 X98.4 Y104.552
G1 F6000 E3.37197
G1 F1500 X98.4 Y115.352 E3.56954
G1 X98.1 Y115.352 E3.57503
G1 X98.1 Y104.552 E3.72357
G1 X98.4 Y104.552 E3.72906
;;retract;;
G1 F6000 E-4.27094
G0 F3600 X98.8 Y106.252
;TYPE:WALL-OUTER
G1 F6000 E3.72906
G1 F748 X98.8 Y109.652 E3.79126
G1 X104.8 Y109.652 E3.90102
G1 X104.8 Y106.252 E3.96321
G1 X98.8 Y106.252 E4.07297
G0 F3600 X98.8 Y106.452
G0 X98.36 Y106.452
;;retract;;
G1 F6000 E-3.92703
G0 F3600 X96.842 Y104.794
G0 X103.257 Y111.507
G0 X103.9 Y112.603
;TYPE:WALL-INNER
G1 F6000 E4.07297
G1 F600 X103.9 Y112.916 E4.0787
G1 X103.9 Y112.917 E4.07871
G1 X103.9 Y115.352 E4.12326
G1 X103.1 Y115.352 E4.13789
G1 X103.1 Y112.902 E4.18271
G1 X103.48 Y112.801 E4.1899
G1 X103.616 Y112.736 E4.19266
G1 X103.9 Y112.603 E4.19598
;;retract;;
G1 F6000 E-3.80402
G0 F3600 X104.828 Y110.252
;TYPE:WALL-OUTER
G1 F6000 E4.19598
G1 F711.8 X104.601 Y110.252 E4.20013
G1 X104.6 Y110.252 E4.20015
G1 X98.8 Y110.252 E4.30625
G1 X98.8 Y113.652 E4.36844
G1 X102.7 Y113.652 E4.43979
G1 X102.7 Y112.539 E4.46015
G1 X102.983 Y112.519 E4.46534
G1 X103.344 Y112.423 E4.47217
G1 X103.68 Y112.269 E4.47893
G1 X103.988 Y112.06 E4.48574
G1 X104.256 Y111.803 E4.49253
G1 X104.476 Y111.504 E4.49932
G1 X104.643 Y111.173 E4.50611
G1 X104.753 Y110.819 E4.51289
G1 X104.799 Y110.478 E4.51918
G1 X104.828 Y110.252 E4.52178
G0 F3600 X104.628 Y110.252
;;retract;;
G1 F6000 E-3.47822
G0 F3600 X103.721 Y111.099
G0 X110.987 Y104.848
G0 X111.643 Y104.846
G0 X112.658 Y103.412
G0 X113.9 Y103.281
;TYPE:WALL-INNER
G1 F6000 E4.52178
G1 F1500 X114.601 Y103.28 E4.53461
G1 X114.8 Y103.28 E4.53825
G1 X114.8 Y103.479 E4.5406
G1 X114.8 Y104.552 E4.56023
G1 X116.9 Y104.552 E4.59865
G1 X116.9 Y105.852 E4.62243
G1 X114.8 Y105.852 E4.66084
G1 X114.8 Y109.864 E4.73424
G1 X114.715 Y109.864 E4.73579
G1 X114.716 Y109.875
G1 X114.86 Y110.931 E4.75529
G1 X114.996 Y111.351 E4.76336
G1 X115.198 Y111.739 E4.77137
G1 X115.27 Y111.829 E4.77347
G1 X115.528 Y112.152 E4.78104
G1 X115.115 Y112.152 E4.78519
G1 X115.114 Y112.152 E4.78521
G1 X113.9 Y112.152 E4.80741
G1 X113.9 Y103.281 E4.96969
;;retract;;
G1 F6000 E-3.03031
G0 F3600 X112.658 Y103.412
G0 X111.935 Y104.438
G0 X110.738 Y104.814
G0 X107.358 Y104.794
G0 X106.5 Y106.252
;TYPE:WALL-OUTER
G1 F6000 E4.96969
G1 F1500 X106.5 Y109.652 E5.03189
G1 X113.5 Y109.652 E5.15994
G1 X113.5 Y106.252 E5.22214
G1 X106.5 Y106.252 E5.35019
G0 F3600 X106.5 Y106.452
G0 X106.06 Y106.452
;;retract;;
G1 F6000 E-2.64981
G0 F3600 X107.358 Y104.794
G0 X116.571 Y111.39
G0 X116.1 Y112.602
;TYPE:WALL-INNER
G1 F6000 E5.35019
G1 F600 X116.383 Y112.734 E5.3559
G1 X116.548 Y112.811 E5.35923
G1 X116.9 Y112.9 E5.36587
G1 X116.9 Y115.352 E5.41073
G1 X116.1 Y115.352 E5.42536
G1 X116.1 Y112.915 E5.46994
G1 X116.1 Y112.914 E5.46996
G1 X116.1 Y112.602 E5.47326
;;retract;;
G1 F6000 E-2.52674
G0 F3600 X116.759 Y111.515
G0 X121.6 Y103.282
G0 X121.6 Y104.552
G1 F6000 E5.47326
G1 F1500 X121.9 Y104.552 E5.47875
G1 X121.9 Y115.352 E5.67632
G1 X121.6 Y115.352 E5.6818
G1 X121.6 Y104.552 E5.83035
;;retract;;
G1 F6000 E-2.16965
G0 F3600 X121.6 Y103.282
G0 X116.285 Y111.108
G0 X115.173 Y110.263
;TYPE:WALL-OUTER
G1 F6000 E5.83035
G1 F711.4 X115.203 Y110.489 E5.83452
G1 X115.252 Y110.842 E5.84104
G1 X115.366 Y111.196 E5.84784
G1 X115.537 Y111.525 E5.85463
G1 X115.761 Y111.822 E5.86143
G1 X116.03 Y112.075 E5.86819
G1 X116.34 Y112.281 E5.87499
G1 X116.679 Y112.432 E5.88178
G1 X117.041 Y112.523 E5.88861
G1 X117.3 Y112.54 E5.89336
G1 X117.3 Y113.652 E5.9137
G1 X121.2 Y113.652 E5.98504
G1 X121.2 Y110.452 E6.04358
G1 X121.2 Y110.252 E6.04724
G1 X121 Y110.252 E6.04961
G1 X115.401 Y110.263 E6.15203
G1 X115.4 Y110.263 E6.15205
G1 X115.173 Y110.263 E6.15464
G0 F3600 X115.199 Y110.462
G0 X114.764 Y110.52
;;retract;;
G1 F6000 E-1.84536
G0 F3600 X115.2 Y106.252
G1 F6000 E6.15464
G1 F748 X115.2 Y109.652 E6.21684
G1 X121.2 Y109.652 E6.32659
G1 X121.2 Y106.252 E6.38879
G1 X115.2 Y106.252 E6.49855
G0 F3600 X115.2 Y106.452
G0 X114.76 Y106.452
;;retract;;
G1 F6000 E-1.50145
G0 F3600 X115.2 Y104.152
G1 F6000 E6.49855
G1 F1500 X117.3 Y104.152 E6.53696
G1 X117.3 Y105.652 E6.5644
G1 X121.2 Y105.652 E6.63575
G1 X121.2 Y104.152 E6.66319
G1 X122.3 Y104.152 E6.68331
G1 X122.3 Y105.652 E6.71075
G1 X128.8 Y105.652 E6.82965
G1 X128.8 Y106.252 E6.84063
G1 X122.3 Y106.252 E6.95953
G1 X122.3 Y109.652 E7.02173
G1 X128.8 Y109.652 E7.14064
G1 X128.8 Y110.252 E7.15161
G1 X122.3 Y110.252 E7.27052
G1 X122.3 Y113.652 E7.33271
