;FLAVOR:Marlin
;TIME:1501
;Filament used:0.414538m
;Layer height: 0.1
;MINX:97.138
;MINY:96.834
;MINZ:0.1
;MAXX:122.3
;MAXY:122.296
;MAXZ:4
                                  
;Creality Print GCode Generated by CXEngine:NO_MAGE_VERSION_GIT_HEAD_BRANCH
;CXEngine Release Time:2022-09-30 09:53:04
;Gcode Generated Time:2023-05-01 22:36:45
;----------Machine Config--------------
;Machine Name:Ender-3 V2
;Machine Height:250
;Machine Width:220
;Machine Depth:220
;Material name:PLA
;Number of Extruders:1
;ExtruderParams[0] Nozzle Diameter1000
;----------Profile Config---------------
;Engine Version:275f99b
;Engine Release Time:2022-09-30 09:42:18
;Layer Height:0.1
;Wall Thickness:0.8
;Top/Bottom Thickness:0.5
;Out Wall Line Width:0.4
;Inner Wall Line Width:0.4
;Inital Layer Height:100
;Wall Line Count:2
;Infill Line Distance:4
;Infill Pattern:grid
;Infill Sparse Density:20
;Infill Wipe Distance:0
;Print Temperature:200
;Bed Temperature:60
;Support Enable:true
;Support Density:0
;Support Angle:60
;Adhesion Type:none
;machine is belt:false
;machine belt offset:10
;machine belt offset Y:0
;Raft Base Line Spacing:1.6
;Wait Heatup Sync:true
;----------Shell Config----------------
;Outer Wall Wipe Distance:200
;Outer Inset First:false
;Infill Before Walls:false
;Infill Overlap:0.16
;Fill Gaps Between Walls:everywhere
;Minimum Infill Area:1
;Top Surface Skin Layer:0
;Top Layers:4
;Z Seam Alignment:sharpest_corner
;Seam Corner Preference:z_seam_corner_inner
;Z Seam X:110
;Z Seam Y:110
;Horizontal Expansion:0
;Top/Bottom Pattern:zigzag
;Ironing Pattern:zigzag
;Vase Model:false
;----------Support Config----------------
;Support Type:everywhere
;Support Pattern:zigzag
;Support Infill Layer Thickness:0.1
;Minimum Support Area:5
;Enable Support Roof:false
;Support Roof Thickness:0.8
;Support Roof Pattern:lines
;Connect Support Lines:0
;Connect Support ZigZags:1
;Minimum Support X/Y Distance:0.2
;Support Line Distance:0
; ---------PrintSpeed & Travel----------
;Enable Print Cool:true
;Avoid Printed Parts Traveling:true
;Enable Retraction:true
;Retraction Distance:8
;Retraction Speed:100
;Retraction Prime Speed:100
;Maximum Retraction Count:100
;Minimum Extrusion Distance Window:1
;Z Hop When Retracted:false
;Z Hop Height:0.2
;Retract Before Outer Wall:true
;Print Speed:50
;Infill Speed:50

;Prime Tower Speed:50
;Travel Speed:120
;Initial Layer Speed:25
;Skirt/Brim Speed:25
;Combing Mode:infill
; --------SpecialModel&Mesh Fixes--------
;Union Overlapping Volum:true
;Remove All Holes:false
;Maximum Travel Resolution:0.6
;Maximum Deviation:0.05
;Maximum Model Angle:0.872665
;IS Mold Print:false
;Make Overhang Printable:false
;Enable Coasting:false
;Coasting Volumes:0.06
;Coasting Speed:0.9
;Raft AirGap:0.25
;Layer0 ZOverLap:0.13
;---------------------End of Head--------------------------
M140 S60
M105
M104 S200
M105
M109 S200
M105
M190 S60
M82 ;absolute extrusion mode
M220 S100 ;Reset Feedrate
M221 S100 ;Reset Flowrate

G28 ;Home

G92 E0 ;Reset Extruder
G1 Z2.0 F3000 ;Move Z Axis up
G1 X10.1 Y20 Z0.28 F5000.0 ;Move to start position
G1 X10.1 Y145.0 Z0.28 F1500.0 E15 ;Draw the first line
G1 X10.4 Y145.0 Z0.28 F5000.0 ;Move to side a little
G1 X10.4 Y20 Z0.28 F1500.0 E30 ;Draw the second line
G92 E0  ;Reset Extruder
G1 E-1.0000 F1800 ;Retract a bit
G1 Z2.0 F3000 ;Move Z Axis up
G1 E0.0000 F1800 

G92 E0
G92 E0
G1 F6000 E-8

;LAYER_COUNT:40

;LAYER:0
M107
;MESH:
G0 F3600 X112.105 Y117.991 Z0.1
;TYPE:WALL-INNER
G1 F6000 E0
G1 F600 X112.034 Y117.465 E0.00971
G1 X111.907 Y117.118 E0.01647
G1 X111.731 Y116.808 E0.02299
G1 X111.504 Y116.534 E0.0295
G1 X111.235 Y116.3 E0.03602
G1 X110.93 Y116.116 E0.04254
G1 X110.6 Y115.986 E0.04903
G1 X110.249 Y115.913 E0.05558
G1 X109.891 Y115.902 E0.06214
G1 X109.54 Y115.95 E0.06862
G1 X109.2 Y116.057 E0.07514
G1 X108.885 Y116.221 E0.08163
G1 X108.598 Y116.433 E0.08816
G1 X108.355 Y116.695 E0.0947
G1 X108.157 Y116.99 E0.1012
G1 X108.013 Y117.317 E0.10773
G1 X107.927 Y117.66 E0.1142
G1 X107.897 Y118.002 E0.12048
G1 X107.932 Y118.373 E0.1273
G1 X108.025 Y118.717 E0.13382
G1 X108.174 Y119.042 E0.14036
G1 X108.377 Y119.334 E0.14686
G1 X108.625 Y119.589 E0.15337
G1 X108.913 Y119.799 E0.15989
G1 X109.234 Y119.957 E0.16644
G1 X109.576 Y120.058 E0.17296
G1 X109.929 Y120.1 E0.17946
G1 X110.285 Y120.082 E0.18598
G1 X110.633 Y120.003 E0.19251
G1 X110.959 Y119.868 E0.19896
G1 X111.264 Y119.68 E0.20552
G1 X111.53 Y119.439 E0.21209
G1 X111.75 Y119.162 E0.21856
G1 X111.922 Y118.849 E0.22509
G1 X112.042 Y118.501 E0.23182
G1 X112.105 Y117.991 E0.24122
G0 F3600 X111.702 Y117.993
;TYPE:WALL-OUTER
G1 F600 X111.643 Y117.562 E0.24918
G1 X111.543 Y117.287 E0.25453
G1 X111.4 Y117.036 E0.25982
G1 X111.217 Y116.814 E0.26508
G1 X110.999 Y116.625 E0.27036
G1 X110.752 Y116.476 E0.27564
G1 X110.485 Y116.371 E0.28088
G1 X110.202 Y116.312 E0.28617
G1 X109.912 Y116.303 E0.29148
G1 X109.628 Y116.342 E0.29672
G1 X109.353 Y116.428 E0.302
G1 X109.098 Y116.561 E0.30726
G1 X108.866 Y116.733 E0.31254
G1 X108.669 Y116.944 E0.31782
G1 X108.509 Y117.183 E0.32308
G1 X108.393 Y117.447 E0.32836
G1 X108.323 Y117.726 E0.33362
G1 X108.299 Y118.001 E0.33867
G1 X108.327 Y118.302 E0.3442
G1 X108.402 Y118.58 E0.34947
G1 X108.523 Y118.843 E0.35476
G1 X108.687 Y119.079 E0.36002
G1 X108.888 Y119.286 E0.3653
G1 X109.121 Y119.455 E0.37056
G1 X109.38 Y119.583 E0.37585
G1 X109.657 Y119.665 E0.38113
G1 X109.942 Y119.699 E0.38638
G1 X110.23 Y119.684 E0.39166
G1 X110.512 Y119.62 E0.39695
G1 X110.777 Y119.511 E0.40219
G1 X111.023 Y119.359 E0.40748
G1 X111.237 Y119.165 E0.41276
G1 X111.416 Y118.94 E0.41802
G1 X111.555 Y118.687 E0.4233
G1 X111.65 Y118.41 E0.42866
G1 X111.702 Y117.993 E0.43635
G0 F3600 X111.675 Y117.795
G0 X112.111 Y117.737
;;retract;;
G1 F6000 E-7.56365
G0 F3600 X110.795 Y117.774
G0 X117.754 Y105.999
G0 X119.033 Y105.991
;TYPE:WALL-INNER
G1 F6000 E0.43635
G1 F600 X118.962 Y105.465 E0.44606
G1 X118.835 Y105.118 E0.45282
G1 X118.659 Y104.808 E0.45934
G1 X118.432 Y104.534 E0.46585
G1 X118.163 Y104.3 E0.47237
G1 X117.859 Y104.116 E0.47887
G1 X117.526 Y103.986 E0.48541
G1 X117.178 Y103.913 E0.49191
G1 X116.82 Y103.902 E0.49846
G1 X116.469 Y103.95 E0.50495
G1 X116.128 Y104.057 E0.51148
G1 X115.813 Y104.221 E0.51798
G1 X115.526 Y104.434 E0.52452
G1 X115.282 Y104.696 E0.53107
G1 X115.086 Y104.989 E0.53752
G1 X114.941 Y105.316 E0.54406
G1 X114.855 Y105.66 E0.55055
G1 X114.825 Y106.002 E0.55683
G1 X114.86 Y106.373 E0.56364
G1 X114.953 Y106.717 E0.57016
G1 X115.104 Y107.043 E0.57673
G1 X115.305 Y107.333 E0.58319
G1 X115.553 Y107.589 E0.58971
G1 X115.841 Y107.799 E0.59623
G1 X116.162 Y107.957 E0.60277
G1 X116.504 Y108.058 E0.6093
G1 X116.858 Y108.1 E0.61582
G1 X117.213 Y108.082 E0.62232
G1 X117.56 Y108.003 E0.62883
G1 X117.89 Y107.868 E0.63535
G1 X118.193 Y107.678 E0.6419
G1 X118.457 Y107.44 E0.6484
G1 X118.678 Y107.162 E0.65489
G1 X118.85 Y106.849 E0.66143
G1 X118.97 Y106.501 E0.66816
G1 X119.033 Y105.991 E0.67756
G0 F3600 X118.63 Y105.993
;TYPE:WALL-OUTER
G1 F600 X118.571 Y105.562 E0.68552
G1 X118.471 Y105.287 E0.69087
G1 X118.328 Y105.036 E0.69616
G1 X118.145 Y104.814 E0.70142
G1 X117.927 Y104.625 E0.7067
G1 X117.681 Y104.476 E0.71196
G1 X117.412 Y104.371 E0.71724
G1 X117.13 Y104.312 E0.72251
G1 X116.841 Y104.303 E0.7278
G1 X116.556 Y104.342 E0.73306
G1 X116.281 Y104.428 E0.73833
G1 X116.026 Y104.561 E0.74359
G1 X115.794 Y104.733 E0.74888
G1 X115.597 Y104.945 E0.75417
G1 X115.438 Y105.183 E0.75941
G1 X115.321 Y105.447 E0.76469
G1 X115.251 Y105.726 E0.76995
G1 X115.227 Y106.001 E0.775
G1 X115.255 Y106.302 E0.78053
G1 X115.33 Y106.58 E0.7858
G1 X115.452 Y106.843 E0.7911
G1 X115.615 Y107.078 E0.79633
G1 X115.816 Y107.286 E0.80163
G1 X116.049 Y107.455 E0.80689
G1 X116.308 Y107.583 E0.81218
G1 X116.585 Y107.665 E0.81746
G1 X116.871 Y107.699 E0.82273
G1 X117.158 Y107.684 E0.82799
G1 X117.439 Y107.62 E0.83326
G1 X117.707 Y107.511 E0.83855
G1 X117.951 Y107.358 E0.84382
G1 X118.165 Y107.165 E0.84909
G1 X118.344 Y106.94 E0.85435
G1 X118.483 Y106.687 E0.85963
G1 X118.578 Y106.41 E0.86499
G1 X118.63 Y105.993 E0.87268
G0 F3600 X118.603 Y105.795
G0 X119.039 Y105.737
;;retract;;
G1 F6000 E-7.12732
G0 F3600 X117.744 Y105.92
G0 X110.169 Y109.191
G0 X110.086 Y107.899
;TYPE:WALL-INNER
G1 F6000 E0.87268
G1 F600 X109.728 Y107.916 E0.87923
G1 X109.38 Y107.991 E0.88574
G1 X109.049 Y108.126 E0.89228
G1 X108.748 Y108.312 E0.89876
G1 X108.48 Y108.547 E0.90528
G1 X108.255 Y108.827 E0.91185
G1 X108.083 Y109.139 E0.91836
G1 X107.964 Y109.474 E0.92487
G1 X107.905 Y109.827 E0.93142
G1 X107.906 Y110.182 E0.93791
G1 X107.967 Y110.534 E0.94444
G1 X108.087 Y110.87 E0.95097
G1 X108.261 Y111.18 E0.95747
G1 X108.485 Y111.457 E0.96399
G1 X108.755 Y111.694 E0.97056
G1 X109.058 Y111.878 E0.97705
G1 X109.387 Y112.011 E0.98354
G1 X109.736 Y112.085 E0.99007
G1 X110.094 Y112.101 E0.99662
G1 X110.448 Y112.053 E1.00316
G1 X110.787 Y111.949 E1.00964
G1 X111.107 Y111.787 E1.0162
G1 X111.392 Y111.574 E1.02271
G1 X111.638 Y111.317 E1.02922
G1 X111.837 Y111.023 E1.03571
G1 X111.984 Y110.696 E1.04227
G1 X112.072 Y110.352 E1.04877
G1 X112.103 Y109.996 E1.05531
G1 X112.07 Y109.64 E1.06185
G1 X111.98 Y109.296 E1.06835
G1 X111.833 Y108.971 E1.07488
G1 X111.632 Y108.676 E1.08141
G1 X111.384 Y108.419 E1.08794
G1 X111.098 Y108.209 E1.09443
G1 X110.78 Y108.048 E1.10095
G1 X110.439 Y107.946 E1.10746
G1 X110.086 Y107.899 E1.11398
G0 F3600 X110.069 Y108.3
;TYPE:WALL-OUTER
G1 F600 X109.78 Y108.314 E1.11927
G1 X109.499 Y108.375 E1.12453
G1 X109.231 Y108.484 E1.12982
G1 X108.987 Y108.635 E1.13507
G1 X108.77 Y108.825 E1.14035
G1 X108.588 Y109.051 E1.14565
G1 X108.449 Y109.303 E1.15092
G1 X108.353 Y109.575 E1.1562
G1 X108.305 Y109.86 E1.16148
G1 X108.306 Y110.147 E1.16673
G1 X108.355 Y110.432 E1.17202
G1 X108.452 Y110.704 E1.17731
G1 X108.593 Y110.955 E1.18257
G1 X108.774 Y111.179 E1.18784
G1 X108.992 Y111.37 E1.19314
G1 X109.238 Y111.519 E1.1984
G1 X109.505 Y111.627 E1.20367
G1 X109.787 Y111.687 E1.20895
G1 X110.076 Y111.7 E1.21424
G1 X110.362 Y111.661 E1.21952
G1 X110.637 Y111.577 E1.22478
G1 X110.895 Y111.446 E1.23007
G1 X111.126 Y111.274 E1.23534
G1 X111.325 Y111.065 E1.24062
G1 X111.486 Y110.827 E1.24588
G1 X111.605 Y110.563 E1.25117
G1 X111.676 Y110.285 E1.25642
G1 X111.701 Y109.997 E1.26171
G1 X111.675 Y109.709 E1.267
G1 X111.602 Y109.43 E1.27227
G1 X111.483 Y109.167 E1.27756
G1 X111.321 Y108.929 E1.28282
G1 X111.12 Y108.721 E1.28811
G1 X110.888 Y108.551 E1.29337
G1 X110.631 Y108.421 E1.29864
G1 X110.355 Y108.338 E1.30392
G1 X110.069 Y108.3 E1.30919
G0 F3600 X109.869 Y108.309
G0 X109.848 Y107.869
;;retract;;
G1 F6000 E-6.69081
G0 F3600 X109.893 Y109.178
G0 X103.897 Y105.999
G0 X105.178 Y105.991
;TYPE:WALL-INNER
G1 F6000 E1.30919
G1 F600 X105.104 Y105.466 E1.31889
G1 X104.98 Y105.119 E1.32563
G1 X104.803 Y104.808 E1.33218
G1 X104.576 Y104.534 E1.33869
G1 X104.307 Y104.3 E1.34521
G1 X104.002 Y104.116 E1.35173
G1 X103.671 Y103.986 E1.35823
G1 X103.32 Y103.913 E1.36479
G1 X102.963 Y103.902 E1.37132
G1 X102.612 Y103.95 E1.3778
G1 X102.273 Y104.057 E1.38431
G1 X101.956 Y104.221 E1.39084
G1 X101.67 Y104.434 E1.39736
G1 X101.427 Y104.695 E1.40388
G1 X101.229 Y104.989 E1.41037
G1 X101.084 Y105.316 E1.41691
G1 X100.998 Y105.66 E1.4234
G1 X100.969 Y106.002 E1.42968
G1 X101.003 Y106.371 E1.43645
G1 X101.096 Y106.717 E1.44301
G1 X101.247 Y107.043 E1.44958
G1 X101.449 Y107.334 E1.45606
G1 X101.696 Y107.589 E1.46255
G1 X101.985 Y107.799 E1.46909
G1 X102.306 Y107.957 E1.47563
G1 X102.648 Y108.058 E1.48216
G1 X103.001 Y108.1 E1.48866
G1 X103.356 Y108.082 E1.49516
G1 X103.705 Y108.003 E1.50171
G1 X104.031 Y107.868 E1.50816
G1 X104.336 Y107.68 E1.51472
G1 X104.602 Y107.439 E1.52128
G1 X104.822 Y107.162 E1.52776
G1 X104.994 Y106.849 E1.53429
G1 X105.113 Y106.5 E1.54103
G1 X105.178 Y105.991 E1.55042
G0 F3600 X104.774 Y105.993
;TYPE:WALL-OUTER
G1 F600 X104.714 Y105.562 E1.55838
G1 X104.615 Y105.287 E1.56373
G1 X104.472 Y105.036 E1.56901
G1 X104.289 Y104.814 E1.57427
G1 X104.071 Y104.625 E1.57955
G1 X103.824 Y104.476 E1.58483
G1 X103.556 Y104.371 E1.5901
G1 X103.273 Y104.312 E1.59538
G1 X102.984 Y104.303 E1.60067
G1 X102.7 Y104.342 E1.60592
G1 X102.426 Y104.428 E1.61117
G1 X102.169 Y104.561 E1.61646
G1 X101.938 Y104.733 E1.62173
G1 X101.741 Y104.944 E1.62701
G1 X101.581 Y105.183 E1.63227
G1 X101.464 Y105.447 E1.63756
G1 X101.394 Y105.726 E1.64282
G1 X101.371 Y106.001 E1.64787
G1 X101.398 Y106.301 E1.65338
G1 X101.473 Y106.58 E1.65866
G1 X101.595 Y106.843 E1.66396
G1 X101.759 Y107.079 E1.66922
G1 X101.959 Y107.286 E1.67449
G1 X102.192 Y107.455 E1.67975
G1 X102.452 Y107.583 E1.68505
G1 X102.729 Y107.665 E1.69034
G1 X103.014 Y107.699 E1.69559
G1 X103.301 Y107.684 E1.70085
G1 X103.584 Y107.62 E1.70615
G1 X103.849 Y107.511 E1.7114
G1 X104.095 Y107.359 E1.71669
G1 X104.309 Y107.165 E1.72197
G1 X104.488 Y106.94 E1.72723
G1 X104.627 Y106.687 E1.73251
G1 X104.721 Y106.41 E1.73786
G1 X104.774 Y105.993 E1.74555
G0 F3600 X104.747 Y105.795
G0 X105.182 Y105.736
;;retract;;
G1 F6000 E-6.25445
G0 F3600 X103.866 Y105.771
G0 X110.952 Y96.867
G0 X110.919 Y98.136
;TYPE:WALL-INNER
G1 F6000 E1.74555
G1 F1500 X112.134 Y98.294 E1.76796
G1 X113.324 Y98.575 E1.79033
G1 X114.486 Y98.978 E1.81283
G1 X115.594 Y99.498 E1.83522
G1 X116.64 Y100.126 E1.85754
G1 X117.622 Y100.862 E1.87999
G1 X118.527 Y101.7 E1.90255
G1 X119.326 Y102.609 E1.92469
G1 X120.04 Y103.615 E1.94726
G1 X120.644 Y104.68 E1.96965
G1 X121.136 Y105.807 E1.99215
G1 X121.503 Y106.956 E2.01421
G1 X121.757 Y108.174 E2.03697
G1 X121.883 Y109.397 E2.05946
G1 X121.883 Y110.61 E2.08165
G1 X121.757 Y111.827 E2.10404
G1 X121.504 Y113.04 E2.1267
G1 X121.136 Y114.193 E2.14884
G1 X120.644 Y115.32 E2.17134
G1 X120.04 Y116.385 E2.19373
G1 X119.326 Y117.391 E2.2163
G1 X118.528 Y118.299 E2.23841
G1 X117.622 Y119.138 E2.261
G1 X116.64 Y119.874 E2.28345
G1 X115.594 Y120.502 E2.30577
G1 X114.486 Y121.022 E2.32816
G1 X113.324 Y121.425 E2.35066
G1 X112.134 Y121.706 E2.37303
G1 X110.919 Y121.864 E2.39544
G1 X109.689 Y121.895 E2.41795
G1 X108.472 Y121.801 E2.44028
G1 X107.269 Y121.581 E2.46265
G1 X106.083 Y121.237 E2.48524
G1 X104.966 Y120.782 E2.5073
G1 X103.873 Y120.2 E2.52995
G1 X102.856 Y119.516 E2.55237
G1 X101.92 Y118.736 E2.57466
G1 X101.061 Y117.853 E2.5972
G1 X100.304 Y116.898 E2.61949
G1 X99.642 Y115.857 E2.64206
G1 X99.095 Y114.762 E2.66445
G1 X98.664 Y113.619 E2.6868
G1 X98.353 Y112.437 E2.70915
G1 X98.163 Y111.219 E2.7317
G1 X98.101 Y109.996 E2.75411
G1 X98.163 Y108.781 E2.77636
G1 X98.353 Y107.56 E2.79896
G1 X98.664 Y106.381 E2.82127
G1 X99.095 Y105.238 E2.84362
G1 X99.642 Y104.143 E2.86601
G1 X100.304 Y103.102 E2.88857
G1 X101.061 Y102.147 E2.91087
G1 X101.92 Y101.264 E2.9334
G1 X102.856 Y100.484 E2.95569
G1 X103.873 Y99.8 E2.97811
G1 X104.966 Y99.218 E3.00076
G1 X106.083 Y98.763 E3.02283
G1 X107.269 Y98.419 E3.04542
G1 X108.472 Y98.199 E3.06779
G1 X109.689 Y98.105 E3.09012
G1 X110.919 Y98.136 E3.11262
G0 F3600 X110.953 Y97.737
;TYPE:WALL-OUTER
G1 F1500 X112.199 Y97.899 E3.13561
G1 X113.439 Y98.191 E3.15891
G1 X114.636 Y98.607 E3.1821
G1 X115.784 Y99.145 E3.20529
G1 X116.863 Y99.793 E3.22831
G1 X117.877 Y100.553 E3.25149
G1 X118.812 Y101.419 E3.27481
G1 X119.643 Y102.364 E3.29783
G1 X120.377 Y103.398 E3.32102
G1 X121.004 Y104.505 E3.3443
G1 X121.51 Y105.663 E3.36741
G1 X121.892 Y106.858 E3.39036
G1 X122.153 Y108.109 E3.41374
G1 X122.283 Y109.375 E3.43702
G1 X122.283 Y110.632 E3.46002
G1 X122.153 Y111.892 E3.48319
G1 X121.893 Y113.138 E3.50647
G1 X121.51 Y114.337 E3.5295
G1 X121.004 Y115.495 E3.55261
G1 X120.377 Y116.602 E3.57589
G1 X119.643 Y117.636 E3.59908
G1 X118.813 Y118.58 E3.62208
G1 X117.877 Y119.447 E3.64542
G1 X116.863 Y120.207 E3.6686
G1 X115.784 Y120.855 E3.69162
G1 X114.636 Y121.393 E3.71481
G1 X113.439 Y121.809 E3.738
G1 X112.199 Y122.101 E3.7613
G1 X110.953 Y122.263 E3.78428
G1 X109.678 Y122.296 E3.80762
G1 X108.427 Y122.199 E3.83057
G1 X107.173 Y121.97 E3.85389
G1 X105.955 Y121.616 E3.87709
G1 X104.793 Y121.143 E3.90004
G1 X103.667 Y120.543 E3.92338
G1 X102.617 Y119.838 E3.94652
G1 X101.644 Y119.026 E3.9697
G1 X100.761 Y118.119 E3.99286
G1 X99.975 Y117.127 E4.01601
