;FLAVOR:Marlin
;TIME:6053
;Filament used:2.21644m
;Layer height: 0.1
;MINX:88.478
;MINY:88.417
;MINZ:0.1
;MAXX:131.623
;MAXY:130.83
;MAXZ:15.2
                               
;Creality Print GCode Generated by CXEngine:NO_MAGE_VERSION_GIT_HEAD_BRANCH
;CXEngine Release Time:2022-09-30 09:53:04
;Gcode Generated Time:2023-05-01 21:26:25
;----------Machine Config--------------
;Machine Name:Ender-3 V2
;Machine Height:250
;Machine Width:220
;Machine Depth:220
;Material name:PLA
;Number of Extruders:1
;ExtruderParams[0] Nozzle Diameter1000
;----------Profile Config---------------
;Engine Version:275f99b
;Engine Release Time:2022-09-30 09:42:18
;Layer Height:0.1
;Wall Thickness:0.8
;Top/Bottom Thickness:0.5
;Out Wall Line Width:0.4
;Inner Wall Line Width:0.4
;Inital Layer Height:100
;Wall Line Count:2
;Infill Line Distance:4
;Infill Pattern:grid
;Infill Sparse Density:20
;Infill Wipe Distance:0
;Print Temperature:200
;Bed Temperature:60
;Support Enable:true
;Support Density:0
;Support Angle:60
;Adhesion Type:none
;machine is belt:false
;machine belt offset:10
;machine belt offset Y:0
;Raft Base Line Spacing:1.6
;Wait Heatup Sync:true
;----------Shell Config----------------
;Outer Wall Wipe Distance:200
;Outer Inset First:false
;Infill Before Walls:false
;Infill Overlap:0.16
;Fill Gaps Between Walls:everywhere
;Minimum Infill Area:1
;Top Surface Skin Layer:0
;Top Layers:4
;Z Seam Alignment:sharpest_corner
;Seam Corner Preference:z_seam_corner_inner
;Z Seam X:110
;Z Seam Y:110
;Horizontal Expansion:0
;Top/Bottom Pattern:zigzag
;Ironing Pattern:zigzag
;Vase Model:false
;----------Support Config----------------
;Support Type:everywhere
;Support Pattern:zigzag
;Support Infill Layer Thickness:0.1
;Minimum Support Area:5
;Enable Support Roof:false
;Support Roof Thickness:0.8
;Support Roof Pattern:lines
;Connect Support Lines:0
;Connect Support ZigZags:1
;Minimum Support X/Y Distance:0.2
;Support Line Distance:0
; ---------PrintSpeed & Travel----------
;Enable Print Cool:true
;Avoid Printed Parts Traveling:true
;Enable Retraction:true
;Retraction Distance:8
;Retraction Speed:100
;Retraction Prime Speed:100
;Maximum Retraction Count:100
;Minimum Extrusion Distance Window:1
;Z Hop When Retracted:false
;Z Hop Height:0.2
;Retract Before Outer Wall:true
;Print Speed:50
;Infill Speed:50

;Prime Tower Speed:50
;Travel Speed:120
;Initial Layer Speed:25
;Skirt/Brim Speed:25
;Combing Mode:infill
; --------SpecialModel&Mesh Fixes--------
;Union Overlapping Volum:true
;Remove All Holes:false
;Maximum Travel Resolution:0.6
;Maximum Deviation:0.05
;Maximum Model Angle:0.872665
;IS Mold Print:false
;Make Overhang Printable:false
;Enable Coasting:false
;Coasting Volumes:0.06
;Coasting Speed:0.9
;Raft AirGap:0.25
;Layer0 ZOverLap:0.13
;---------------------End of Head--------------------------
M140 S60
M105
M104 S200
M105
M109 S200
M105
M190 S60
M82 ;absolute extrusion mode
M220 S100 ;Reset Feedrate
M221 S100 ;Reset Flowrate

G28 ;Home

G92 E0 ;Reset Extruder
G1 Z2.0 F3000 ;Move Z Axis up
G1 X10.1 Y20 Z0.28 F5000.0 ;Move to start position
G1 X10.1 Y145.0 Z0.28 F1500.0 E15 ;Draw the first line
G1 X10.4 Y145.0 Z0.28 F5000.0 ;Move to side a little
G1 X10.4 Y20 Z0.28 F1500.0 E30 ;Draw the second line
G92 E0  ;Reset Extruder
G1 E-1.0000 F1800 ;Retract a bit
G1 Z2.0 F3000 ;Move Z Axis up
G1 E0.0000 F1800 

G92 E0
G92 E0
G1 F6000 E-8

;LAYER_COUNT:152

;LAYER:0
M107
G0 F3600 X95.714 Y96.964 Z0.1
;TYPE:SUPPORT
G1 F6000 E0
G1 F1500 X96.723 Y95.958 E0.02085
G1 X99.621 Y94.179 E0.07062
G1 X101.051 Y93.019 E0.09756
G1 X102.103 Y91.869 E0.12037
G1 X103.491 Y90.694 E0.14699
G1 X104.872 Y90.449 E0.16751
G1 X105.422 Y90.849 E0.17746
G1 X105.682 Y91.523 E0.18804
G1 X108.788 Y91.134 E0.23385
G1 X111.062 Y91.092 E0.26713
G1 X112.487 Y90.765 E0.28853
G1 X113.874 Y90.902 E0.30892
G1 X115.455 Y91.685 E0.33474
G1 X117.059 Y92.087 E0.35894
G1 X118.363 Y92.728 E0.38021
G1 X120.258 Y93.779 E0.41192
G1 X121.423 Y94.714 E0.43378
G1 X123.026 Y95.869 E0.46269
G1 X123.991 Y96.988 E0.48432
G1 X124.964 Y98.01 E0.50497
G1 X125.912 Y99.128 E0.52642
G1 X126.669 Y100.722 E0.55224
G1 X127.218 Y102.023 E0.57291
G1 X127.898 Y103.924 E0.60246
G1 X129.262 Y108.081 E0.66648
G1 X129.115 Y109.22 E0.68329
G1 X128.571 Y109.616 E0.69314
G1 X127.894 Y109.616 E0.70304
G1 X127.237 Y109.002 E0.7162
G1 X125.71 Y104.104 E0.79129
G1 X125.186 Y102.669 E0.81364
G1 X124.607 Y101.339 E0.83487
G1 X123.794 Y99.976 E0.8581
G1 X122.88 Y98.89 E0.87887
G1 X121.856 Y97.831 E0.90043
G1 X120.766 Y96.88 E0.9216
G1 X118.265 Y95.095 E0.96656
G1 X116.929 Y94.51 E0.98791
G1 X114.266 Y93.573 E1.02922
G1 X112.778 Y92.993 E1.05259
G1 X110.883 Y93.234 E1.08055
G1 X109.223 Y93.239 E1.10484
G1 X107.734 Y93.39 E1.12674
G1 X106.163 Y93.639 E1.15002
G1 X103.362 Y94.498 E1.1929
G1 X102.344 Y94.743 E1.20822
G1 X101.016 Y95.842 E1.23345
G1 X99.73 Y96.705 E1.25611
G1 X98.385 Y97.491 E1.27891
G1 X97.434 Y98.355 E1.29771
G1 X95.424 Y100.84 E1.34449
G1 X94.598 Y102.822 E1.37591
G1 X94.099 Y104.414 E1.40033
G1 X93.439 Y106.267 E1.42911
G1 X92.796 Y107.709 E1.45222
G1 X92.533 Y109.081 E1.47266
G1 X92.931 Y110.532 E1.49468
G1 X92.696 Y111.852 E1.5143
G1 X93.168 Y113.536 E1.5399
G1 X93.855 Y115.005 E1.56363
G1 X94.473 Y116.602 E1.58869
G1 X94.843 Y118.044 E1.61048
G1 X95.533 Y119.7 E1.63673
G1 X96.563 Y120.871 E1.65955
G1 X98.267 Y122.005 E1.68951
G1 X99.335 Y122.92 E1.71009
G1 X100.648 Y123.983 E1.73481
G1 X101.781 Y124.809 E1.75533
G1 X103.62 Y125.847 E1.78624
G1 X104.919 Y126.491 E1.80745
G1 X106.416 Y126.622 E1.82945
G1 X109.857 Y126.774 E1.87985
G1 X111.412 Y126.743 E1.90261
G1 X112.975 Y126.798 E1.9255
G1 X114.362 Y126.484 E1.94631
G1 X115.774 Y126.054 E1.96791
G1 X117.339 Y125.381 E1.99284
G1 X118.878 Y124.382 E2.0197
G1 X121.483 Y122.336 E2.06817
G1 X122.664 Y121.476 E2.08955
G1 X123.646 Y120.383 E2.11105
G1 X124.576 Y118.821 E2.13766
G1 X125.401 Y116.874 E2.1686
G1 X126.286 Y114.163 E2.21034
G1 X126.847 Y113.755 E2.22049
G1 X127.537 Y113.755 E2.23059
G1 X128.076 Y114.147 E2.24034
G1 X128.163 Y115.297 E2.25722
G1 X127.138 Y118.585 E2.30762
G1 X126.611 Y119.97 E2.32931
G1 X125.851 Y121.172 E2.35012
G1 X124.861 Y122.323 E2.37234
G1 X123.534 Y123.609 E2.39938
G1 X121.116 Y125.309 E2.44264
G1 X119.804 Y126.359 E2.46723
G1 X118.454 Y127.318 E2.49146
G1 X117.012 Y127.959 E2.51456
G1 X114.162 Y128.838 E2.5582
G1 X112.425 Y129.045 E2.5838
G1 X111.034 Y128.898 E2.60427
G1 X109.412 Y128.969 E2.62803
G1 X107.918 Y128.949 E2.6499
G1 X104.425 Y128.709 E2.70114
G1 X102.604 Y127.855 E2.73057
G1 X101.192 Y127 E2.75473
G1 X99.738 Y126.054 E2.78011
G1 X97.215 Y124.009 E2.82764
G1 X96.063 Y123.13 E2.84885
G1 X94.847 Y122.261 E2.87072
G1 X93.842 Y121.13 E2.89286
G1 X93.271 Y119.9 E2.91271
G1 X92.689 Y118.414 E2.93606
G1 X91.761 Y115.47 E2.98124
G1 X91.132 Y114.166 E3.00243
G1 X90.582 Y112.547 E3.02745
G1 X90.445 Y111.093 E3.04882
G1 X90.389 Y108.199 E3.09118
G1 X90.834 Y106.725 E3.11371
G1 X91.469 Y105.252 E3.13719
G1 X92.003 Y103.842 E3.15925
G1 X93.125 Y100.427 E3.21186
G1 X93.854 Y99.209 E3.23263
G1 X94.906 Y98.083 E3.25518
G1 X95.714 Y96.964 E3.27538
;;retract;;
G1 F6000 E-4.72462
G0 F3600 X95.009 Y96.456
G0 X96.181 Y95.271
G0 X103.11 Y89.879
G0 X105.084 Y89.532
G0 X112.432 Y89.887
G0 X114.117 Y90.053
G0 X117.356 Y91.265
G0 X118.77 Y91.959
G0 X120.744 Y93.054
G0 X123.618 Y95.224
G0 X126.649 Y98.653
G0 X128.026 Y101.702
G0 X130.148 Y107.996
G0 X129.926 Y109.702
G0 X128.854 Y110.484
G0 X127.552 Y110.483
G0 X126.477 Y109.479
G0 X123.831 Y101.734
G0 X120.228 Y97.564
G0 X112.669 Y93.882
G0 X110.935 Y94.103
G0 X106.359 Y94.487
G0 X101.535 Y96.541
G0 X97.984 Y99.056
G0 X109.066 Y108.744
G0 X109.574 Y109.451
G1 F6000 E3.27538
G1 F1500 X110.28 Y108.944 E3.2881
G1 X110.841 Y108.944 E3.29631
G1 X111.298 Y109.277 E3.30459
G1 X111.473 Y109.811 E3.31281
G1 X111.299 Y110.343 E3.321
G1 X110.593 Y110.85 E3.33372
G1 X110.032 Y110.85 E3.34193
G1 X109.575 Y110.517 E3.35021
G1 X109.4 Y109.983 E3.35843
G1 X109.574 Y109.451 E3.36662
;;retract;;
G1 F6000 E-4.63338
;MESH:
G0 F3600 X108.746 Y109.182
G0 X107.831 Y108.91
G0 X106.689 Y108.343
;TYPE:WALL-INNER
G1 F6000 E3.36662
G1 F1500 X106.458 Y108.928 E3.37813
G1 X106.328 Y109.541 E3.38959
G1 X106.302 Y110.169 E3.40109
G1 X106.385 Y110.791 E3.41257
G1 X106.57 Y111.39 E3.42404
G1 X106.854 Y111.951 E3.43554
G1 X107.23 Y112.454 E3.44703
G1 X107.684 Y112.887 E3.4585
G1 X108.206 Y113.236 E3.46999
G1 X108.777 Y113.493 E3.48144
G1 X109.384 Y113.65 E3.49291
G1 X110 Y113.703 E3.50422
G1 X110.636 Y113.646 E3.5159
G1 X111.244 Y113.486 E3.52741
G1 X111.816 Y113.226 E3.5389
G1 X112.334 Y112.872 E3.55038
G1 X112.786 Y112.436 E3.56187
G1 X113.157 Y111.931 E3.57333
G1 X113.439 Y111.369 E3.58483
G1 X113.62 Y110.768 E3.59631
G1 X113.699 Y110.146 E3.60778
G1 X113.67 Y109.517 E3.6193
G1 X113.535 Y108.905 E3.63077
G1 X113.3 Y108.323 E3.64225
G1 X112.969 Y107.79 E3.65372
G1 X112.552 Y107.32 E3.66522
G1 X112.063 Y106.927 E3.67669
G1 X111.514 Y106.623 E3.68817
G1 X110.921 Y106.415 E3.69967
G1 X110.302 Y106.311 E3.71115
G1 X109.674 Y106.313 E3.72264
G1 X109.057 Y106.421 E3.7341
G1 X108.465 Y106.632 E3.7456
G1 X107.917 Y106.94 E3.75709
G1 X107.431 Y107.336 E3.76856
G1 X107.018 Y107.808 E3.78004
G1 X106.689 Y108.343 E3.79153
G0 F3600 X107.048 Y108.523
;TYPE:WALL-OUTER
G1 F1500 X106.842 Y109.044 E3.80177
G1 X106.726 Y109.591 E3.812
G1 X106.703 Y110.151 E3.82226
G1 X106.777 Y110.705 E3.83248
G1 X106.942 Y111.24 E3.84272
G1 X107.195 Y111.739 E3.85296
G1 X107.53 Y112.188 E3.8632
G1 X107.935 Y112.574 E3.87344
G1 X108.4 Y112.885 E3.88367
G1 X108.91 Y113.114 E3.8939
G1 X109.452 Y113.254 E3.90414
G1 X110 Y113.301 E3.9142
G1 X110.567 Y113.251 E3.92461
G1 X111.109 Y113.108 E3.93487
G1 X111.619 Y112.876 E3.94512
G1 X112.081 Y112.561 E3.95535
G1 X112.484 Y112.172 E3.96559
G1 X112.815 Y111.721 E3.97583
G1 X113.066 Y111.221 E3.98606
G1 X113.227 Y110.685 E3.9963
G1 X113.298 Y110.13 E4.00653
G1 X113.272 Y109.57 E4.01679
G1 X113.152 Y109.024 E4.02701
G1 X112.942 Y108.505 E4.03726
G1 X112.647 Y108.03 E4.04748
G1 X112.275 Y107.611 E4.05773
G1 X111.839 Y107.26 E4.06797
G1 X111.35 Y106.989 E4.0782
G1 X110.821 Y106.804 E4.08845
G1 X110.269 Y106.711 E4.09869
G1 X109.709 Y106.713 E4.10894
G1 X109.159 Y106.809 E4.11915
G1 X108.631 Y106.997 E4.1294
G1 X108.143 Y107.272 E4.13965
G1 X107.71 Y107.625 E4.14987
G1 X107.341 Y108.046 E4.16011
G1 X107.048 Y108.523 E4.17035
G0 F3600 X106.975 Y108.709
G0 X106.566 Y108.547
;;retract;;
G1 F6000 E-3.82965
G0 F3600 X107.831 Y108.91
G0 X110.798 Y94.34
G0 X110.785 Y95.61
;TYPE:WALL-INNER
G1 F6000 E4.17035
G1 F1500 X112.015 Y95.731 E4.19296
G1 X113.234 Y95.957 E4.21564
G1 X114.438 Y96.289 E4.23849
G1 X115.59 Y96.718 E4.26097
G1 X116.708 Y97.246 E4.28359
G1 X117.801 Y97.884 E4.30674
G1 X118.789 Y98.58 E4.32885
G1 X119.748 Y99.387 E4.35178
G1 X120.629 Y100.27 E4.3746
G1 X121.42 Y101.21 E4.39707
G1 X122.132 Y102.225 E4.41975
G1 X122.76 Y103.306 E4.44262
G1 X123.287 Y104.423 E4.46521
G1 X123.715 Y105.583 E4.48783
G1 X124.046 Y106.785 E4.51064
G1 X124.271 Y108.006 E4.53335
G1 X124.391 Y109.233 E4.5559
G1 X124.404 Y110.481 E4.57873
G1 X124.311 Y111.708 E4.60124
G1 X124.111 Y112.927 E4.62384
G1 X123.804 Y114.136 E4.64666
G1 X123.401 Y115.3 E4.66919
G1 X122.892 Y116.44 E4.69203
G1 X122.29 Y117.524 E4.71471
G1 X121.599 Y118.551 E4.73736
G1 X120.819 Y119.518 E4.76008
G1 X119.966 Y120.409 E4.78265
G1 X119.024 Y121.236 E4.80558
G1 X118.035 Y121.962 E4.82802
G1 X116.975 Y122.61 E4.85075
G1 X115.864 Y123.163 E4.87345
G1 X114.711 Y123.618 E4.89613
G1 X113.529 Y123.971 E4.91869
G1 X112.303 Y124.225 E4.94159
G1 X111.077 Y124.37 E4.96418
G1 X109.833 Y124.411 E4.98695
G1 X108.599 Y124.342 E5.00956
G1 X107.375 Y124.17 E5.03217
G1 X106.161 Y123.89 E5.05496
G1 X104.981 Y123.508 E5.07765
G1 X103.837 Y123.027 E5.10035
G1 X102.744 Y122.451 E5.12295
G1 X101.695 Y121.778 E5.14575
G1 X100.722 Y121.027 E5.16823
G1 X99.798 Y120.178 E5.19119
G1 X98.974 Y119.278 E5.21351
G1 X98.208 Y118.282 E5.23649
G1 X97.541 Y117.241 E5.25911
G1 X96.961 Y116.136 E5.28194
G1 X96.538 Y115.162 E5.30137
G1 X96.107 Y113.824 E5.32708
G1 X95.829 Y112.609 E5.34988
G1 X95.658 Y111.386 E5.37247
G1 X95.588 Y110.146 E5.39519
G1 X95.63 Y108.905 E5.4179
G1 X95.777 Y107.678 E5.44051
G1 X96.031 Y106.458 E5.46331
G1 X96.387 Y105.275 E5.48591
G1 X96.844 Y104.116 E5.5087
G1 X97.394 Y103.017 E5.53118
G1 X98.05 Y101.947 E5.55414
G1 X98.786 Y100.948 E5.57684
G1 X99.596 Y100.029 E5.59925
G1 X100.487 Y99.175 E5.62182
G1 X101.467 Y98.387 E5.64483
G1 X102.489 Y97.701 E5.66734
G1 X103.575 Y97.102 E5.69003
G1 X104.711 Y96.595 E5.71279
G1 X105.873 Y96.194 E5.73527
G1 X107.089 Y95.888 E5.75821
G1 X108.308 Y95.69 E5.7808
G1 X109.54 Y95.596 E5.80341
G1 X110.785 Y95.61 E5.82618
G0 F3600 X110.805 Y95.21
;TYPE:WALL-OUTER
G1 F1500 X112.069 Y95.334 E5.84942
G1 X113.33 Y95.568 E5.87288
G1 X114.561 Y95.908 E5.89624
G1 X115.746 Y96.349 E5.91937
G1 X116.898 Y96.893 E5.94267
G1 X118.009 Y97.541 E5.9662
G1 X119.038 Y98.266 E5.98923
G1 X120.019 Y99.092 E6.01269
G1 X120.919 Y99.994 E6.036
G1 X121.738 Y100.968 E6.05928
G1 X122.471 Y102.013 E6.08263
G1 X123.116 Y103.122 E6.10609
G1 X123.654 Y104.263 E6.12917
G1 X124.098 Y105.464 E6.15259
G1 X124.435 Y106.689 E6.17584
G1 X124.668 Y107.952 E6.19933
G1 X124.791 Y109.213 E6.22251
G1 X124.804 Y110.495 E6.24596
G1 X124.708 Y111.758 E6.26913
G1 X124.503 Y113.007 E6.29228
G1 X124.188 Y114.249 E6.31572
G1 X123.774 Y115.446 E6.33889
G1 X123.248 Y116.623 E6.36248
G1 X122.633 Y117.731 E6.38566
G1 X121.923 Y118.786 E6.40892
G1 X121.115 Y119.788 E6.43247
G1 X120.243 Y120.699 E6.45554
G1 X119.28 Y121.544 E6.47897
G1 X118.262 Y122.292 E6.50208
G1 X117.165 Y122.962 E6.5256
G1 X116.025 Y123.53 E6.5489
G1 X114.846 Y123.995 E6.57208
G1 X113.619 Y124.361 E6.5955
G1 X112.373 Y124.619 E6.61878
G1 X111.102 Y124.77 E6.64219
G1 X109.835 Y124.811 E6.66538
G1 X108.556 Y124.74 E6.68882
G1 X107.299 Y124.563 E6.71204
G1 X106.053 Y124.276 E6.73543
G1 X104.843 Y123.884 E6.75869
G1 X103.67 Y123.391 E6.78197
G1 X102.538 Y122.795 E6.80537
G1 X101.467 Y122.107 E6.82866
G1 X100.459 Y121.329 E6.85195
G1 X99.52 Y120.467 E6.87527
G1 X98.666 Y119.534 E6.89841
G1 X97.879 Y118.51 E6.92203
G1 X97.197 Y117.446 E6.94515
G1 X96.6 Y116.308 E6.96866
G1 X96.162 Y115.3 E6.98876
G1 X95.722 Y113.934 E7.01502
G1 X95.436 Y112.684 E7.03847
G1 X95.26 Y111.427 E7.06169
G1 X95.188 Y110.148 E7.08513
G1 X95.23 Y108.886 E7.10823
G1 X95.383 Y107.609 E7.13175
G1 X95.642 Y106.364 E7.15502
G1 X96.009 Y105.143 E7.17834
G1 X96.48 Y103.95 E7.2018
G1 X97.042 Y102.826 E7.22479
G1 X97.717 Y101.725 E7.24841
G1 X98.473 Y100.699 E7.27173
G1 X99.313 Y99.746 E7.29497
G1 X100.224 Y98.873 E7.31805
G1 X101.225 Y98.068 E7.34155
G1 X102.278 Y97.361 E7.36475
G1 X103.397 Y96.744 E7.38812
G1 X104.564 Y96.223 E7.4115
G1 X105.764 Y95.809 E7.43472
G1 X107.007 Y95.496 E7.45817
G1 X108.26 Y95.292 E7.48139
G1 X109.526 Y95.196 E7.50462
G1 X110.805 Y95.21 E7.52802
G0 F3600 X111.004 Y95.229
G0 X110.961 Y95.666
;;retract;;
G1 F6000 E-0.47198
G0 F3600 X111.088 Y94.364
G0 X112.194 Y94.474
G0 X113.529 Y94.722
G0 X114.833 Y95.081
G0 X116.088 Y95.549
G0 X117.307 Y96.125
G0 X118.483 Y96.811
G0 X119.1 Y97.246
G0 X120.558 Y98.41
G0 X119.585 Y99.566
;TYPE:SKIN
G1 F6000 E7.52802
G1 F1500 X118.641 Y98.771 E7.5506
G1 X118.402 Y98.603 E7.55594
G1 X117.668 Y98.086 E7.57236
G1 X116.828 Y97.595 E7.59016
G1 X122.402 Y103.169 E7.73436
G1 X122.546 Y103.417 E7.73961
G1 X122.959 Y104.291 E7.75729
G1 X115.706 Y97.038 E7.94493
G1 X115.491 Y96.936 E7.94928
G1 X114.769 Y96.667 E7.96338
G1 X123.326 Y105.224 E8.18475
G1 X123.485 Y105.656 E8.19317
G1 X123.597 Y106.061 E8.20086
G1 X113.937 Y96.401 E8.45076
G1 X113.178 Y96.191 E8.46517
G0 F3600 X113.178 Y96.19
G1 F1500 X113.157 Y96.187 E8.46556
G1 X123.811 Y106.841 E8.74118
G1 X123.939 Y107.534 E8.75407
G1 X112.463 Y96.059 E9.05095
G1 X111.979 Y95.969 E9.05995
G1 X111.79 Y95.95 E9.06343
G1 X124.049 Y108.21 E9.38058
G1 X124.111 Y108.837 E9.39211
G1 X111.162 Y95.888 E9.7271
G1 X110.769 Y95.849 E9.73433
G1 X110.555 Y95.847 E9.73824
G1 X124.153 Y109.445 E10.09003
G1 X124.158 Y110.016 E10.10047
G1 X109.983 Y95.841 E10.46719
