;FLAVOR:Marlin
;TIME:15414
;Filament used:5.66286m
;Layer height: 0.1
;MINX:94.83
;MINY:86.136
;MINZ:0.24
;MAXX:125.17
;MAXY:134.063
;MAXZ:65.89
                             
;Creality Print GCode Generated by CXEngine:NO_MAGE_VERSION_GIT_HEAD_BRANCH
;CXEngine Release Time:2022-09-30 09:53:04
;Gcode Generated Time:2023-05-06 22:28:07
;----------Machine Config--------------
;Machine Name:Ender-3 V2
;Machine Height:250
;Machine Width:220
;Machine Depth:220
;Material name:PLA
;Number of Extruders:1
;ExtruderParams[0] Nozzle Diameter1000
;----------Profile Config---------------
;Engine Version:275f99b
;Engine Release Time:2022-09-30 09:42:18
;Layer Height:0.1
;Wall Thickness:0.8
;Top/Bottom Thickness:0.5
;Out Wall Line Width:0.4
;Inner Wall Line Width:0.4
;Inital Layer Height:100
;Wall Line Count:2
;Infill Line Distance:4
;Infill Pattern:grid
;Infill Sparse Density:20
;Infill Wipe Distance:0
;Print Temperature:200
;Bed Temperature:60
;Support Enable:true
;Support Density:0
;Support Angle:60
;Adhesion Type:simpleraft
;machine is belt:false
;machine belt offset:10
;machine belt offset Y:0
;Raft Base Line Spacing:1.6
;Wait Heatup Sync:true
;----------Shell Config----------------
;Outer Wall Wipe Distance:200
;Outer Inset First:false
;Infill Before Walls:false
;Infill Overlap:0.16
;Fill Gaps Between Walls:everywhere
;Minimum Infill Area:1
;Top Surface Skin Layer:0
;Top Layers:4
;Z Seam Alignment:sharpest_corner
;Seam Corner Preference:z_seam_corner_inner
;Z Seam X:110
;Z Seam Y:110
;Horizontal Expansion:0
;Top/Bottom Pattern:zigzag
;Ironing Pattern:zigzag
;Vase Model:false
;----------Support Config----------------
;Support Type:everywhere
;Support Pattern:zigzag
;Support Infill Layer Thickness:0.1
;Minimum Support Area:5
;Enable Support Roof:false
;Support Roof Thickness:0.8
;Support Roof Pattern:lines
;Connect Support Lines:0
;Connect Support ZigZags:1
;Minimum Support X/Y Distance:0.2
;Support Line Distance:0
; ---------PrintSpeed & Travel----------
;Enable Print Cool:true
;Avoid Printed Parts Traveling:true
;Enable Retraction:true
;Retraction Distance:8
;Retraction Speed:100
;Retraction Prime Speed:100
;Maximum Retraction Count:100
;Minimum Extrusion Distance Window:1
;Z Hop When Retracted:false
;Z Hop Height:0.2
;Retract Before Outer Wall:true
;Print Speed:50
;Infill Speed:50

;Prime Tower Speed:50
;Travel Speed:120
;Initial Layer Speed:25
;Skirt/Brim Speed:25
;Combing Mode:infill
; --------SpecialModel&Mesh Fixes--------
;Union Overlapping Volum:true
;Remove All Holes:false
;Maximum Travel Resolution:0.6
;Maximum Deviation:0.05
;Maximum Model Angle:0.872665
;IS Mold Print:false
;Make Overhang Printable:false
;Enable Coasting:false
;Coasting Volumes:0.06
;Coasting Speed:0.9
;Raft AirGap:0.25
;Layer0 ZOverLap:0.13
;---------------------End of Head--------------------------
M140 S60
M105
M104 S200
M105
M109 S200
M105
M190 S60
M82 ;absolute extrusion mode
M220 S100 ;Reset Feedrate
M221 S100 ;Reset Flowrate

G28 ;Home

G92 E0 ;Reset Extruder
G1 Z2.0 F3000 ;Move Z Axis up
G1 X10.1 Y20 Z0.28 F5000.0 ;Move to start position
G1 X10.1 Y145.0 Z0.28 F1500.0 E15 ;Draw the first line
G1 X10.4 Y145.0 Z0.28 F5000.0 ;Move to side a little
G1 X10.4 Y20 Z0.28 F1500.0 E30 ;Draw the second line
G92 E0  ;Reset Extruder
G1 E-1.0000 F1800 ;Retract a bit
G1 Z2.0 F3000 ;Move Z Axis up
G1 E0.0000 F1800 

G92 E0
G92 E0
G1 F6000 E-8

;LAYER_COUNT:650

;LAYER:-4
M107
G0 F7200 X102.4 Y88.425 Z0.24
;TYPE:SUPPORT-INTERFACE
G1 F6000 E0
G1 F1200 X102.4 Y132.256 E3.49878
G1 X102.094 Y132.103 E3.52609
G1 X101.399 Y131.674 E3.59129
G1 X100.8 Y131.222 E3.65119
G1 X100.8 Y89.788 E6.95863
G1 X101.428 Y89.2 E7.0273
G1 X102.105 Y88.631 E7.09789
G1 X102.787 Y88.155 E7.16428
G1 X103.508 Y87.744 E7.23053
G1 X104 Y87.519 E7.27372
G1 X104 Y132.893 E10.89566
G1 X104.403 Y133.012 E10.92921
G1 X105.183 Y133.166 E10.99267
G1 X105.6 Y133.21 E11.02614
G1 X105.6 Y86.984 E14.7161
G1 X105.82 Y86.928 E14.73422
G1 X106.618 Y86.797 E14.79878
G1 X107.2 Y86.754 E14.84536
G1 X107.2 Y133.249 E18.55679
G1 X108.652 Y133.163 E18.6729
G1 X108.8 Y133.167 E18.68472
G1 X108.8 Y86.778 E22.38769
G1 X109.3 Y86.805 E22.42766
G1 X110.4 Y86.803 E22.51547
G1 X110.4 Y133.236 E26.22195
G1 X111.978 Y133.444 E26.349
G1 X112 Y133.444 E26.35076
G1 X112 Y86.935 E30.06331
G1 X112.285 Y86.976 E30.08629
G1 X113.411 Y87.188 E30.17775
G1 X113.6 Y87.199 E30.19287
G1 X113.6 Y133.406 E33.88131
G1 X113.784 Y133.392 E33.89604
G1 X115.2 Y133.178 E34.01035
G1 X115.2 Y87.329 E37.67022
G1 X115.623 Y87.393 E37.70437
G1 X116.419 Y87.591 E37.76984
G1 X116.8 Y87.722 E37.802
G1 X116.8 Y132.679 E41.39067
G1 X117.52 Y132.343 E41.45409
G1 X118.202 Y131.948 E41.517
G1 X118.4 Y131.81 E41.53627
G1 X118.4 Y88.448 E44.99761
G1 X118.645 Y88.584 E45.01998
G1 X119.326 Y89.047 E45.08571
G1 X119.974 Y89.579 E45.15264
G1 X120 Y89.605 E45.15557
G1 X120 Y130.447 E48.41576
G1 X120.15 Y130.294 E48.43286
G1 X121.231 Y129.05 E48.56442
G1 X121.714 Y128.384 E48.63009
G1 X122.122 Y127.703 E48.69346
G1 X122.496 Y126.932 E48.76186
G1 X122.769 Y126.205 E48.82385
G1 X122.994 Y125.41 E48.8898
G1 X123.146 Y124.594 E48.95606
G1 X123.2 Y123.922 E49.00988
G1 X123.2 Y96.539 E51.19571
G1 X123.135 Y95.677 E51.26471
G1 X122.988 Y94.849 E51.33184
G1 X122.778 Y94.077 E51.3957
G1 X122.47 Y93.243 E51.46667
G1 X121.965 Y92.146 E51.56307
G1 X121.6 Y91.519 E51.62098
G1 X121.6 Y128.542 E54.57632
G0 F7200 X96 Y115.706
G1 F1200 X96 Y119.839 E54.90623
G1 X95.898 Y119.144 E54.9623
G1 X95.842 Y118.174 E55.03986
G1 X95.871 Y116.687 E55.15858
G1 X96.005 Y115.669 E55.24055
G1 X96.185 Y114.897 E55.30382
G1 X96.451 Y114.098 E55.37104
G1 X96.781 Y113.334 E55.43748
G1 X97.463 Y112.04 E55.55424
G1 X97.6 Y111.657 E55.58671
G1 X97.6 Y126.01 E56.73243
G1 X97.685 Y126.4 E56.76429
G1 X97.937 Y127.211 E56.83208
G1 X98.241 Y127.949 E56.89579
G1 X98.616 Y128.671 E56.96073
G1 X99.081 Y129.397 E57.02956
G1 X99.2 Y129.55 E57.04503
G1 X99.2 Y91.494 E60.08282
G1 X99 Y91.752 E60.10888
G1 X98.538 Y92.483 E60.17791
G1 X98.169 Y93.205 E60.24263
G1 X97.868 Y93.953 E60.30699
G1 X97.629 Y94.737 E60.37242
G1 X97.368 Y96.07 E60.48085
G1 X97.172 Y96.762 E60.53826
G1 X96.894 Y97.413 E60.59476
G1 X96.579 Y98.036 E60.65049
G1 X96.257 Y98.831 E60.71896
G1 X96.021 Y99.604 E60.78347
G1 X96 Y99.702 E60.79147
G1 X96 Y104.077 E61.1407
G1 X96.103 Y104.501 E61.17553
G1 X96.358 Y105.244 E61.23824
G1 X96.701 Y106.015 E61.3056
G1 X97.53 Y107.491 E61.44073
G1 X97.484 Y107.522 E61.44516
G1 X97.583 Y107.729 E61.46348
G1 X97.6 Y107.786 E61.46822
G1 X97.6 Y94.885 E62.49804
G0 F600 X97.6 Y94.885 Z0.47
G0 F7200 X123.45 Y95.165
;TIME_ELAPSED:45.154986

;LAYER:-3
;TYPE:SUPPORT
G1 F1800 X115.21 Y86.926 E63.38943
G1 X115.702 Y87.001 E63.4275
G1 X116.533 Y87.207 E63.49299
G1 X117.1 Y87.401 E63.53884
G1 X122.868 Y93.17 E64.1629
G1 X123.16 Y93.956 E64.22705
G1 X123.379 Y94.763 E64.29101
G1 X123.532 Y95.626 E64.35806
G1 X123.615 Y96.745 E64.4439
G1 X113.673 Y86.803 E65.51947
G1 X113.459 Y86.79 E65.53587
G1 X112.343 Y86.58 E65.62274
G1 X111.982 Y86.526 E65.65067
G1 X123.977 Y98.521 E66.94834
G1 X124.175 Y99.179 E67.00091
G1 X124.341 Y100.01 E67.06574
G1 X124.373 Y100.331 E67.09041
G1 X110.445 Y86.403 E68.59721
G1 X109.311 Y86.405 E68.68396
G1 X109.017 Y86.39 E68.70648
G1 X124.527 Y101.899 E70.38438
G1 X124.559 Y102.759 E70.45021
G1 X124.528 Y103.315 E70.49281
G1 X107.551 Y86.338 E72.32947
G1 X107.443 Y86.336 E72.33773
G1 X106.568 Y86.4 E72.40484
G1 X106.251 Y86.452 E72.42942
G1 X124.371 Y104.572 E74.38973
G1 X124.204 Y105.494 E74.46141
G1 X124.192 Y105.807 E74.48537
G1 X105.087 Y86.702 E76.55224
G1 X104.889 Y86.753 E76.56788
G1 X104.095 Y87.036 E76.63237
G1 X104.034 Y87.063 E76.63747
G1 X124.386 Y107.415 E78.83925
G1 X124.663 Y108.514 E78.92595
G1 X124.785 Y109.229 E78.98144
G1 X103.082 Y87.526 E81.32938
G1 X102.568 Y87.82 E81.37467
G1 X102.21 Y88.068 E81.40799
G1 X124.87 Y110.727 E83.85941
G1 X124.867 Y111.081 E83.88649
G1 X124.786 Y111.901 E83.94952
G1 X124.76 Y112.032 E83.95974
G1 X101.416 Y88.688 E86.48521
G1 X101.154 Y88.908 E86.51138
G1 X100.672 Y89.359 E86.56187
G1 X124.503 Y113.19 E89.14003
G1 X124.431 Y113.457 E89.16118
G1 X124.294 Y114.113 E89.21245
G1 X124.274 Y114.374 E89.23247
G1 X99.946 Y90.047 E91.86434
G1 X99.261 Y90.776 E91.94087
G1 X124.323 Y115.838 E94.6522
G1 X124.424 Y116.536 E94.70615
G1 X124.5 Y117.429 E94.77471
G1 X98.64 Y91.569 E97.57237
G1 X98.191 Y92.283 E97.6369
G1 X98.105 Y92.448 E97.65113
G1 X124.546 Y118.889 E100.51165
G1 X124.512 Y119.52 E100.55999
G1 X124.416 Y120.173 E100.61048
G1 X97.654 Y93.411 E103.50572
G1 X97.488 Y93.827 E103.53999
G1 X97.292 Y94.463 E103.5909
G1 X124.15 Y121.321 E106.49653
G1 X123.811 Y122.397 E106.58283
G1 X97.045 Y95.631 E109.47851
G1 X96.979 Y95.977 E109.50545
G1 X96.794 Y96.628 E109.55723
G1 X96.743 Y96.743 E109.56685
G1 X123.624 Y123.624 E112.47497
G1 X123.544 Y124.643 E112.55316
G1 X123.494 Y124.908 E112.57379
G1 X96.295 Y97.709 E115.51631
G1 X96.211 Y97.879 E115.53082
G1 X95.879 Y98.696 E115.59828
G1 X95.875 Y98.704 E115.59897
G1 X123.227 Y126.055 E118.55799
G1 X123.151 Y126.325 E118.57944
G1 X122.861 Y127.096 E118.64246
G1 X122.859 Y127.101 E118.64287
G1 X95.567 Y99.81 E121.5954
G1 X95.457 Y100.334 E121.63636
G1 X95.373 Y101.03 E121.68999
G1 X122.385 Y128.042 E124.61228
G1 X122.047 Y128.606 E124.66258
G1 X121.831 Y128.902 E124.69061
G1 X95.351 Y102.423 E127.55529
G1 X95.382 Y102.914 E127.59293
G1 X95.509 Y103.753 E127.65784
G1 X95.586 Y104.071 E127.68287
G1 X121.204 Y129.689 E130.45435
G1 X120.547 Y130.447 E130.53109
G1 X96.405 Y106.305 E133.14289
G1 X97 Y107.364 E133.23581
G1 X96.973 Y107.382 E133.2383
G1 X97.208 Y107.873 E133.27994
G1 X97.403 Y108.534 E133.33266
G1 X97.438 Y108.752 E133.34955
G1 X119.852 Y131.166 E135.7744
G1 X119.801 Y131.219 E135.78003
G1 X119.133 Y131.785 E135.84701
G1 X119.087 Y131.815 E135.85121
G1 X97.504 Y110.232 E138.18617
G1 X97.474 Y110.57 E138.21212
G1 X97.326 Y111.236 E138.26431
G1 X97.263 Y111.406 E138.27818
G1 X118.243 Y132.385 E140.54785
G1 X117.697 Y132.702 E140.59615
G1 X117.319 Y132.875 E140.62795
G1 X96.828 Y112.384 E142.84477
G1 X96.42 Y113.162 E142.91197
G1 X96.35 Y113.32 E142.92519
G1 X116.31 Y133.281 E145.08461
G1 X116.122 Y133.35 E145.09993
G1 X115.279 Y133.571 E145.1666
G1 X115.197 Y133.582 E145.17293
G1 X95.949 Y114.334 E147.25527
G1 X95.799 Y114.79 E147.292
G1 X95.645 Y115.444 E147.34339
G1 X113.968 Y133.767 E149.32567
G1 X113.834 Y133.789 E149.33605
G1 X112.803 Y133.863 E149.41513
G1 X112.644 Y133.858 E149.4273
G1 X95.47 Y116.683 E151.28532
G1 X95.443 Y118.07 E151.39144
G1 X111.104 Y133.731 E153.08573
G1 X110.188 Y133.612 E153.15639
G1 X109.549 Y133.59 E153.2053
G1 X95.559 Y119.601 E154.71875
G1 X95.629 Y120.068 E154.75488
G1 X95.83 Y120.89 E154.81961
G1 X96.033 Y121.489 E154.86799
G1 X108.137 Y133.592 E156.17741
G1 X106.839 Y133.67 E156.27688
G1 X106.798 Y133.668 E156.28002
G1 X96.884 Y123.754 E157.35257
G1 X96.889 Y123.773 E157.35407
G1 X97.012 Y124.881 E157.43935
G1 X97.123 Y125.701 E157.50265
G1 X97.298 Y126.502 E157.56537
G1 X97.52 Y127.219 E157.62279
G1 X103.445 Y133.143 E158.26373
G1 X103.469 Y133.154 E158.26575
G1 X104.299 Y133.399 E158.33196
G1 X105.132 Y133.563 E158.3969
G1 X105.295 Y133.579 E158.40943
G1 X97.077 Y125.361 E159.2985
G0 F600 X97.077 Y125.361 Z0.62
G0 F7200 X104.286 Y133.6
;TIME_ELAPSED:90.242815

;LAYER:-2
;TYPE:SUPPORT-INTERFACE
G1 F2400 X115.955 Y133.6 E159.58958
G1 X115.317 Y133.767 E159.60603
G1 X113.85 Y133.988 E159.64304
G1 X113.682 Y134 E159.64724
G1 X111.603 Y134 E159.6991
G1 X110.171 Y133.811 E159.73513
G1 X108.656 Y133.763 E159.77294
G1 X106.846 Y133.87 E159.81817
G1 X105.983 Y133.855 E159.8397
G1 X105.112 Y133.762 E159.86155
G1 X104.247 Y133.592 E159.88354
G1 X103.39 Y133.338 E159.90584
G1 X103.039 Y133.2 E159.91525
G1 X117.099 Y133.2 E160.26598
G1 X117.792 Y132.878 E160.28504
G1 X117.925 Y132.8 E160.28889
G1 X102.143 Y132.8 E160.68257
G1 X101.801 Y132.628 E160.69212
G1 X101.432 Y132.4 E160.70294
G1 X118.604 Y132.4 E161.1313
G1 X119.173 Y132 E161.14865
G1 X100.834 Y132 E161.60611
G1 X100.355 Y131.638 E161.62109
G1 X100.311 Y131.6 E161.62254
G1 X119.66 Y131.6 E162.1052
G1 X119.925 Y131.377 E162.11384
G1 X120.098 Y131.2 E162.12002
G1 X99.867 Y131.2 E162.62468
G1 X99.707 Y131.055 E162.63007
G1 X99.469 Y130.8 E162.63877
G1 X120.491 Y130.8 E163.16317
G1 X120.591 Y130.701 E163.16668
G1 X120.85 Y130.4 E163.17658
G1 X99.099 Y130.4 E163.71916
G1 X98.788 Y130 E163.7318
G1 X121.198 Y130 E164.29082
G1 X121.546 Y129.6 E164.30405
G1 X98.496 Y129.6 E164.87903
G1 X98.24 Y129.2 E164.89088
G1 X121.861 Y129.2 E165.48011
G1 X122.151 Y128.8 E165.49243
G1 X98.006 Y128.8 E166.09473
G1 X97.798 Y128.4 E166.10598
G1 X122.401 Y128.4 E166.7197
G1 X122.641 Y128 E166.73134
G1 X97.612 Y128 E167.35569
G1 X97.447 Y127.6 E167.36648
G1 X122.837 Y127.6 E167.99984
G1 X123.031 Y127.2 E168.01093
G1 X97.303 Y127.2 E168.65272
G1 X97.179 Y126.8 E168.66316
G1 X123.183 Y126.8 E169.31183
G1 X123.335 Y126.4 E169.32251
G1 X97.07 Y126.4 E169.97769
G1 X96.983 Y126 E169.9879
G1 X123.449 Y126 E170.6481
G1 X123.562 Y125.6 E170.65847
G1 X96.906 Y125.6 E171.32341
G1 X96.852 Y125.2 E171.33347
G1 X123.642 Y125.2 E172.00175
G1 X123.717 Y124.8 E172.01191
G1 X96.8 Y124.8 E172.68335
G1 X96.756 Y124.4 E172.69339
G1 X123.763 Y124.4 E173.36708
G1 X123.795 Y124 E173.37709
G1 X96.711 Y124 E174.05271
G1 X96.692 Y123.812 E174.05742
G1 X96.634 Y123.6 E174.0629
G1 X123.826 Y123.6 E174.74121
G1 X123.859 Y123.209 E174.751
G1 X123.859 Y123.2 E174.75122
G1 X96.526 Y123.2 E175.43305
G1 X96.522 Y123.178 E175.4336
G1 X96.359 Y122.8 E175.44387
G1 X123.926 Y122.8 E176.13153
G1 X123.968 Y122.564 E176.13751
G1 X124.018 Y122.4 E176.14179
G1 X96.187 Y122.4 E176.83604
G1 X96.016 Y122 E176.84689
G1 X124.144 Y122 E177.54855
G1 X124.271 Y121.6 E177.55901
G1 X95.86 Y121.6 E178.26773
G1 X95.723 Y121.2 E178.27828
G1 X124.393 Y121.2 E178.99345
G1 X124.488 Y120.8 E179.00371
G1 X95.601 Y120.8 E179.7243
G1 X95.503 Y120.4 E179.73457
G1 X124.583 Y120.4 E180.45997
G1 X124.642 Y120 E180.47006
G1 X95.415 Y120 E181.19913
G1 X95.357 Y119.6 E181.20921
G1 X124.7 Y119.6 E181.94118
G1 X124.71 Y119.546 E181.94255
G1 X124.728 Y119.2 E181.95119
G1 X95.299 Y119.2 E182.6853
G1 X95.277 Y118.8 E182.69529
G1 X124.752 Y118.8 E183.43055
G1 X124.76 Y118.663 E183.43397
G1 X124.752 Y118.4 E183.44054
G1 X95.254 Y118.4 E184.17637
G1 X95.242 Y118.181 E184.18184
G1 X95.246 Y118 E184.18635
G1 X124.738 Y118 E184.92204
G1 X124.729 Y117.745 E184.9284
G1 X124.717 Y117.6 E184.93203
G1 X95.253 Y117.6 E185.66701
G1 X95.261 Y117.2 E185.67699
G1 X124.682 Y117.2 E186.4109
G1 X124.648 Y116.8 E186.42092
G1 X95.269 Y116.8 E187.15378
G1 X95.271 Y116.646 E187.15762
G1 X95.304 Y116.4 E187.16381
G1 X124.606 Y116.4 E187.89475
G1 X124.549 Y116 E187.90483
G1 X95.357 Y116 E188.63303
G1 X95.409 Y115.6 E188.64309
G1 X124.494 Y115.6 E189.36862
G1 X124.468 Y115.2 E189.37862
G1 X95.499 Y115.2 E190.10125
G1 X95.593 Y114.8 E190.1115
G1 X124.442 Y114.8 E190.83114
G0 F7200 X124.441 Y114.799
G1 F2400 X124.472 Y114.4 E190.84113
G1 X95.718 Y114.4 E191.5584
G1 X95.851 Y114 E191.56891
G1 X124.522 Y114 E192.28412
G1 X124.605 Y113.6 E192.29431
G1 X96.013 Y113.6 E193.00754
G1 X96.187 Y113.2 E193.01842
G1 X124.709 Y113.2 E193.7299
G1 X124.819 Y112.8 E193.74025
G1 X96.386 Y112.8 E194.44951
G1 X96.596 Y112.4 E194.46078
G1 X124.895 Y112.4 E195.16671
G1 X124.97 Y112 E195.17686
G1 X96.807 Y112 E195.87939
G1 X96.912 Y111.799 E195.88504
G1 X96.984 Y111.6 E195.89032
G1 X125.016 Y111.6 E196.58958
G1 X125.055 Y111.2 E196.59961
G1 X97.128 Y111.2 E197.29625
G1 X97.134 Y111.181 E197.29675
G1 X97.219 Y110.8 E197.30648
G1 X125.069 Y110.8 E198.00121
G1 X125.073 Y110.4 E198.01118
G1 X97.289 Y110.4 E198.70426
G1 X97.326 Y110 E198.71428
G1 X125.06 Y110 E199.40611
G1 X125.028 Y109.6 E199.41612
G1 X97.326 Y109.6 E200.10715
G1 X97.313 Y109.227 E200.11646
G1 X97.308 Y109.2 E200.11714
G1 X124.984 Y109.2 E200.80752
G1 X124.915 Y108.8 E200.81765
G1 X97.243 Y108.8 E201.50793
G1 X97.207 Y108.578 E201.51354
G1 X97.154 Y108.4 E201.51817
G1 X124.841 Y108.4 E202.20883
G1 X124.741 Y108 E202.21911
G1 X97.036 Y108 E202.91022
