;FLAVOR:Marlin
;TIME:6260
;Filament used:2.92785m
;Layer height: 0.1
;MINX:80.489
;MINY:80.789
;MINZ:0.24
;MAXX:139.84
;MAXY:139.263
;MAXZ:16.09
                             
;Creality Print GCode Generated by CXEngine:NO_MAGE_VERSION_GIT_HEAD_BRANCH
;CXEngine Release Time:2022-09-30 09:53:04
;Gcode Generated Time:2023-05-06 22:29:03
;----------Machine Config--------------
;Machine Name:Ender-3 V2
;Machine Height:250
;Machine Width:220
;Machine Depth:220
;Material name:PLA
;Number of Extruders:1
;ExtruderParams[0] Nozzle Diameter1000
;----------Profile Config---------------
;Engine Version:275f99b
;Engine Release Time:2022-09-30 09:42:18
;Layer Height:0.1
;Wall Thickness:0.8
;Top/Bottom Thickness:0.5
;Out Wall Line Width:0.4
;Inner Wall Line Width:0.4
;Inital Layer Height:100
;Wall Line Count:2
;Infill Line Distance:4
;Infill Pattern:grid
;Infill Sparse Density:20
;Infill Wipe Distance:0
;Print Temperature:200
;Bed Temperature:60
;Support Enable:true
;Support Density:0
;Support Angle:60
;Adhesion Type:simpleraft
;machine is belt:false
;machine belt offset:10
;machine belt offset Y:0
;Raft Base Line Spacing:1.6
;Wait Heatup Sync:true
;----------Shell Config----------------
;Outer Wall Wipe Distance:200
;Outer Inset First:false
;Infill Before Walls:false
;Infill Overlap:0.16
;Fill Gaps Between Walls:everywhere
;Minimum Infill Area:1
;Top Surface Skin Layer:0
;Top Layers:4
;Z Seam Alignment:sharpest_corner
;Seam Corner Preference:z_seam_corner_inner
;Z Seam X:110
;Z Seam Y:110
;Horizontal Expansion:0
;Top/Bottom Pattern:zigzag
;Ironing Pattern:zigzag
;Vase Model:false
;----------Support Config----------------
;Support Type:everywhere
;Support Pattern:zigzag
;Support Infill Layer Thickness:0.1
;Minimum Support Area:5
;Enable Support Roof:false
;Support Roof Thickness:0.8
;Support Roof Pattern:lines
;Connect Support Lines:0
;Connect Support ZigZags:1
;Minimum Support X/Y Distance:0.2
;Support Line Distance:0
; ---------PrintSpeed & Travel----------
;Enable Print Cool:true
;Avoid Printed Parts Traveling:true
;Enable Retraction:true
;Retraction Distance:8
;Retraction Speed:100
;Retraction Prime Speed:100
;Maximum Retraction Count:100
;Minimum Extrusion Distance Window:1
;Z Hop When Retracted:false
;Z Hop Height:0.2
;Retract Before Outer Wall:true
;Print Speed:50
;Infill Speed:50

;Prime Tower Speed:50
;Travel Speed:120
;Initial Layer Speed:25
;Skirt/Brim Speed:25
;Combing Mode:infill
; --------SpecialModel&Mesh Fixes--------
;Union Overlapping Volum:true
;Remove All Holes:false
;Maximum Travel Resolution:0.6
;Maximum Deviation:0.05
;Maximum Model Angle:0.872665
;IS Mold Print:false
;Make Overhang Printable:false
;Enable Coasting:false
;Coasting Volumes:0.06
;Coasting Speed:0.9
;Raft AirGap:0.25
;Layer0 ZOverLap:0.13
;---------------------End of Head--------------------------
M140 S60
M105
M104 S200
M105
M109 S200
M105
M190 S60
M82 ;absolute extrusion mode
M220 S100 ;Reset Feedrate
M221 S100 ;Reset Flowrate

G28 ;Home

G92 E0 ;Reset Extruder
G1 Z2.0 F3000 ;Move Z Axis up
G1 X10.1 Y20 Z0.28 F5000.0 ;Move to start position
G1 X10.1 Y145.0 Z0.28 F1500.0 E15 ;Draw the first line
G1 X10.4 Y145.0 Z0.28 F5000.0 ;Move to side a little
G1 X10.4 Y20 Z0.28 F1500.0 E30 ;Draw the second line
G92 E0  ;Reset Extruder
G1 E-1.0000 F1800 ;Retract a bit
G1 Z2.0 F3000 ;Move Z Axis up
G1 E0.0000 F1800 

G92 E0
G92 E0
G1 F6000 E-8

;LAYER_COUNT:152

;LAYER:-4
M107
G0 F7200 X81.6 Y104.684 Z0.24
;TYPE:SUPPORT-INTERFACE
G1 F6000 E0
G1 F1200 X81.6 Y114.821 E0.80918
G1 X81.394 Y113.825 E0.89037
G1 X81.263 Y112.926 E0.96289
G1 X81.208 Y111.723 E1.05902
G1 X81.194 Y110.597 E1.1489
G1 X81.128 Y109.868 E1.20733
G1 X81.089 Y108.677 E1.30246
G1 X81.125 Y107.329 E1.4101
G1 X81.195 Y106.44 E1.48128
G1 X81.33 Y105.648 E1.54541
G1 X81.647 Y104.517 E1.63917
G1 X82.214 Y102.938 E1.7731
G1 X83.053 Y100.991 E1.94233
G1 X83.2 Y100.543 E1.97997
G1 X83.2 Y119.592 E3.50054
G1 X83.598 Y121.143 E3.62836
G1 X83.901 Y122.01 E3.70167
G1 X84.509 Y123.488 E3.82925
G1 X84.8 Y124.326 E3.90006
G1 X84.8 Y95.739 E6.182
G1 X84.929 Y95.417 E6.20968
G1 X85.304 Y94.607 E6.28094
G1 X85.721 Y93.886 E6.34742
G1 X86.242 Y93.144 E6.41979
G1 X86.4 Y92.94 E6.44039
G1 X86.4 Y127.462 E9.19609
G1 X86.914 Y128.084 E9.2605
G1 X88 Y129.126 E9.38064
G1 X88 Y91.075 E12.41803
G1 X88.43 Y90.667 E12.46535
G1 X89.6 Y89.687 E12.58718
G1 X89.6 Y130.373 E15.83491
G1 X89.663 Y130.416 E15.841
G1 X91.047 Y131.17 E15.9668
G1 X91.2 Y131.279 E15.9818
G1 X91.2 Y88.448 E19.40076
G1 X92.107 Y87.767 E19.49129
G1 X92.8 Y87.309 E19.5576
G1 X92.8 Y132.678 E23.17915
G1 X92.945 Y132.81 E23.1948
G1 X93.661 Y133.347 E23.26625
G1 X94.4 Y133.841 E23.3372
G1 X94.4 Y86.098 E27.14825
G1 X94.971 Y85.655 E27.20594
G1 X96 Y84.962 E27.30497
G1 X96 Y134.83 E31.28565
G1 X97.272 Y135.5 E31.40041
G1 X97.6 Y135.659 E31.42951
G1 X97.6 Y84.08 E35.54677
G1 X97.626 Y84.068 E35.54905
G1 X98.367 Y83.786 E35.61234
G1 X98.77 Y83.662 E35.646
G1 X99.2 Y83.487 E35.68306
G1 X99.2 Y136.421 E39.90848
G1 X100.646 Y137.046 E40.03423
G1 X100.8 Y137.1 E40.04725
G1 X100.8 Y82.759 E44.38499
G1 X102.061 Y82.256 E44.49336
G1 X102.4 Y82.14 E44.52196
G1 X102.4 Y137.619 E48.95053
G1 X103.964 Y138.045 E49.07993
G1 X104 Y138.051 E49.08284
G1 X104 Y81.723 E53.57918
G1 X105.44 Y81.498 E53.69552
G1 X105.6 Y81.481 E53.70837
G1 X105.6 Y138.252 E58.24008
G1 X105.632 Y138.255 E58.24264
G1 X107.2 Y138.292 E58.36784
G1 X107.2 Y81.395 E62.9096
G1 X107.73 Y81.389 E62.95191
G1 X108.606 Y81.437 E63.02195
G1 X108.8 Y81.465 E63.03759
G1 X108.8 Y138.33 E67.5768
G1 X110.4 Y138.369 E67.70456
G1 X110.4 Y81.644 E72.23259
G1 X110.463 Y81.649 E72.23764
G1 X112 Y81.648 E72.36033
G1 X112 Y138.45 E76.89451
G1 X113.429 Y138.621 E77.00939
G1 X113.6 Y138.628 E77.02305
G1 X113.6 Y81.719 E81.56578
G1 X115.137 Y81.865 E81.68902
G1 X115.2 Y81.875 E81.69411
G1 X115.2 Y138.66 E86.22693
G1 X115.673 Y138.657 E86.26469
G1 X116.725 Y138.594 E86.34882
G1 X116.8 Y138.583 E86.35487
G1 X116.8 Y82.187 E90.85664
G1 X116.827 Y82.193 E90.85885
G1 X117.622 Y82.459 E90.92577
G1 X118.4 Y82.76 E90.99236
G1 X118.4 Y138.244 E95.42133
G1 X119.107 Y137.998 E95.48108
G1 X119.872 Y137.652 E95.54811
G1 X120 Y137.58 E95.55983
G1 X120 Y83.378 E99.88647
G1 X120.307 Y83.496 E99.91272
G1 X121.409 Y83.869 E100.00559
G1 X121.6 Y83.945 E100.022
G1 X121.6 Y136.604 E104.22547
G1 X121.652 Y136.57 E104.23043
G1 X123.2 Y135.64 E104.37458
G1 X123.2 Y84.693 E108.44139
G1 X124.274 Y85.281 E108.53913
G1 X124.8 Y85.609 E108.58861
G1 X124.8 Y134.441 E112.48659
G1 X126.4 Y133.146 E112.6509
G1 X126.4 Y86.699 E116.3585
G1 X126.436 Y86.724 E116.362
G1 X127.129 Y87.266 E116.43223
G1 X128 Y88.082 E116.5275
G1 X128 Y132.028 E120.03546
G1 X128.613 Y131.577 E120.09621
G1 X129.6 Y130.756 E120.19869
G1 X129.6 Y89.378 E123.50166
G1 X130.614 Y90.055 E123.59899
G1 X131.2 Y90.547 E123.66006
G1 X131.2 Y129.5 E126.76946
G1 X131.529 Y129.225 E126.80369
G1 X132.8 Y128.043 E126.94224
G1 X132.8 Y92.165 E129.80618
G1 X133.229 Y92.656 E129.85822
G1 X133.72 Y93.338 E129.9253
G1 X134.242 Y94.221 E130.00718
G1 X134.4 Y94.526 E130.0346
G1 X134.4 Y126.156 E132.55945
G1 X134.593 Y125.859 E132.58772
G1 X135.024 Y125.05 E132.66089
G1 X135.886 Y123.145 E132.8278
G1 X136 Y122.807 E132.85627
G1 X136 Y98.276 E134.81444
G1 X136.053 Y98.423 E134.82692
G1 X136.663 Y100.519 E135.00117
G1 X137.55 Y103.253 E135.23061
G1 X137.6 Y103.378 E135.24136
G1 X137.6 Y117.444 E136.36416
G1 X137.844 Y116.836 E136.41646
G1 X138.141 Y116.001 E136.4872
G1 X138.573 Y114.583 E136.60553
G1 X138.819 Y113.591 E136.68712
G1 X139.087 Y112.193 E136.80074
G1 X139.227 Y111.021 E136.89496
G1 X139.24 Y110.13 E136.96609
G1 X139.2 Y109.241 E137.03713
G1 X139.2 Y111.248 E137.19733
G0 F600 X139.2 Y111.248 Z0.47
G0 F7200 X133.859 Y92.847
;TIME_ELAPSED:91.929550

;LAYER:-3
;TYPE:SUPPORT
G1 F1800 X130.53 Y89.518 E137.55748
G1 X130.85 Y89.731 E137.58689
G1 X131.648 Y90.401 E137.6666
G1 X132.942 Y91.719 E137.80789
G1 X133.548 Y92.414 E137.87843
G1 X134.052 Y93.114 E137.94442
G1 X134.591 Y94.026 E138.02546
G1 X135.308 Y95.408 E138.14456
G1 X135.543 Y95.945 E138.1894
G1 X124.63 Y85.032 E139.37002
G1 X124.477 Y84.936 E139.38384
G1 X123.06 Y84.159 E139.50747
G1 X122.372 Y83.821 E139.5661
G1 X121.762 Y83.578 E139.61633
G1 X136.405 Y98.222 E141.20054
G1 X136.43 Y98.288 E141.20594
G1 X136.992 Y100.223 E141.36008
G1 X119.542 Y82.772 E143.24796
G1 X117.76 Y82.084 E143.39409
G1 X117.278 Y81.923 E143.43296
G1 X137.663 Y102.307 E145.63826
G1 X137.926 Y103.117 E145.70341
G1 X138.195 Y103.788 E145.75871
G1 X138.594 Y104.653 E145.83158
G1 X115.448 Y81.507 E148.33563
G1 X115.196 Y81.469 E148.35513
G1 X113.869 Y81.342 E148.4571
G1 X139.351 Y106.824 E151.21387
G1 X139.435 Y107.197 E151.24312
G1 X139.547 Y108.037 E151.30795
G1 X139.565 Y108.452 E151.33972
G1 X112.361 Y81.248 E154.28279
G1 X110.947 Y81.248 E154.39096
G1 X139.631 Y109.933 E157.49419
G1 X139.64 Y110.112 E157.5079
G1 X139.627 Y111.046 E157.57935
G1 X139.594 Y111.31 E157.59971
G1 X109.436 Y81.151 E160.8624
G1 X108.651 Y81.039 E160.92306
G1 X107.866 Y80.996 E160.9832
G1 X139.424 Y112.554 E164.3973
G1 X139.211 Y113.67 E164.48422
G1 X139.193 Y113.738 E164.4896
G1 X106.459 Y81.003 E168.03098
G1 X106.299 Y81.005 E168.04322
G1 X105.395 Y81.1 E168.11275
G1 X105.175 Y81.134 E168.12978
G1 X138.906 Y114.864 E171.77892
G1 X138.575 Y115.948 E171.86562
G1 X103.953 Y81.326 E175.6112
G1 X103.893 Y81.336 E175.61585
G1 X102.799 Y81.586 E175.7017
G1 X138.21 Y116.997 E179.53264
G1 X137.805 Y118.006 E179.61581
G1 X101.749 Y81.95 E183.51653
G1 X100.738 Y82.353 E183.59978
G1 X137.42 Y119.035 E187.56822
G1 X137.067 Y120.097 E187.65384
G1 X99.772 Y82.802 E191.68859
G1 X99.475 Y82.945 E191.71381
G1 X98.782 Y83.225 E191.77099
G1 X136.804 Y121.248 E195.88445
G1 X136.548 Y122.406 E195.97517
G1 X97.739 Y83.596 E200.17378
G1 X97.47 Y83.699 E200.19581
G1 X96.766 Y84.038 E200.25558
G1 X136.183 Y123.455 E204.51991
G1 X135.743 Y124.429 E204.60167
G1 X95.877 Y84.563 E208.91457
G1 X95.032 Y85.132 E208.9925
G1 X135.293 Y125.394 E213.34819
G1 X134.939 Y126.06 E213.40589
G1 X134.783 Y126.298 E213.42766
G1 X94.219 Y85.733 E217.81612
G1 X93.422 Y86.351 E217.89328
G1 X134.194 Y127.123 E222.30419
G1 X133.931 Y127.456 E222.33665
G1 X133.53 Y127.873 E222.38091
G1 X92.611 Y86.955 E226.80767
G1 X91.876 Y87.44 E226.87504
G1 X91.765 Y87.522 E226.8856
G1 X132.815 Y128.573 E231.32664
G1 X132.082 Y129.254 E231.40318
G1 X90.958 Y88.13 E235.85218
G1 X90.151 Y88.736 E235.92938
G1 X131.326 Y129.912 E240.38395
G1 X131.025 Y130.166 E240.41408
G1 X130.536 Y130.536 E240.46099
G1 X89.363 Y89.363 E244.91529
G1 X88.593 Y90.007 E244.99208
G1 X129.742 Y131.156 E249.44378
G1 X128.969 Y131.798 E249.52065
G1 X87.843 Y90.672 E253.96986
G1 X87.378 Y91.115 E254.01899
G1 X87.141 Y91.384 E254.04642
G1 X128.16 Y132.403 E258.48406
G1 X127.912 Y132.588 E258.50772
G1 X127.327 Y132.984 E258.56176
G1 X86.5 Y92.157 E262.97863
G1 X85.926 Y92.898 E263.05033
G1 X85.884 Y92.955 E263.05575
G1 X126.503 Y133.574 E267.45011
G1 X125.722 Y134.207 E267.52702
G1 X85.311 Y93.796 E271.89888
G1 X84.947 Y94.426 E271.95454
G1 X84.813 Y94.712 E271.9787
G1 X124.94 Y134.84 E276.31989
G1 X124.345 Y135.324 E276.37857
G1 X124.15 Y135.463 E276.39689
G1 X84.385 Y95.699 E280.69881
G1 X84.003 Y96.657 E280.7777
G1 X83.983 Y96.711 E280.78211
G1 X123.31 Y136.038 E285.0367
G1 X122.427 Y136.569 E285.11552
G1 X83.631 Y97.773 E289.31266
G1 X83.321 Y98.877 E289.40038
G1 X121.551 Y137.108 E293.53635
G1 X120.844 Y137.561 E293.60058
G1 X120.681 Y137.651 E293.61483
G1 X82.974 Y99.945 E297.6941
G1 X82.679 Y100.849 E297.76684
G1 X82.613 Y100.998 E297.77931
G1 X119.757 Y138.142 E301.79773
G1 X119.261 Y138.368 E301.83943
G1 X118.746 Y138.545 E301.88109
G1 X82.187 Y101.986 E305.83622
G1 X81.843 Y102.79 E305.90312
G1 X81.772 Y102.985 E305.91899
G1 X117.639 Y138.853 E309.79932
G1 X117.62 Y138.859 E309.80084
G1 X116.769 Y138.992 E309.86673
G1 X116.386 Y139.013 E309.89607
G1 X81.397 Y104.025 E313.6813
G1 X81.264 Y104.4 E313.71174
G1 X81.065 Y105.107 E313.76793
G1 X115.017 Y139.058 E317.44097
G1 X114.312 Y139.063 E317.4949
G1 X113.571 Y139.027 E317.55165
G1 X80.818 Y106.273 E321.09509
G1 X80.797 Y106.397 E321.10471
G1 X80.726 Y107.298 E321.17385
G1 X80.718 Y107.588 E321.19604
G1 X111.979 Y138.849 E324.57801
G1 X111.523 Y138.796 E324.61313
G1 X110.486 Y138.77 E324.69248
G1 X80.698 Y108.982 E327.9151
G1 X80.728 Y109.882 E327.98398
G1 X80.781 Y110.479 E328.02983
G1 X109.037 Y138.735 E331.08671
G1 X107.588 Y138.701 E331.19758
G1 X80.816 Y111.929 E334.09391
G1 X80.864 Y112.962 E334.17302
G1 X80.936 Y113.463 E334.21174
G1 X106.139 Y138.666 E336.93832
G1 X105.607 Y138.655 E336.97903
G1 X104.733 Y138.582 E337.04612
G1 X104.619 Y138.561 E337.05499
G1 X81.272 Y115.213 E339.58084
G1 X81.315 Y115.418 E339.59686
G1 X81.631 Y116.585 E339.68935
G1 X81.878 Y117.233 E339.7424
G1 X102.781 Y138.136 E342.00379
G1 X101.736 Y137.854 E342.08659
G1 X100.729 Y137.499 E342.16827
G1 X82.774 Y119.544 E344.11073
G1 X83.217 Y121.266 E344.24675
G1 X83.289 Y121.473 E344.26351
G1 X98.222 Y136.405 E345.87899
G1 X97.097 Y135.86 E345.97461
G1 X95.682 Y135.115 E346.09695
G1 X95.27 Y134.868 E346.13369
G1 X84.189 Y123.787 E347.33249
G1 X84.716 Y125.304 E347.45534
G1 X85.061 Y126.086 E347.52073
G1 X85.47 Y126.831 E347.58574
G1 X85.947 Y127.542 E347.65124
G1 X86.623 Y128.36 E347.73242
G1 X87.878 Y129.564 E347.86546
G1 X88.716 Y130.255 E347.94855
G1 X89.449 Y130.754 E348.01638
G1 X90.091 Y131.103 E348.07228
G1 X85.05 Y126.062 E348.61764
G0 F600 X85.05 Y126.062 Z0.62
G0 F7200 X104.946 Y138.8
;TIME_ELAPSED:188.119131

;LAYER:-2
;TYPE:SUPPORT-INTERFACE
G1 F2400 X118.625 Y138.8 E348.95886
G1 X118.491 Y138.847 E348.96241
G1 X117.668 Y139.054 E348.98358
G1 X116.785 Y139.19 E349.00586
G1 X116.62 Y139.2 E349.00999
G1 X113.212 Y139.2 E349.095
G1 X111.51 Y138.995 E349.13776
G1 X105.588 Y138.855 E349.28553
G1 X104.691 Y138.778 E349.30799
G1 X103.838 Y138.631 E349.32958
G1 X102.984 Y138.4 E349.35165
G1 X119.675 Y138.4 E349.768
G1 X120.137 Y138.192 E349.78064
G1 X120.453 Y138 E349.78987
G1 X101.546 Y138 E350.2615
G1 X100.427 Y137.605 E350.29111
G1 X100.414 Y137.6 E350.29145
G1 X121.115 Y137.6 E350.80784
G1 X121.776 Y137.2 E350.82711
G1 X99.489 Y137.2 E351.38307
G1 X98.654 Y136.838 E351.40577
G1 X98.574 Y136.8 E351.40798
G1 X122.438 Y136.8 E352.00327
G1 X123.1 Y136.4 E352.02256
G1 X97.751 Y136.4 E352.6549
G1 X97.006 Y136.037 E352.67557
G1 X96.934 Y136 E352.67759
G1 X123.754 Y136 E353.34662
G1 X124.304 Y135.6 E353.36358
G1 X96.174 Y135.6 E354.06529
G1 X95.575 Y135.284 E354.08218
G1 X95.433 Y135.2 E354.08629
G1 X124.814 Y135.2 E354.81921
G1 X125.308 Y134.8 E354.83506
G1 X94.763 Y134.8 E355.59701
G1 X94.676 Y134.747 E355.59955
G1 X94.156 Y134.4 E355.61515
G1 X125.802 Y134.4 E356.40456
G1 X126.296 Y134 E356.42042
G1 X93.557 Y134 E357.23709
G1 X93.306 Y133.831 E357.24464
G1 X92.997 Y133.6 E357.25426
G1 X126.789 Y133.6 E358.09721
G1 X126.86 Y133.544 E358.09947
G1 X127.365 Y133.2 E358.11471
G1 X92.481 Y133.2 E358.98489
G1 X92.038 Y132.8 E358.99978
G1 X127.955 Y132.8 E359.89573
G1 X128.021 Y132.756 E359.89771
G1 X128.504 Y132.4 E359.91268
G1 X91.612 Y132.4 E360.83296
G1 X91.261 Y132.061 E360.84513
G1 X91.174 Y132 E360.84778
G1 X129.04 Y132 E361.79235
G1 X129.522 Y131.6 E361.80797
G1 X90.581 Y131.6 E362.77936
G1 X89.847 Y131.2 E362.80021
G1 X130.003 Y131.2 E363.80191
G1 X130.085 Y131.133 E363.80455
G1 X130.52 Y130.8 E363.81822
G1 X89.159 Y130.8 E364.84997
G1 X88.606 Y130.423 E364.86667
G1 X88.577 Y130.4 E364.86759
G1 X131.045 Y130.4 E365.92696
G1 X131.146 Y130.325 E365.9301
G1 X131.534 Y130 E365.94272
G1 X88.091 Y130 E367.02641
G1 X87.752 Y129.719 E367.0374
G1 X87.626 Y129.6 E367.04172
G1 X132.003 Y129.6 E368.14871
G1 X132.434 Y129.2 E368.16338
G1 X87.209 Y129.2 E369.29152
G1 X86.792 Y128.8 E369.30593
G1 X132.865 Y128.8 E370.45523
G1 X133.296 Y128.4 E370.4699
G1 X86.396 Y128.4 E371.63982
G1 X86.065 Y128 E371.65277
G1 X133.683 Y128 E372.84061
G1 X134.067 Y127.6 E372.85444
G1 X85.743 Y127.6 E374.05989
G1 X85.476 Y127.2 E374.07188
G1 X134.388 Y127.2 E375.292
G1 X134.633 Y126.893 E375.3018
G1 X134.693 Y126.8 E375.30456
