;FLAVOR:Marlin
;TIME:2675
;Filament used:0.949194m
;Layer height: 0.1
;MINX:86.45
;MINY:99.83
;MINZ:0.1
;MAXX:134.42
;MAXY:120.17
;MAXZ:6
                                    
;Creality Print GCode Generated by CXEngine:NO_MAGE_VERSION_GIT_HEAD_BRANCH
;CXEngine Release Time:2022-09-30 09:53:04
;Gcode Generated Time:2023-05-02 00:07:58
;----------Machine Config--------------
;Machine Name:Ender-3 V2
;Machine Height:250
;Machine Width:220
;Machine Depth:220
;Material name:PLA
;Number of Extruders:1
;ExtruderParams[0] Nozzle Diameter1000
;----------Profile Config---------------
;Engine Version:275f99b
;Engine Release Time:2022-09-30 09:42:18
;Layer Height:0.1
;Wall Thickness:0.8
;Top/Bottom Thickness:0.5
;Out Wall Line Width:0.4
;Inner Wall Line Width:0.4
;Inital Layer Height:100
;Wall Line Count:2
;Infill Line Distance:4
;Infill Pattern:grid
;Infill Sparse Density:20
;Infill Wipe Distance:0
;Print Temperature:200
;Bed Temperature:60
;Support Enable:true
;Support Density:0
;Support Angle:60
;Adhesion Type:none
;machine is belt:false
;machine belt offset:10
;machine belt offset Y:0
;Raft Base Line Spacing:1.6
;Wait Heatup Sync:true
;----------Shell Config----------------
;Outer Wall Wipe Distance:200
;Outer Inset First:false
;Infill Before Walls:false
;Infill Overlap:0.16
;Fill Gaps Between Walls:everywhere
;Minimum Infill Area:1
;Top Surface Skin Layer:0
;Top Layers:4
;Z Seam Alignment:sharpest_corner
;Seam Corner Preference:z_seam_corner_inner
;Z Seam X:110
;Z Seam Y:110
;Horizontal Expansion:0
;Top/Bottom Pattern:zigzag
;Ironing Pattern:zigzag
;Vase Model:false
;----------Support Config----------------
;Support Type:everywhere
;Support Pattern:zigzag
;Support Infill Layer Thickness:0.1
;Minimum Support Area:5
;Enable Support Roof:false
;Support Roof Thickness:0.8
;Support Roof Pattern:lines
;Connect Support Lines:0
;Connect Support ZigZags:1
;Minimum Support X/Y Distance:0.2
;Support Line Distance:0
; ---------PrintSpeed & Travel----------
;Enable Print Cool:true
;Avoid Printed Parts Traveling:true
;Enable Retraction:true
;Retraction Distance:8
;Retraction Speed:100
;Retraction Prime Speed:100
;Maximum Retraction Count:100
;Minimum Extrusion Distance Window:1
;Z Hop When Retracted:false
;Z Hop Height:0.2
;Retract Before Outer Wall:true
;Print Speed:50
;Infill Speed:50

;Prime Tower Speed:50
;Travel Speed:120
;Initial Layer Speed:25
;Skirt/Brim Speed:25
;Combing Mode:infill
; --------SpecialModel&Mesh Fixes--------
;Union Overlapping Volum:true
;Remove All Holes:false
;Maximum Travel Resolution:0.6
;Maximum Deviation:0.05
;Maximum Model Angle:0.872665
;IS Mold Print:false
;Make Overhang Printable:false
;Enable Coasting:false
;Coasting Volumes:0.06
;Coasting Speed:0.9
;Raft AirGap:0.25
;Layer0 ZOverLap:0.13
;---------------------End of Head--------------------------
M140 S60
M105
M104 S200
M105
M109 S200
M105
M190 S60
M82 ;absolute extrusion mode
M220 S100 ;Reset Feedrate
M221 S100 ;Reset Flowrate

G28 ;Home

G92 E0 ;Reset Extruder
G1 Z2.0 F3000 ;Move Z Axis up
G1 X10.1 Y20 Z0.28 F5000.0 ;Move to start position
G1 X10.1 Y145.0 Z0.28 F1500.0 E15 ;Draw the first line
G1 X10.4 Y145.0 Z0.28 F5000.0 ;Move to side a little
G1 X10.4 Y20 Z0.28 F1500.0 E30 ;Draw the second line
G92 E0  ;Reset Extruder
G1 E-1.0000 F1800 ;Retract a bit
G1 Z2.0 F3000 ;Move Z Axis up
G1 E0.0000 F1800 

G92 E0
G92 E0
G1 F6000 E-8

;LAYER_COUNT:60

;LAYER:0
M107
;MESH:
G0 F3600 X95.712 Y112.546 Z0.1
;TYPE:WALL-INNER
G1 F6000 E0
G1 F648.9 X96.235 Y112.601 E0.00962
G1 X96.59 Y112.579 E0.01613
G1 X97.016 Y112.487 E0.0241
G1 X97.425 Y112.322 E0.03217
G1 X97.799 Y112.089 E0.04023
G1 X98.131 Y111.799 E0.04829
G1 X98.408 Y111.454 E0.05639
G1 X98.622 Y111.067 E0.06447
G1 X98.767 Y110.653 E0.0725
G1 X98.843 Y110.221 E0.08052
G1 X98.843 Y109.774 E0.0887
G1 X98.766 Y109.34 E0.09676
G1 X98.62 Y108.925 E0.10481
G1 X98.403 Y108.541 E0.11288
G1 X98.127 Y108.197 E0.12095
G1 X97.794 Y107.906 E0.12904
G1 X97.417 Y107.675 E0.13713
G1 X97.009 Y107.511 E0.14517
G1 X96.577 Y107.419 E0.15325
G1 X96.135 Y107.4 E0.16134
G1 X95.699 Y107.458 E0.16939
G1 X95.276 Y107.587 E0.17748
G1 X94.882 Y107.787 E0.18556
G1 X94.528 Y108.049 E0.19362
G1 X94.223 Y108.369 E0.2017
G1 X93.977 Y108.735 E0.20977
G1 X93.795 Y109.137 E0.21784
G1 X93.685 Y109.563 E0.22589
G1 X93.647 Y110.004 E0.23399
G1 X93.687 Y110.444 E0.24207
G1 X93.798 Y110.871 E0.25014
G1 X93.981 Y111.272 E0.25821
G1 X94.228 Y111.636 E0.26625
G1 X94.534 Y111.956 E0.27435
G1 X94.889 Y112.217 E0.28241
G1 X95.283 Y112.416 E0.29049
G1 X95.712 Y112.546 E0.29869
G0 F3600 X95.792 Y112.152
;TYPE:WALL-OUTER
G1 F600 X96.244 Y112.2 E0.307
G1 X96.535 Y112.182 E0.31234
G1 X96.898 Y112.103 E0.31913
G1 X97.243 Y111.964 E0.32594
G1 X97.56 Y111.767 E0.33276
G1 X97.841 Y111.521 E0.33959
G1 X98.075 Y111.23 E0.34643
G1 X98.256 Y110.903 E0.35326
G1 X98.379 Y110.552 E0.36007
G1 X98.443 Y110.186 E0.36686
G1 X98.443 Y109.809 E0.37376
G1 X98.378 Y109.442 E0.38058
G1 X98.254 Y109.091 E0.38739
G1 X98.071 Y108.766 E0.39421
G1 X97.837 Y108.475 E0.40104
G1 X97.556 Y108.229 E0.40787
G1 X97.237 Y108.034 E0.41471
G1 X96.892 Y107.895 E0.42152
G1 X96.526 Y107.817 E0.42836
G1 X96.153 Y107.801 E0.43519
G1 X95.784 Y107.85 E0.442
G1 X95.426 Y107.959 E0.44885
G1 X95.093 Y108.128 E0.45568
G1 X94.794 Y108.35 E0.46249
G1 X94.536 Y108.62 E0.46932
G1 X94.328 Y108.93 E0.47615
G1 X94.174 Y109.27 E0.48298
G1 X94.081 Y109.631 E0.4898
G1 X94.049 Y110.003 E0.49663
G1 X94.082 Y110.375 E0.50346
G1 X94.176 Y110.736 E0.51028
G1 X94.331 Y111.075 E0.5171
G1 X94.54 Y111.384 E0.52393
G1 X94.799 Y111.654 E0.53077
G1 X95.099 Y111.875 E0.53759
G1 X95.432 Y112.043 E0.54441
G1 X95.792 Y112.152 E0.55129
G0 F3600 X95.991 Y112.173
G0 X95.945 Y112.611
;;retract;;
G1 F6000 E-7.44871
G0 F3600 X96.263 Y111.328
G0 X126.656 Y106.323
G0 X126.841 Y107.601
;TYPE:WALL-INNER
G1 F6000 E0.55129
G1 F600 X127.202 Y107.552 E0.55796
G1 X127.543 Y107.447 E0.56448
G1 X127.86 Y107.283 E0.57101
G1 X128.144 Y107.072 E0.57748
G1 X128.39 Y106.815 E0.58399
G1 X128.59 Y106.518 E0.59054
G1 X128.735 Y106.192 E0.59707
G1 X128.823 Y105.847 E0.60358
G1 X128.851 Y105.491 E0.61011
G1 X128.819 Y105.135 E0.61665
G1 X128.728 Y104.792 E0.62314
G1 X128.581 Y104.469 E0.62964
G1 X128.38 Y104.173 E0.63618
G1 X128.131 Y103.916 E0.64273
G1 X127.843 Y103.707 E0.64924
G1 X127.526 Y103.546 E0.65574
G1 X127.185 Y103.444 E0.66225
G1 X126.832 Y103.399 E0.66876
G1 X126.473 Y103.416 E0.67534
G1 X126.125 Y103.493 E0.68186
G1 X125.797 Y103.627 E0.68834
G1 X125.493 Y103.815 E0.69488
G1 X125.226 Y104.053 E0.70142
G1 X125.003 Y104.331 E0.70794
G1 X124.831 Y104.642 E0.71444
G1 X124.714 Y104.978 E0.72095
G1 X124.655 Y105.33 E0.72748
G1 X124.656 Y105.687 E0.73401
G1 X124.718 Y106.037 E0.74051
G1 X124.838 Y106.375 E0.74707
G1 X125.014 Y106.685 E0.75359
G1 X125.239 Y106.961 E0.76011
G1 X125.507 Y107.195 E0.76661
G1 X125.813 Y107.38 E0.77316
G1 X126.142 Y107.511 E0.77963
G1 X126.486 Y107.585 E0.78607
G1 X126.841 Y107.601 E0.79257
G0 F3600 X126.823 Y107.2
;TYPE:WALL-OUTER
G1 F600 X127.115 Y107.16 E0.79796
G1 X127.391 Y107.075 E0.80325
G1 X127.647 Y106.943 E0.80851
G1 X127.878 Y106.771 E0.81378
G1 X128.077 Y106.563 E0.81905
G1 X128.239 Y106.323 E0.82435
G1 X128.356 Y106.06 E0.82961
G1 X128.427 Y105.781 E0.83488
G1 X128.45 Y105.493 E0.84016
G1 X128.424 Y105.205 E0.84545
G1 X128.35 Y104.927 E0.85072
G1 X128.231 Y104.665 E0.85598
G1 X128.069 Y104.426 E0.86126
G1 X127.868 Y104.219 E0.86654
G1 X127.634 Y104.049 E0.87183
G1 X127.377 Y103.919 E0.8771
G1 X127.102 Y103.837 E0.88235
G1 X126.816 Y103.8 E0.88762
G1 X126.526 Y103.814 E0.89294
G1 X126.245 Y103.876 E0.8982
G1 X125.979 Y103.985 E0.90346
G1 X125.733 Y104.137 E0.90875
G1 X125.517 Y104.329 E0.91403
G1 X125.337 Y104.554 E0.91931
G1 X125.198 Y104.806 E0.92457
G1 X125.103 Y105.078 E0.92984
G1 X125.055 Y105.363 E0.93513
G1 X125.056 Y105.651 E0.9404
G1 X125.106 Y105.935 E0.94567
G1 X125.203 Y106.208 E0.95097
G1 X125.345 Y106.458 E0.95623
G1 X125.528 Y106.682 E0.96152
G1 X125.744 Y106.871 E0.96677
G1 X125.992 Y107.021 E0.97207
G1 X126.259 Y107.127 E0.97733
G1 X126.538 Y107.187 E0.98255
G1 X126.823 Y107.2 E0.98777
G0 F3600 X127.021 Y107.173
G0 X127.08 Y107.61
;;retract;;
G1 F6000 E-7.01223
G0 F3600 X126.902 Y106.312
G0 X126.784 Y115.328
G0 X126.841 Y116.601
;TYPE:WALL-INNER
G1 F6000 E0.98777
G1 F600 X127.202 Y116.552 E0.99443
G1 X127.543 Y116.447 E1.00096
G1 X127.86 Y116.283 E1.00749
G1 X128.144 Y116.072 E1.01396
G1 X128.39 Y115.815 E1.02047
G1 X128.59 Y115.518 E1.02702
G1 X128.735 Y115.192 E1.03355
G1 X128.823 Y114.847 E1.04006
G1 X128.851 Y114.491 E1.04659
G1 X128.819 Y114.135 E1.05313
G1 X128.728 Y113.792 E1.05962
G1 X128.581 Y113.469 E1.06611
G1 X128.38 Y113.173 E1.07266
G1 X128.131 Y112.916 E1.0792
G1 X127.843 Y112.707 E1.08571
G1 X127.526 Y112.546 E1.09222
G1 X127.185 Y112.444 E1.09873
G1 X126.832 Y112.399 E1.10524
G1 X126.473 Y112.416 E1.11181
G1 X126.125 Y112.493 E1.11833
G1 X125.797 Y112.627 E1.12481
G1 X125.493 Y112.815 E1.13135
G1 X125.226 Y113.053 E1.1379
G1 X125.003 Y113.331 E1.14442
G1 X124.831 Y113.642 E1.15092
G1 X124.714 Y113.978 E1.15743
G1 X124.655 Y114.33 E1.16395
G1 X124.656 Y114.687 E1.17049
G1 X124.718 Y115.037 E1.17699
G1 X124.838 Y115.375 E1.18355
G1 X125.014 Y115.685 E1.19007
G1 X125.239 Y115.961 E1.19658
G1 X125.507 Y116.195 E1.20309
G1 X125.813 Y116.38 E1.20963
G1 X126.142 Y116.511 E1.21611
G1 X126.486 Y116.585 E1.22255
G1 X126.841 Y116.601 E1.22905
G0 F3600 X126.823 Y116.2
;TYPE:WALL-OUTER
G1 F600 X127.115 Y116.16 E1.23444
G1 X127.391 Y116.075 E1.23972
G1 X127.647 Y115.943 E1.24499
G1 X127.878 Y115.771 E1.25026
G1 X128.077 Y115.563 E1.25553
G1 X128.239 Y115.323 E1.26082
G1 X128.356 Y115.06 E1.26609
G1 X128.427 Y114.781 E1.27136
G1 X128.45 Y114.493 E1.27664
G1 X128.424 Y114.205 E1.28193
G1 X128.35 Y113.927 E1.28719
G1 X128.231 Y113.665 E1.29246
G1 X128.069 Y113.426 E1.29774
G1 X127.868 Y113.219 E1.30302
G1 X127.634 Y113.049 E1.30831
G1 X127.377 Y112.919 E1.31358
G1 X127.102 Y112.837 E1.31883
G1 X126.816 Y112.8 E1.3241
G1 X126.526 Y112.814 E1.32941
G1 X126.245 Y112.876 E1.33468
G1 X125.979 Y112.985 E1.33993
G1 X125.733 Y113.137 E1.34522
G1 X125.517 Y113.329 E1.35051
G1 X125.337 Y113.554 E1.35578
G1 X125.198 Y113.806 E1.36105
G1 X125.103 Y114.078 E1.36632
G1 X125.055 Y114.363 E1.3716
G1 X125.056 Y114.651 E1.37687
G1 X125.106 Y114.935 E1.38215
G1 X125.203 Y115.208 E1.38745
G1 X125.345 Y115.458 E1.39271
G1 X125.528 Y115.682 E1.398
G1 X125.744 Y115.871 E1.40325
G1 X125.992 Y116.021 E1.40855
G1 X126.259 Y116.127 E1.41381
G1 X126.538 Y116.187 E1.41903
G1 X126.823 Y116.2 E1.42425
G0 F3600 X127.021 Y116.173
G0 X127.08 Y116.61
;;retract;;
G1 F6000 E-6.57575
G0 F3600 X126.93 Y115.307
G0 X133.15 Y120.17
G0 X133.15 Y118.9
;TYPE:WALL-INNER
G1 F6000 E1.42425
G1 F1500 X95.765 Y118.9 E2.10813
G1 X94.486 Y118.808 E2.13159
G1 X93.244 Y118.538 E2.15484
G1 X92.057 Y118.096 E2.17801
G1 X90.936 Y117.483 E2.20138
G1 X89.921 Y116.724 E2.22457
G1 X89.026 Y115.829 E2.24772
G1 X88.267 Y114.814 E2.27091
G1 X87.654 Y113.693 E2.29428
G1 X87.212 Y112.506 E2.31745
G1 X86.942 Y111.264 E2.3407
G1 X86.851 Y110 E2.36388
G1 X86.942 Y108.735 E2.38708
G1 X87.212 Y107.494 E2.41031
G1 X87.654 Y106.307 E2.43349
G1 X88.267 Y105.186 E2.45686
G1 X89.026 Y104.171 E2.48004
G1 X89.921 Y103.276 E2.5032
G1 X90.936 Y102.517 E2.52638
G1 X92.057 Y101.904 E2.54975
G1 X93.244 Y101.462 E2.57292
G1 X94.486 Y101.192 E2.59617
G1 X95.765 Y101.1 E2.61963
G1 X133.15 Y101.1 E3.30352
G1 X133.15 Y118.9 E3.62913
G0 F3600 X133.55 Y119.3
;TYPE:WALL-OUTER
G1 F1500 X95.75 Y119.3 E4.32061
G1 X94.428 Y119.205 E4.34486
G1 X93.13 Y118.923 E4.36916
G1 X91.892 Y118.462 E4.39332
G1 X90.72 Y117.821 E4.41776
G1 X89.657 Y117.026 E4.44204
G1 X88.724 Y116.093 E4.46618
G1 X87.929 Y115.03 E4.49046
G1 X87.288 Y113.858 E4.5149
G1 X86.827 Y112.62 E4.53906
G1 X86.545 Y111.322 E4.56336
G1 X86.45 Y110 E4.58761
G1 X86.545 Y108.678 E4.61185
G1 X86.827 Y107.38 E4.63615
G1 X87.288 Y106.142 E4.66032
G1 X87.929 Y104.97 E4.68475
G1 X88.724 Y103.907 E4.70904
G1 X89.657 Y102.974 E4.73317
G1 X90.72 Y102.179 E4.75746
G1 X91.892 Y101.538 E4.78189
G1 X93.13 Y101.077 E4.80606
G1 X94.428 Y100.795 E4.83036
G1 X95.75 Y100.7 E4.8546
G1 X133.55 Y100.7 E5.54608
G1 X133.55 Y119.3 E5.88633
G0 F3600 X133.35 Y119.3
G0 X133.11 Y118.86
;;retract;;
G1 F6000 E-2.11367
G0 F3600 X134.42 Y118.86
G0 X134.42 Y101.796
G0 X132.909 Y101.796
;TYPE:SKIN
G1 F6000 E5.88633
G1 F600 X132.452 Y101.339 E5.89816
G1 X131.886 Y101.339 E5.90851
G1 X132.909 Y102.362 E5.93497
G1 X132.909 Y102.927 E5.94531
G1 X131.321 Y101.339 E5.98639
G1 X130.755 Y101.339 E5.99675
G1 X132.909 Y103.493 E6.05247
G1 X132.909 Y104.059 E6.06282
G1 X130.189 Y101.339 E6.13319
G1 X129.623 Y101.339 E6.14355
G1 X132.909 Y104.624 E6.22854
G1 X132.909 Y105.19 E6.2389
G1 X129.058 Y101.339 E6.33852
G1 X128.492 Y101.339 E6.34888
G1 F1500 X132.909 Y105.756 E6.46315
G1 F600 X132.909 Y106.321 E6.47348
G1 F1500 X127.926 Y101.339 E6.60238
G1 F600 X127.361 Y101.339 E6.61272
G1 F1500 X132.909 Y106.887 E6.75624
G1 F600 X132.909 Y107.453 E6.7666
G1 F1500 X126.795 Y101.339 E6.92477
G1 F600 X126.229 Y101.339 E6.93512
G1 F1500 X132.909 Y108.019 E7.10794
G1 F600 X132.909 Y108.584 E7.11827
G1 X128.886 Y104.562 E7.22234
G1 X128.954 Y104.71 E7.22532
G1 X129.056 Y105.093 E7.23257
G1 X129.075 Y105.317 E7.23668
G1 X132.909 Y109.15 E7.33585
G1 X132.909 Y109.716 E7.34621
G1 X129.061 Y105.868 E7.44576
G1 X129.06 Y105.887 E7.4461
G1 X128.962 Y106.271 E7.45335
G1 X128.942 Y106.314 E7.45422
G1 X132.909 Y110.281 E7.55685
G1 X132.909 Y110.847 E7.5672
G1 X128.757 Y106.696 E7.6746
G1 X128.576 Y106.966 E7.68055
G1 X128.52 Y107.024 E7.68202
G1 F1500 X132.909 Y111.413 E7.79557
G1 F600 X132.909 Y111.978 E7.8059
G1 F1500 X128.234 Y107.304 E7.92683
G1 F600 X127.986 Y107.487 E7.93247
G1 X127.897 Y107.533 E7.93431
G1 F1500 X132.909 Y112.544 E8.06395
G1 F600 X132.909 Y113.11 E8.07431
G1 F1500 X127.508 Y107.709 E8.21403
G1 F600 X127.253 Y107.787 E8.21891
G1 X127.048 Y107.815 E8.2227
G1 F1500 X132.909 Y113.675 E8.37431
G1 F600 X132.909 Y114.241 E8.38466
G1 F1500 X126.493 Y107.826 E8.55063
G1 F600 X126.454 Y107.823 E8.55135
G1 X126.07 Y107.741 E8.55853
G1 X125.705 Y107.596 E8.56572
G1 X125.687 Y107.585 E8.5661
G1 F1500 X132.909 Y114.807 E8.75294
G1 F600 X132.909 Y115.372 E8.76327
G1 F1500 X118.875 Y101.339 E9.12633
G1 F600 X118.31 Y101.339 E9.13666
G1 F1500 X132.909 Y115.938 E9.51434
G1 F600 X132.909 Y116.504 E9.5247
G1 F1500 X117.744 Y101.339 E9.91702
G1 F600 X117.178 Y101.339 E9.92737
G1 F1500 X132.909 Y117.07 E10.33434
G1 F600 X132.909 Y117.635 E10.34467
G1 X128.928 Y113.655 E10.44765
G1 X128.954 Y113.71 E10.44876
G1 X129.056 Y114.093 E10.45601
G1 X129.08 Y114.373 E10.46116
G1 X132.909 Y118.201 E10.5602
G1 X132.909 Y118.659 E10.56858
G1 X132.801 Y118.659 E10.57055
G1 X129.054 Y114.911 E10.6675
G1 X128.962 Y115.271 E10.6743
G1 X128.926 Y115.35 E10.67589
G1 X132.236 Y118.659 E10.76151
G1 X131.67 Y118.659 E10.77186
G1 X128.737 Y115.726 E10.84774
G1 X128.576 Y115.966 E10.85302
G1 X128.495 Y116.05 E10.85516
G1 X131.104 Y118.659 E10.92265
G1 X130.538 Y118.659 E10.93301
G1 X128.204 Y116.325 E10.99339
G1 X127.986 Y116.487 E10.99836
G1 X127.864 Y116.55 E11.00087
G1 X129.973 Y118.659 E11.05543
G1 X129.407 Y118.659 E11.06578
G1 X127.469 Y116.721 E11.11592
G1 X127.253 Y116.787 E11.12005
G1 X127.003 Y116.821 E11.12467
G1 X128.841 Y118.659 E11.17222
G1 X128.276 Y118.659 E11.18255
G1 X126.437 Y116.82 E11.23013
G1 X126.071 Y116.74 E11.23698
G1 X125.705 Y116.596 E11.24418
G1 X125.558 Y116.507 E11.24732
G1 X127.71 Y118.659 E11.30299
G1 X127.144 Y118.659 E11.31335
G1 F1500 X109.824 Y101.339 E11.76142
G1 F600 X109.259 Y101.339 E11.77176
G1 F1500 X126.579 Y118.659 E12.21983
G1 F600 X126.013 Y118.659 E12.23018
G1 F1500 X108.693 Y101.339 E12.67826
G1 F600 X108.127 Y101.339 E12.68861
G1 F1500 X125.447 Y118.659 E13.13669
G1 F600 X124.882 Y118.659 E13.14702
G1 F1500 X107.562 Y101.339 E13.5951
G1 F600 X106.996 Y101.339 E13.60545
G1 F1500 X124.316 Y118.659 E14.05352
G1 F600 X123.75 Y118.659 E14.06388
G1 F1500 X106.43 Y101.339 E14.51195
G1 F600 X105.865 Y101.339 E14.52229
