;FLAVOR:Marlin
;TIME:3189
;Filament used:0.575411m
;Layer height: 0.1
;MINX:90.009
;MINY:99.982
;MINZ:0.1
;MAXX:130.509
;MAXY:120.226
;MAXZ:8.4
                              
;Creality Print GCode Generated by CXEngine:NO_MAGE_VERSION_GIT_HEAD_BRANCH
;CXEngine Release Time:2022-09-30 09:53:04
;Gcode Generated Time:2023-05-01 22:39:39
;----------Machine Config--------------
;Machine Name:Ender-3 V2
;Machine Height:250
;Machine Width:220
;Machine Depth:220
;Material name:PLA
;Number of Extruders:1
;ExtruderParams[0] Nozzle Diameter1000
;----------Profile Config---------------
;Engine Version:275f99b
;Engine Release Time:2022-09-30 09:42:18
;Layer Height:0.1
;Wall Thickness:0.8
;Top/Bottom Thickness:0.5
;Out Wall Line Width:0.4
;Inner Wall Line Width:0.4
;Inital Layer Height:100
;Wall Line Count:2
;Infill Line Distance:4
;Infill Pattern:grid
;Infill Sparse Density:20
;Infill Wipe Distance:0
;Print Temperature:200
;Bed Temperature:60
;Support Enable:true
;Support Density:0
;Support Angle:60
;Adhesion Type:none
;machine is belt:false
;machine belt offset:10
;machine belt offset Y:0
;Raft Base Line Spacing:1.6
;Wait Heatup Sync:true
;----------Shell Config----------------
;Outer Wall Wipe Distance:200
;Outer Inset First:false
;Infill Before Walls:false
;Infill Overlap:0.16
;Fill Gaps Between Walls:everywhere
;Minimum Infill Area:1
;Top Surface Skin Layer:0
;Top Layers:4
;Z Seam Alignment:sharpest_corner
;Seam Corner Preference:z_seam_corner_inner
;Z Seam X:110
;Z Seam Y:110
;Horizontal Expansion:0
;Top/Bottom Pattern:zigzag
;Ironing Pattern:zigzag
;Vase Model:false
;----------Support Config----------------
;Support Type:everywhere
;Support Pattern:zigzag
;Support Infill Layer Thickness:0.1
;Minimum Support Area:5
;Enable Support Roof:false
;Support Roof Thickness:0.8
;Support Roof Pattern:lines
;Connect Support Lines:0
;Connect Support ZigZags:1
;Minimum Support X/Y Distance:0.2
;Support Line Distance:0
; ---------PrintSpeed & Travel----------
;Enable Print Cool:true
;Avoid Printed Parts Traveling:true
;Enable Retraction:true
;Retraction Distance:8
;Retraction Speed:100
;Retraction Prime Speed:100
;Maximum Retraction Count:100
;Minimum Extrusion Distance Window:1
;Z Hop When Retracted:false
;Z Hop Height:0.2
;Retract Before Outer Wall:true
;Print Speed:50
;Infill Speed:50

;Prime Tower Speed:50
;Travel Speed:120
;Initial Layer Speed:25
;Skirt/Brim Speed:25
;Combing Mode:infill
; --------SpecialModel&Mesh Fixes--------
;Union Overlapping Volum:true
;Remove All Holes:false
;Maximum Travel Resolution:0.6
;Maximum Deviation:0.05
;Maximum Model Angle:0.872665
;IS Mold Print:false
;Make Overhang Printable:false
;Enable Coasting:false
;Coasting Volumes:0.06
;Coasting Speed:0.9
;Raft AirGap:0.25
;Layer0 ZOverLap:0.13
;---------------------End of Head--------------------------
M140 S60
M105
M104 S200
M105
M109 S200
M105
M190 S60
M82 ;absolute extrusion mode
M220 S100 ;Reset Feedrate
M221 S100 ;Reset Flowrate

G28 ;Home

G92 E0 ;Reset Extruder
G1 Z2.0 F3000 ;Move Z Axis up
G1 X10.1 Y20 Z0.28 F5000.0 ;Move to start position
G1 X10.1 Y145.0 Z0.28 F1500.0 E15 ;Draw the first line
G1 X10.4 Y145.0 Z0.28 F5000.0 ;Move to side a little
G1 X10.4 Y20 Z0.28 F1500.0 E30 ;Draw the second line
G92 E0  ;Reset Extruder
G1 E-1.0000 F1800 ;Retract a bit
G1 Z2.0 F3000 ;Move Z Axis up
G1 E0.0000 F1800 

G92 E0
G92 E0
G1 F6000 E-8

;LAYER_COUNT:84

;LAYER:0
M107
G0 F3600 X92.593 Y102.385 Z0.1
;TYPE:SUPPORT
G1 F6000 E0
G1 F1500 X93.959 Y102.385 E0.01999
G1 X95.13 Y102.312 E0.03716
G1 X95.643 Y102.312 E0.04467
G1 X96.2 Y103.079 E0.05854
G1 X95.639 Y103.85 E0.07249
G1 X94.161 Y103.919 E0.09415
G1 X92.593 Y103.919 E0.11709
G1 X92.036 Y103.152 E0.13097
G1 X92.593 Y102.385 E0.14484
;;retract;;
G1 F6000 E-7.85516
G0 F3600 X91.889 Y101.874
G0 X90.969 Y103.152
G0 X90.334 Y105.293
G0 X90.334 Y106.611
G0 X91.459 Y107.452
G1 F6000 E0.14484
G1 F1500 X94.041 Y107.452 E0.18263
G1 X95.304 Y107.564 E0.20118
G1 X95.459 Y107.452 E0.20398
G1 X96.5 Y107.452 E0.21921
G1 X96.5 Y108.452 E0.23385
G1 X91.842 Y108.452 E0.30202
G1 X91.366 Y107.738 E0.31457
G1 X91.459 Y107.452 E0.31898
;;retract;;
G1 F6000 E-7.68102
G0 F3600 X90.539 Y108.066
G0 X90.334 Y109.293
G0 X90.334 Y110.611
G0 X90.892 Y111.121
G0 X91.668 Y111.452
G1 F6000 E0.31898
G1 F1500 X96.079 Y111.452 E0.38353
G1 X96.02 Y111.997 E0.39155
G1 X95.044 Y112.315 E0.40657
G1 X94.293 Y112.251 E0.4176
G1 X94.016 Y112.452 E0.42261
G1 X91.58 Y112.452 E0.45826
G1 X91.383 Y111.996 E0.46553
G1 X91.668 Y111.452 E0.47452
;;retract;;
G1 F6000 E-7.52548
G0 F3600 X90.891 Y111.102
G0 X90.426 Y111.961
G0 X90.334 Y113.293
G0 X90.334 Y114.611
G0 X90.841 Y115.118
G0 X91.961 Y115.115
G0 X91.961 Y115.985
G1 F6000 E0.47452
G1 F1500 X94.075 Y115.985 E0.50546
G1 X95.115 Y116.129 E0.52082
G1 X95.677 Y116.115 E0.52905
G1 X96.232 Y116.879 E0.54287
G1 X95.681 Y117.637 E0.55658
G1 X94.309 Y117.519 E0.57673
G1 X91.961 Y117.519 E0.61109
G1 X91.404 Y116.752 E0.62497
G1 X91.961 Y115.985 E0.63884
;;retract;;
G1 F6000 E-7.36116
G0 F3600 X91.961 Y115.115
G0 X99.647 Y115.213
G0 X100.121 Y115.919
G1 F6000 E0.63884
G1 F1500 X100.694 Y115.452 E0.64966
G1 X101.187 Y115.452 E0.65687
G1 X101.586 Y116.245 E0.66986
G1 X101.589 Y116.7 E0.67652
G1 X101.017 Y117.164 E0.6873
G1 X100.121 Y116.873 E0.70109
G1 X100.121 Y115.919 E0.71505
;;retract;;
G1 F6000 E-7.28495
G0 F3600 X99.276 Y116.472
G0 X99.259 Y117.499
G0 X101.196 Y118.132
G0 X101.688 Y117.702
G0 X102.509 Y117.897
G1 F6000 E0.71505
G1 F1500 X102.983 Y117.552 E0.72363
G1 X104.489 Y117.544 E0.74567
G1 X105.87 Y116.869 E0.76816
G1 X106.951 Y116.428 E0.78525
G1 X108.004 Y116.124 E0.80129
G1 X109.075 Y115.754 E0.81787
G1 X110.151 Y115.087 E0.8364
G1 X110.798 Y115.087 E0.84587
G1 X112.285 Y116.265 E0.87363
G1 X113.304 Y116.76 E0.89021
G1 X114.352 Y117.157 E0.90661
G1 X115.659 Y117.526 E0.92648
G1 X116.395 Y117.543 E0.93726
G1 X116.875 Y117.892 E0.94594
G1 X117.058 Y118.452 E0.95456
G1 X116.875 Y119.012 E0.96319
G1 X116.399 Y119.358 E0.9718
G1 X115.003 Y119.328 E0.99223
G1 X113.882 Y119.028 E1.00921
G1 X112.572 Y118.524 E1.02976
G1 X111.435 Y117.984 E1.04818
G1 X110.448 Y117.379 E1.06512
G1 X109.224 Y118.045 E1.08551
G1 X108.114 Y118.322 E1.10225
G1 X105.845 Y119.085 E1.13729
G1 X104.524 Y119.32 E1.15692
G1 X102.981 Y119.351 E1.17951
G1 X102.509 Y119.007 E1.18805
G1 X102.328 Y118.452 E1.1966
G1 X102.509 Y117.897 E1.20514
;;retract;;
G1 F6000 E-6.79486
G0 F3600 X102.438 Y116.899
G0 X102.622 Y111.691
G0 X101.499 Y112.452
G1 F6000 E1.20514
G1 F1500 X100.139 Y112.452 E1.22504
G1 X100.176 Y111.638 E1.23697
G1 X100.235 Y111.452 E1.23982
G1 X101.803 Y111.452 E1.26277
G1 X101.499 Y112.452 E1.27807
G0 F3600 X100 Y108.452
G1 F1500 X100 Y107.452 E1.2927
G1 X101.602 Y107.452 E1.31614
G1 X102.219 Y107.703 E1.32589
G1 X103.6 Y107.486 E1.34635
G1 X103.6 Y108.452 E1.36049
G1 X100 Y108.452 E1.41317
G0 F3600 X100.258 Y104.415
G1 F1500 X99.913 Y103.663 E1.42528
G1 X99.906 Y103.226 E1.43168
G1 X100.463 Y102.742 E1.44248
G1 X100.914 Y102.742 E1.44908
G1 X101.489 Y103.534 E1.4634
G1 X101.207 Y104.161 E1.47346
G1 X100.258 Y104.415 E1.48784
;;retract;;
G1 F6000 E-6.51216
G0 F3600 X101.853 Y104.801
G0 X107.358 Y111.11
G0 X107.703 Y107.452
G1 F6000 E1.48784
G1 F1500 X112.3 Y107.452 E1.55511
G1 X112.3 Y108.452 E1.56975
G1 X107.7 Y108.452 E1.63706
G1 X107.703 Y107.452 E1.6517
;;retract;;
G1 F6000 E-6.3483
G0 F3600 X107.703 Y111.122
G0 X108.778 Y111.994
G1 F6000 E1.6517
G1 F1500 X110.6 Y111.985 E1.67836
G1 X111.222 Y111.923 E1.68751
G1 X111.807 Y112.728 E1.70207
G1 X111.628 Y113.648 E1.71579
G1 X111.035 Y114.463 E1.73054
G1 X110.135 Y114.17 E1.74439
G1 X109.932 Y113.518 E1.75438
G1 X108.777 Y113.527 E1.77129
G1 X108.22 Y112.761 E1.78515
G1 X108.778 Y111.994 E1.79903
;;retract;;
G1 F6000 E-6.20097
G0 F3600 X108.773 Y111.124
G0 X111.622 Y111.117
G0 X112.642 Y111.11
G0 X116.285 Y111.108
G0 X116.4 Y108.452
G1 F6000 E1.79903
G1 F1500 X116.4 Y107.47 E1.8134
G1 X117.568 Y107.572 E1.83056
G1 X118.806 Y108.003 E1.84974
G1 X119.16 Y107.452 E1.85933
G1 X120 Y107.452 E1.87162
G1 X120 Y108.452 E1.88625
G1 X116.4 Y108.452 E1.93894
G0 F3600 X117.851 Y111.459
G1 F1500 X119.617 Y111.455 E1.96478
G1 X119.532 Y112.021 E1.97316
G1 X119.031 Y112.434 E1.98266
G1 X118.42 Y112.285 E1.99186
G1 X117.851 Y111.459 E2.00654
;;retract;;
G1 F6000 E-5.99346
G0 F3600 X117.014 Y111.64
G0 X119.955 Y115.1
G0 X118.775 Y115.5
G1 F6000 E2.00654
G1 F1500 X119.197 Y115.5 E2.01272
G1 X119.754 Y116.267 E2.02659
G1 X119.222 Y116.999 E2.03983
G1 X118.382 Y116.725 E2.05276
G1 X118.492 Y115.909 E2.06481
G1 X118.775 Y115.5 E2.07209
;;retract;;
G1 F6000 E-5.92791
G0 F3600 X119.955 Y115.1
G0 X123.099 Y116.3
G0 X123.969 Y116.3
G1 F6000 E2.07209
G1 F1500 X124.929 Y115.988 E2.08686
G1 X125.915 Y116.077 E2.10135
G1 X127.404 Y115.991 E2.12318
G1 X127.957 Y116.752 E2.13695
G1 X127.4 Y117.519 E2.15082
G1 X124.937 Y117.519 E2.18686
G1 X123.969 Y117.204 E2.20176
G1 X123.969 Y116.3 E2.21499
;;retract;;
G1 F6000 E-5.78501
G0 F3600 X123.7 Y115.473
G0 X123.623 Y112.809
G0 X124.521 Y112.452
G1 F6000 E2.21499
G1 F1500 X123.656 Y111.751 E2.23128
G1 X123.568 Y111.452 E2.23585
G1 X128.186 Y111.452 E2.30343
G1 X128.472 Y111.66 E2.3086
G1 X128.495 Y112.452 E2.3202
G1 X124.521 Y112.452 E2.37836
G0 F3600 X123.5 Y108.452
G1 F1500 X123.5 Y107.462 E2.39284
G1 X124.124 Y107.491 E2.40199
G1 X124.294 Y108.015 E2.41005
G1 X125.578 Y107.542 E2.43007
G1 X126.778 Y107.452 E2.44768
G1 X128.358 Y107.452 E2.47081
G1 X128.647 Y107.662 E2.47603
G1 X128.67 Y108.452 E2.4876
G1 X123.5 Y108.452 E2.56326
;;retract;;
G1 F6000 E-5.43674
G0 F3600 X123.5 Y104.782
G0 X124.801 Y104.742
G0 X125.079 Y103.919
G1 F6000 E2.56326
G1 F1500 X123.943 Y103.533 E2.58082
G1 X123.943 Y102.627 E2.59408
G1 X124.906 Y102.314 E2.6089
G1 X126.356 Y102.385 E2.63014
G1 X127.595 Y102.385 E2.64827
G1 X128.152 Y103.152 E2.66215
G1 X127.595 Y103.919 E2.67602
G1 X125.079 Y103.919 E2.71284
;;retract;;
G1 F6000 E-5.28716
G0 F3600 X124.801 Y104.742
G0 X128.036 Y104.784
G0 X129.219 Y103.152
G0 X128.036 Y101.52
G0 X124.79 Y101.438
G0 X123.406 Y101.893
G0 X120.825 Y102.934
G0 X120.194 Y103.531
G1 F6000 E2.71284
G1 F1500 X119.717 Y104.429 E2.72772
G1 X119.034 Y104.307 E2.73787
G1 X118.464 Y103.523 E2.75206
G1 X119.021 Y102.756 E2.76593
G1 X119.462 Y102.756 E2.77238
G1 X120.194 Y103.531 E2.78798
;;retract;;
G1 F6000 E-5.21202
G0 F3600 X120.825 Y102.934
G0 X119.833 Y101.89
G0 X113.141 Y102.015
G0 X112.472 Y102.689
G0 X111.769 Y103.201
G1 F6000 E2.78798
G1 F1500 X111.215 Y103.964 E2.80178
G1 X110.075 Y103.919 E2.81848
G1 X108.788 Y103.919 E2.83731
G1 X108.231 Y103.152 E2.85119
G1 X108.788 Y102.385 E2.86506
G1 X109.916 Y102.385 E2.88157
G1 X111.209 Y102.431 E2.9005
G1 X111.769 Y103.201 E2.91443
;;retract;;
G1 F6000 E-5.08557
;MESH:
G0 F3600 X112.473 Y103.712
G0 X111.874 Y104.525
G0 X110.046 Y104.788
G0 X108.347 Y104.784
G0 X107.905 Y104.176
G0 X101.842 Y104.794
G0 X103.1 Y105.852
;TYPE:WALL-INNER
G1 F6000 E2.91443
G1 F1500 X103.1 Y104.552 E2.93821
G1 X105.2 Y104.552 E2.97663
G1 X105.2 Y103.281 E2.99988
G1 X105.901 Y103.28 E3.0127
G1 X106.1 Y103.28 E3.01634
G1 X106.1 Y103.479 E3.0187
G1 X106.1 Y112.152 E3.17736
G1 X104.883 Y112.152 E3.19962
G1 X104.882 Y112.152 E3.19964
G1 X104.47 Y112.152 E3.20717
G1 X104.727 Y111.829 E3.21132
G1 X104.818 Y111.714 E3.21401
G1 X105.015 Y111.323 E3.22202
G1 X105.145 Y110.905 E3.23002
G1 X105.282 Y109.863 E3.24925
G1 X105.284 Y109.852 E3.24945
G1 X105.2 Y109.852 E3.25029
G1 X105.2 Y105.852 E3.32346
G1 X103.1 Y105.852 E3.36187
;;retract;;
G1 F6000 E-4.63813
G0 F3600 X101.842 Y104.794
G0 X98.4 Y103.282
G0 X98.4 Y104.552
G1 F6000 E3.36187
G1 F1500 X98.4 Y115.352 E3.55944
G1 X98.1 Y115.352 E3.56493
G1 X98.1 Y104.552 E3.71347
G1 X98.4 Y104.552 E3.71896
;;retract;;
G1 F6000 E-4.28104
G0 F3600 X98.8 Y106.252
;TYPE:WALL-OUTER
G1 F6000 E3.71896
G1 F748 X98.8 Y109.652 E3.78116
G1 X104.8 Y109.652 E3.89091
G1 X104.8 Y106.252 E3.95311
G1 X98.8 Y106.252 E4.06287
G0 F3600 X98.8 Y106.452
G0 X98.36 Y106.452
;;retract;;
G1 F6000 E-3.93713
G0 F3600 X96.842 Y104.794
G0 X103.257 Y111.507
G0 X103.9 Y112.603
;TYPE:WALL-INNER
G1 F6000 E4.06287
G1 F600 X103.9 Y112.916 E4.06859
G1 X103.9 Y112.917 E4.06861
G1 X103.9 Y115.352 E4.11316
G1 X103.1 Y115.352 E4.12779
G1 X103.1 Y112.902 E4.17261
G1 X103.48 Y112.801 E4.1798
G1 X103.616 Y112.736 E4.18256
G1 X103.9 Y112.603 E4.18588
;;retract;;
G1 F6000 E-3.81412
G0 F3600 X104.828 Y110.252
;TYPE:WALL-OUTER
G1 F6000 E4.18588
G1 F711.8 X104.601 Y110.252 E4.19003
G1 X104.6 Y110.252 E4.19005
G1 X98.8 Y110.252 E4.29615
G1 X98.8 Y113.652 E4.35834
G1 X102.7 Y113.652 E4.42969
G1 X102.7 Y112.539 E4.45005
G1 X102.983 Y112.519 E4.45524
G1 X103.344 Y112.423 E4.46207
G1 X103.68 Y112.269 E4.46883
G1 X103.988 Y112.06 E4.47564
G1 X104.256 Y111.803 E4.48243
G1 X104.476 Y111.504 E4.48922
G1 X104.643 Y111.173 E4.49601
G1 X104.753 Y110.819 E4.50279
G1 X104.799 Y110.478 E4.50908
G1 X104.828 Y110.252 E4.51168
G0 F3600 X104.628 Y110.252
;;retract;;
G1 F6000 E-3.48832
G0 F3600 X103.721 Y111.099
G0 X110.987 Y104.848
G0 X111.643 Y104.846
G0 X112.658 Y103.412
G0 X113.9 Y103.281
;TYPE:WALL-INNER
G1 F6000 E4.51168
G1 F1500 X114.601 Y103.28 E4.52451
G1 X114.8 Y103.28 E4.52815
G1 X114.8 Y103.479 E4.5305
G1 X114.8 Y104.552 E4.55013
G1 X116.9 Y104.552 E4.58855
G1 X116.9 Y105.852 E4.61233
G1 X114.8 Y105.852 E4.65074
G1 X114.8 Y109.864 E4.72414
G1 X114.715 Y109.864 E4.72569
G1 X114.716 Y109.875
G1 X114.86 Y110.931 E4.74519
G1 X114.996 Y111.351 E4.75326
G1 X115.198 Y111.739 E4.76126
G1 X115.27 Y111.829 E4.76337
G1 X115.528 Y112.152 E4.77093
G1 X115.115 Y112.152 E4.77509
G1 X115.114 Y112.152 E4.77511
G1 X113.9 Y112.152 E4.79731
G1 X113.9 Y103.281 E4.95959
;;retract;;
G1 F6000 E-3.04041
G0 F3600 X112.658 Y103.412
G0 X111.935 Y104.438
G0 X110.738 Y104.814
G0 X107.358 Y104.794
G0 X106.5 Y106.252
;TYPE:WALL-OUTER
G1 F6000 E4.95959
G1 F1500 X106.5 Y109.652 E5.02179
G1 X113.5 Y109.652 E5.14984
G1 X113.5 Y106.252 E5.21204
G1 X106.5 Y106.252 E5.34009
G0 F3600 X106.5 Y106.452
G0 X106.06 Y106.452
;;retract;;
G1 F6000 E-2.65991
G0 F3600 X107.358 Y104.794
G0 X116.571 Y111.39
G0 X116.1 Y112.602
;TYPE:WALL-INNER
G1 F6000 E5.34009
G1 F600 X116.383 Y112.734 E5.3458
G1 X116.548 Y112.811 E5.34913
G1 X116.9 Y112.9 E5.35577
G1 X116.9 Y115.352 E5.40063
G1 X116.1 Y115.352 E5.41526
G1 X116.1 Y112.915 E5.45984
G1 X116.1 Y112.914 E5.45986
G1 X116.1 Y112.602 E5.46316
;;retract;;
G1 F6000 E-2.53684
G0 F3600 X116.759 Y111.515
G0 X121.6 Y103.282
G0 X121.6 Y104.552
G1 F6000 E5.46316
G1 F1500 X121.9 Y104.552 E5.46865
G1 X121.9 Y115.352 E5.66621
G1 X121.6 Y115.352 E5.6717
G1 X121.6 Y104.552 E5.82025
;;retract;;
G1 F6000 E-2.17975
G0 F3600 X121.6 Y103.282
G0 X116.285 Y111.108
G0 X115.173 Y110.263
;TYPE:WALL-OUTER
G1 F6000 E5.82025
G1 F711.4 X115.203 Y110.489 E5.82442
G1 X115.252 Y110.842 E5.83094
G1 X115.366 Y111.196 E5.83774
G1 X115.537 Y111.525 E5.84452
G1 X115.761 Y111.822 E5.85133
G1 X116.03 Y112.075 E5.85808
G1 X116.34 Y112.281 E5.86489
G1 X116.679 Y112.432 E5.87168
G1 X117.041 Y112.523 E5.87851
G1 X117.3 Y112.54 E5.88326
G1 X117.3 Y113.652 E5.9036
G1 X121.2 Y113.652 E5.97494
G1 X121.2 Y110.452 E6.03348
G1 X121.2 Y110.252 E6.03714
G1 X121 Y110.252 E6.03951
G1 X115.401 Y110.263 E6.14193
G1 X115.4 Y110.263 E6.14195
G1 X115.173 Y110.263 E6.14454
G0 F3600 X115.199 Y110.462
G0 X114.764 Y110.52
;;retract;;
G1 F6000 E-1.85546
G0 F3600 X115.2 Y106.252
G1 F6000 E6.14454
G1 F748 X115.2 Y109.652 E6.20673
G1 X121.2 Y109.652 E6.31649
G1 X121.2 Y106.252 E6.37869
G1 X115.2 Y106.252 E6.48845
G0 F3600 X115.2 Y106.452
G0 X114.76 Y106.452
;;retract;;
G1 F6000 E-1.51155
G0 F3600 X115.2 Y104.152
G1 F6000 E6.48845
G1 F1500 X117.3 Y104.152 E6.52686
G1 X117.3 Y105.652 E6.5543
G1 X121.2 Y105.652 E6.62565
G1 X121.2 Y104.152 E6.65309
G1 X122.3 Y104.152 E6.67321
G1 X122.3 Y105.652 E6.70065
G1 X128.8 Y105.652 E6.81955
G1 X128.8 Y106.252 E6.83053
G1 X122.3 Y106.252 E6.94943
G1 X122.3 Y109.652 E7.01163
G1 X128.8 Y109.652 E7.13054
G1 X128.8 Y110.252 E7.14151
G1 X122.3 Y110.252 E7.26042
G1 X122.3 Y113.652 E7.32261
G1 X128.8 Y113.652 E7.44152
G1 X128.8 Y114.252 E7.45249
G1 X122.3 Y114.252 E7.5714
