;FLAVOR:Marlin
;TIME:5656
;Filament used:2.25519m
;Layer height: 0.1
;MINX:88.514
;MINY:88.356
;MINZ:0.1
;MAXX:131.47
;MAXY:131.046
;MAXZ:15.2
                               
;Creality Print GCode Generated by CXEngine:NO_MAGE_VERSION_GIT_HEAD_BRANCH
;CXEngine Release Time:2022-09-30 09:53:04
;Gcode Generated Time:2023-05-01 12:21:31
;----------Machine Config--------------
;Machine Name:Ender-3 V2
;Machine Height:250
;Machine Width:220
;Machine Depth:220
;Material name:PLA
;Number of Extruders:1
;ExtruderParams[0] Nozzle Diameter1000
;----------Profile Config---------------
;Engine Version:275f99b
;Engine Release Time:2022-09-30 09:42:18
;Layer Height:0.1
;Wall Thickness:0.8
;Top/Bottom Thickness:0.5
;Out Wall Line Width:0.4
;Inner Wall Line Width:0.4
;Inital Layer Height:100
;Wall Line Count:2
;Infill Line Distance:4
;Infill Pattern:grid
;Infill Sparse Density:20
;Infill Wipe Distance:0
;Print Temperature:200
;Bed Temperature:60
;Support Enable:true
;Support Density:0
;Support Angle:60
;Adhesion Type:none
;machine is belt:false
;machine belt offset:10
;machine belt offset Y:0
;Raft Base Line Spacing:1.6
;Wait Heatup Sync:true
;----------Shell Config----------------
;Outer Wall Wipe Distance:200
;Outer Inset First:false
;Infill Before Walls:false
;Infill Overlap:0.16
;Fill Gaps Between Walls:everywhere
;Minimum Infill Area:1
;Top Surface Skin Layer:0
;Top Layers:4
;Z Seam Alignment:sharpest_corner
;Seam Corner Preference:z_seam_corner_inner
;Z Seam X:110
;Z Seam Y:110
;Horizontal Expansion:0
;Top/Bottom Pattern:zigzag
;Ironing Pattern:zigzag
;Vase Model:false
;----------Support Config----------------
;Support Type:everywhere
;Support Pattern:zigzag
;Support Infill Layer Thickness:0.1
;Minimum Support Area:5
;Enable Support Roof:false
;Support Roof Thickness:0.8
;Support Roof Pattern:lines
;Connect Support Lines:0
;Connect Support ZigZags:1
;Minimum Support X/Y Distance:0.2
;Support Line Distance:0
; ---------PrintSpeed & Travel----------
;Enable Print Cool:true
;Avoid Printed Parts Traveling:true
;Enable Retraction:true
;Retraction Distance:8
;Retraction Speed:100
;Retraction Prime Speed:100
;Maximum Retraction Count:100
;Minimum Extrusion Distance Window:1
;Z Hop When Retracted:false
;Z Hop Height:0.2
;Retract Before Outer Wall:true
;Print Speed:50
;Infill Speed:50

;Prime Tower Speed:50
;Travel Speed:120
;Initial Layer Speed:25
;Skirt/Brim Speed:25
;Combing Mode:infill
; --------SpecialModel&Mesh Fixes--------
;Union Overlapping Volum:true
;Remove All Holes:false
;Maximum Travel Resolution:0.6
;Maximum Deviation:0.05
;Maximum Model Angle:0.872665
;IS Mold Print:false
;Make Overhang Printable:false
;Enable Coasting:false
;Coasting Volumes:0.06
;Coasting Speed:0.9
;Raft AirGap:0.25
;Layer0 ZOverLap:0.13
;---------------------End of Head--------------------------
M140 S60
M105
M104 S200
M105
M109 S200
M105
M190 S60
M82 ;absolute extrusion mode
M220 S100 ;Reset Feedrate
M221 S100 ;Reset Flowrate

G28 ;Home

G92 E0 ;Reset Extruder
G1 Z2.0 F3000 ;Move Z Axis up
G1 X10.1 Y20 Z0.28 F5000.0 ;Move to start position
G1 X10.1 Y145.0 Z0.28 F1500.0 E15 ;Draw the first line
G1 X10.4 Y145.0 Z0.28 F5000.0 ;Move to side a little
G1 X10.4 Y20 Z0.28 F1500.0 E30 ;Draw the second line
G92 E0  ;Reset Extruder
G1 E-1.0000 F1800 ;Retract a bit
G1 Z2.0 F3000 ;Move Z Axis up
G1 E0.0000 F1800 

G92 E0
G92 E0
G1 F6000 E-8

;LAYER_COUNT:152

;LAYER:0
M107
G0 F3600 X95.679 Y96.705 Z0.1
;TYPE:SUPPORT
G1 F6000 E0
G1 F1500 X97.032 Y95.463 E0.02688
G1 X98.38 Y94.761 E0.04912
G1 X99.961 Y93.887 E0.07556
G1 X101.053 Y93.002 E0.09613
G1 X102.63 Y91.614 E0.12687
G1 X103.265 Y91.242 E0.13764
G1 X104.073 Y91.277 E0.14948
G1 X105.154 Y91.639 E0.16616
G1 X106.678 Y91.241 E0.18921
G1 X109.676 Y91.044 E0.23318
G1 X111.273 Y91.018 E0.25655
G1 X113.475 Y91.038 E0.28878
G1 X114.856 Y91.415 E0.30973
G1 X117.651 Y92.556 E0.35391
G1 X119.058 Y93.368 E0.37768
G1 X120.686 Y94.391 E0.40582
G1 X122.68 Y95.852 E0.442
G1 X123.908 Y96.602 E0.46306
G1 X125.092 Y97.442 E0.4843
G1 X125.971 Y98.574 E0.50528
G1 X126.678 Y100.225 E0.53156
G1 X127.13 Y101.959 E0.55778
G1 X127.658 Y103.248 E0.57817
G1 X128.197 Y104.692 E0.60072
G1 X128.833 Y106.261 E0.6255
G1 X129.265 Y109.128 E0.66793
G1 X129.246 Y110.679 E0.69063
G1 X129.337 Y112.274 E0.71401
G1 X129.067 Y113.953 E0.7389
G1 X127.798 Y116.652 E0.78254
G1 X127.522 Y118.019 E0.80295
G1 X127.006 Y119.278 E0.82287
G1 X126.135 Y120.417 E0.84385
G1 X125.217 Y121.833 E0.86855
G1 X124.385 Y123.037 E0.88996
G1 X122.015 Y124.781 E0.93303
G1 X120.584 Y125.728 E0.95814
G1 X119.237 Y126.713 E0.98256
G1 X118.018 Y127.672 E1.00526
G1 X116.744 Y128.104 E1.02494
G1 X115.145 Y128.366 E1.04866
G1 X113.562 Y128.687 E1.07229
G1 X111.965 Y128.817 E1.09574
G1 X108.791 Y128.986 E1.14226
G1 X106.876 Y128.908 E1.17031
G1 X105.386 Y128.792 E1.19218
G1 X104.031 Y128.372 E1.21294
G1 X102.686 Y127.691 E1.235
G1 X102.376 Y126.935 E1.24696
G1 X102.588 Y126.286 E1.25695
G1 X103.139 Y125.885 E1.26692
G1 X104.183 Y125.998 E1.28229
G1 X105.463 Y126.588 E1.30292
G1 X109.269 Y126.745 E1.35866
G1 X111.078 Y126.748 E1.38514
G1 X112.704 Y126.621 E1.40901
G1 X114.213 Y126.366 E1.4314
G1 X115.75 Y125.963 E1.45466
G1 X117.004 Y125.701 E1.4734
G1 X119.521 Y123.781 E1.51973
G1 X120.99 Y122.825 E1.54538
G1 X122.551 Y121.706 E1.57349
G1 X124.227 Y119.348 E1.61583
G1 X124.979 Y118.109 E1.63704
G1 X125.595 Y116.548 E1.66159
G1 X126.024 Y114.909 E1.68639
G1 X126.756 Y113.528 E1.70926
G1 X127.163 Y112.555 E1.7247
G1 X126.921 Y110.969 E1.74818
G1 X127.07 Y109.304 E1.77264
G1 X126.803 Y107.777 E1.79533
G1 X126.327 Y105.828 E1.82469
G1 X125.089 Y102.687 E1.8741
G1 X124.553 Y101.254 E1.89649
G1 X124.168 Y99.758 E1.91909
G1 X122.885 Y98.514 E1.94524
G1 X121.095 Y97.343 E1.97655
G1 X119.129 Y95.915 E2.01211
G1 X117.895 Y95.158 E2.03329
G1 X116.327 Y94.259 E2.05974
G1 X114.809 Y93.832 E2.08282
G1 X113.404 Y93.243 E2.10512
G1 X111.93 Y93.164 E2.12672
G1 X110.031 Y93.161 E2.15451
G1 X108.078 Y93.275 E2.18314
G1 X106.519 Y93.519 E2.20623
G1 X104.964 Y93.949 E2.22984
G1 X102.935 Y94.264 E2.25989
G1 X101.671 Y95.347 E2.28425
G1 X100.265 Y96.316 E2.30924
G1 X99.006 Y96.942 E2.32982
G1 X97.718 Y97.822 E2.35265
G1 X96.982 Y99.024 E2.37327
G1 X95.821 Y100.315 E2.39868
G1 X94.997 Y101.695 E2.4222
G1 X94.662 Y103.208 E2.44488
G1 X93.539 Y106.09 E2.49015
G1 X92.928 Y107.414 E2.51149
G1 X92.51 Y108.87 E2.53366
G1 X92.787 Y110.492 E2.55774
G1 X93.372 Y112.436 E2.58745
G1 X93.732 Y114.114 E2.61256
G1 X94.3 Y116.034 E2.64186
G1 X95.036 Y118.124 E2.67429
G1 X95.799 Y119.466 E2.69688
G1 X96.767 Y120.684 E2.71965
G1 X97.705 Y121.689 E2.73977
G1 X98.616 Y123.216 E2.76579
G1 X98.41 Y123.846 E2.77549
G1 X97.77 Y124.274 E2.78676
G1 X97.096 Y124.274 E2.79662
G1 X94.976 Y122.026 E2.84184
G1 X93.283 Y119.537 E2.88589
G1 X92.601 Y117.723 E2.91426
G1 X91.493 Y114.514 E2.96394
G1 X91.115 Y112.763 E2.99015
G1 X90.703 Y111.363 E3.01151
G1 X90.378 Y110.041 E3.03143
G1 X90.336 Y108.651 E3.05178
G1 X90.768 Y106.95 E3.07747
G1 X92.055 Y103.963 E3.12507
G1 X92.648 Y102.26 E3.15146
G1 X93.027 Y100.704 E3.17489
G1 X93.727 Y99.471 E3.19564
G1 X94.789 Y98.295 E3.21883
G1 X95.679 Y96.705 E3.2455
;;retract;;
G1 F6000 E-4.7545
G0 F3600 X94.921 Y96.281
G0 X93.016 Y98.961
G0 X92.212 Y100.38
G0 X89.942 Y106.672
G0 X89.464 Y108.556
G0 X89.512 Y110.158
G0 X90.654 Y114.749
G0 X92.507 Y119.941
G0 X94.297 Y122.575
G0 X96.721 Y125.14
G0 X98.032 Y125.142
G0 X99.141 Y124.4
G0 X99.561 Y123.111
G0 X95.129 Y115.771
G0 X93.747 Y107.714
G0 X94.337 Y106.436
G0 X97.681 Y99.546
G0 X98.016 Y98.997
G0 X109.093 Y108.716
G0 X109.568 Y109.445
G1 F6000 E3.2455
G1 F1500 X110.285 Y108.978 E3.25802
G1 X110.851 Y108.978 E3.2663
G1 X111.308 Y109.311 E3.27458
G1 X111.483 Y109.845 E3.2828
G1 X111.31 Y110.373 E3.29093
G1 X110.593 Y110.84 E3.30346
G1 X110.027 Y110.84 E3.31174
G1 X109.57 Y110.507 E3.32001
G1 X109.395 Y109.973 E3.32824
G1 X109.568 Y109.445 E3.33637
;;retract;;
G1 F6000 E-4.66363
;MESH:
G0 F3600 X108.74 Y109.176
G0 X107.831 Y108.91
G0 X106.689 Y108.343
;TYPE:WALL-INNER
G1 F6000 E3.33637
G1 F1500 X106.458 Y108.928 E3.34787
G1 X106.328 Y109.541 E3.35934
G1 X106.302 Y110.169 E3.37084
G1 X106.385 Y110.791 E3.38231
G1 X106.57 Y111.39 E3.39378
G1 X106.854 Y111.951 E3.40528
G1 X107.23 Y112.454 E3.41677
G1 X107.684 Y112.887 E3.42825
G1 X108.206 Y113.236 E3.43974
G1 X108.777 Y113.493 E3.45119
G1 X109.384 Y113.65 E3.46266
G1 X110 Y113.703 E3.47397
G1 X110.636 Y113.646 E3.48565
G1 X111.244 Y113.486 E3.49715
G1 X111.816 Y113.226 E3.50865
G1 X112.334 Y112.872 E3.52012
G1 X112.786 Y112.436 E3.53161
G1 X113.157 Y111.931 E3.54307
G1 X113.439 Y111.369 E3.55458
G1 X113.62 Y110.768 E3.56606
G1 X113.699 Y110.146 E3.57753
G1 X113.67 Y109.517 E3.58905
G1 X113.535 Y108.905 E3.60051
G1 X113.3 Y108.323 E3.61199
G1 X112.969 Y107.79 E3.62347
G1 X112.552 Y107.32 E3.63496
G1 X112.063 Y106.927 E3.64644
G1 X111.514 Y106.623 E3.65792
G1 X110.921 Y106.415 E3.66942
G1 X110.302 Y106.311 E3.6809
G1 X109.674 Y106.313 E3.69239
G1 X109.057 Y106.421 E3.70385
G1 X108.465 Y106.632 E3.71534
G1 X107.917 Y106.94 E3.72684
G1 X107.431 Y107.336 E3.73831
G1 X107.018 Y107.808 E3.74978
G1 X106.689 Y108.343 E3.76127
G0 F3600 X107.048 Y108.523
;TYPE:WALL-OUTER
G1 F1500 X106.842 Y109.044 E3.77152
G1 X106.726 Y109.591 E3.78175
G1 X106.703 Y110.151 E3.792
G1 X106.777 Y110.705 E3.80223
G1 X106.942 Y111.24 E3.81247
G1 X107.195 Y111.739 E3.8227
G1 X107.53 Y112.188 E3.83295
G1 X107.935 Y112.574 E3.84318
G1 X108.4 Y112.885 E3.85342
G1 X108.91 Y113.114 E3.86365
G1 X109.452 Y113.254 E3.87389
G1 X110 Y113.301 E3.88395
G1 X110.567 Y113.251 E3.89436
G1 X111.109 Y113.108 E3.90461
G1 X111.619 Y112.876 E3.91486
G1 X112.081 Y112.561 E3.92509
G1 X112.484 Y112.172 E3.93534
G1 X112.815 Y111.721 E3.94557
G1 X113.066 Y111.221 E3.95581
G1 X113.227 Y110.685 E3.96604
G1 X113.298 Y110.13 E3.97628
G1 X113.272 Y109.57 E3.98653
G1 X113.152 Y109.024 E3.99676
G1 X112.942 Y108.505 E4.007
G1 X112.647 Y108.03 E4.01723
G1 X112.275 Y107.611 E4.02748
G1 X111.839 Y107.26 E4.03772
G1 X111.35 Y106.989 E4.04795
G1 X110.821 Y106.804 E4.0582
G1 X110.269 Y106.711 E4.06844
G1 X109.709 Y106.713 E4.07868
G1 X109.159 Y106.809 E4.0889
G1 X108.631 Y106.997 E4.09915
G1 X108.143 Y107.272 E4.1094
G1 X107.71 Y107.625 E4.11962
G1 X107.341 Y108.046 E4.12986
G1 X107.048 Y108.523 E4.1401
G0 F3600 X106.975 Y108.709
G0 X106.566 Y108.547
;;retract;;
G1 F6000 E-3.8599
G0 F3600 X107.831 Y108.91
G0 X111.506 Y94.397
G0 X111.433 Y95.664
;TYPE:WALL-INNER
G1 F6000 E4.1401
G1 F1500 X112.658 Y95.84 E4.16274
G1 X113.881 Y96.125 E4.18571
G1 X115.049 Y96.505 E4.20818
G1 X116.186 Y96.987 E4.23077
G1 X117.281 Y97.568 E4.25344
G1 X118.335 Y98.249 E4.2764
G1 X119.3 Y98.997 E4.29873
G1 X120.21 Y99.837 E4.32139
G1 X121.055 Y100.763 E4.34432
G1 X121.808 Y101.747 E4.36699
G1 X122.474 Y102.792 E4.38966
G1 X123.045 Y103.885 E4.41221
G1 X123.521 Y105.029 E4.43488
G1 X123.903 Y106.224 E4.45783
G1 X124.174 Y107.423 E4.48032
G1 X124.343 Y108.645 E4.50288
G1 X124.409 Y109.884 E4.52558
G1 X124.364 Y111.123 E4.54826
G1 X124.214 Y112.361 E4.57107
G1 X123.958 Y113.573 E4.59373
G1 X123.603 Y114.747 E4.61617
G1 X123.139 Y115.912 E4.63911
G1 X122.584 Y117.015 E4.6617
G1 X121.933 Y118.073 E4.68442
G1 X121.197 Y119.065 E4.70702
G1 X120.397 Y119.977 E4.72921
G1 X119.513 Y120.825 E4.75162
G1 X118.533 Y121.613 E4.77462
G1 X117.511 Y122.299 E4.79714
G1 X116.425 Y122.898 E4.81983
G1 X115.289 Y123.405 E4.84258
G1 X114.127 Y123.806 E4.86507
G1 X112.911 Y124.112 E4.88801
G1 X111.692 Y124.31 E4.9106
G1 X110.46 Y124.404 E4.9332
G1 X109.215 Y124.39 E4.95598
G1 X107.985 Y124.269 E4.97859
G1 X106.766 Y124.043 E5.00127
G1 X105.562 Y123.711 E5.02411
G1 X104.41 Y123.282 E5.0466
G1 X103.292 Y122.754 E5.06922
G1 X102.199 Y122.117 E5.09236
G1 X101.21 Y121.419 E5.11451
G1 X100.252 Y120.613 E5.13741
G1 X99.374 Y119.733 E5.16015
G1 X98.563 Y118.761 E5.1833
G1 X97.842 Y117.729 E5.20633
G1 X97.231 Y116.673 E5.22865
G1 X96.703 Y115.544 E5.25145
G1 X96.277 Y114.385 E5.27404
G1 X95.952 Y113.193 E5.29664
G1 X95.726 Y111.949 E5.31977
G1 X95.61 Y110.735 E5.34208
G1 X95.6 Y109.486 E5.36493
G1 X95.698 Y108.257 E5.38748
G1 X95.899 Y107.043 E5.40999
G1 X96.209 Y105.829 E5.43291
G1 X96.621 Y104.652 E5.45572
G1 X97.124 Y103.535 E5.47813
G1 X97.729 Y102.45 E5.50086
G1 X98.425 Y101.421 E5.52358
G1 X99.199 Y100.465 E5.54609
G1 X100.064 Y99.568 E5.56888
G1 X101.002 Y98.748 E5.59167
G1 X101.99 Y98.025 E5.61407
G1 X103.067 Y97.371 E5.63712
G1 X104.173 Y96.823 E5.6597
G1 X105.312 Y96.377 E5.68207
G1 X106.518 Y96.021 E5.70508
G1 X107.729 Y95.773 E5.72769
G1 X108.955 Y95.631 E5.75027
G1 X110.202 Y95.593 E5.77309
G1 X111.433 Y95.664 E5.79564
G0 F3600 X111.478 Y95.266
;TYPE:WALL-OUTER
G1 F1500 X112.737 Y95.447 E5.81891
G1 X113.98 Y95.737 E5.84226
G1 X115.189 Y96.13 E5.86552
G1 X116.356 Y96.625 E5.88871
G1 X117.489 Y97.226 E5.91217
G1 X118.565 Y97.921 E5.9356
G1 X119.559 Y98.691 E5.9586
G1 X120.501 Y99.561 E5.98206
G1 X121.359 Y100.502 E6.00535
G1 X122.133 Y101.513 E6.02864
G1 X122.824 Y102.597 E6.05216
G1 X123.405 Y103.71 E6.07513
G1 X123.898 Y104.893 E6.09857
G1 X124.288 Y106.116 E6.12205
G1 X124.568 Y107.351 E6.14522
G1 X124.741 Y108.604 E6.16836
G1 X124.809 Y109.888 E6.19188
G1 X124.764 Y111.15 E6.21498
G1 X124.609 Y112.425 E6.23848
G1 X124.344 Y113.678 E6.2619
G1 X123.981 Y114.881 E6.28489
G1 X123.507 Y116.071 E6.30832
G1 X122.93 Y117.217 E6.33179
G1 X122.27 Y118.289 E6.35482
G1 X121.503 Y119.324 E6.37839
G1 X120.687 Y120.254 E6.40102
G1 X119.776 Y121.127 E6.4241
G1 X118.775 Y121.932 E6.4476
G1 X117.722 Y122.639 E6.4708
G1 X116.603 Y123.256 E6.49418
G1 X115.436 Y123.777 E6.51756
G1 X114.236 Y124.191 E6.54078
G1 X112.993 Y124.504 E6.56423
G1 X111.74 Y124.708 E6.58745
G1 X110.474 Y124.804 E6.61067
G1 X109.195 Y124.79 E6.63407
G1 X107.931 Y124.666 E6.65731
G1 X106.67 Y124.432 E6.68077
G1 X105.439 Y124.092 E6.70413
G1 X104.254 Y123.651 E6.72726
G1 X103.102 Y123.107 E6.75056
G1 X101.991 Y122.459 E6.77409
G1 X100.961 Y121.733 E6.79714
G1 X99.981 Y120.908 E6.82058
G1 X99.082 Y120.007 E6.84386
G1 X98.243 Y119.001 E6.86782
G1 X97.507 Y117.948 E6.89133
G1 X96.875 Y116.855 E6.91442
G1 X96.335 Y115.702 E6.93771
G1 X95.894 Y114.502 E6.9611
G1 X95.56 Y113.276 E6.98434
G1 X95.33 Y112.012 E7.00785
G1 X95.21 Y110.753 E7.03098
G1 X95.2 Y109.469 E7.05447
G1 X95.3 Y108.208 E7.07761
G1 X95.507 Y106.959 E7.10077
G1 X95.825 Y105.714 E7.12428
G1 X96.248 Y104.506 E7.14769
G1 X96.764 Y103.359 E7.1707
G1 X97.388 Y102.241 E7.19412
G1 X98.108 Y101.177 E7.21762
G1 X98.899 Y100.2 E7.24062
G1 X99.783 Y99.283 E7.26392
G1 X100.755 Y98.433 E7.28754
G1 X101.77 Y97.69 E7.31055
G1 X102.869 Y97.023 E7.33406
G1 X104.009 Y96.458 E7.35734
G1 X105.189 Y95.996 E7.38052
G1 X106.419 Y95.633 E7.40398
G1 X107.661 Y95.379 E7.42717
G1 X108.932 Y95.231 E7.45058
G1 X110.201 Y95.193 E7.4738
G1 X111.478 Y95.266 E7.4972
G0 F3600 X111.676 Y95.294
G0 X111.614 Y95.729
;;retract;;
G1 F6000 E-0.5028
G0 F3600 X111.799 Y94.433
G0 X112.902 Y94.592
G0 X114.217 Y94.9
G0 X115.498 Y95.316
G0 X116.734 Y95.841
G0 X117.933 Y96.478
G0 X118.578 Y96.893
G0 X120.069 Y97.987
G0 X119.145 Y99.18
;TYPE:SKIN
G1 F6000 E7.4972
G1 F1500 X120.036 Y100.005 E7.51941
G1 X120.869 Y100.917 E7.54201
G0 F3600 X121.369 Y101.57
G1 F1500 X118.419 Y98.62 E7.61833
G1 X118.192 Y98.444 E7.62358
G1 X117.157 Y97.775 E7.64613
G1 X116.84 Y97.607 E7.65269
G1 X122.397 Y103.164 E7.79645
G1 X122.822 Y103.976 E7.81322
G1 X122.949 Y104.281 E7.81926
G1 X115.716 Y97.048 E8.00638
G1 X114.962 Y96.728 E8.02136
G1 X114.767 Y96.665 E8.02511
G1 X123.332 Y105.23 E8.24669
G1 X123.598 Y106.061 E8.26265
G1 X113.929 Y96.393 E8.51278
G1 X113.82 Y96.357 E8.51488
G1 X113.178 Y96.208 E8.52694
G1 X123.791 Y106.82 E8.80148
G1 X123.936 Y107.464 E8.81356
G1 X123.947 Y107.542 E8.815
G1 X112.458 Y96.054 E9.11221
G1 X111.799 Y95.96 E9.12439
G1 X124.038 Y108.199 E9.44102
G1 X124.102 Y108.657 E9.44948
G1 X124.112 Y108.838 E9.45279
G1 X111.163 Y95.89 E9.78777
G1 X110.562 Y95.854 E9.79879
G1 X124.143 Y109.436 E10.15015
G1 X124.167 Y109.887 E10.15841
G1 X124.163 Y110.021 E10.16086
G1 X109.981 Y95.839 E10.52775
G1 X109.433 Y95.856 E10.53778
