;FLAVOR:Marlin
;TIME:6506
;Filament used:2.97106m
;Layer height: 0.1
;MINX:79.705
;MINY:80.26
;MINZ:0.24
;MAXX:140.335
;MAXY:140.153
;MAXZ:14.89
                             
;Creality Print GCode Generated by CXEngine:NO_MAGE_VERSION_GIT_HEAD_BRANCH
;CXEngine Release Time:2022-09-30 09:53:04
;Gcode Generated Time:2023-05-20 19:52:08
;----------Machine Config--------------
;Machine Name:Ender-3 V2
;Machine Height:250
;Machine Width:220
;Machine Depth:220
;Material name:PLA
;Number of Extruders:1
;ExtruderParams[0] Nozzle Diameter1000
;----------Profile Config---------------
;Engine Version:275f99b
;Engine Release Time:2022-09-30 09:42:18
;Layer Height:0.1
;Wall Thickness:0.8
;Top/Bottom Thickness:0.5
;Out Wall Line Width:0.4
;Inner Wall Line Width:0.4
;Inital Layer Height:100
;Wall Line Count:2
;Infill Line Distance:4
;Infill Pattern:grid
;Infill Sparse Density:20
;Infill Wipe Distance:0
;Print Temperature:200
;Bed Temperature:60
;Support Enable:true
;Support Density:0
;Support Angle:60
;Adhesion Type:simpleraft
;machine is belt:false
;machine belt offset:10
;machine belt offset Y:0
;Raft Base Line Spacing:1.6
;Wait Heatup Sync:true
;----------Shell Config----------------
;Outer Wall Wipe Distance:200
;Outer Inset First:false
;Infill Before Walls:false
;Infill Overlap:0.16
;Fill Gaps Between Walls:everywhere
;Minimum Infill Area:1
;Top Surface Skin Layer:0
;Top Layers:4
;Z Seam Alignment:sharpest_corner
;Seam Corner Preference:z_seam_corner_inner
;Z Seam X:110
;Z Seam Y:110
;Horizontal Expansion:0
;Top/Bottom Pattern:zigzag
;Ironing Pattern:zigzag
;Vase Model:false
;----------Support Config----------------
;Support Type:everywhere
;Support Pattern:zigzag
;Support Infill Layer Thickness:0.1
;Minimum Support Area:5
;Enable Support Roof:false
;Support Roof Thickness:0.8
;Support Roof Pattern:lines
;Connect Support Lines:0
;Connect Support ZigZags:1
;Minimum Support X/Y Distance:0.2
;Support Line Distance:0
; ---------PrintSpeed & Travel----------
;Enable Print Cool:true
;Avoid Printed Parts Traveling:true
;Enable Retraction:true
;Retraction Distance:8
;Retraction Speed:100
;Retraction Prime Speed:100
;Maximum Retraction Count:100
;Minimum Extrusion Distance Window:1
;Z Hop When Retracted:false
;Z Hop Height:0.2
;Retract Before Outer Wall:true
;Print Speed:50
;Infill Speed:50

;Prime Tower Speed:50
;Travel Speed:120
;Initial Layer Speed:25
;Skirt/Brim Speed:25
;Combing Mode:infill
; --------SpecialModel&Mesh Fixes--------
;Union Overlapping Volum:true
;Remove All Holes:false
;Maximum Travel Resolution:0.6
;Maximum Deviation:0.05
;Maximum Model Angle:0.872665
;IS Mold Print:false
;Make Overhang Printable:false
;Enable Coasting:false
;Coasting Volumes:0.06
;Coasting Speed:0.9
;Raft AirGap:0.25
;Layer0 ZOverLap:0.13
;---------------------End of Head--------------------------
M140 S60
M105
M104 S200
M105
M109 S200
M105
M190 S60
M82 ;absolute extrusion mode
M220 S100 ;Reset Feedrate
M221 S100 ;Reset Flowrate

G28 ;Home

G92 E0 ;Reset Extruder
G1 Z2.0 F3000 ;Move Z Axis up
G1 X10.1 Y20 Z0.28 F5000.0 ;Move to start position
G1 X10.1 Y145.0 Z0.28 F1500.0 E15 ;Draw the first line
G1 X10.4 Y145.0 Z0.28 F5000.0 ;Move to side a little
G1 X10.4 Y20 Z0.28 F1500.0 E30 ;Draw the second line
G92 E0  ;Reset Extruder
G1 E-1.0000 F1800 ;Retract a bit
G1 Z2.0 F3000 ;Move Z Axis up
G1 E0.0000 F1800 

G92 E0
G92 E0
G1 F6000 E-8

;LAYER_COUNT:140

;LAYER:-4
M107
G0 F7200 X83.2 Y97.753 Z0.24
;TYPE:SUPPORT-INTERFACE
G1 F6000 E0
G1 F1200 X83.2 Y122.064 E1.94061
G1 X82.979 Y121.553 E1.98505
G1 X81.927 Y119.993 E2.13525
G1 X81.6 Y119.415 E2.18826
G1 X81.6 Y102.834 E3.51182
G1 X81.692 Y102.42 E3.54568
G1 X81.936 Y101.55 E3.6178
G1 X82.241 Y100.744 E3.68659
G1 X82.81 Y99.448 E3.79958
G1 X83.249 Y97.541 E3.95578
G1 X83.498 Y96.76 E4.02122
G1 X83.81 Y96.018 E4.08547
G1 X84.2 Y95.278 E4.15224
G1 X84.649 Y94.587 E4.21802
G1 X84.8 Y94.393 E4.23765
G1 X84.8 Y125.133 E6.69145
G1 X85.097 Y125.621 E6.73705
G1 X85.892 Y126.75 E6.84727
G1 X85.925 Y126.733 E6.85024
G1 X86.4 Y127.546 E6.9254
G1 X86.4 Y92.536 E9.72005
G1 X86.697 Y92.159 E9.75836
G1 X87.386 Y91.102 E9.85907
G1 X88 Y90.282 E9.94085
G1 X88 Y129.71 E13.08816
G1 X88.76 Y130.503 E13.17584
G1 X89.516 Y131.209 E13.25841
G1 X89.6 Y131.273 E13.26684
G1 X89.6 Y88.556 E16.67669
G1 X89.955 Y88.261 E16.71354
G1 X91.2 Y87.423 E16.83333
G1 X91.2 Y132.341 E20.41888
G1 X92.1 Y132.886 E20.50287
G1 X92.8 Y133.373 E20.57094
G1 X92.8 Y86.115 E24.34328
G1 X93.019 Y85.907 E24.36739
G1 X94.032 Y85.011 E24.47534
G1 X94.4 Y84.718 E24.51289
G1 X94.4 Y134.495 E28.48631
G1 X95.834 Y135.578 E28.62975
G1 X96 Y135.686 E28.64556
G1 X96 Y83.652 E32.79914
G1 X96.401 Y83.396 E32.83712
G1 X97.287 Y82.909 E32.91782
G1 X97.6 Y82.772 E32.94509
G1 X97.6 Y136.709 E37.25058
G1 X98.154 Y137.005 E37.30072
G1 X98.916 Y137.329 E37.36681
G1 X99.2 Y137.416 E37.39052
G1 X99.2 Y82.234 E41.79539
G1 X99.61 Y82.138 E41.829
G1 X100.411 Y82.022 E41.89361
G1 X100.8 Y81.99 E41.92477
G1 X100.8 Y137.799 E46.37968
G1 X101.541 Y137.938 E46.43986
G1 X102.241 Y138.159 E46.49846
G1 X102.4 Y138.234 E46.51249
G1 X102.4 Y81.798 E51.01746
G1 X102.705 Y81.727 E51.04245
G1 X103.947 Y81.285 E51.14769
G1 X104 Y81.27 E51.15208
G1 X104 Y138.954 E55.75667
G1 X104.316 Y139.077 E55.78374
G1 X105.121 Y139.308 E55.85059
G1 X105.6 Y139.4 E55.88952
G1 X105.6 Y80.932 E60.55669
G1 X106.682 Y80.86 E60.64325
G1 X107.2 Y80.872 E60.68461
G1 X107.2 Y139.547 E65.36831
G1 X107.556 Y139.553 E65.39673
G1 X108.566 Y139.464 E65.47766
G1 X108.8 Y139.419 E65.49668
G1 X108.8 Y80.964 E70.16282
G1 X109.052 Y80.994 E70.18307
G1 X109.986 Y81.05 E70.25776
G1 X110.4 Y81.039 E70.29082
G1 X110.4 Y139.15 E74.92949
G1 X110.646 Y139.117 E74.94931
G1 X112 Y139.162 E75.05745
G1 X112 Y81.001 E79.70011
G1 X112.091 Y80.999 E79.70738
G1 X112.99 Y81.027 E79.77917
G1 X113.6 Y81.1 E79.82821
G1 X113.6 Y139.093 E84.45746
G1 X114.917 Y138.961 E84.56312
G1 X115.2 Y138.918 E84.58597
G1 X115.2 Y81.419 E89.17579
G1 X115.673 Y81.518 E89.21436
G1 X116.8 Y81.719 E89.30575
G1 X116.8 Y138.577 E93.8444
G1 X118.4 Y138.032 E93.97932
G1 X118.4 Y82.116 E98.44278
G1 X119.948 Y82.592 E98.57206
G1 X120 Y82.612 E98.5765
G1 X120 Y137.638 E102.96892
G1 X120.102 Y137.614 E102.97728
G1 X120.838 Y137.412 E103.03821
G1 X121.6 Y137.135 E103.10293
G1 X121.6 Y83.202 E107.40809
G1 X121.609 Y83.205 E107.40885
G1 X123.2 Y83.875 E107.54665
G1 X123.2 Y136.333 E111.73407
G1 X123.649 Y136.092 E111.77475
G1 X124.485 Y135.586 E111.85276
G1 X124.8 Y135.341 E111.88461
G1 X124.8 Y84.645 E115.93139
G1 X125.685 Y85.141 E116.01237
G1 X126.4 Y85.599 E116.08015
G1 X126.4 Y134.093 E119.95115
G1 X126.737 Y133.83 E119.98527
G1 X127.972 Y133.104 E120.09963
G1 X128 Y133.085 E120.10233
G1 X128 Y86.763 E123.79995
G1 X129.283 Y87.836 E123.93346
G1 X129.6 Y88.14 E123.96852
G1 X129.6 Y131.874 E127.45956
G1 X130.114 Y131.463 E127.51209
G1 X130.64 Y131.006 E127.56771
G1 X131.2 Y130.441 E127.63121
G1 X131.2 Y89.743 E130.8799
G1 X131.392 Y89.95 E130.90244
G1 X132.289 Y91.039 E131.01506
G1 X132.8 Y91.735 E131.08399
G1 X132.8 Y128.577 E134.02487
G1 X133.516 Y127.681 E134.11643
G1 X134.4 Y126.437 E134.23825
G1 X134.4 Y94.102 E136.81937
G1 X134.956 Y94.776 E136.88911
G1 X135.421 Y95.462 E136.95527
G1 X135.807 Y96.155 E137.01859
G1 X136 Y96.604 E137.0576
G1 X136 Y124.084 E139.25117
G1 X136.375 Y123.346 E139.31725
G1 X136.678 Y122.579 E139.38308
G1 X136.932 Y121.724 E139.45428
G1 X137.537 Y119.183 E139.66278
G1 X138.042 Y117.609 E139.79473
G1 X138.516 Y116.415 E139.89728
G1 X138.879 Y115.349 E139.98717
G1 X139.089 Y114.451 E140.06079
G1 X139.2 Y113.823 E140.11169
G1 X139.2 Y104.596 E140.84823
G1 X138.635 Y102.95 E140.98715
G1 X138.293 Y102.208 E141.05237
G1 X137.902 Y101.524 E141.11526
G1 X137.6 Y100.908 E141.17002
G1 X137.6 Y118.987 E142.61317
G0 F600 X137.6 Y118.987 Z0.47
G0 F7200 X130.363 Y131.776
;TIME_ELAPSED:95.244444

;LAYER:-3
;TYPE:SUPPORT
G1 F1800 X130.911 Y131.301 E142.66864
G1 X131.104 Y131.104 E142.68974
G1 X88.773 Y88.773 E147.26932
G1 X89.064 Y88.483 E147.30074
G1 X89.518 Y88.104 E147.34599
G1 X131.794 Y130.379 E151.91956
G1 X132.46 Y129.631 E151.99617
G1 X90.344 Y87.516 E156.55244
G1 X91.19 Y86.947 E156.63043
G1 X133.093 Y128.851 E161.16376
G1 X133.721 Y128.064 E161.24078
G1 X91.99 Y86.333 E165.75545
G1 X92.715 Y85.644 E165.83196
G1 X134.316 Y127.245 E170.33256
G1 X134.903 Y126.417 E170.4102
G1 X93.464 Y84.979 E174.89323
G1 X93.767 Y84.711 E174.92417
G1 X94.236 Y84.337 E174.97006
G1 X135.49 Y125.591 E179.43312
G1 X135.786 Y125.176 E179.47212
G1 X136.057 Y124.744 E179.51113
G1 X95.08 Y83.766 E183.94428
G1 X95.943 Y83.215 E184.0226
G1 X136.57 Y123.842 E188.41783
G1 X136.739 Y123.513 E188.44613
G1 X136.998 Y122.856 E188.50015
G1 X96.84 Y82.698 E192.84464
G1 X97.117 Y82.546 E192.86881
G1 X97.803 Y82.247 E192.92606
G1 X137.33 Y121.774 E197.20229
G1 X137.602 Y120.632 E197.29209
G1 X98.871 Y81.901 E201.4822
G1 X99.542 Y81.744 E201.53492
G1 X100.054 Y81.67 E201.57449
G1 X137.875 Y119.49 E205.6661
G1 X137.923 Y119.291 E205.68176
G1 X138.206 Y118.407 E205.75277
G1 X101.344 Y81.545 E209.74068
G1 X101.934 Y81.498 E209.78596
G1 X102.563 Y81.349 E209.83541
G1 X138.571 Y117.358 E213.73098
G1 X138.892 Y116.554 E213.79721
G1 X138.965 Y116.338 E213.81465
G1 X103.608 Y80.98 E217.6398
G1 X103.832 Y80.901 E217.65797
G1 X104.64 Y80.686 E217.72193
G1 X104.714 Y80.673 E217.72768
G1 X139.309 Y115.267 E221.47028
G1 X139.479 Y114.542 E221.52725
G1 X139.556 Y114.1 E221.56157
G1 X105.963 Y80.507 E225.19583
G1 X106.675 Y80.46 E225.25041
G1 X107.344 Y80.474 E225.3016
G1 X139.768 Y112.898 E228.80939
G1 X139.807 Y112.683 E228.82611
G1 X139.911 Y111.887 E228.88752
G1 X139.919 Y111.635 E228.9068
G1 X108.85 Y80.566 E232.268
G1 X109.088 Y80.595 E232.28634
G1 X109.993 Y80.65 E232.3557
G1 X110.34 Y80.641 E232.38226
G1 X139.966 Y110.267 E235.58734
G1 X139.989 Y109.622 E235.63672
G1 X140.056 Y108.943 E235.68891
G1 X111.72 Y80.608 E238.75438
G1 X112.093 Y80.599 E238.78293
G1 X113.015 Y80.627 E238.85349
G1 X113.173 Y80.646 E238.86566
G1 X140.135 Y107.608 E241.78255
G1 X140.137 Y107.355 E241.8019
G1 X140.065 Y106.5 E241.86754
G1 X139.985 Y106.044 E241.90296
G1 X114.884 Y80.943 E244.61851
G1 X115.749 Y81.125 E244.68613
G1 X116.639 Y81.284 E244.75529
G1 X139.45 Y104.095 E247.22309
G1 X139.007 Y102.803 E247.32758
G1 X138.649 Y102.025 E247.39309
G1 X138.454 Y101.684 E247.42314
G1 X118.495 Y81.725 E249.58241
G1 X120.072 Y82.212 E249.70866
G1 X120.585 Y82.401 E249.75049
G1 X137.525 Y99.342 E251.58319
G1 X137.476 Y99.173 E251.59665
G1 X137.117 Y98.188 E251.67685
G1 X136.165 Y95.976 E251.86107
G1 X135.762 Y95.253 E251.92439
G1 X135.274 Y94.533 E251.99093
G1 X134.078 Y93.081 E252.13484
G1 X134.054 Y93.042 E252.13834
G1 X125.707 Y84.695 E253.04136
G1 X124.89 Y84.236 E253.11305
G1 X123.59 Y83.605 E253.22359
G1 X122.922 Y83.324 E253.27903
G1 X136.609 Y97.011 E254.75976
;;retract;;
G1 F6000 E246.75976
G0 F7200 X130.361 Y131.775
G1 F6000 E254.75976
G1 F1800 X88.099 Y89.514 E259.33181
G1 X87.86 Y89.803 E259.3605
G1 X87.479 Y90.308 E259.4089
G1 X129.575 Y132.403 E263.963
G1 X128.949 Y132.904 E264.02433
G1 X128.779 Y133.022 E264.04016
G1 X86.888 Y91.131 E268.57214
G1 X86.372 Y91.926 E268.64464
G1 X86.325 Y91.982 E268.65023
G1 X127.933 Y133.59 E273.15159
G1 X127.042 Y134.113 E273.23063
G1 X85.695 Y92.766 E277.70375
G1 X85.015 Y93.5 E277.78029
G1 X126.239 Y134.724 E282.24011
G1 X125.444 Y135.343 E282.31719
G1 X84.38 Y94.279 E286.75969
G1 X84.323 Y94.355 E286.76696
G1 X83.851 Y95.082 E286.83327
G1 X83.821 Y95.135 E286.83793
G1 X124.642 Y135.956 E291.25415
G1 X123.851 Y136.437 E291.32496
G1 X123.757 Y136.485 E291.33304
G1 X83.349 Y96.077 E295.70458
G1 X83.124 Y96.616 E295.74926
G1 X82.966 Y97.108 E295.78879
G1 X122.837 Y136.979 E300.10223
G1 X122.606 Y137.105 E300.12236
G1 X121.887 Y137.443 E300.18314
G1 X82.677 Y98.234 E304.42501
G1 X82.429 Y99.322 E304.51038
G1 X82.404 Y99.375 E304.51486
G1 X120.851 Y137.822 E308.67425
G1 X120.193 Y138.004 E308.72647
G1 X119.727 Y138.112 E308.76307
G1 X81.973 Y100.358 E312.84748
G1 X81.867 Y100.602 E312.86783
G1 X81.573 Y101.372 E312.93088
G1 X118.59 Y138.389 E316.93557
G1 X117.535 Y138.748 E317.02082
G1 X81.269 Y102.482 E320.94425
G1 X81.011 Y103.639 E321.03493
G1 X116.456 Y139.083 E324.86949
G1 X115.951 Y139.208 E324.90929
G1 X115.269 Y139.31 E324.96204
G1 X80.797 Y104.839 E328.69134
G1 X80.749 Y105.142 E328.71481
G1 X80.69 Y106.093 E328.7877
G1 X80.689 Y106.145 E328.79168
G1 X113.998 Y139.454 E332.39521
G1 X113.209 Y139.534 E332.45588
G1 X112.685 Y139.556 E332.496
G1 X80.686 Y107.556 E335.95786
G1 X80.683 Y108.967 E336.0658
G1 X111.252 Y139.536 E339.37291
G1 X110.666 Y139.518 E339.41776
G1 X109.919 Y139.617 E339.4754
G1 X80.628 Y110.327 E342.64419
G1 X80.598 Y110.573 E342.66315
G1 X80.352 Y111.465 E342.73393
G1 X108.726 Y139.838 E345.80352
G1 X108.631 Y139.859 E345.81096
G1 X107.566 Y139.953 E345.89275
G1 X107.423 Y139.95 E345.90369
G1 X80.076 Y112.603 E348.86222
G1 X79.997 Y113.024 E348.89499
G1 X79.912 Y113.854 E348.95882
G1 X105.921 Y139.862 E351.77255
G1 X105.863 Y139.858 E351.77699
G1 X105.025 Y139.697 E351.84227
G1 X104.19 Y139.458 E351.90871
G1 X104.045 Y139.401 E351.92063
G1 X79.95 Y115.305 E354.5274
G1 X79.972 Y115.579 E354.54843
G1 X80.115 Y116.42 E354.61369
G1 X80.282 Y117.052 E354.66369
G1 X101.608 Y138.377 E356.97079
G1 X101.444 Y138.327 E356.98391
G1 X99.842 Y138.025 E357.10862
G1 X81.083 Y119.266 E359.13806
G1 X81.188 Y119.499 E359.15761
G1 X81.59 Y120.21 E359.22009
G1 X82.627 Y121.746 E359.36186
G1 X83.366 Y123.455 E359.5043
G1 X83.783 Y124.234 E359.57189
G1 X84.661 Y125.673 E359.70085
G1 X92.959 Y133.971 E360.59856
G1 X94.051 Y134.733 E360.70043
G1 X95.609 Y135.909 E360.84975
G1 X97.226 Y136.964 E360.99745
G1 X97.524 Y137.122 E361.02325
G1 X82.991 Y122.589 E362.59551
G0 F600 X82.991 Y122.589 Z0.62
G0 F7200 X104.001 Y139.6
;TIME_ELAPSED:196.166412

;LAYER:-2
;TYPE:SUPPORT-INTERFACE
G1 F2400 X114.554 Y139.6 E362.85875
G1 X113.229 Y139.732 E362.89197
G1 X112.304 Y139.774 E362.91507
G1 X110.678 Y139.719 E362.95565
G1 X109.762 Y139.841 E362.9787
G1 X108.907 Y140 E363.00039
G1 X105.541 Y140 E363.08436
G1 X104.976 Y139.891 E363.09871
G1 X104.12 Y139.646 E363.12092
G1 X103.296 Y139.324 E363.14299
G1 X103.033 Y139.2 E363.15025
G1 X116.822 Y139.2 E363.49421
G1 X116.856 Y139.192 E363.49508
G1 X118.004 Y138.8 E363.52535
G1 X102.191 Y138.8 E363.9198
G1 X102.022 Y138.719 E363.92448
G1 X101.395 Y138.522 E363.94087
G1 X100.741 Y138.4 E363.95747
G1 X119.376 Y138.4 E364.42232
G1 X120.234 Y138.2 E364.4443
G1 X120.959 Y138 E364.46306
G1 X99.056 Y138 E365.00943
G1 X98.7 Y137.889 E365.01873
G1 X98.021 Y137.6 E365.03714
G1 X122.024 Y137.6 E365.6359
G1 X122.697 Y137.283 E365.65445
G1 X122.85 Y137.2 E365.6588
G1 X97.242 Y137.2 E366.29759
G1 X97.127 Y137.138 E366.30085
G1 X96.607 Y136.8 E366.31632
G1 X123.596 Y136.8 E366.98956
G1 X123.954 Y136.609 E366.99969
G1 X124.298 Y136.4 E367.00973
G1 X95.994 Y136.4 E367.71577
G1 X95.488 Y136.069 E367.73085
G1 X95.395 Y136 E367.73374
G1 X124.927 Y136 E368.47042
G1 X125.44 Y135.6 E368.48665
G1 X94.866 Y135.6 E369.24932
G1 X94.336 Y135.2 E369.26588
G1 X125.954 Y135.2 E370.0546
G1 X126.467 Y134.8 E370.07083
G1 X93.796 Y134.8 E370.88581
G1 X93.221 Y134.4 E370.90328
G1 X126.98 Y134.4 E371.7454
G1 X127.078 Y134.325 E371.74848
G1 X127.63 Y134 E371.76446
G1 X92.647 Y134 E372.63711
G1 X92.072 Y133.6 E372.65459
G1 X128.306 Y133.6 E373.55845
G1 X128.869 Y133.2 E373.57568
G1 X91.458 Y133.2 E374.5089
G1 X90.798 Y132.8 E374.52815
G1 X129.397 Y132.8 E375.491
G1 X129.885 Y132.4 E375.50674
G1 X90.138 Y132.4 E376.49824
G1 X89.839 Y132.218 E376.50697
G1 X89.556 Y132 E376.51588
G1 X130.373 Y132 E377.53406
G1 X130.861 Y131.6 E377.5498
G1 X89.055 Y131.6 E378.59266
G1 X88.626 Y131.2 E378.60729
G1 X131.289 Y131.2 E379.67152
G1 X131.681 Y130.8 E379.68549
G1 X88.212 Y130.8 E380.76983
G1 X87.829 Y130.4 E380.78365
G1 X132.045 Y130.4 E381.88662
G1 X132.399 Y130 E381.89994
G1 X87.445 Y130 E383.02133
G1 X87.398 Y129.949 E383.02306
G1 X87.096 Y129.6 E383.03457
G1 X132.749 Y129.6 E384.17339
G1 X133.069 Y129.2 E384.18617
G1 X86.756 Y129.2 E385.34145
