;FLAVOR:Marlin
;TIME:305
;Filament used:0.0452812m
;Layer height: 0.1
;MINX:108.802
;MINY:108.801
;MINZ:0.1
;MAXX:111.198
;MAXY:111.199
;MAXZ:16.5
                           
;Creality Print GCode Generated by CXEngine:NO_MAGE_VERSION_GIT_HEAD_BRANCH
;CXEngine Release Time:2022-09-30 09:53:04
;Gcode Generated Time:2023-05-01 22:37:46
;----------Machine Config--------------
;Machine Name:Ender-3 V2
;Machine Height:250
;Machine Width:220
;Machine Depth:220
;Material name:PLA
;Number of Extruders:1
;ExtruderParams[0] Nozzle Diameter1000
;----------Profile Config---------------
;Engine Version:275f99b
;Engine Release Time:2022-09-30 09:42:18
;Layer Height:0.1
;Wall Thickness:0.8
;Top/Bottom Thickness:0.5
;Out Wall Line Width:0.4
;Inner Wall Line Width:0.4
;Inital Layer Height:100
;Wall Line Count:2
;Infill Line Distance:4
;Infill Pattern:grid
;Infill Sparse Density:20
;Infill Wipe Distance:0
;Print Temperature:200
;Bed Temperature:60
;Support Enable:true
;Support Density:0
;Support Angle:60
;Adhesion Type:none
;machine is belt:false
;machine belt offset:10
;machine belt offset Y:0
;Raft Base Line Spacing:1.6
;Wait Heatup Sync:true
;----------Shell Config----------------
;Outer Wall Wipe Distance:200
;Outer Inset First:false
;Infill Before Walls:false
;Infill Overlap:0.16
;Fill Gaps Between Walls:everywhere
;Minimum Infill Area:1
;Top Surface Skin Layer:0
;Top Layers:4
;Z Seam Alignment:sharpest_corner
;Seam Corner Preference:z_seam_corner_inner
;Z Seam X:110
;Z Seam Y:110
;Horizontal Expansion:0
;Top/Bottom Pattern:zigzag
;Ironing Pattern:zigzag
;Vase Model:false
;----------Support Config----------------
;Support Type:everywhere
;Support Pattern:zigzag
;Support Infill Layer Thickness:0.1
;Minimum Support Area:5
;Enable Support Roof:false
;Support Roof Thickness:0.8
;Support Roof Pattern:lines
;Connect Support Lines:0
;Connect Support ZigZags:1
;Minimum Support X/Y Distance:0.2
;Support Line Distance:0
; ---------PrintSpeed & Travel----------
;Enable Print Cool:true
;Avoid Printed Parts Traveling:true
;Enable Retraction:true
;Retraction Distance:8
;Retraction Speed:100
;Retraction Prime Speed:100
;Maximum Retraction Count:100
;Minimum Extrusion Distance Window:1
;Z Hop When Retracted:false
;Z Hop Height:0.2
;Retract Before Outer Wall:true
;Print Speed:50
;Infill Speed:50

;Prime Tower Speed:50
;Travel Speed:120
;Initial Layer Speed:25
;Skirt/Brim Speed:25
;Combing Mode:infill
; --------SpecialModel&Mesh Fixes--------
;Union Overlapping Volum:true
;Remove All Holes:false
;Maximum Travel Resolution:0.6
;Maximum Deviation:0.05
;Maximum Model Angle:0.872665
;IS Mold Print:false
;Make Overhang Printable:false
;Enable Coasting:false
;Coasting Volumes:0.06
;Coasting Speed:0.9
;Raft AirGap:0.25
;Layer0 ZOverLap:0.13
;---------------------End of Head--------------------------
M140 S60
M105
M104 S200
M105
M109 S200
M105
M190 S60
M82 ;absolute extrusion mode
M220 S100 ;Reset Feedrate
M221 S100 ;Reset Flowrate

G28 ;Home

G92 E0 ;Reset Extruder
G1 Z2.0 F3000 ;Move Z Axis up
G1 X10.1 Y20 Z0.28 F5000.0 ;Move to start position
G1 X10.1 Y145.0 Z0.28 F1500.0 E15 ;Draw the first line
G1 X10.4 Y145.0 Z0.28 F5000.0 ;Move to side a little
G1 X10.4 Y20 Z0.28 F1500.0 E30 ;Draw the second line
G92 E0  ;Reset Extruder
G1 E-1.0000 F1800 ;Retract a bit
G1 Z2.0 F3000 ;Move Z Axis up
G1 E0.0000 F1800 

G92 E0
G92 E0
G1 F6000 E-8

;LAYER_COUNT:165

;LAYER:0
M107
;MESH:
G0 F3600 X110.385 Y109.31 Z0.1
;TYPE:WALL-INNER
G1 F6000 E0
G1 F600 X110.593 Y109.477 E0.00488
G1 X110.735 Y109.706 E0.00981
G1 X110.791 Y109.965 E0.01466
G1 X110.757 Y110.23 E0.01954
G1 X110.635 Y110.472 E0.0245
G1 X110.446 Y110.654 E0.0293
G1 X110.092 Y110.791 E0.03624
G1 X109.8 Y110.767 E0.0416
G1 X109.56 Y110.658 E0.04643
G1 X109.366 Y110.473 E0.05133
G1 X109.242 Y110.229 E0.05634
G1 X109.209 Y109.969 E0.06113
G1 X109.265 Y109.707 E0.06603
G1 X109.406 Y109.477 E0.07097
G1 X109.614 Y109.31 E0.07585
G1 X109.865 Y109.22 E0.08072
G1 X110.132 Y109.22 E0.08561
G1 X110.385 Y109.31 E0.09052
G0 F3600 X110.582 Y108.955
;TYPE:WALL-OUTER
G1 F600 X110.898 Y109.21 E0.09795
G1 X111.111 Y109.553 E0.10534
G1 X111.196 Y109.948 E0.11273
G1 X111.146 Y110.347 E0.12008
G1 X110.962 Y110.712 E0.12756
G1 X110.671 Y110.992 E0.13495
G1 X110.297 Y111.161 E0.14245
G1 X110.109 Y111.194 E0.14595
G1 X109.7 Y111.16 E0.15345
G1 X109.333 Y110.994 E0.16082
G1 X109.039 Y110.713 E0.16826
G1 X108.854 Y110.348 E0.17575
G1 X108.804 Y109.952 E0.18305
G1 X108.889 Y109.554 E0.19049
G1 X109.1 Y109.211 E0.19786
G1 X109.417 Y108.955 E0.20531
G1 X109.796 Y108.82 E0.21267
G1 X110.201 Y108.82 E0.22008
G1 X110.582 Y108.955 E0.22748
G0 F3600 X110.737 Y109.08
G0 X110.46 Y109.421
G0 X110.546 Y109.972
;TYPE:SKIN
G1 F600 X110.51 Y109.798 E0.23073
G1 X110.409 Y109.639 E0.23417
G1 X110.265 Y109.521 E0.23758
G1 X110.09 Y109.46 E0.24097
G1 X110.025 Y109.46 E0.24216
G1 X109.906 Y109.459 E0.24434
G1 X109.73 Y109.523 E0.24776
G1 X109.615 Y109.615 E0.25046
G1 X110.381 Y110.381 E0.27027
G1 X110.312 Y110.447 E0.27202
G1 X110.055 Y110.546 E0.27706
G1 X109.974 Y110.539 E0.27854
G1 X109.861 Y110.531 E0.28062
G1 X109.698 Y110.456 E0.2839
G1 X109.561 Y110.324 E0.28738
G1 X109.473 Y110.155 E0.29086
G0 F3600 X109.458 Y110.023
G1 F600 X109.974 Y110.539 E0.30421
G0 F3600 X110.546 Y109.98
G1 F600 X110.025 Y109.46 E0.31768
;MESH:NONMESH
G0 X110.025 Y109.46 Z0.2
G0 F3600 X110.383 Y109.307
;TIME_ELAPSED:7.165066

;LAYER:1
M140 S60
M106 S127.5
;TYPE:WALL-INNER
;MESH:
G1 F600 X110.592 Y109.476 E0.32215
G1 X110.732 Y109.703 E0.32658
G1 X110.79 Y109.967 E0.33108
G1 X110.758 Y110.228 E0.33545
G1 X110.637 Y110.468 E0.33992
G1 X110.444 Y110.654 E0.34438
G1 X110.089 Y110.791 E0.35071
G1 X109.801 Y110.767 E0.35551
G1 X109.56 Y110.658 E0.35991
G1 X109.365 Y110.472 E0.36439
G1 X109.243 Y110.232 E0.36887
G1 X109.209 Y109.967 E0.37331
G1 X109.264 Y109.708 E0.37772
G1 X109.406 Y109.477 E0.38223
G1 X109.612 Y109.311 E0.38663
G1 X109.867 Y109.22 E0.39113
G1 X110.134 Y109.22 E0.39557
G1 X110.383 Y109.307 E0.39996
G0 F5400 X110.58 Y108.953
;TYPE:WALL-OUTER
G1 F600 X110.897 Y109.209 E0.40673
G1 X111.109 Y109.551 E0.41342
G1 X111.196 Y109.948 E0.42018
G1 X111.146 Y110.346 E0.42685
G1 X110.964 Y110.709 E0.43361
G1 X110.672 Y110.991 E0.44036
G1 X110.298 Y111.16 E0.44718
G1 X110.107 Y111.194 E0.45041
G1 X109.7 Y111.16 E0.4572
G1 X109.334 Y110.995 E0.46388
G1 X109.038 Y110.712 E0.47069
G1 X108.855 Y110.351 E0.47742
G1 X108.804 Y109.952 E0.48411
G1 X108.888 Y109.555 E0.49086
G1 X109.1 Y109.211 E0.49757
G1 X109.416 Y108.956 E0.50433
G1 X109.796 Y108.82 E0.51104
G1 X110.202 Y108.82 E0.51779
G1 X110.58 Y108.953 E0.52446
G0 F5400 X110.735 Y109.078
G0 X110.458 Y109.42
G0 X109.906 Y109.459
;TYPE:SKIN
G1 F600 X109.73 Y109.522 E0.52756
G1 X109.589 Y109.636 E0.53058
G1 X109.489 Y109.796 E0.53372
G1 X109.453 Y109.977 E0.53679
G1 X109.459 Y110.026 E0.53761
G1 X110.026 Y109.459 E0.55094
G1 X110.09 Y109.46 E0.55201
G1 X110.263 Y109.519 E0.55505
G1 X110.409 Y109.638 E0.55818
G0 F5400 X110.41 Y109.641
G1 F600 X109.645 Y110.406 E0.57617
G1 X109.699 Y110.457 E0.57741
G1 X109.859 Y110.529 E0.58032
G1 X110.052 Y110.546 E0.58355
G1 X110.082 Y110.534 E0.58408
G1 X110.532 Y110.085 E0.59465
G1 X110.523 Y110.157 E0.59586
G1 X110.439 Y110.323 E0.59895
G1 X110.311 Y110.447 E0.60192
;MESH:NONMESH
G0 X110.311 Y110.447 Z0.3
G0 F5400 X110.384 Y109.308
;TIME_ELAPSED:9.198764

;LAYER:2
M106 S255
;TYPE:WALL-INNER
;MESH:
G1 F600 X110.59 Y109.474 E0.60632
G1 X110.733 Y109.706 E0.61085
G1 X110.79 Y109.96 E0.61518
G1 X110.757 Y110.229 E0.61969
G1 X110.638 Y110.467 E0.62411
G1 X110.445 Y110.654 E0.62858
G1 X110.091 Y110.791 E0.63489
G1 X109.803 Y110.768 E0.6397
G1 X109.559 Y110.658 E0.64415
G1 X109.364 Y110.472 E0.64863
G1 X109.243 Y110.233 E0.65309
G1 X109.209 Y109.967 E0.65755
G1 X109.264 Y109.709 E0.66193
G1 X109.406 Y109.479 E0.66643
G1 X109.612 Y109.311 E0.67085
G1 X109.864 Y109.221 E0.6753
G1 X110.132 Y109.22 E0.67975
G1 X110.384 Y109.308 E0.68419
G0 F7200 X110.581 Y108.954
;TYPE:WALL-OUTER
G1 F600 X110.895 Y109.207 E0.6909
G1 X111.108 Y109.551 E0.69763
G1 X111.195 Y109.941 E0.70427
G1 X111.146 Y110.347 E0.71107
G1 X110.965 Y110.708 E0.71779
G1 X110.674 Y110.989 E0.72452
G1 X110.297 Y111.161 E0.73141
G1 X110.107 Y111.194 E0.73462
G1 X109.702 Y111.161 E0.74137
G1 X109.334 Y110.996 E0.74808
G1 X109.038 Y110.713 E0.75489
G1 X108.855 Y110.351 E0.76164
G1 X108.804 Y109.952 E0.76833
G1 X108.888 Y109.558 E0.77502
G1 X109.101 Y109.211 E0.7818
G1 X109.413 Y108.957 E0.78849
G1 X109.793 Y108.822 E0.79519
G1 X110.198 Y108.819 E0.80193
G1 X110.581 Y108.954 E0.80868
G0 F7200 X110.736 Y109.079
G0 X110.46 Y109.42
G0 X110.545 Y109.967
;TYPE:SKIN
G1 F600 X110.506 Y109.796 E0.8116
G1 X110.405 Y109.633 E0.81479
G1 X110.266 Y109.522 E0.81775
G1 X110.09 Y109.46 E0.82085
G1 X110.026 Y109.46 E0.82191
G1 X109.904 Y109.461 E0.82394
G1 X109.73 Y109.522 E0.82701
G1 X109.615 Y109.615 E0.82947
G1 X110.38 Y110.38 E0.84746
G1 X110.31 Y110.447 E0.84907
G1 X110.055 Y110.546 E0.85362
G1 X109.974 Y110.539 E0.85497
G1 X109.861 Y110.531 E0.85686
G1 X109.699 Y110.458 E0.85981
G1 X109.559 Y110.324 E0.86303
G1 X109.475 Y110.161 E0.86608
G0 F7200 X109.458 Y110.024
G1 F600 X109.974 Y110.539 E0.87821
G0 F7200 X110.544 Y109.979
G1 F600 X110.026 Y109.46 E0.8904
;MESH:NONMESH
G0 X110.026 Y109.46 Z0.4
G0 F7200 X110.381 Y109.307
;TIME_ELAPSED:11.299636

;LAYER:3
;TYPE:WALL-INNER
;MESH:
G1 F600 X110.59 Y109.474 E0.89485
G1 X110.733 Y109.703 E0.89934
G1 X110.789 Y109.963 E0.90376
G1 X110.757 Y110.231 E0.90825
G1 X110.64 Y110.465 E0.9126
G1 X110.446 Y110.653 E0.91709
G1 X110.086 Y110.791 E0.92351
G1 X109.804 Y110.768 E0.92821
G1 X109.562 Y110.659 E0.93263
G1 X109.366 Y110.472 E0.93713
G1 X109.245 Y110.235 E0.94156
G1 X109.211 Y109.972 E0.94597
G1 X109.266 Y109.706 E0.95048
G1 X109.404 Y109.48 E0.95489
G1 X109.612 Y109.311 E0.95934
G1 X109.862 Y109.222 E0.96376
G1 X110.132 Y109.22 E0.96825
G1 X110.381 Y109.307 E0.97263
G0 F7200 X110.579 Y108.953
;TYPE:WALL-OUTER
G1 F600 X110.893 Y109.205 E0.97933
G1 X111.109 Y109.551 E0.98611
G1 X111.194 Y109.942 E0.99277
G1 X111.146 Y110.347 E0.99955
G1 X110.967 Y110.706 E1.00622
G1 X110.675 Y110.988 E1.01297
G1 X110.299 Y111.159 E1.01984
G1 X110.105 Y111.194 E1.02312
G1 X109.703 Y111.161 E1.02983
G1 X109.335 Y110.996 E1.03653
G1 X109.04 Y110.715 E1.04331
G1 X108.857 Y110.355 E1.05002
G1 X108.805 Y109.956 E1.05672
G1 X108.888 Y109.558 E1.06348
G1 X109.099 Y109.213 E1.0702
G1 X109.411 Y108.959 E1.07689
G1 X109.792 Y108.822 E1.08363
G1 X110.197 Y108.819 E1.09036
G1 X110.579 Y108.953 E1.09709
G0 F7200 X110.735 Y109.078
G0 X110.46 Y109.421
G0 X110.09 Y109.461
;TYPE:FILL
G1 F1200 X109.906 Y109.461 E1.10015
G1 X109.728 Y109.524 E1.10329
G1 X109.587 Y109.64 E1.10633
G1 X109.493 Y109.794 E1.10933
G1 X109.456 Y109.979 E1.11247
G1 X109.457 Y109.999 E1.1128
G1 X110.541 Y109.999 E1.13083
G1 X110.523 Y110.16 E1.13352
G1 X110.443 Y110.323 E1.13654
G1 X110.312 Y110.447 E1.13954
G1 X110.054 Y110.547 E1.14414
G1 X109.999 Y110.541 E1.14506
G1 X109.999 Y109.46 E1.16304
G0 F7200 X109.999 Y109.821
;MESH:NONMESH
G0 F600 X109.999 Y109.821 Z0.5
G0 F7200 X110.381 Y109.306
;TIME_ELAPSED:13.098832

;LAYER:4
;TYPE:WALL-INNER
;MESH:
G1 F600 X110.589 Y109.473 E1.16748
G1 X110.731 Y109.701 E1.17194
G1 X110.789 Y109.963 E1.17641
G1 X110.757 Y110.23 E1.18088
G1 X110.639 Y110.466 E1.18527
G1 X110.448 Y110.652 E1.1897
G1 X110.086 Y110.791 E1.19615
G1 X109.808 Y110.768 E1.20079
G1 X109.561 Y110.657 E1.20529
G1 X109.365 Y110.471 E1.20978
G1 X109.245 Y110.237 E1.21416
G1 X109.211 Y109.972 E1.2186
G1 X109.265 Y109.707 E1.2231
G1 X109.403 Y109.481 E1.2275
G1 X109.609 Y109.314 E1.23191
G1 X109.865 Y109.222 E1.23643
G1 X110.132 Y109.219 E1.24088
G1 X110.381 Y109.306 E1.24526
G0 F7200 X110.578 Y108.952
;TYPE:WALL-OUTER
G1 F600 X110.892 Y109.204 E1.25196
G1 X111.108 Y109.549 E1.25873
G1 X111.194 Y109.942 E1.26542
G1 X111.146 Y110.346 E1.27218
G1 X110.967 Y110.705 E1.27885
G1 X110.675 Y110.988 E1.28562
G1 X110.3 Y111.159 E1.29247
G1 X110.105 Y111.194 E1.29576
G1 X109.707 Y111.161 E1.30241
G1 X109.335 Y110.994 E1.30919
G1 X109.041 Y110.716 E1.31592
G1 X108.857 Y110.356 E1.32264
G1 X108.805 Y109.957 E1.32933
G1 X108.887 Y109.559 E1.33609
G1 X109.098 Y109.214 E1.34281
G1 X109.41 Y108.96 E1.34951
G1 X109.792 Y108.823 E1.35625
G1 X110.197 Y108.818 E1.36299
G1 X110.578 Y108.952 E1.36971
G0 F7200 X110.734 Y109.077
G0 X110.459 Y109.42
G0 X110.091 Y109.46
;TYPE:FILL
G1 F1200 X109.908 Y109.461 E1.37275
G1 X109.728 Y109.525 E1.37593
G1 X109.585 Y109.642 E1.379
G1 X109.492 Y109.794 E1.38196
G1 X109.454 Y109.979 E1.3851
G1 X109.456 Y110 E1.38545
G1 X110.542 Y110 E1.40351
G1 X110.523 Y110.159 E1.40618
G1 X110.442 Y110.322 E1.4092
G1 X110.312 Y110.448 E1.41222
G1 X110.054 Y110.547 E1.41681
G1 X109.999 Y110.541 E1.41773
G1 X109.999 Y109.459 E1.43572
G0 F7200 X110 Y109.821
;MESH:NONMESH
G0 F600 X110 Y109.821 Z0.6
G0 F7200 X110.383 Y109.308
;TIME_ELAPSED:14.897550

;LAYER:5
;TYPE:WALL-INNER
;MESH:
G1 F600 X110.588 Y109.472 E1.44009
G1 X110.731 Y109.7 E1.44457
G1 X110.789 Y109.964 E1.44906
G1 X110.758 Y110.228 E1.45348
G1 X110.64 Y110.465 E1.45788
G1 X110.449 Y110.651 E1.46232
G1 X110.087 Y110.791 E1.46877
G1 X109.806 Y110.767 E1.47346
G1 X109.564 Y110.659 E1.47787
G1 X109.366 Y110.472 E1.4824
G1 X109.246 Y110.238 E1.48677
G1 X109.211 Y109.972 E1.49123
G1 X109.265 Y109.708 E1.49572
G1 X109.402 Y109.483 E1.5001
G1 X109.609 Y109.313 E1.50455
G1 X109.863 Y109.222 E1.50904
G1 X110.128 Y109.219 E1.51344
G1 X110.383 Y109.308 E1.51794
G0 F7200 X110.578 Y108.952
;TYPE:WALL-OUTER
G1 F600 X110.891 Y109.203 E1.52461
G1 X111.107 Y109.548 E1.53138
G1 X111.194 Y109.941 E1.53807
G1 X111.147 Y110.344 E1.54482
G1 X110.968 Y110.704 E1.5515
G1 X110.676 Y110.987 E1.55827
G1 X110.301 Y111.158 E1.56512
G1 X110.104 Y111.194 E1.56845
G1 X109.707 Y111.161 E1.57508
G1 X109.337 Y110.996 E1.58181
G1 X109.042 Y110.717 E1.58857
G1 X108.858 Y110.357 E1.59529
G1 X108.805 Y109.958 E1.60198
G1 X108.887 Y109.561 E1.60872
G1 X109.096 Y109.216 E1.61543
G1 X109.41 Y108.959 E1.62218
G1 X109.79 Y108.823 E1.62889
G1 X110.195 Y108.818 E1.63563
G1 X110.578 Y108.952 E1.64238
G0 F7200 X110.734 Y109.077
G0 X110.459 Y109.42
G0 X110.087 Y109.46
;TYPE:FILL
G1 F1200 X109.909 Y109.461 E1.64534
G1 X109.726 Y109.526 E1.64857
G1 X109.587 Y109.641 E1.65157
G1 X109.492 Y109.798 E1.65462
G1 X109.455 Y109.978 E1.65767
G1 X109.456 Y109.999 E1.65802
G1 X110.542 Y109.999 E1.67608
G1 X110.525 Y110.158 E1.67874
G1 X110.444 Y110.32 E1.68176
G1 X110.314 Y110.447 E1.68478
G1 X110.054 Y110.546 E1.6894
G1 X109.999 Y110.54 E1.69032
G1 X109.999 Y109.459 E1.7083
G0 F7200 X110 Y109.821
;MESH:NONMESH
G0 F600 X110 Y109.821 Z0.7
G0 F7200 X110.381 Y109.307
;TIME_ELAPSED:16.696562

;LAYER:6
;TYPE:WALL-INNER
;MESH:
G1 F600 X110.589 Y109.472 E1.71272
G1 X110.731 Y109.699 E1.71717
G1 X110.789 Y109.963 E1.72166
G1 X110.758 Y110.227 E1.72608
G1 X110.641 Y110.463 E1.73047
G1 X110.447 Y110.651 E1.73496
G1 X110.084 Y110.791 E1.74143
G1 X109.807 Y110.768 E1.74605
G1 X109.565 Y110.66 E1.75046
G1 X109.367 Y110.473 E1.75499
G1 X109.246 Y110.237 E1.7594
G1 X109.21 Y109.973 E1.76383
G1 X109.264 Y109.711 E1.76828
G1 X109.403 Y109.482 E1.77273
G1 X109.609 Y109.313 E1.77716
G1 X109.861 Y109.222 E1.78162
G1 X110.128 Y109.219 E1.78606
G1 X110.381 Y109.307 E1.79051
G0 F7200 X110.576 Y108.951
;TYPE:WALL-OUTER
G1 F600 X110.891 Y109.202 E1.79721
G1 X111.107 Y109.547 E1.80398
G1 X111.194 Y109.94 E1.81067
G1 X111.147 Y110.343 E1.81742
G1 X110.968 Y110.703 E1.82411
G1 X110.678 Y110.985 E1.83084
G1 X110.301 Y111.159 E1.83774
G1 X110.103 Y111.194 E1.84108
G1 X109.708 Y111.162 E1.84767
G1 X109.338 Y110.997 E1.85441
G1 X109.043 Y110.718 E1.86116
G1 X108.859 Y110.359 E1.86787
G1 X108.805 Y109.958 E1.8746
G1 X108.886 Y109.562 E1.88132
G1 X109.095 Y109.218 E1.88802
G1 X109.41 Y108.96 E1.89479
G1 X109.789 Y108.823 E1.90149
G1 X110.194 Y108.818 E1.90823
G1 X110.576 Y108.951 E1.91495
G0 F7200 X110.732 Y109.075
G0 X110.457 Y109.419
G0 X110.088 Y109.46
;TYPE:FILL
G1 F1200 X109.906 Y109.461 E1.91798
G1 X109.728 Y109.526 E1.92113
G1 X109.588 Y109.64 E1.92413
