;FLAVOR:Marlin
;TIME:2327
;Filament used: 1.26562m
;Layer height: 0.2
;MINX:127.024
;MINY:127.024
;MINZ:0.2
;MAXX:172.972
;MAXY:172.967
;MAXZ:20
;Generated with Creality Slicer 4.8.2-191
M140 S50
M105
M190 S50
M104 S200
M105
M109 S200
M82 ;absolute extrusion mode

G28 ;Home

G92 E0 ;Reset Extruder
G1 Z2.0 F3000 ;Move Z Axis up
G1 X10.1 Y20 Z0.28 F5000.0 ;Move to start position
G1 X10.1 Y200.0 Z0.28 F1500.0 E15 ;Draw the first line
G1 X10.4 Y200.0 Z0.28 F5000.0 ;Move to side a little
G1 X10.4 Y20 Z0.28 F1500.0 E30 ;Draw the second line
G92 E0 ;Reset Extruder
G1 Z2.0 F3000 ;Move Z Axis up

G92 E0
G92 E0
G1 F2700 E-5
;LAYER_COUNT:100
;LAYER:0
M107
G0 F6000 X134.072 Y133.425 Z0.2
;TYPE:SKIRT
G1 F2700 E0
G1 F1200 X134.569 Y132.968 E0.02246
G1 X134.799 Y132.762 E0.03273
G1 X135.326 Y132.304 E0.05595
G1 X136.04 Y131.734 E0.08634
G1 X136.579 Y131.339 E0.10856
G1 X136.863 Y131.138 E0.12013
G1 X137.384 Y130.781 E0.14114
G1 X138.169 Y130.29 E0.17194
G1 X138.787 Y129.939 E0.19557
G1 X139.072 Y129.783 E0.20638
G1 X139.663 Y129.47 E0.22862
G1 X140.488 Y129.076 E0.25903
G1 X141.094 Y128.817 E0.28095
G1 X141.396 Y128.693 E0.29181
G1 X141.997 Y128.457 E0.31329
G1 X142.844 Y128.164 E0.34309
G1 X143.491 Y127.969 E0.36557
G1 X143.811 Y127.878 E0.37663
G1 X144.496 Y127.694 E0.40023
G1 X145.033 Y127.564 E0.4186
G1 X145.51 Y127.467 E0.43479
G1 X146.058 Y127.368 E0.45331
G1 X146.297 Y127.328 E0.46137
G1 X146.955 Y127.224 E0.48353
G1 X147.907 Y127.116 E0.5154
G1 X148.61 Y127.067 E0.53884
G1 X148.935 Y127.049 E0.54966
G1 X149.56 Y127.024 E0.57047
G1 X150.513 Y127.027 E0.60216
G1 X151.241 Y127.061 E0.6264
G1 X151.577 Y127.082 E0.6376
G1 X152.016 Y127.116 E0.65225
G1 X152.695 Y127.19 E0.67496
G1 X153.736 Y127.336 E0.70993
G1 X154.124 Y127.397 E0.72299
G1 X154.514 Y127.466 E0.73616
G1 X155.452 Y127.675 E0.76812
G1 X156.271 Y127.895 E0.79633
G1 X156.581 Y127.983 E0.80705
G1 X157.137 Y128.15 E0.82636
G1 X158.018 Y128.456 E0.85738
G1 X158.625 Y128.696 E0.87909
G1 X158.895 Y128.806 E0.88878
G1 X159.486 Y129.058 E0.91015
G1 X160.344 Y129.469 E0.94179
G1 X160.997 Y129.817 E0.9664
G1 X161.299 Y129.984 E0.97788
G1 X161.841 Y130.295 E0.99867
G1 X162.263 Y130.55 E1.01507
G1 X162.65 Y130.805 E1.03048
G1 X163.14 Y131.142 E1.05026
G1 X163.396 Y131.323 E1.06069
G1 X163.938 Y131.719 E1.08301
G1 X164.659 Y132.293 E1.11367
G1 X165.204 Y132.766 E1.13767
G1 X165.449 Y132.985 E1.1486
G1 X165.934 Y133.432 E1.17054
G1 X166.573 Y134.072 E1.20062
G1 X167.047 Y134.587 E1.22389
G1 X167.284 Y134.853 E1.23574
G1 X167.703 Y135.339 E1.25709
G1 X168.246 Y136.022 E1.28611
G1 X168.613 Y136.523 E1.30676
G1 X168.801 Y136.788 E1.31757
G1 X169.22 Y137.397 E1.34216
G1 X169.723 Y138.199 E1.37364
G1 X170.053 Y138.78 E1.39587
G1 X170.204 Y139.055 E1.4063
G1 X170.496 Y139.605 E1.42701
G1 X170.768 Y140.153 E1.44736
G1 X170.926 Y140.508 E1.46029
G1 X171.172 Y141.084 E1.48112
G1 X171.283 Y141.354 E1.49083
G1 X171.542 Y142.008 E1.51422
G1 X171.848 Y142.886 E1.54515
G1 X172.035 Y143.507 E1.56672
G1 X172.125 Y143.822 E1.57761
G1 X172.313 Y144.521 E1.60169
G1 X172.502 Y145.352 E1.63003
G1 X172.597 Y145.859 E1.64719
G1 X172.652 Y146.18 E1.65802
G1 X172.754 Y146.83 E1.67991
G1 X172.821 Y147.335 E1.69685
G1 X172.868 Y147.826 E1.71326
G1 X172.919 Y148.559 E1.73769
G1 X172.936 Y148.882 E1.74845
G1 X172.969 Y149.6 E1.77236
G1 X172.972 Y150.558 E1.80422
G1 X172.947 Y151.165 E1.82443
G1 X172.93 Y151.465 E1.83442
G1 X172.89 Y152.048 E1.85386
G1 X172.785 Y152.987 E1.88528
G1 X172.669 Y153.732 E1.91036
G1 X172.615 Y154.047 E1.92099
G1 X172.494 Y154.699 E1.94305
G1 X172.37 Y155.28 E1.96281
G1 X172.262 Y155.704 E1.97736
G1 X172.133 Y156.173 E1.99354
G1 X172.058 Y156.435 E2.0026
G1 X171.847 Y157.134 E2.02689
G1 X171.544 Y158.004 E2.05753
G1 X171.31 Y158.595 E2.07867
G1 X171.181 Y158.905 E2.08984
G1 X170.9 Y159.556 E2.11342
G1 X170.503 Y160.38 E2.14384
G1 X170.206 Y160.936 E2.16481
G1 X170.061 Y161.199 E2.1748
G1 X169.702 Y161.829 E2.19891
G1 X169.41 Y162.313 E2.21771
G1 X169.164 Y162.684 E2.23252
G1 X168.818 Y163.185 E2.25277
G1 X168.661 Y163.407 E2.26181
G1 X168.26 Y163.958 E2.28448
G1 X167.961 Y164.349 E2.30085
G1 X167.656 Y164.718 E2.31677
G1 X167.253 Y165.183 E2.33724
G1 X167.057 Y165.403 E2.34704
G1 X166.628 Y165.872 E2.36818
G1 X165.954 Y166.547 E2.39991
G1 X165.374 Y167.08 E2.42611
G1 X165.094 Y167.329 E2.43857
G1 X164.65 Y167.71 E2.45803
G1 X164.209 Y168.069 E2.47694
G1 X163.88 Y168.317 E2.49064
G1 X163.355 Y168.697 E2.5122
G1 X163.118 Y168.864 E2.52184
G1 X162.554 Y169.25 E2.54457
G1 X161.782 Y169.732 E2.57485
G1 X161.225 Y170.049 E2.59616
G1 X160.936 Y170.208 E2.60713
G1 X160.355 Y170.516 E2.629
G1 X159.839 Y170.772 E2.64816
G1 X159.44 Y170.951 E2.66271
G1 X158.895 Y171.183 E2.68241
G1 X158.658 Y171.281 E2.69094
G1 X158.023 Y171.534 E2.71367
G1 X157.431 Y171.751 E2.73464
G1 X157.027 Y171.881 E2.74876
G1 X156.569 Y172.02 E2.76468
G1 X156.31 Y172.095 E2.77365
G1 X155.66 Y172.275 E2.79608
G1 X154.72 Y172.491 E2.82816
G1 X153.972 Y172.629 E2.85346
G1 X153.651 Y172.684 E2.86429
G1 X153.015 Y172.782 E2.88569
G1 X152.092 Y172.884 E2.91658
G1 X151.494 Y172.925 E2.93651
G1 X151.187 Y172.942 E2.94674
G1 X150.57 Y172.967 E2.96728
G1 X149.635 Y172.965 E2.99838
G1 X148.779 Y172.926 E3.02688
G1 X148.362 Y172.9 E3.04077
G1 X147.649 Y172.847 E3.06455
G1 X146.733 Y172.74 E3.09523
G1 X146.206 Y172.656 E3.11298
G1 X145.898 Y172.602 E3.12338
G1 X145.352 Y172.499 E3.14186
G1 X144.762 Y172.371 E3.16194
G1 X144.506 Y172.308 E3.17071
G1 X144.205 Y172.23 E3.18105
G1 X143.749 Y172.104 E3.19678
G1 X142.91 Y171.855 E3.22589
G1 X142.024 Y171.549 E3.25707
G1 X141.314 Y171.269 E3.28245
G1 X140.998 Y171.138 E3.29383
G1 X140.427 Y170.892 E3.31451
G1 X139.86 Y170.629 E3.3353
G1 X139.686 Y170.542 E3.34177
G1 X139.427 Y170.408 E3.35147
G1 X139.129 Y170.249 E3.3627
G1 X138.903 Y170.125 E3.37128
G1 X138.309 Y169.79 E3.39396
G1 X137.491 Y169.281 E3.426
G1 X136.778 Y168.792 E3.45476
G1 X136.474 Y168.575 E3.46718
G1 X135.972 Y168.205 E3.48792
G1 X135.561 Y167.887 E3.50521
G1 X135.465 Y167.809 E3.50932
G1 X135.171 Y167.561 E3.52211
G1 X134.795 Y167.233 E3.53871
G1 X134.592 Y167.052 E3.54775
G1 X134.099 Y166.6 E3.57
G1 X133.428 Y165.929 E3.60156
G1 X132.96 Y165.419 E3.62458
G1 X132.738 Y165.17 E3.63568
G1 X132.309 Y164.673 E3.65752
G1 X131.771 Y163.998 E3.68622
G1 X131.4 Y163.493 E3.70707
G1 X131.224 Y163.246 E3.71715
G1 X130.813 Y162.653 E3.74115
G1 X130.296 Y161.831 E3.77345
G1 X129.936 Y161.199 E3.79764
G1 X129.773 Y160.903 E3.80888
G1 X129.468 Y160.327 E3.83056
G1 X129.082 Y159.52 E3.86031
G1 X128.826 Y158.924 E3.88189
G1 X128.708 Y158.639 E3.89214
G1 X128.466 Y158.029 E3.91397
G1 X128.16 Y157.152 E3.94487
G1 X127.968 Y156.516 E3.96696
G1 X127.875 Y156.19 E3.97824
G1 X127.701 Y155.542 E4.00055
G1 X127.508 Y154.685 E4.02977
G1 X127.38 Y153.988 E4.05334
G1 X127.319 Y153.624 E4.06562
G1 X127.222 Y153.002 E4.08655
G1 X127.117 Y152.059 E4.11811
G1 X127.065 Y151.3 E4.14342
G1 X127.047 Y150.962 E4.15467
G1 X127.024 Y150.352 E4.17498
G1 X127.028 Y149.421 E4.20594
G1 X127.059 Y148.762 E4.22789
G1 X127.078 Y148.453 E4.23818
G1 X127.124 Y147.842 E4.25856
G1 X127.186 Y147.239 E4.27872
G1 X127.216 Y147.01 E4.2864
G1 X127.259 Y146.715 E4.29632
G1 X127.322 Y146.318 E4.30969
G1 X127.362 Y146.081 E4.31768
G1 X127.489 Y145.38 E4.34138
G1 X127.702 Y144.442 E4.37337
G1 X127.893 Y143.743 E4.39747
G1 X127.988 Y143.415 E4.40883
G1 X128.181 Y142.786 E4.43071
G1 X128.369 Y142.226 E4.45036
G1 X128.5 Y141.879 E4.4627
G1 X128.685 Y141.411 E4.47943
G1 X128.816 Y141.094 E4.49084
G1 X129.104 Y140.427 E4.51501
G1 X129.497 Y139.612 E4.5451
G1 X129.818 Y139.01 E4.56779
G1 X129.962 Y138.749 E4.57771
G1 X130.302 Y138.151 E4.60059
G1 X130.807 Y137.345 E4.63222
G1 X131.151 Y136.846 E4.65238
G1 X131.328 Y136.597 E4.66254
G1 X131.733 Y136.043 E4.68537
G1 X132.313 Y135.316 E4.7163
G1 X132.767 Y134.794 E4.73931
G1 X132.966 Y134.572 E4.74922
G1 X133.417 Y134.081 E4.7714
G1 X134.072 Y133.425 E4.80223
G0 F6000 X134.343 Y133.719
G1 F1200 X134.84 Y133.262 E4.82469
G1 X135.062 Y133.064 E4.83458
G1 X135.589 Y132.606 E4.8578
G1 X136.276 Y132.057 E4.88705
G1 X136.815 Y131.662 E4.90928
G1 X137.089 Y131.468 E4.92044
G1 X137.61 Y131.111 E4.94145
G1 X138.367 Y130.638 E4.97114
G1 X138.985 Y130.287 E4.99478
G1 X139.259 Y130.137 E5.00517
G1 X139.85 Y129.824 E5.02741
G1 X140.645 Y129.444 E5.05672
G1 X141.251 Y129.185 E5.07864
G1 X141.543 Y129.065 E5.08914
G1 X142.144 Y128.829 E5.11061
G1 X142.959 Y128.547 E5.1393
G1 X143.606 Y128.352 E5.16177
G1 X143.915 Y128.264 E5.17246
G1 X144.6 Y128.08 E5.19605
G1 X145.117 Y127.955 E5.21374
G1 X145.233 Y127.93 E5.21769
G1 X145.582 Y127.861 E5.22952
G1 X146.13 Y127.762 E5.24804
G1 X146.359 Y127.723 E5.25577
G1 X147.017 Y127.619 E5.27792
G1 X147.935 Y127.515 E5.30865
G1 X148.638 Y127.466 E5.33209
G1 X148.951 Y127.448 E5.34252
G1 X149.576 Y127.423 E5.36332
G1 X150.495 Y127.427 E5.39389
G1 X151.223 Y127.461 E5.41813
G1 X151.547 Y127.481 E5.42893
G1 X151.986 Y127.515 E5.44357
G1 X152.639 Y127.586 E5.46542
G1 X153.68 Y127.732 E5.50038
G1 X154.055 Y127.791 E5.51301
G1 X154.445 Y127.86 E5.52618
G1 X155.348 Y128.061 E5.55695
G1 X156.167 Y128.281 E5.58515
G1 X156.466 Y128.366 E5.59549
G1 X157.022 Y128.533 E5.6148
G1 X157.871 Y128.828 E5.6447
G1 X158.478 Y129.068 E5.66641
G1 X158.738 Y129.174 E5.67574
G1 X159.329 Y129.426 E5.69711
G1 X160.156 Y129.822 E5.72761
G1 X160.809 Y130.17 E5.75222
G1 X161.1 Y130.331 E5.76328
G1 X161.642 Y130.642 E5.78407
G1 X162.051 Y130.889 E5.79996
G1 X162.424 Y131.134 E5.8148
G1 X162.914 Y131.471 E5.83458
G1 X163.16 Y131.646 E5.84462
G1 X163.702 Y132.042 E5.86695
G1 X164.397 Y132.596 E5.89651
G1 X164.942 Y133.069 E5.92051
G1 X165.178 Y133.28 E5.93104
G1 X165.663 Y133.727 E5.95298
G1 X166.278 Y134.343 E5.98193
G1 X166.752 Y134.858 E6.00521
G1 X166.981 Y135.115 E6.01666
G1 X167.4 Y135.601 E6.038
G1 X167.923 Y136.258 E6.06593
G1 X168.29 Y136.759 E6.08658
G1 X168.472 Y137.015 E6.09703
G1 X168.891 Y137.624 E6.12162
G1 X169.375 Y138.397 E6.15195
G1 X169.705 Y138.978 E6.17418
G1 X169.85 Y139.242 E6.18419
G1 X170.142 Y139.792 E6.20491
G1 X170.404 Y140.321 E6.22454
G1 X170.558 Y140.665 E6.23708
G1 X170.804 Y141.241 E6.25791
G1 X170.911 Y141.501 E6.26726
G1 X171.17 Y142.155 E6.29065
G1 X171.465 Y143.002 E6.32049
G1 X171.652 Y143.623 E6.34206
G1 X171.738 Y143.926 E6.35253
G1 X171.926 Y144.625 E6.37661
G1 X172.109 Y145.426 E6.40393
G1 X172.204 Y145.933 E6.42109
G1 X172.257 Y146.242 E6.43152
G1 X172.359 Y146.892 E6.4534
G1 X172.424 Y147.379 E6.46974
G1 X172.469 Y147.855 E6.48565
G1 X172.52 Y148.581 E6.50985
G1 X172.537 Y148.9 E6.52048
G1 X172.57 Y149.618 E6.54438
G1 X172.572 Y150.541 E6.57508
G1 X172.547 Y151.148 E6.59529
G1 X172.531 Y151.438 E6.60495
G1 X172.491 Y152.021 E6.62438
G1 X172.39 Y152.926 E6.65467
G1 X172.274 Y153.671 E6.67975
G1 X172.222 Y153.974 E6.68997
G1 X172.101 Y154.626 E6.71203
G1 X171.981 Y155.186 E6.73108
G1 X171.876 Y155.598 E6.74522
G1 X171.747 Y156.067 E6.7614
G1 X171.675 Y156.319 E6.77012
G1 X171.464 Y157.018 E6.7944
G1 X171.172 Y157.857 E6.82395
G1 X170.938 Y158.448 E6.84509
G1 X170.814 Y158.747 E6.85585
G1 X170.533 Y159.398 E6.87944
G1 X170.151 Y160.191 E6.90871
G1 X169.854 Y160.747 E6.92968
G1 X169.714 Y161.001 E6.93933
G1 X169.355 Y161.631 E6.96344
G1 X169.041 Y162.147 E6.98353
G1 X168.835 Y162.457 E6.99591
G1 X168.489 Y162.958 E7.01616
G1 X168.338 Y163.171 E7.02485
G1 X167.937 Y163.722 E7.04751
G1 X167.648 Y164.101 E7.06337
G1 X167.353 Y164.456 E7.07872
G1 X166.95 Y164.921 E7.09918
G1 X166.761 Y165.133 E7.10863
G1 X166.332 Y165.602 E7.12977
G1 X165.683 Y166.253 E7.16035
G1 X165.103 Y166.786 E7.18654
G1 X164.834 Y167.025 E7.19851
G1 X164.39 Y167.406 E7.21797
G1 X163.964 Y167.753 E7.23625
G1 X163.645 Y167.993 E7.24952
G1 X163.12 Y168.373 E7.27108
G1 X162.892 Y168.533 E7.28034
G1 X162.328 Y168.919 E7.30308
G1 X161.584 Y169.385 E7.33227
G1 X161.027 Y169.702 E7.35359
G1 X160.749 Y169.854 E7.36413
G1 X160.168 Y170.162 E7.386
G1 X159.671 Y170.409 E7.40446
G1 X159.284 Y170.583 E7.41857
G1 X158.739 Y170.815 E7.43827
G1 X158.51 Y170.909 E7.44651
G1 X157.875 Y171.162 E7.46924
G1 X157.304 Y171.371 E7.48946
G1 X156.91 Y171.498 E7.50323
G1 X156.452 Y171.637 E7.51915
G1 X156.203 Y171.71 E7.52778
G1 X155.553 Y171.89 E7.55021
G1 X154.647 Y172.098 E7.58113
G1 X153.899 Y172.236 E7.60643
G1 X153.59 Y172.288 E7.61685
G1 X152.954 Y172.386 E7.63826
G1 X152.065 Y172.485 E7.66801
G1 X151.467 Y172.526 E7.68794
G1 X151.171 Y172.542 E7.6978
G1 X150.554 Y172.567 E7.71834
G1 X149.653 Y172.565 E7.74831
G1 X148.803 Y172.526 E7.77661
G1 X148.391 Y172.501 E7.79034
G1 X147.678 Y172.448 E7.81412
G1 X146.795 Y172.345 E7.84369
G1 X146.268 Y172.261 E7.86143
G1 X145.972 Y172.209 E7.87143
G1 X145.426 Y172.106 E7.88991
G1 X144.858 Y171.983 E7.90924
G1 X144.602 Y171.92 E7.91801
G1 X144.312 Y171.844 E7.92798
G1 X143.856 Y171.718 E7.94372
G1 X143.644 Y171.657 E7.95105
G1 X143.025 Y171.472 E7.97254
G1 X142.171 Y171.177 E8.00259
G1 X141.461 Y170.897 E8.02798
G1 X141.156 Y170.771 E8.03895
G1 X140.585 Y170.525 E8.05963
G1 X140.039 Y170.271 E8.07966
G1 X139.865 Y170.184 E8.08613
G1 X139.615 Y170.055 E8.09549
G1 X139.317 Y169.896 E8.10672
G1 X139.1 Y169.777 E8.11495
G1 X138.506 Y169.442 E8.13763
G1 X137.718 Y168.951 E8.16852
G1 X137.005 Y168.462 E8.19727
G1 X136.711 Y168.253 E8.20927
G1 X136.209 Y167.883 E8.23001
G1 X135.814 Y167.577 E8.24663
G1 X135.718 Y167.499 E8.25074
G1 X135.434 Y167.26 E8.26309
G1 X135.058 Y166.932 E8.27968
G1 X134.863 Y166.757 E8.2884
G1 X134.37 Y166.305 E8.31064
G1 X133.723 Y165.659 E8.34105
G1 X133.255 Y165.149 E8.36408
G1 X133.041 Y164.908 E8.3748
G1 X132.612 Y164.411 E8.39663
G1 X132.093 Y163.761 E8.4243
G1 X131.722 Y163.256 E8.44514
G1 X131.553 Y163.018 E8.45485
G1 X131.142 Y162.425 E8.47885
G1 X130.643 Y161.634 E8.50995
G1 X130.283 Y161.002 E8.53414
G1 X130.126 Y160.715 E8.54502
G1 X129.821 Y160.139 E8.5667
G1 X129.449 Y159.362 E8.59535
G1 X129.193 Y158.766 E8.61693
G1 X129.08 Y158.492 E8.62679
G1 X128.838 Y157.882 E8.64861
G1 X128.543 Y157.036 E8.67841
G1 X128.351 Y156.4 E8.70051
G1 X128.262 Y156.086 E8.71136
G1 X128.088 Y155.438 E8.73368
G1 X127.901 Y154.612 E8.76185
G1 X127.774 Y153.921 E8.78522
G1 X127.715 Y153.562 E8.79732
G1 X127.618 Y152.94 E8.81825
G1 X127.516 Y152.032 E8.84864
G1 X127.464 Y151.273 E8.87395
G1 X127.447 Y150.947 E8.88481
G1 X127.424 Y150.337 E8.90511
G1 X127.428 Y149.44 E8.93494
G1 X127.459 Y148.781 E8.95689
G1 X127.477 Y148.483 E8.96682
G1 X127.523 Y147.872 E8.9872
G1 X127.583 Y147.291 E9.00662
G1 X127.613 Y147.062 E9.0143
G1 X127.654 Y146.778 E9.02385
G1 X127.717 Y146.381 E9.03722
G1 X127.756 Y146.152 E9.04494
G1 X127.883 Y145.451 E9.06864
G1 X128.088 Y144.547 E9.09947
G1 X128.279 Y143.848 E9.12357
G1 X128.37 Y143.533 E9.13448
G1 X128.563 Y142.904 E9.15636
G1 X128.745 Y142.364 E9.17531
G1 X128.872 Y142.026 E9.18732
G1 X129.057 Y141.558 E9.20406
G1 X129.183 Y141.253 E9.21503
G1 X129.471 Y140.586 E9.2392
G1 X129.85 Y139.801 E9.26819
G1 X130.171 Y139.199 E9.29088
G1 X130.309 Y138.947 E9.30044
G1 X130.649 Y138.349 E9.32332
G1 X131.137 Y137.572 E9.35384
G1 X131.481 Y137.073 E9.37399
G1 X131.651 Y136.833 E9.38378
G1 X132.056 Y136.279 E9.4066
G1 X132.615 Y135.579 E9.4364
G1 X133.069 Y135.057 E9.45941
G1 X133.26 Y134.842 E9.46897
G1 X133.711 Y134.351 E9.49115
G1 X134.343 Y133.719 E9.52087
G0 F6000 X134.614 Y134.014
G1 F1200 X135.111 Y133.557 E9.54333
G1 X135.324 Y133.366 E9.55284
G1 X135.851 Y132.908 E9.57607
G1 X136.513 Y132.38 E9.60423
G1 X137.052 Y131.985 E9.62646
G1 X137.315 Y131.798 E9.63719
G1 X137.836 Y131.441 E9.6582
G1 X138.565 Y130.986 E9.68678
G1 X139.183 Y130.635 E9.71042
G1 X139.446 Y130.49 E9.72041
G1 X140.037 Y130.177 E9.74265
G1 X140.802 Y129.812 E9.77084
G1 X141.408 Y129.553 E9.79276
G1 X141.689 Y129.438 E9.80286
G1 X142.29 Y129.202 E9.82433
G1 X143.075 Y128.93 E9.85197
G1 X143.722 Y128.735 E9.87444
G1 X144.019 Y128.65 E9.88472
G1 X144.704 Y128.466 E9.90831
G1 X145.201 Y128.346 E9.92531
G1 X145.653 Y128.254 E9.94065
G1 X146.201 Y128.155 E9.95918
G1 X146.422 Y128.118 E9.96663
G1 X147.08 Y128.014 E9.98879
G1 X147.963 Y127.914 E10.01834
G1 X148.666 Y127.865 E10.04178
