;FLAVOR:Marlin
;TIME:3936
;Filament used: 2.20861m
;Layer height: 0.2
;MINX:123.023
;MINY:123.017
;MINZ:0.2
;MAXX:176.988
;MAXY:176.984
;MAXZ:25
;Generated with Creality Slicer 4.8.2-191
M140 S50
M105
M190 S50
M104 S200
M105
M109 S200
M82 ;absolute extrusion mode

G28 ;Home

G92 E0 ;Reset Extruder
G1 Z2.0 F3000 ;Move Z Axis up
G1 X10.1 Y20 Z0.28 F5000.0 ;Move to start position
G1 X10.1 Y200.0 Z0.28 F1500.0 E15 ;Draw the first line
G1 X10.4 Y200.0 Z0.28 F5000.0 ;Move to side a little
G1 X10.4 Y20 Z0.28 F1500.0 E30 ;Draw the second line
G92 E0 ;Reset Extruder
G1 Z2.0 F3000 ;Move Z Axis up

G92 E0
G92 E0
G1 F2700 E-5
;LAYER_COUNT:125
;LAYER:0
M107
G0 F6000 X130.864 Y130.985 Z0.2
;TYPE:SKIRT
G1 F2700 E0
G1 F1200 X131.4 Y130.45 E0.02519
G1 X131.845 Y130.03 E0.04554
G1 X132.124 Y129.786 E0.05787
G1 X132.694 Y129.306 E0.08265
G1 X133.078 Y128.992 E0.09915
G1 X133.67 Y128.518 E0.12437
G1 X134.403 Y127.979 E0.15464
G1 X135.068 Y127.533 E0.18127
G1 X135.531 Y127.234 E0.1996
G1 X136.144 Y126.847 E0.22371
G1 X136.636 Y126.553 E0.24277
G1 X136.743 Y126.493 E0.24685
G1 X137.03 Y126.338 E0.2577
G1 X137.541 Y126.072 E0.27686
G1 X138.128 Y125.777 E0.29871
G1 X138.776 Y125.461 E0.32269
G1 X139.594 Y125.102 E0.3524
G1 X140.295 Y124.83 E0.37741
G1 X140.859 Y124.62 E0.39743
G1 X141.505 Y124.388 E0.42026
G1 X142.092 Y124.196 E0.4408
G1 X142.456 Y124.093 E0.45338
G1 X143.193 Y123.897 E0.47875
G1 X143.648 Y123.783 E0.49435
G1 X144.386 Y123.606 E0.51959
G1 X145.303 Y123.427 E0.55067
G1 X146.065 Y123.313 E0.57629
G1 X146.608 Y123.238 E0.59453
G1 X147.303 Y123.151 E0.61782
G1 X147.926 Y123.091 E0.63864
G1 X148.265 Y123.072 E0.64993
G1 X149.048 Y123.04 E0.676
G1 X149.607 Y123.026 E0.69459
G1 X150.29 Y123.017 E0.71731
G1 X150.837 Y123.023 E0.73551
G1 X151.289 Y123.046 E0.75056
G1 X151.96 Y123.094 E0.77293
G1 X152.6 Y123.149 E0.7943
G1 X153.29 Y123.217 E0.81736
G1 X154.159 Y123.338 E0.84654
G1 X154.96 Y123.483 E0.87362
G1 X155.512 Y123.592 E0.89233
G1 X156.205 Y123.738 E0.91589
G1 X157.08 Y123.961 E0.94592
G1 X157.833 Y124.186 E0.97206
G1 X158.388 Y124.361 E0.99141
G1 X159.046 Y124.578 E1.01446
G1 X159.475 Y124.73 E1.0296
G1 X159.576 Y124.768 E1.03318
G1 X159.988 Y124.932 E1.04793
G1 X160.59 Y125.188 E1.06969
G1 X161.147 Y125.434 E1.08994
G1 X161.777 Y125.721 E1.11297
G1 X162.578 Y126.126 E1.14282
G1 X163.297 Y126.528 E1.17022
G1 X163.608 Y126.707 E1.18216
G1 X164.394 Y127.176 E1.2126
G1 X164.775 Y127.414 E1.22754
G1 X165.202 Y127.704 E1.24471
G1 X165.773 Y128.114 E1.26809
G1 X166.249 Y128.465 E1.28776
G1 X166.797 Y128.879 E1.3106
G1 X167.483 Y129.443 E1.34014
G1 X168.059 Y129.957 E1.36582
G1 X168.414 Y130.284 E1.38187
G1 X169.02 Y130.858 E1.40963
G1 X169.373 Y131.207 E1.42614
G1 X169.705 Y131.563 E1.44233
G1 X170.219 Y132.141 E1.46806
G1 X170.561 Y132.537 E1.48546
G1 X171.011 Y133.069 E1.50864
G1 X171.413 Y133.573 E1.53008
G1 X171.638 Y133.878 E1.54268
G1 X172.001 Y134.389 E1.56353
G1 X172.356 Y134.901 E1.58425
G1 X172.745 Y135.479 E1.60743
G1 X173.066 Y135.986 E1.62739
G1 X173.264 Y136.327 E1.6405
G1 X173.625 Y136.978 E1.66526
G1 X173.896 Y137.481 E1.68426
G1 X174.194 Y138.051 E1.70566
G1 X174.444 Y138.561 E1.72455
G1 X174.494 Y138.67 E1.72854
G1 X174.636 Y138.993 E1.74027
G1 X174.892 Y139.603 E1.76227
G1 X175.123 Y140.173 E1.78273
G1 X175.362 Y140.786 E1.80461
G1 X175.488 Y141.126 E1.81667
G1 X175.69 Y141.741 E1.8382
G1 X175.894 Y142.433 E1.8622
G1 X176.047 Y142.978 E1.88103
G1 X176.182 Y143.485 E1.89848
G1 X176.333 Y144.133 E1.92061
G1 X176.55 Y145.205 E1.95698
G1 X176.622 Y145.597 E1.97024
G1 X176.685 Y145.979 E1.98312
G1 X176.733 Y146.296 E1.99378
G1 X176.778 Y146.629 E2.00496
G1 X176.848 Y147.309 E2.02769
G1 X176.937 Y148.557 E2.06931
G1 X176.953 Y148.866 E2.0796
G1 X176.981 Y149.558 E2.10263
G1 X176.988 Y150.211 E2.12435
G1 X176.978 Y150.577 E2.13653
G1 X176.951 Y151.201 E2.15731
G1 X176.917 Y151.803 E2.17736
G1 X176.886 Y152.25 E2.19226
G1 X176.855 Y152.61 E2.20428
G1 X176.784 Y153.303 E2.22745
G1 X176.692 Y153.988 E2.25044
G1 X176.588 Y154.613 E2.27151
G1 X176.537 Y154.895 E2.28104
G1 X176.438 Y155.407 E2.29839
G1 X176.278 Y156.11 E2.32237
G1 X175.952 Y157.353 E2.36511
G1 X175.852 Y157.71 E2.37744
G1 X175.665 Y158.336 E2.39917
G1 X175.467 Y158.935 E2.42015
G1 X175.347 Y159.256 E2.43155
G1 X175.112 Y159.856 E2.45298
G1 X174.866 Y160.461 E2.4747
G1 X174.592 Y161.108 E2.49807
G1 X174.352 Y161.636 E2.51736
G1 X174.168 Y162.002 E2.53099
G1 X173.843 Y162.62 E2.55421
G1 X173.563 Y163.136 E2.57374
G1 X173.216 Y163.755 E2.59734
G1 X172.909 Y164.27 E2.61728
G1 X172.709 Y164.577 E2.62947
G1 X172.33 Y165.137 E2.65196
G1 X171.992 Y165.623 E2.67165
G1 X171.558 Y166.229 E2.69644
G1 X171.186 Y166.718 E2.71688
G1 X170.931 Y167.03 E2.73028
G1 X170.588 Y167.433 E2.74788
G1 X170.116 Y167.977 E2.77183
G1 X169.661 Y168.484 E2.79449
G1 X169.252 Y168.915 E2.81425
G1 X168.949 Y169.212 E2.82837
G1 X168.49 Y169.645 E2.84935
G1 X168.127 Y169.98 E2.86578
G1 X167.48 Y170.558 E2.89464
G1 X166.983 Y170.976 E2.91624
G1 X166.705 Y171.192 E2.92795
G1 X166.232 Y171.547 E2.94762
G1 X165.699 Y171.938 E2.9696
G1 X165.131 Y172.343 E2.99281
G1 X164.385 Y172.831 E3.02246
G1 X163.673 Y173.255 E3.05002
G1 X163.186 Y173.534 E3.06869
G1 X162.581 Y173.872 E3.09173
G1 X161.793 Y174.272 E3.12113
G1 X161.227 Y174.531 E3.14183
G1 X160.683 Y174.77 E3.16159
G1 X159.866 Y175.115 E3.19109
G1 X159.278 Y175.343 E3.21207
G1 X158.946 Y175.458 E3.22375
G1 X158.32 Y175.662 E3.24565
G1 X157.685 Y175.859 E3.26776
G1 X157.021 Y176.055 E3.29079
G1 X156.488 Y176.198 E3.30914
G1 X156.062 Y176.295 E3.32368
G1 X155.501 Y176.411 E3.34273
G1 X154.914 Y176.527 E3.36263
G1 X154.383 Y176.624 E3.38058
G1 X154.012 Y176.685 E3.39309
G1 X153.68 Y176.734 E3.40425
G1 X153.235 Y176.791 E3.41917
G1 X152.943 Y176.822 E3.42894
G1 X152.684 Y176.846 E3.43759
G1 X151.895 Y176.91 E3.46392
G1 X151.158 Y176.96 E3.48849
G1 X150.248 Y176.984 E3.51877
G1 X149.425 Y176.97 E3.54614
G1 X148.942 Y176.955 E3.56222
G1 X148.183 Y176.923 E3.58748
G1 X147.557 Y176.879 E3.60835
G1 X147.145 Y176.838 E3.62213
G1 X146.864 Y176.806 E3.63153
G1 X146.37 Y176.744 E3.64809
G1 X146.056 Y176.7 E3.65864
G1 X145.643 Y176.636 E3.67254
G1 X145.34 Y176.585 E3.68276
G1 X144.767 Y176.478 E3.70214
G1 X144.273 Y176.371 E3.71896
G1 X143.629 Y176.214 E3.741
G1 X143.058 Y176.068 E3.76061
G1 X142.377 Y175.885 E3.78406
G1 X141.753 Y175.698 E3.80572
G1 X141.401 Y175.576 E3.81812
G1 X140.822 Y175.367 E3.83859
G1 X140.196 Y175.132 E3.86083
G1 X139.575 Y174.889 E3.88301
G1 X139.024 Y174.656 E3.90291
G1 X138.644 Y174.478 E3.91686
G1 X138.068 Y174.195 E3.93821
G1 X137.502 Y173.906 E3.95935
G1 X136.876 Y173.577 E3.98287
G1 X136.402 Y173.314 E4.0009
G1 X136.058 Y173.104 E4.0143
G1 X135.437 Y172.709 E4.03878
G1 X134.952 Y172.39 E4.05809
G1 X134.368 Y171.995 E4.08154
G1 X133.931 Y171.683 E4.0994
G1 X133.598 Y171.426 E4.11339
G1 X133.024 Y170.966 E4.13785
G1 X132.596 Y170.612 E4.15633
G1 X132.07 Y170.167 E4.17924
G1 X131.589 Y169.735 E4.20074
G1 X131.324 Y169.478 E4.21302
G1 X130.813 Y168.964 E4.23713
G1 X130.451 Y168.589 E4.25447
G1 X129.956 Y168.066 E4.27842
G1 X129.654 Y167.734 E4.29334
G1 X129.302 Y167.314 E4.31157
G1 X128.87 Y166.77 E4.33467
G1 X128.531 Y166.334 E4.35304
G1 X128.083 Y165.741 E4.37776
G1 X127.735 Y165.253 E4.3977
G1 X127.496 Y164.889 E4.41218
G1 X127.184 Y164.395 E4.43161
G1 X126.826 Y163.811 E4.4544
G1 X126.486 Y163.24 E4.4765
G1 X126.19 Y162.71 E4.49669
G1 X126.015 Y162.366 E4.50953
G1 X125.722 Y161.763 E4.53183
G1 X125.463 Y161.211 E4.55211
G1 X125.169 Y160.562 E4.5758
G1 X124.951 Y160.045 E4.59447
G1 X124.79 Y159.622 E4.60952
G1 X124.578 Y159.028 E4.6305
G1 X124.376 Y158.435 E4.65133
G1 X124.164 Y157.788 E4.67398
G1 X123.975 Y157.148 E4.69617
G1 X123.886 Y156.795 E4.70828
G1 X123.72 Y156.091 E4.73234
G1 X123.601 Y155.553 E4.75066
G1 X123.466 Y154.907 E4.77262
G1 X123.379 Y154.446 E4.78822
G1 X123.302 Y153.92 E4.8059
G1 X123.212 Y153.179 E4.83073
G1 X123.166 Y152.759 E4.84478
G1 X123.081 Y151.861 E4.87478
G1 X123.033 Y150.99 E4.90379
G1 X123.023 Y150.215 E4.92957
G1 X123.024 Y149.657 E4.94813
G1 X123.034 Y148.986 E4.97045
G1 X123.06 Y148.376 E4.99076
G1 X123.071 Y148.22 E4.99596
G1 X123.095 Y147.94 E5.00531
G1 X123.149 Y147.386 E5.02382
G1 X123.222 Y146.734 E5.04564
G1 X123.316 Y145.982 E5.07085
G1 X123.464 Y145.092 E5.10086
G1 X123.627 Y144.321 E5.12707
G1 X123.76 Y143.739 E5.14692
G1 X123.921 Y143.071 E5.16978
G1 X124.043 Y142.61 E5.18564
G1 X124.192 Y142.12 E5.20267
G1 X124.405 Y141.478 E5.22517
G1 X124.605 Y140.898 E5.24558
G1 X124.839 Y140.248 E5.26855
G1 X125.171 Y139.431 E5.29788
G1 X125.498 Y138.713 E5.32413
G1 X125.762 Y138.157 E5.3446
G1 X126.069 Y137.531 E5.36779
G1 X126.491 Y136.75 E5.39731
G1 X126.875 Y136.107 E5.42222
G1 X127.219 Y135.55 E5.444
G1 X127.568 Y135.001 E5.46563
G1 X127.9 Y134.508 E5.4854
G1 X128.162 Y134.15 E5.50016
G1 X128.56 Y133.628 E5.52199
G1 X128.918 Y133.169 E5.54135
G1 X129.36 Y132.617 E5.56487
G1 X129.94 Y131.95 E5.59427
G1 X130.5 Y131.357 E5.6214
G1 X130.864 Y130.985 E5.63871
G0 F6000 X131.147 Y131.268
G1 F1200 X131.683 Y130.733 E5.6639
G1 X132.111 Y130.328 E5.68349
G1 X132.383 Y130.091 E5.69549
G1 X132.947 Y129.615 E5.72004
G1 X133.328 Y129.305 E5.73638
G1 X133.92 Y128.831 E5.7616
G1 X134.626 Y128.311 E5.79076
G1 X135.149 Y127.959 E5.81173
G1 X135.744 Y127.572 E5.83534
G1 X136.357 Y127.185 E5.85945
G1 X136.832 Y126.902 E5.87784
G1 X137.216 Y126.692 E5.8924
G1 X137.721 Y126.429 E5.91134
G1 X138.303 Y126.136 E5.93301
G1 X138.951 Y125.82 E5.95699
G1 X139.739 Y125.475 E5.9856
G1 X140.279 Y125.264 E6.00488
G1 X140.994 Y124.997 E6.03027
G1 X141.64 Y124.765 E6.0531
G1 X142.206 Y124.579 E6.07291
G1 X142.559 Y124.479 E6.08511
G1 X143.291 Y124.285 E6.1103
G1 X143.741 Y124.172 E6.12573
G1 X144.479 Y123.995 E6.15097
G1 X145.363 Y123.823 E6.18093
G1 X146.12 Y123.709 E6.20639
G1 X146.657 Y123.635 E6.22442
G1 X147.352 Y123.548 E6.24772
G1 X147.955 Y123.49 E6.26786
G1 X148.282 Y123.471 E6.27876
G1 X149.059 Y123.44 E6.30462
G1 X149.612 Y123.426 E6.32302
G1 X150.295 Y123.417 E6.34574
G1 X150.823 Y123.423 E6.3633
G1 X151.261 Y123.445 E6.37789
G1 X151.927 Y123.493 E6.4001
G1 X152.561 Y123.547 E6.42126
G1 X153.251 Y123.615 E6.44432
G1 X154.089 Y123.732 E6.47246
G1 X154.883 Y123.876 E6.4993
G1 X155.429 Y123.984 E6.51781
G1 X156.122 Y124.13 E6.54137
G1 X156.966 Y124.344 E6.57033
G1 X157.713 Y124.568 E6.59627
G1 X158.263 Y124.741 E6.61544
G1 X158.921 Y124.958 E6.63849
G1 X159.334 Y125.104 E6.65306
G1 X159.435 Y125.142 E6.65665
G1 X159.832 Y125.301 E6.67087
G1 X160.43 Y125.555 E6.69248
G1 X160.981 Y125.798 E6.71251
G1 X161.611 Y126.085 E6.73554
G1 X162.383 Y126.475 E6.7643
G1 X163.098 Y126.875 E6.79155
G1 X163.562 Y127.144 E6.80939
G1 X164.189 Y127.519 E6.83369
G1 X164.557 Y127.75 E6.84814
G1 X164.969 Y128.03 E6.86471
G1 X165.536 Y128.436 E6.88791
G1 X166.008 Y128.784 E6.90741
G1 X166.556 Y129.198 E6.93025
G1 X167.217 Y129.741 E6.9587
G1 X167.788 Y130.252 E6.98419
G1 X168.251 Y130.68 E7.00516
G1 X168.745 Y131.148 E7.02779
G1 X169.087 Y131.486 E7.04379
G1 X169.406 Y131.829 E7.05937
G1 X169.917 Y132.404 E7.08495
G1 X170.256 Y132.795 E7.10216
G1 X170.706 Y133.327 E7.12534
G1 X171.093 Y133.813 E7.146
G1 X171.312 Y134.11 E7.15828
G1 X171.672 Y134.617 E7.17896
G1 X172.024 Y135.125 E7.19951
G1 X172.413 Y135.703 E7.22269
G1 X172.722 Y136.191 E7.2419
G1 X172.914 Y136.521 E7.2546
G1 X173.273 Y137.168 E7.27921
G1 X173.542 Y137.666 E7.29803
G1 X173.84 Y138.236 E7.31942
G1 X174.081 Y138.727 E7.33762
G1 X174.131 Y138.836 E7.34161
G1 X174.268 Y139.148 E7.35294
G1 X174.521 Y139.753 E7.37475
G1 X174.75 Y140.319 E7.39506
G1 X174.989 Y140.932 E7.41694
G1 X175.112 Y141.262 E7.42865
G1 X175.306 Y141.854 E7.44937
G1 X175.509 Y142.541 E7.4732
G1 X175.66 Y143.081 E7.49185
G1 X175.795 Y143.588 E7.5093
G1 X175.941 Y144.212 E7.53062
G1 X176.158 Y145.284 E7.56699
G1 X176.228 Y145.662 E7.57978
G1 X176.291 Y146.044 E7.59266
G1 X176.337 Y146.349 E7.60292
G1 X176.382 Y146.682 E7.61409
G1 X176.449 Y147.338 E7.63602
G1 X176.538 Y148.579 E7.67741
G1 X176.553 Y148.882 E7.6875
G1 X176.581 Y149.574 E7.71053
G1 X176.588 Y150.203 E7.73145
G1 X176.578 Y150.56 E7.74333
G1 X176.551 Y151.179 E7.76394
G1 X176.518 Y151.775 E7.78379
G1 X176.487 Y152.222 E7.7987
G1 X176.457 Y152.569 E7.81028
G1 X176.386 Y153.262 E7.83345
G1 X176.297 Y153.922 E7.8556
G1 X176.193 Y154.547 E7.87667
G1 X176.144 Y154.819 E7.88587
G1 X176.045 Y155.331 E7.90321
G1 X175.891 Y156.008 E7.9263
G1 X175.565 Y157.251 E7.96904
G1 X175.469 Y157.596 E7.98095
G1 X175.282 Y158.222 E8.00268
G1 X175.091 Y158.799 E8.0229
G1 X174.975 Y159.111 E8.03397
G1 X174.741 Y159.706 E8.05524
G1 X174.498 Y160.305 E8.07674
G1 X174.224 Y160.952 E8.1001
G1 X173.992 Y161.46 E8.11868
G1 X173.814 Y161.817 E8.13195
G1 X173.491 Y162.43 E8.15499
G1 X173.214 Y162.94 E8.1743
G1 X172.867 Y163.559 E8.1979
G1 X172.571 Y164.056 E8.21714
G1 X172.377 Y164.353 E8.22894
G1 X172.001 Y164.909 E8.25126
G1 X171.667 Y165.39 E8.27074
G1 X171.233 Y165.996 E8.29553
G1 X170.875 Y166.468 E8.31523
G1 X170.626 Y166.771 E8.32828
G1 X170.286 Y167.172 E8.34576
G1 X169.947 Y167.564 E8.363
G1 X169.363 Y168.217 E8.39214
G1 X168.969 Y168.632 E8.41117
G1 X168.675 Y168.921 E8.42488
G1 X168.219 Y169.351 E8.44573
G1 X167.718 Y169.811 E8.46835
G1 X167.214 Y170.26 E8.4908
G1 X166.735 Y170.662 E8.5116
G1 X166.464 Y170.873 E8.52302
G1 X165.995 Y171.225 E8.54253
G1 X165.467 Y171.613 E8.56432
G1 X164.899 Y172.018 E8.58752
G1 X164.18 Y172.488 E8.61609
G1 X163.619 Y172.823 E8.63783
G1 X162.991 Y173.185 E8.66193
G1 X162.386 Y173.523 E8.68498
G1 X161.627 Y173.908 E8.71329
G1 X161.061 Y174.167 E8.73399
G1 X160.522 Y174.404 E8.75358
G1 X159.711 Y174.747 E8.78286
G1 X159.145 Y174.966 E8.80305
G1 X158.822 Y175.078 E8.81442
G1 X158.201 Y175.28 E8.83614
G1 X157.572 Y175.475 E8.85804
G1 X156.908 Y175.671 E8.88107
G1 X156.394 Y175.809 E8.89877
G1 X155.98 Y175.904 E8.9129
G1 X155.423 Y176.019 E8.93182
G1 X154.842 Y176.133 E8.95151
G1 X154.311 Y176.23 E8.96946
G1 X153.954 Y176.289 E8.9815
G1 X153.622 Y176.338 E8.99266
G1 X153.193 Y176.393 E9.00704
G1 X152.901 Y176.424 E9.01681
G1 X152.651 Y176.447 E9.02516
G1 X151.867 Y176.511 E9.05132
G1 X151.13 Y176.561 E9.07589
G1 X150.254 Y176.584 E9.10504
G1 X149.437 Y176.57 E9.13222
G1 X148.958 Y176.556 E9.14815
G1 X148.199 Y176.524 E9.17342
G1 X147.596 Y176.481 E9.19353
G1 X147.184 Y176.44 E9.2073
G1 X146.914 Y176.409 E9.21634
G1 X146.42 Y176.347 E9.2329
G1 X146.117 Y176.305 E9.24307
G1 X145.704 Y176.241 E9.25697
G1 X145.413 Y176.192 E9.26679
G1 X144.845 Y176.086 E9.286
G1 X144.367 Y175.982 E9.30227
G1 X143.727 Y175.826 E9.32418
G1 X143.162 Y175.682 E9.34358
G1 X142.481 Y175.499 E9.36703
G1 X141.88 Y175.318 E9.38791
G1 X141.536 Y175.2 E9.4
G1 X140.962 Y174.992 E9.42031
G1 X140.341 Y174.759 E9.44237
G1 X139.72 Y174.516 E9.46455
G1 X139.189 Y174.292 E9.48372
G1 X138.82 Y174.119 E9.49727
G1 X138.249 Y173.838 E9.51844
G1 X137.688 Y173.552 E9.53938
G1 X137.062 Y173.223 E9.5629
G1 X136.604 Y172.968 E9.58034
G1 X136.273 Y172.767 E9.59322
G1 X135.656 Y172.374 E9.61755
G1 X135.176 Y172.058 E9.63666
G1 X134.592 Y171.663 E9.66011
G1 X134.171 Y171.363 E9.67731
G1 X133.848 Y171.114 E9.69087
G1 X133.279 Y170.658 E9.71512
G1 X132.855 Y170.306 E9.73345
G1 X132.329 Y169.861 E9.75637
G1 X131.865 Y169.445 E9.7771
G1 X131.607 Y169.195 E9.78904
G1 X131.1 Y168.685 E9.81296
G1 X130.741 Y168.314 E9.83013
G1 X130.246 Y167.791 E9.85408
G1 X129.954 Y167.47 E9.86852
G1 X129.615 Y167.065 E9.88608
G1 X129.185 Y166.524 E9.90907
G1 X128.85 Y166.093 E9.92723
G1 X128.402 Y165.5 E9.95194
G1 X128.067 Y165.03 E9.97114
G1 X127.834 Y164.676 E9.98524
G1 X127.525 Y164.186 E10.0045
G1 X127.169 Y163.606 E10.02714
G1 X126.829 Y163.035 E10.04924
G1 X126.544 Y162.525 E10.06867
G1 X126.374 Y162.191 E10.08114
G1 X126.084 Y161.592 E10.10327
G1 X125.828 Y161.046 E10.12333
G1 X125.534 Y160.397 E10.14703
G1 X125.323 Y159.899 E10.16502
G1 X125.279 Y159.787 E10.16902
G1 X125.167 Y159.487 E10.17967
G1 X124.956 Y158.898 E10.20048
G1 X124.756 Y158.311 E10.22111
G1 X124.544 Y157.664 E10.24375
G1 X124.362 Y157.046 E10.26518
G1 X124.275 Y156.703 E10.27695
G1 X124.11 Y156.004 E10.30084
