;FLAVOR:Marlin
;TIME:6822
;Filament used: 3.21715m
;Layer height: 0.2
;MINX:120.521
;MINY:120.52
;MINZ:0.2
;MAXX:179.459
;MAXY:179.49
;MAXZ:70.8
;Generated with Creality Slicer 4.8.2-191
M140 S50
M105
M190 S50
M104 S200
M105
M109 S200
M82 ;absolute extrusion mode

G28 ;Home

G92 E0 ;Reset Extruder
G1 Z2.0 F3000 ;Move Z Axis up
G1 X10.1 Y20 Z0.28 F5000.0 ;Move to start position
G1 X10.1 Y200.0 Z0.28 F1500.0 E15 ;Draw the first line
G1 X10.4 Y200.0 Z0.28 F5000.0 ;Move to side a little
G1 X10.4 Y20 Z0.28 F1500.0 E30 ;Draw the second line
G92 E0 ;Reset Extruder
G1 Z2.0 F3000 ;Move Z Axis up

G92 E0
G92 E0
G1 F2700 E-5
;LAYER_COUNT:354
;LAYER:0
M107
G0 F6000 X129.169 Y129.147 Z0.2
;TYPE:SKIRT
G1 F2700 E0
G1 F1200 X129.318 Y129 E0.00696
G1 X129.975 Y128.364 E0.03738
G1 X130.499 Y127.869 E0.06135
G1 X131.222 Y127.243 E0.09316
G1 X131.352 Y127.14 E0.09867
G1 X131.578 Y126.966 E0.10816
G1 X131.949 Y126.688 E0.12358
G1 X133.051 Y125.879 E0.16905
G1 X133.633 Y125.464 E0.19282
G1 X134.312 Y125.016 E0.21988
G1 X134.429 Y124.945 E0.22443
G1 X134.779 Y124.741 E0.23791
G1 X135.248 Y124.481 E0.25574
G1 X136.49 Y123.803 E0.30281
G1 X137.161 Y123.451 E0.32801
G1 X137.983 Y123.062 E0.35825
G1 X138.379 Y122.898 E0.37251
G1 X138.782 Y122.738 E0.38693
G1 X139.859 Y122.324 E0.42531
G1 X140.718 Y122.009 E0.45574
G1 X141.608 Y121.726 E0.4868
G1 X142.021 Y121.617 E0.50101
G1 X142.341 Y121.537 E0.51198
G1 X143.72 Y121.208 E0.55913
G1 X144.574 Y121.017 E0.58824
G1 X145.505 Y120.851 E0.61969
G1 X145.909 Y120.8 E0.63324
G1 X146.381 Y120.748 E0.64903
G1 X147.587 Y120.628 E0.68934
G1 X148.439 Y120.557 E0.71777
G1 X149.336 Y120.52 E0.74763
G1 X149.584 Y120.52 E0.75588
G1 X150.009 Y120.527 E0.77002
G1 X151.501 Y120.576 E0.81967
G1 X152.264 Y120.611 E0.84508
G1 X153.235 Y120.701 E0.87751
G1 X153.929 Y120.796 E0.90081
G1 X154.271 Y120.848 E0.91231
G1 X155.549 Y121.065 E0.95543
G1 X156.221 Y121.187 E0.97814
G1 X157.135 Y121.393 E1.00931
G1 X157.312 Y121.441 E1.01541
G1 X157.588 Y121.52 E1.02495
G1 X158.05 Y121.659 E1.041
G1 X159.364 Y122.068 E1.08677
G1 X160.003 Y122.276 E1.10912
G1 X160.936 Y122.628 E1.14229
G1 X161.318 Y122.793 E1.15613
G1 X161.64 Y122.938 E1.16788
G1 X163.002 Y123.569 E1.2178
G1 X163.613 Y123.861 E1.24032
G1 X164.492 Y124.331 E1.27348
G1 X164.861 Y124.553 E1.2878
G1 X165.212 Y124.772 E1.30156
G1 X166.382 Y125.519 E1.34773
G1 X166.985 Y125.916 E1.37174
G1 X167.752 Y126.47 E1.40321
G1 X168.052 Y126.711 E1.41601
G1 X168.517 Y127.097 E1.43611
G1 X169.435 Y127.877 E1.47618
G1 X170.064 Y128.426 E1.50395
G1 X170.755 Y129.084 E1.53568
G1 X170.962 Y129.299 E1.54561
G1 X171.188 Y129.541 E1.55662
G1 X172.112 Y130.56 E1.60237
G1 X172.719 Y131.241 E1.63271
G1 X173.484 Y132.203 E1.67359
G1 X173.982 Y132.908 E1.7023
G1 X174.687 Y133.936 E1.74376
G1 X175.073 Y134.519 E1.76702
G1 X175.483 Y135.189 E1.79314
G1 X175.558 Y135.322 E1.79822
G1 X175.758 Y135.693 E1.81224
G1 X175.956 Y136.08 E1.8267
G1 X176.597 Y137.351 E1.87404
G1 X176.88 Y137.934 E1.8956
G1 X177.246 Y138.777 E1.92616
G1 X177.312 Y138.948 E1.93226
G1 X177.406 Y139.202 E1.94127
G1 X177.562 Y139.638 E1.95667
G1 X178.039 Y141.013 E2.00508
G1 X178.262 Y141.684 E2.02859
G1 X178.525 Y142.611 E2.06064
G1 X178.587 Y142.872 E2.06957
G1 X178.656 Y143.182 E2.08013
G1 X178.967 Y144.687 E2.13124
G1 X179.108 Y145.427 E2.1563
G1 X179.245 Y146.367 E2.18789
G1 X179.278 Y146.729 E2.19998
G1 X179.332 Y147.436 E2.22357
G1 X179.415 Y148.73 E2.26669
G1 X179.451 Y149.436 E2.29021
G1 X179.459 Y150.369 E2.32124
G1 X179.449 Y150.664 E2.33106
G1 X179.432 Y151 E2.34225
G1 X179.325 Y152.636 E2.39678
G1 X179.268 Y153.351 E2.42063
G1 X179.156 Y154.269 E2.45139
G1 X179.087 Y154.666 E2.46479
G1 X178.963 Y155.304 E2.48641
G1 X178.74 Y156.392 E2.52335
G1 X178.554 Y157.238 E2.55216
G1 X178.325 Y158.108 E2.58208
G1 X178.247 Y158.361 E2.59089
G1 X178.162 Y158.624 E2.60008
G1 X178.049 Y158.96 E2.61187
G1 X177.587 Y160.294 E2.65883
G1 X177.347 Y160.96 E2.68237
G1 X176.959 Y161.898 E2.71613
G1 X176.802 Y162.229 E2.72832
G1 X176.596 Y162.649 E2.74388
G1 X175.939 Y163.949 E2.79232
G1 X175.626 Y164.545 E2.81471
G1 X175.26 Y165.189 E2.83935
G1 X175.217 Y165.259 E2.84208
G1 X174.966 Y165.648 E2.85748
G1 X174.611 Y166.173 E2.87856
G1 X173.842 Y167.284 E2.9235
G1 X173.438 Y167.85 E2.94663
G1 X172.845 Y168.608 E2.97864
G1 X172.603 Y168.891 E2.99102
G1 X172.417 Y169.103 E3.0004
G1 X171.376 Y170.257 E3.0521
G1 X170.882 Y170.787 E3.07619
G1 X170.308 Y171.358 E3.10312
G1 X170.2 Y171.458 E3.10802
G1 X169.92 Y171.709 E3.12052
G1 X169.545 Y172.033 E3.13701
G1 X168.474 Y172.936 E3.1836
G1 X167.934 Y173.38 E3.20685
G1 X167.169 Y173.955 E3.23868
G1 X166.787 Y174.213 E3.25401
G1 X166.428 Y174.447 E3.26827
G1 X165.288 Y175.175 E3.31326
G1 X164.694 Y175.544 E3.33651
G1 X163.911 Y175.987 E3.36644
G1 X163.759 Y176.065 E3.37212
G1 X163.487 Y176.2 E3.38222
G1 X163.009 Y176.427 E3.39982
G1 X161.68 Y177.042 E3.44852
G1 X161.055 Y177.319 E3.47126
G1 X160.184 Y177.661 E3.50238
G1 X159.829 Y177.781 E3.51485
G1 X159.323 Y177.943 E3.53252
G1 X157.991 Y178.352 E3.57886
G1 X157.31 Y178.551 E3.60246
G1 X156.508 Y178.754 E3.62998
G1 X156.277 Y178.803 E3.63783
G1 X155.826 Y178.888 E3.65309
G1 X154.065 Y179.185 E3.71249
G1 X153.427 Y179.284 E3.73397
G1 X152.438 Y179.392 E3.76706
G1 X151.51 Y179.451 E3.79798
G1 X151.139 Y179.468 E3.81034
G1 X150.568 Y179.485 E3.82934
G1 X150.241 Y179.49 E3.84021
G1 X149.828 Y179.489 E3.85395
G1 X149.151 Y179.478 E3.87647
G1 X148.542 Y179.451 E3.89675
G1 X148.194 Y179.426 E3.90835
G1 X147.864 Y179.397 E3.91937
G1 X146.336 Y179.24 E3.97046
G1 X145.602 Y179.153 E3.99504
G1 X144.712 Y179.01 E4.02502
G1 X144.416 Y178.95 E4.03507
G1 X144.071 Y178.874 E4.04682
G1 X142.523 Y178.507 E4.09973
G1 X141.848 Y178.337 E4.12288
G1 X140.674 Y177.97 E4.16379
G1 X140.233 Y177.805 E4.17945
G1 X140.004 Y177.721 E4.18757
G1 X138.795 Y177.258 E4.23063
G1 X138.118 Y176.988 E4.25487
G1 X137.322 Y176.634 E4.28384
G1 X136.942 Y176.44 E4.29803
G1 X136.362 Y176.13 E4.31991
G1 X135.205 Y175.493 E4.36384
G1 X134.568 Y175.131 E4.38821
G1 X133.767 Y174.628 E4.41966
G1 X133.597 Y174.511 E4.42653
G1 X133.331 Y174.322 E4.43738
G1 X131.971 Y173.324 E4.49349
G1 X131.374 Y172.871 E4.51841
G1 X130.715 Y172.33 E4.54677
G1 X130.39 Y172.033 E4.56141
G1 X129.938 Y171.603 E4.58216
G1 X129.056 Y170.747 E4.62304
G1 X128.494 Y170.186 E4.64946
G1 X127.873 Y169.512 E4.67994
G1 X127.594 Y169.178 E4.69441
G1 X127.226 Y168.721 E4.71393
G1 X126.422 Y167.702 E4.7571
G1 X126.024 Y167.182 E4.77888
G1 X125.556 Y166.522 E4.80579
G1 X125.446 Y166.354 E4.81247
G1 X125.223 Y165.998 E4.82644
G1 X125.014 Y165.65 E4.83994
G1 X124.247 Y164.35 E4.89014
G1 X123.914 Y163.769 E4.91242
G1 X123.463 Y162.892 E4.94522
G1 X123.289 Y162.509 E4.95921
G1 X123.104 Y162.082 E4.97469
G1 X122.579 Y160.838 E5.0196
G1 X122.33 Y160.227 E5.04154
G1 X122.003 Y159.311 E5.07389
G1 X121.869 Y158.865 E5.08938
G1 X121.747 Y158.434 E5.10428
G1 X121.436 Y157.298 E5.14345
G1 X121.202 Y156.388 E5.1747
G1 X120.978 Y155.286 E5.2121
G1 X120.816 Y154.205 E5.24846
G1 X120.689 Y153.256 E5.28031
G1 X120.606 Y152.554 E5.30382
G1 X120.536 Y151.63 E5.33464
G1 X120.529 Y151.421 E5.34159
G1 X120.523 Y151.134 E5.35114
G1 X120.521 Y150.863 E5.36015
G1 X120.522 Y149.293 E5.41237
G1 X120.532 Y148.591 E5.43572
G1 X120.58 Y147.714 E5.46494
G1 X120.597 Y147.534 E5.47095
G1 X120.634 Y147.196 E5.48226
G1 X120.691 Y146.745 E5.49738
G1 X120.871 Y145.424 E5.54172
G1 X120.973 Y144.744 E5.56459
G1 X121.083 Y144.127 E5.58544
G1 X121.202 Y143.613 E5.60298
G1 X121.449 Y142.651 E5.63602
G1 X121.733 Y141.611 E5.67188
G1 X121.94 Y140.89 E5.69682
G1 X122.248 Y139.971 E5.72906
G1 X122.389 Y139.613 E5.74186
G1 X122.593 Y139.119 E5.75964
G1 X123.121 Y137.88 E5.80443
G1 X123.402 Y137.244 E5.82756
G1 X123.823 Y136.393 E5.85914
G1 X124.049 Y135.986 E5.87462
G1 X124.203 Y135.72 E5.88484
G1 X124.936 Y134.48 E5.93275
G1 X125.382 Y133.75 E5.9612
G1 X125.9 Y132.979 E5.9921
G1 X126.129 Y132.673 E6.00481
G1 X126.478 Y132.224 E6.02372
G1 X127.243 Y131.258 E6.06471
G1 X127.573 Y130.852 E6.08211
G1 X127.796 Y130.586 E6.09366
G1 X127.939 Y130.421 E6.10092
G1 X128.447 Y129.874 E6.12575
G1 X129.169 Y129.147 E6.15982
G0 F6000 X129.596 Y129.287
G1 F1200 X130.25 Y128.654 E6.1901
G1 X130.774 Y128.159 E6.21407
G1 X131.47 Y127.557 E6.24468
G1 X131.818 Y127.286 E6.25935
G1 X132.186 Y127.01 E6.27465
G1 X133.283 Y126.204 E6.31992
G1 X133.865 Y125.789 E6.3437
G1 X134.52 Y125.358 E6.36978
G1 X134.637 Y125.287 E6.37433
G1 X134.974 Y125.091 E6.3873
G1 X135.44 Y124.832 E6.40503
G1 X136.676 Y124.157 E6.45187
G1 X137.347 Y123.805 E6.47707
G1 X138.139 Y123.431 E6.5062
G1 X138.526 Y123.27 E6.52014
G1 X138.926 Y123.112 E6.53445
G1 X140.168 Y122.636 E6.57869
G1 X140.855 Y122.385 E6.60301
G1 X141.713 Y122.112 E6.63296
G1 X142.117 Y122.005 E6.64686
G1 X142.434 Y121.926 E6.65773
G1 X143.966 Y121.562 E6.7101
G1 X144.661 Y121.407 E6.73378
G1 X145.558 Y121.247 E6.76409
G1 X145.953 Y121.197 E6.77733
G1 X146.42 Y121.146 E6.79296
G1 X147.812 Y121.009 E6.83948
G1 X148.472 Y120.955 E6.8615
G1 X149.336 Y120.92 E6.89026
G1 X149.584 Y120.92 E6.89851
G1 X150 Y120.927 E6.91235
G1 X151.487 Y120.976 E6.96184
G1 X152.245 Y121.011 E6.98707
G1 X153.181 Y121.097 E7.01834
G1 X153.875 Y121.192 E7.04163
G1 X154.205 Y121.242 E7.05273
G1 X155.477 Y121.458 E7.09565
G1 X156.149 Y121.58 E7.11836
G1 X157.03 Y121.78 E7.14841
G1 X157.474 Y121.903 E7.16373
G1 X157.931 Y122.041 E7.17961
G1 X159.24 Y122.449 E7.22522
G1 X159.879 Y122.657 E7.24757
G1 X160.779 Y122.995 E7.27954
G1 X161.155 Y123.158 E7.29317
G1 X161.472 Y123.301 E7.30474
G1 X162.83 Y123.93 E7.35452
G1 X163.441 Y124.222 E7.37704
G1 X164.287 Y124.675 E7.40896
G1 X164.65 Y124.893 E7.42304
G1 X164.997 Y125.11 E7.43665
G1 X166.162 Y125.854 E7.48263
G1 X166.765 Y126.251 E7.50664
G1 X167.504 Y126.784 E7.53695
G1 X167.797 Y127.019 E7.54944
G1 X168.258 Y127.402 E7.56937
G1 X169.282 Y128.274 E7.61411
G1 X169.801 Y128.727 E7.63702
G1 X170.467 Y129.361 E7.6676
G1 X170.674 Y129.576 E7.67753
G1 X170.892 Y129.809 E7.68814
G1 X171.813 Y130.826 E7.73378
G1 X172.42 Y131.507 E7.76412
G1 X173.158 Y132.434 E7.80353
G1 X173.568 Y133.013 E7.82713
G1 X174.353 Y134.157 E7.87327
G1 X174.739 Y134.74 E7.89653
G1 X175.134 Y135.385 E7.92168
G1 X175.209 Y135.518 E7.92676
G1 X175.402 Y135.876 E7.94029
G1 X175.599 Y136.26 E7.95464
G1 X176.237 Y137.526 E8.0018
G1 X176.52 Y138.109 E8.02335
G1 X176.873 Y138.921 E8.0528
G1 X177.03 Y139.336 E8.06756
G1 X177.151 Y139.674 E8.0795
G1 X177.659 Y141.139 E8.13107
G1 X177.882 Y141.81 E8.15459
G1 X178.136 Y142.703 E8.18547
G1 X178.198 Y142.964 E8.19439
G1 X178.265 Y143.263 E8.20458
G1 X178.574 Y144.762 E8.25549
G1 X178.715 Y145.502 E8.28054
G1 X178.847 Y146.408 E8.31099
G1 X178.88 Y146.76 E8.32275
G1 X178.933 Y147.461 E8.34613
G1 X179.015 Y148.75 E8.38909
G1 X179.051 Y149.456 E8.4126
G1 X179.059 Y150.355 E8.44251
G1 X179.049 Y150.65 E8.45232
G1 X179.033 Y150.974 E8.46311
G1 X178.938 Y152.445 E8.51214
G1 X178.869 Y153.319 E8.5413
G1 X178.761 Y154.204 E8.57095
G1 X178.694 Y154.59 E8.58398
G1 X178.571 Y155.223 E8.60543
G1 X178.315 Y156.468 E8.64771
G1 X178.164 Y157.152 E8.671
G1 X177.943 Y157.99 E8.69983
G1 X177.865 Y158.243 E8.70864
G1 X177.783 Y158.496 E8.71748
G1 X177.671 Y158.829 E8.72917
G1 X177.21 Y160.159 E8.77598
G1 X176.97 Y160.825 E8.79953
G1 X176.597 Y161.729 E8.83206
G1 X176.443 Y162.054 E8.84402
G1 X176.239 Y162.469 E8.8594
G1 X175.585 Y163.763 E8.90762
G1 X175.272 Y164.359 E8.93001
G1 X174.919 Y164.979 E8.95374
G1 X174.876 Y165.049 E8.95647
G1 X174.634 Y165.425 E8.97135
G1 X174.282 Y165.946 E8.99226
G1 X173.517 Y167.051 E9.03696
G1 X173.113 Y167.617 E9.06009
G1 X172.541 Y168.348 E9.09096
G1 X172.299 Y168.631 E9.10334
G1 X172.12 Y168.835 E9.11237
G1 X171.206 Y169.85 E9.1578
G1 X170.589 Y170.514 E9.18795
G1 X170.037 Y171.065 E9.21389
G1 X169.929 Y171.165 E9.21878
G1 X169.658 Y171.407 E9.23087
G1 X169.287 Y171.727 E9.24716
G1 X168.22 Y172.627 E9.29359
G1 X167.68 Y173.071 E9.31684
G1 X166.943 Y173.625 E9.34751
G1 X166.568 Y173.878 E9.36256
G1 X166.212 Y174.11 E9.37669
G1 X165.076 Y174.835 E9.42151
G1 X164.482 Y175.204 E9.44477
G1 X163.728 Y175.631 E9.47359
G1 X163.576 Y175.709 E9.47927
G1 X163.314 Y175.839 E9.489
G1 X162.841 Y176.065 E9.50644
G1 X161.68 Y176.603 E9.54899
G1 X160.893 Y176.953 E9.57764
G1 X160.054 Y177.283 E9.60763
G1 X159.706 Y177.4 E9.61984
G1 X159.206 Y177.561 E9.63731
G1 X158.028 Y177.924 E9.67831
G1 X157.198 Y178.167 E9.70707
G1 X156.425 Y178.362 E9.73359
G1 X156.194 Y178.411 E9.74144
G1 X155.76 Y178.494 E9.75614
G1 X154.003 Y178.79 E9.8154
G1 X153.365 Y178.889 E9.83688
G1 X152.413 Y178.993 E9.86873
G1 X151.485 Y179.052 E9.89966
G1 X151.127 Y179.068 E9.91157
G1 X150.556 Y179.085 E9.93057
G1 X150.241 Y179.09 E9.94105
G1 X149.835 Y179.089 E9.95456
G1 X149.158 Y179.078 E9.97708
G1 X148.57 Y179.052 E9.99665
G1 X148.222 Y179.027 E10.00826
G1 X147.905 Y178.999 E10.01884
G1 X146.383 Y178.842 E10.06973
G1 X145.649 Y178.755 E10.09432
G1 X144.791 Y178.618 E10.12321
G1 X144.495 Y178.558 E10.13326
G1 X144.163 Y178.485 E10.14457
G1 X142.62 Y178.119 E10.19731
G1 X141.945 Y177.949 E10.22046
G1 X140.814 Y177.596 E10.25987
G1 X140.147 Y177.347 E10.28355
G1 X138.943 Y176.887 E10.32642
G1 X138.266 Y176.617 E10.35066
G1 X137.5 Y176.275 E10.37856
G1 X137.13 Y176.087 E10.39236
G1 X136.555 Y175.78 E10.41404
G1 X135.403 Y175.145 E10.45779
G1 X134.766 Y174.783 E10.48216
G1 X133.993 Y174.299 E10.5125
G1 X133.823 Y174.182 E10.51936
G1 X133.567 Y174 E10.52981
G1 X132.354 Y173.111 E10.57983
G1 X131.616 Y172.552 E10.61062
G1 X130.981 Y172.031 E10.63794
G1 X130.665 Y171.743 E10.65216
G1 X130.216 Y171.316 E10.67277
G1 X129.338 Y170.464 E10.71346
G1 X128.776 Y169.903 E10.73987
G1 X128.178 Y169.254 E10.76922
G1 X127.905 Y168.927 E10.78339
G1 X127.54 Y168.473 E10.80277
G1 X126.74 Y167.459 E10.84572
G1 X126.342 Y166.939 E10.8675
G1 X125.891 Y166.303 E10.89344
G1 X125.781 Y166.135 E10.90012
G1 X125.565 Y165.792 E10.9136
G1 X125.358 Y165.447 E10.92698
G1 X124.594 Y164.151 E10.97702
G1 X124.261 Y163.57 E10.99929
G1 X123.826 Y162.725 E11.0309
G1 X123.656 Y162.35 E11.04459
G1 X123.472 Y161.927 E11.05994
G1 X123.001 Y160.812 E11.1002
G1 X122.701 Y160.076 E11.12663
G1 X122.386 Y159.193 E11.15781
G1 X122.254 Y158.756 E11.17299
G1 X122.133 Y158.328 E11.18779
G1 X121.778 Y157.026 E11.23267
G1 X121.589 Y156.289 E11.25798
G1 X121.374 Y155.227 E11.29402
G1 X121.189 Y153.985 E11.33578
G1 X121.086 Y153.209 E11.36182
G1 X121.003 Y152.507 E11.38533
G1 X120.936 Y151.617 E11.41502
G1 X120.923 Y151.131 E11.43119
G1 X120.921 Y150.86 E11.4402
G1 X120.922 Y149.299 E11.49212
G1 X120.932 Y148.597 E11.51547
G1 X120.978 Y147.751 E11.54365
G1 X120.995 Y147.571 E11.54966
G1 X121.031 Y147.246 E11.56054
G1 X121.087 Y146.799 E11.57552
G1 X121.266 Y145.484 E11.61966
G1 X121.368 Y144.804 E11.64253
G1 X121.475 Y144.207 E11.66271
G1 X121.589 Y143.712 E11.6796
G1 X121.835 Y142.756 E11.71243
G1 X122.118 Y141.721 E11.74812
G1 X122.325 Y141 E11.77307
G1 X122.621 Y140.115 E11.80411
G1 X122.759 Y139.765 E11.81662
G1 X122.961 Y139.276 E11.83422
G1 X123.487 Y138.041 E11.87886
G1 X123.768 Y137.405 E11.90199
G1 X124.173 Y136.586 E11.93238
G1 X124.396 Y136.186 E11.94761
G1 X124.547 Y135.924 E11.95767
G1 X125.28 Y134.684 E12.00558
G1 X125.723 Y133.959 E12.03384
G1 X126.222 Y133.216 E12.06361
G1 X126.445 Y132.918 E12.07599
G1 X126.792 Y132.472 E12.09478
G1 X127.553 Y131.51 E12.13558
G1 X127.883 Y131.104 E12.15298
G1 X128.099 Y130.848 E12.16412
G1 X128.242 Y130.683 E12.17138
G1 X128.731 Y130.156 E12.19529
G1 X129.596 Y129.287 E12.23607
G0 F6000 X129.737 Y129.71
G1 F1200 X130.43 Y129.036 E12.26823
G1 X131.049 Y128.45 E12.29658
G1 X131.719 Y127.87 E12.32605
G1 X132.058 Y127.605 E12.34036
G1 X132.423 Y127.332 E12.35552
G1 X133.515 Y126.53 E12.40059
G1 X134.097 Y126.115 E12.42436
G1 X134.727 Y125.7 E12.44945
G1 X134.844 Y125.629 E12.454
G1 X135.169 Y125.44 E12.46651
G1 X135.632 Y125.183 E12.48412
G1 X136.862 Y124.511 E12.53074
G1 X137.533 Y124.159 E12.55594
G1 X138.295 Y123.799 E12.58397
G1 X138.674 Y123.641 E12.59763
G1 X139.069 Y123.485 E12.61175
G1 X140.306 Y123.011 E12.65581
