;FLAVOR:Marlin
;TIME:405
;Filament used: 0.137171m
;Layer height: 0.2
;MINX:133.323
;MINY:133.347
;MINZ:0.2
;MAXX:166.677
;MAXY:166.657
;MAXZ:5
;Generated with Creality Slicer 4.8.2-191
M140 S50
M105
M190 S50
M104 S200
M105
M109 S200
M82 ;absolute extrusion mode

G28 ;Home

G92 E0 ;Reset Extruder
G1 Z2.0 F3000 ;Move Z Axis up
G1 X10.1 Y20 Z0.28 F5000.0 ;Move to start position
G1 X10.1 Y200.0 Z0.28 F1500.0 E15 ;Draw the first line
G1 X10.4 Y200.0 Z0.28 F5000.0 ;Move to side a little
G1 X10.4 Y20 Z0.28 F1500.0 E30 ;Draw the second line
G92 E0 ;Reset Extruder
G1 Z2.0 F3000 ;Move Z Axis up

G92 E0
G92 E0
G1 F2700 E-5
;LAYER_COUNT:25
;LAYER:0
M107
G0 F6000 X138.415 Y138.022 Z0.2
;TYPE:SKIRT
G1 F2700 E0
G1 F1200 X138.793 Y137.669 E0.0172
G1 X138.951 Y137.528 E0.02425
G1 X139.677 Y136.934 E0.05544
G1 X140.454 Y136.402 E0.08676
G1 X141.745 Y135.598 E0.13735
G1 X142.149 Y135.355 E0.15303
G1 X142.973 Y134.906 E0.18424
G1 X143.824 Y134.532 E0.21516
G1 X144.078 Y134.433 E0.22423
G1 X144.966 Y134.13 E0.25543
G1 X146.009 Y133.877 E0.29113
G1 X147.467 Y133.6 E0.34049
G1 X147.962 Y133.513 E0.35721
G1 X148.892 Y133.39 E0.38841
G1 X149.866 Y133.347 E0.42083
G1 X150.137 Y133.347 E0.42985
G1 X151.074 Y133.387 E0.46104
G1 X152.14 Y133.531 E0.49682
G1 X153.004 Y133.691 E0.52604
G1 X153.492 Y133.778 E0.54253
G1 X154.042 Y133.886 E0.56117
G1 X154.953 Y134.106 E0.59234
G1 X155.862 Y134.41 E0.62422
G1 X156.107 Y134.504 E0.63295
G1 X156.774 Y134.785 E0.65702
G1 X157.99 Y135.438 E0.70293
G1 X158.482 Y135.743 E0.72218
G1 X159.036 Y136.08 E0.74375
G1 X159.596 Y136.433 E0.76577
G1 X160.367 Y136.967 E0.79696
G1 X160.863 Y137.365 E0.81811
G1 X160.917 Y137.411 E0.82047
G1 X161.321 Y137.773 E0.83852
G1 X161.473 Y137.916 E0.84546
G1 X162.386 Y138.886 E0.88976
G1 X162.748 Y139.34 E0.90907
G1 X163.18 Y139.913 E0.93294
G1 X163.509 Y140.342 E0.95092
G1 X163.658 Y140.541 E0.95919
G1 X163.906 Y140.88 E0.97316
G1 X164.427 Y141.66 E1.00436
G1 X164.85 Y142.423 E1.03338
G1 X164.972 Y142.665 E1.04239
G1 X165.21 Y143.167 E1.06087
G1 X165.554 Y144.04 E1.09208
G1 X165.737 Y144.62 E1.11231
G1 X166.012 Y145.585 E1.14568
G1 X166.148 Y146.053 E1.16189
G1 X166.255 Y146.443 E1.17534
G1 X166.513 Y147.644 E1.2162
G1 X166.527 Y147.733 E1.21919
G1 X166.628 Y148.59 E1.2479
G1 X166.644 Y148.796 E1.25477
G1 X166.677 Y149.733 E1.28595
G1 X166.63 Y150.669 E1.31712
G1 X166.546 Y151.57 E1.34722
G1 X166.482 Y152.303 E1.37169
G1 X166.447 Y152.63 E1.38263
G1 X166.307 Y153.557 E1.41381
G1 X166.181 Y154.127 E1.43323
G1 X166.162 Y154.203 E1.43583
G1 X166.028 Y154.691 E1.45267
G1 X165.969 Y154.888 E1.4595
G1 X165.661 Y155.774 E1.4907
G1 X165.282 Y156.628 E1.52178
G1 X164.586 Y158.031 E1.57387
G1 X164.41 Y158.374 E1.58669
G1 X163.946 Y159.189 E1.61788
G1 X163.621 Y159.679 E1.63744
G1 X163.576 Y159.743 E1.64004
G1 X163.252 Y160.181 E1.65816
G1 X163.128 Y160.34 E1.66487
G1 X162.52 Y161.054 E1.69606
G1 X161.878 Y161.692 E1.72616
G1 X161.058 Y162.442 E1.76313
G1 X160.756 Y162.721 E1.7768
G1 X160.458 Y162.988 E1.79011
G1 X159.734 Y163.583 E1.82128
G1 X159.187 Y163.969 E1.84354
G1 X159.122 Y164.012 E1.84614
G1 X158.689 Y164.284 E1.86314
G1 X158.508 Y164.392 E1.87015
G1 X157.683 Y164.838 E1.90135
G1 X156.844 Y165.204 E1.93179
G1 X156.059 Y165.508 E1.95979
G1 X155.388 Y165.773 E1.98378
G1 X155.029 Y165.907 E1.99653
G1 X154.137 Y166.197 E2.02773
G1 X153.224 Y166.41 E2.05891
G1 X152.954 Y166.461 E2.06805
G1 X152.18 Y166.579 E2.09409
G1 X150.929 Y166.654 E2.13577
G1 X149.495 Y166.657 E2.18347
G1 X148.962 Y166.651 E2.2012
G1 X148.026 Y166.601 E2.23237
G1 X147.462 Y166.531 E2.25127
G1 X147.395 Y166.521 E2.25353
G1 X146.745 Y166.404 E2.27549
G1 X146.532 Y166.359 E2.28273
G1 X145.624 Y166.127 E2.3139
G1 X144.813 Y165.847 E2.34244
G1 X144.355 Y165.669 E2.35878
G1 X143.655 Y165.403 E2.38369
G1 X143.061 Y165.167 E2.40495
G1 X142.205 Y164.784 E2.43614
G1 X141.634 Y164.477 E2.4577
G1 X141.568 Y164.439 E2.46024
G1 X141.169 Y164.197 E2.47576
G1 X140.997 Y164.088 E2.48253
G1 X140.227 Y163.553 E2.51371
G1 X139.496 Y162.946 E2.54532
G1 X138.478 Y162.023 E2.59102
G1 X138.045 Y161.62 E2.61069
G1 X137.386 Y160.952 E2.6419
G1 X136.773 Y160.211 E2.67389
G1 X136.605 Y159.989 E2.68315
G1 X136.071 Y159.218 E2.71434
G1 X135.529 Y158.254 E2.75113
G1 X135.175 Y157.543 E2.77754
G1 X134.911 Y157.023 E2.79694
G1 X134.672 Y156.532 E2.8151
G1 X134.298 Y155.672 E2.84629
G1 X133.982 Y154.724 E2.87953
G1 X133.909 Y154.467 E2.88842
G1 X133.691 Y153.554 E2.91964
G1 X133.537 Y152.481 E2.95569
G1 X133.448 Y151.525 E2.98762
G1 X133.409 Y151.133 E3.00073
G1 X133.362 Y150.577 E3.01929
G1 X133.323 Y149.639 E3.05051
G1 X133.367 Y148.665 E3.08294
G1 X133.392 Y148.387 E3.09222
G1 X133.516 Y147.457 E3.12343
G1 X133.76 Y146.389 E3.15987
G1 X134.168 Y144.941 E3.2099
G1 X134.31 Y144.463 E3.22649
G1 X134.617 Y143.577 E3.25767
G1 X134.999 Y142.721 E3.28885
G1 X135.118 Y142.482 E3.29773
G1 X135.572 Y141.661 E3.32893
G1 X136.162 Y140.789 E3.36395
G1 X137.1 Y139.538 E3.41596
G1 X137.326 Y139.243 E3.42832
G1 X137.928 Y138.524 E3.45951
G1 X138.415 Y138.022 E3.48277
G0 F6000 X138.693 Y138.31
G1 F1200 X139.059 Y137.967 E3.49945
G1 X139.217 Y137.826 E3.5065
G1 X139.93 Y137.244 E3.53711
G1 X140.666 Y136.741 E3.56676
G1 X141.951 Y135.941 E3.6171
G1 X142.355 Y135.698 E3.63278
G1 X143.164 Y135.258 E3.66341
G1 X143.97 Y134.905 E3.69268
G1 X144.224 Y134.806 E3.70175
G1 X145.095 Y134.509 E3.73235
G1 X146.084 Y134.27 E3.7662
G1 X147.536 Y133.994 E3.81535
G1 X148.031 Y133.907 E3.83207
G1 X148.944 Y133.787 E3.8627
G1 X149.866 Y133.747 E3.89339
G1 X150.137 Y133.747 E3.90241
G1 X151.057 Y133.787 E3.93303
G1 X152.067 Y133.924 E3.96693
G1 X152.959 Y134.089 E3.99711
G1 X153.414 Y134.171 E4.01248
G1 X153.964 Y134.279 E4.03113
G1 X154.859 Y134.495 E4.06175
G1 X155.719 Y134.783 E4.09191
G1 X155.964 Y134.877 E4.10064
G1 X156.608 Y135.149 E4.12389
G1 X157.779 Y135.778 E4.1681
G1 X158.23 Y136.058 E4.18576
G1 X158.661 Y136.319 E4.20252
G1 X159.382 Y136.772 E4.23084
G1 X160.139 Y137.296 E4.26146
G1 X160.604 Y137.67 E4.28131
G1 X160.658 Y137.716 E4.28367
G1 X161.047 Y138.065 E4.30105
G1 X161.199 Y138.208 E4.30799
G1 X162.079 Y139.142 E4.35067
G1 X162.429 Y139.581 E4.36935
G1 X162.905 Y140.212 E4.39564
G1 X163.191 Y140.585 E4.41127
G1 X163.335 Y140.777 E4.41925
G1 X163.583 Y141.116 E4.43322
G1 X164.094 Y141.882 E4.46385
G1 X164.493 Y142.603 E4.49125
G1 X164.615 Y142.845 E4.50027
G1 X164.844 Y143.33 E4.51811
G1 X165.181 Y144.187 E4.54874
G1 X165.352 Y144.73 E4.56767
G1 X165.624 Y145.683 E4.60063
G1 X165.762 Y146.158 E4.61709
G1 X165.869 Y146.548 E4.63054
G1 X166.118 Y147.706 E4.66993
G1 X166.132 Y147.795 E4.67293
G1 X166.229 Y148.621 E4.70059
G1 X166.245 Y148.827 E4.70746
G1 X166.277 Y149.747 E4.73808
G1 X166.231 Y150.632 E4.76755
G1 X166.156 Y151.437 E4.79445
G1 X166.107 Y152.02 E4.8139
G1 X166.084 Y152.26 E4.82192
G1 X166.049 Y152.587 E4.83286
G1 X165.911 Y153.497 E4.86347
G1 X165.793 Y154.03 E4.88163
G1 X165.774 Y154.106 E4.88424
G1 X165.644 Y154.576 E4.90046
G1 X165.585 Y154.773 E4.9073
G1 X165.283 Y155.643 E4.93793
G1 X164.923 Y156.45 E4.96732
G1 X164.427 Y157.448 E5.00438
G1 X164.23 Y157.848 E5.01921
G1 X164.054 Y158.191 E5.03204
G1 X163.598 Y158.991 E5.06266
G1 X163.294 Y159.449 E5.08095
G1 X163.249 Y159.513 E5.08355
G1 X162.937 Y159.935 E5.101
G1 X162.813 Y160.094 E5.10771
G1 X162.215 Y160.794 E5.13833
G1 X161.608 Y161.397 E5.16679
G1 X160.788 Y162.147 E5.20375
G1 X160.489 Y162.423 E5.21728
G1 X160.191 Y162.69 E5.23059
G1 X159.48 Y163.274 E5.26119
G1 X158.966 Y163.636 E5.2821
G1 X158.901 Y163.679 E5.2847
G1 X158.484 Y163.941 E5.30108
G1 X158.303 Y164.049 E5.30809
G1 X157.493 Y164.486 E5.3387
G1 X156.7 Y164.831 E5.36746
G1 X155.972 Y165.113 E5.39343
G1 X155.456 Y165.318 E5.41189
G1 X154.889 Y165.532 E5.43205
G1 X154.013 Y165.816 E5.46268
G1 X153.149 Y166.017 E5.49218
G1 X152.879 Y166.068 E5.50132
G1 X152.134 Y166.181 E5.52639
G1 X150.928 Y166.254 E5.56657
G1 X149.5 Y166.257 E5.61407
G1 X148.967 Y166.251 E5.6318
G1 X148.047 Y166.201 E5.66244
G1 X147.521 Y166.136 E5.68007
G1 X147.454 Y166.126 E5.68232
G1 X146.828 Y166.013 E5.70348
G1 X146.615 Y165.968 E5.71072
G1 X145.723 Y165.739 E5.74135
G1 X144.958 Y165.474 E5.76828
G1 X144.46 Y165.28 E5.78605
G1 X143.803 Y165.031 E5.80942
G1 X143.209 Y164.795 E5.83068
G1 X142.369 Y164.418 E5.8613
G1 X141.834 Y164.13 E5.88151
G1 X141.383 Y163.86 E5.89899
G1 X141.211 Y163.751 E5.90577
G1 X140.455 Y163.224 E5.93642
G1 X139.765 Y162.65 E5.96627
G1 X138.64 Y161.629 E6.0168
G1 X138.317 Y161.328 E6.03148
G1 X137.672 Y160.671 E6.06211
G1 X137.091 Y159.969 E6.09242
G1 X136.923 Y159.747 E6.10168
G1 X136.4 Y158.99 E6.13228
G1 X135.887 Y158.075 E6.16717
G1 X135.533 Y157.364 E6.19358
G1 X135.271 Y156.848 E6.21283
G1 X135.032 Y156.357 E6.23099
G1 X134.666 Y155.513 E6.26159
G1 X134.366 Y154.614 E6.29311
G1 X134.293 Y154.357 E6.302
G1 X134.081 Y153.462 E6.33259
G1 X133.936 Y152.444 E6.36679
G1 X133.847 Y151.488 E6.39873
G1 X133.808 Y151.099 E6.41173
G1 X133.761 Y150.543 E6.43029
G1 X133.723 Y149.623 E6.46091
G1 X133.766 Y148.701 E6.49161
G1 X133.791 Y148.423 E6.5009
G1 X133.913 Y147.51 E6.53153
G1 X134.145 Y146.497 E6.5661
G1 X134.553 Y145.049 E6.61613
G1 X134.693 Y144.578 E6.63248
G1 X134.996 Y143.709 E6.66309
G1 X135.357 Y142.899 E6.69258
G1 X135.476 Y142.66 E6.70146
G1 X135.922 Y141.855 E6.73207
G1 X136.482 Y141.029 E6.76526
G1 X137.417 Y139.782 E6.8171
G1 X137.643 Y139.487 E6.82946
G1 X138.235 Y138.781 E6.86011
G1 X138.693 Y138.31 E6.88196
G0 F6000 X138.971 Y138.597
G1 F1200 X139.03 Y138.54 E6.88468
G1 X139.326 Y138.266 E6.8981
G1 X139.484 Y138.125 E6.90514
G1 X140.183 Y137.554 E6.93516
G1 X140.877 Y137.08 E6.96312
G1 X142.017 Y136.369 E7.0078
G1 X142.562 Y136.04 E7.02898
G1 X143.355 Y135.61 E7.05898
G1 X144.115 Y135.277 E7.08658
G1 X144.369 Y135.178 E7.09564
G1 X145.224 Y134.888 E7.12567
G1 X146.159 Y134.663 E7.15766
G1 X147.605 Y134.388 E7.20662
G1 X148.1 Y134.301 E7.22333
G1 X148.996 Y134.184 E7.25339
G1 X149.866 Y134.147 E7.28235
G1 X150.137 Y134.147 E7.29136
G1 X151.039 Y134.187 E7.32139
G1 X151.994 Y134.318 E7.35345
G1 X152.805 Y134.468 E7.38088
G1 X153.337 Y134.563 E7.39886
G1 X153.887 Y134.671 E7.4175
G1 X154.765 Y134.884 E7.44755
G1 X155.576 Y135.157 E7.47601
G1 X155.821 Y135.251 E7.48474
G1 X156.441 Y135.513 E7.50713
G1 X157.569 Y136.118 E7.5497
G1 X158.045 Y136.413 E7.56832
G1 X158.609 Y136.757 E7.5903
G1 X159.169 Y137.11 E7.61231
G1 X159.911 Y137.625 E7.64236
G1 X160.344 Y137.974 E7.66085
G1 X160.398 Y138.02 E7.66321
G1 X160.773 Y138.356 E7.67996
G1 X160.925 Y138.499 E7.6869
G1 X161.772 Y139.398 E7.72798
G1 X162.109 Y139.822 E7.746
G1 X162.545 Y140.4 E7.77008
G1 X162.874 Y140.829 E7.78806
G1 X163.26 Y141.353 E7.8097
G1 X163.761 Y142.104 E7.83973
G1 X164.136 Y142.783 E7.86553
G1 X164.258 Y143.025 E7.87454
G1 X164.479 Y143.492 E7.89173
G1 X164.809 Y144.333 E7.92178
G1 X164.967 Y144.84 E7.93944
G1 X165.217 Y145.716 E7.96974
G1 X165.377 Y146.264 E7.98873
G1 X165.484 Y146.654 E8.00218
G1 X165.723 Y147.768 E8.04007
G1 X165.737 Y147.857 E8.04307
G1 X165.83 Y148.652 E8.06969
G1 X165.846 Y148.858 E8.07656
G1 X165.876 Y149.761 E8.10661
G1 X165.833 Y150.595 E8.13439
G1 X165.749 Y151.496 E8.16449
G1 X165.708 Y151.986 E8.18084
G1 X165.686 Y152.218 E8.18859
G1 X165.651 Y152.545 E8.19953
G1 X165.515 Y153.437 E8.22954
G1 X165.404 Y153.933 E8.24644
G1 X165.385 Y154.009 E8.24905
G1 X165.261 Y154.461 E8.26464
G1 X165.202 Y154.658 E8.27148
G1 X164.905 Y155.511 E8.30152
G1 X164.565 Y156.272 E8.32924
G1 X164.069 Y157.27 E8.36631
G1 X163.874 Y157.666 E8.38099
G1 X163.698 Y158.009 E8.39381
G1 X163.251 Y158.793 E8.42383
G1 X162.967 Y159.219 E8.44086
G1 X162.922 Y159.283 E8.44346
G1 X162.621 Y159.689 E8.46027
G1 X162.497 Y159.848 E8.46698
G1 X161.911 Y160.535 E8.49701
G1 X161.338 Y161.102 E8.52382
G1 X160.518 Y161.852 E8.56078
G1 X160.223 Y162.125 E8.57415
G1 X159.925 Y162.392 E8.58746
G1 X159.226 Y162.964 E8.6175
G1 X158.746 Y163.302 E8.63703
G1 X158.681 Y163.345 E8.63962
G1 X158.279 Y163.597 E8.6554
G1 X158.098 Y163.705 E8.66241
G1 X157.303 Y164.133 E8.69244
G1 X156.555 Y164.458 E8.71956
G1 X155.808 Y164.747 E8.7462
G1 X155.308 Y164.946 E8.7641
G1 X154.749 Y165.157 E8.78398
G1 X153.89 Y165.435 E8.81401
G1 X153.075 Y165.624 E8.84183
G1 X152.805 Y165.675 E8.85097
G1 X152.087 Y165.784 E8.87513
G1 X150.927 Y165.854 E8.91378
G1 X149.504 Y165.857 E8.96111
G1 X148.971 Y165.851 E8.97884
G1 X148.069 Y165.801 E9.00888
G1 X147.58 Y165.74 E9.02527
G1 X147.513 Y165.73 E9.02753
G1 X146.911 Y165.622 E9.04787
G1 X146.698 Y165.577 E9.05511
G1 X145.823 Y165.351 E9.08517
G1 X145.104 Y165.101 E9.11048
G1 X144.679 Y164.935 E9.12566
G1 X143.951 Y164.659 E9.15155
G1 X143.357 Y164.423 E9.17281
G1 X142.533 Y164.053 E9.20286
G1 X142.034 Y163.784 E9.22171
G1 X141.597 Y163.522 E9.23866
G1 X141.425 Y163.413 E9.24543
G1 X140.684 Y162.896 E9.27548
G1 X140.034 Y162.353 E9.30365
G1 X138.913 Y161.336 E9.35399
G1 X138.59 Y161.035 E9.36868
G1 X137.957 Y160.391 E9.39871
G1 X137.41 Y159.728 E9.4273
G1 X137.242 Y159.506 E9.43656
G1 X136.73 Y158.763 E9.46657
G1 X136.245 Y157.897 E9.49958
G1 X135.891 Y157.186 E9.526
G1 X135.717 Y156.846 E9.53871
G1 X135.392 Y156.182 E9.56329
G1 X135.033 Y155.353 E9.59334
G1 X134.751 Y154.505 E9.62306
G1 X134.678 Y154.248 E9.63195
G1 X134.47 Y153.369 E9.66199
G1 X134.334 Y152.406 E9.69434
G1 X134.255 Y151.557 E9.7227
G1 X134.206 Y151.065 E9.73914
G1 X134.159 Y150.509 E9.7577
G1 X134.123 Y149.607 E9.78773
G1 X134.164 Y148.736 E9.81673
G1 X134.189 Y148.458 E9.82601
G1 X134.31 Y147.563 E9.85605
G1 X134.53 Y146.606 E9.88871
G1 X134.986 Y144.993 E9.94446
G1 X135.076 Y144.693 E9.95488
G1 X135.374 Y143.84 E9.98493
G1 X135.715 Y143.078 E10.0127
G1 X135.834 Y142.839 E10.02158
G1 X136.272 Y142.049 E10.05162
G1 X136.802 Y141.268 E10.08302
G1 X137.735 Y140.025 E10.13471
G1 X137.961 Y139.73 E10.14707
G1 X138.541 Y139.038 E10.1771
G1 X138.971 Y138.597 E10.19759
G1 F2700 E5.19759
;MESH:17???5X5_06m.STL
G0 F6000 X148.512 Y148.963
G0 X147.33 Y148.106
G0 X147.058 Y150.035
G0 X147.205 Y150.951
G0 X147.626 Y151.771
G0 X148.279 Y152.42
G0 X148.942 Y152.755
G0 X150.009 Y153.137
;TYPE:WALL-INNER
G1 F2700 E10.19759
G1 F1200 X150.486 Y153.099 E10.2135
G1 X150.969 Y152.982 E10.23003
G1 X151.417 Y152.794 E10.24619
G1 X151.83 Y152.539 E10.26233
G1 X152.199 Y152.222 E10.27851
G1 X152.515 Y151.852 E10.2947
G1 X152.768 Y151.435 E10.31092
G1 X152.953 Y150.986 E10.32707
G1 X153.063 Y150.519 E10.34303
G1 X153.102 Y150.025 E10.35951
G1 X153.061 Y149.541 E10.37567
G1 X152.947 Y149.07 E10.39178
G1 X152.76 Y148.619 E10.40802
G1 X152.503 Y148.203 E10.42429
G1 X152.185 Y147.836 E10.44044
G1 X151.815 Y147.521 E10.4566
G1 X151.4 Y147.268 E10.47277
G1 X150.951 Y147.083 E10.48892
G1 X150.485 Y146.972 E10.50485
G1 X149.99 Y146.933 E10.52137
G1 X149.506 Y146.974 E10.53752
G1 X149.032 Y147.089 E10.55374
G1 X148.583 Y147.277 E10.56993
G1 X148.17 Y147.532 E10.58608
G1 X147.801 Y147.849 E10.60226
G1 X147.485 Y148.219 E10.61844
G1 X147.232 Y148.635 E10.63463
G1 X147.047 Y149.086 E10.65085
G1 X146.937 Y149.55 E10.66671
G1 X146.898 Y150.035 E10.68289
G1 X146.937 Y150.521 E10.69911
G1 X147.053 Y151.002 E10.71556
G1 X147.24 Y151.451 E10.73174
G1 X147.496 Y151.866 E10.74796
G1 X147.814 Y152.235 E10.76416
G1 X148.185 Y152.55 E10.78035
G1 X148.6 Y152.803 E10.79651
G1 X149.049 Y152.988 E10.81267
G1 X149.516 Y153.099 E10.82863
G1 X150.009 Y153.137 E10.84508
G0 F6000 X150.008 Y152.736
;TYPE:WALL-OUTER
G1 F1200 X150.423 Y152.703 E10.85892
G1 X150.843 Y152.601 E10.8733
G1 X151.233 Y152.437 E10.88737
G1 X151.593 Y152.215 E10.90144
G1 X151.915 Y151.939 E10.91554
G1 X152.19 Y151.617 E10.92963
G1 X152.41 Y151.254 E10.94375
G1 X152.571 Y150.863 E10.95781
G1 X152.667 Y150.457 E10.97169
G1 X152.701 Y150.026 E10.98607
G1 X152.665 Y149.605 E11.00012
G1 X152.566 Y149.194 E11.01418
G1 X152.403 Y148.802 E11.0283
G1 X152.18 Y148.441 E11.04241
G1 X151.903 Y148.121 E11.05649
G1 X151.58 Y147.846 E11.0706
G1 X151.219 Y147.626 E11.08466
G1 X150.828 Y147.465 E11.09872
G1 X150.422 Y147.368 E11.11261
G1 X149.991 Y147.334 E11.12699
G1 X149.57 Y147.37 E11.14104
G1 X149.157 Y147.47 E11.15517
G1 X148.767 Y147.634 E11.16925
