;FLAVOR:Marlin
;TIME:6408
;Filament used: 3.60329m
;Layer height: 0.2
;MINX:123.02
;MINY:123.019
;MINZ:0.2
;MAXX:176.981
;MAXY:176.981
;MAXZ:28
;Generated with Creality Slicer 4.8.2-191
M140 S50
M105
M190 S50
M104 S200
M105
M109 S200
M82 ;absolute extrusion mode

G28 ;Home

G92 E0 ;Reset Extruder
G1 Z2.0 F3000 ;Move Z Axis up
G1 X10.1 Y20 Z0.28 F5000.0 ;Move to start position
G1 X10.1 Y200.0 Z0.28 F1500.0 E15 ;Draw the first line
G1 X10.4 Y200.0 Z0.28 F5000.0 ;Move to side a little
G1 X10.4 Y20 Z0.28 F1500.0 E30 ;Draw the second line
G92 E0 ;Reset Extruder
G1 Z2.0 F3000 ;Move Z Axis up

G92 E0
G92 E0
G1 F2700 E-5
;LAYER_COUNT:140
;LAYER:0
M107
G0 F6000 X130.62 Y131.222 Z0.2
;TYPE:SKIRT
G1 F2700 E0
G1 F1200 X131.262 Y130.581 E0.03017
G1 X131.755 Y130.128 E0.05244
G1 X132.287 Y129.654 E0.07614
G1 X132.844 Y129.171 E0.10066
G1 X133.576 Y128.59 E0.13175
G1 X134.193 Y128.141 E0.15713
G1 X134.674 Y127.8 E0.17674
G1 X135.244 Y127.407 E0.19976
G1 X136.042 Y126.906 E0.2311
G1 X136.808 Y126.47 E0.26042
G1 X137.223 Y126.242 E0.27617
G1 X137.879 Y125.891 E0.30091
G1 X138.734 Y125.48 E0.33247
G1 X139.525 Y125.142 E0.36108
G1 X139.952 Y124.966 E0.37644
G1 X140.658 Y124.685 E0.40171
G1 X141.531 Y124.379 E0.43248
G1 X142.371 Y124.125 E0.46167
G1 X142.747 Y124.017 E0.47468
G1 X143.566 Y123.794 E0.50291
G1 X144.477 Y123.586 E0.53399
G1 X145.166 Y123.46 E0.55728
G1 X145.798 Y123.354 E0.5786
G1 X146.545 Y123.238 E0.60374
G1 X147.474 Y123.134 E0.63483
G1 X148.252 Y123.081 E0.66077
G1 X148.886 Y123.047 E0.68189
G1 X149.576 Y123.019 E0.70486
G1 X150.498 Y123.02 E0.73552
G1 X151.364 Y123.059 E0.76435
G1 X151.921 Y123.092 E0.78291
G1 X152.609 Y123.142 E0.80586
G1 X153.505 Y123.244 E0.83585
G1 X154.305 Y123.37 E0.86279
G1 X154.877 Y123.469 E0.88209
G1 X155.583 Y123.6 E0.90598
G1 X156.484 Y123.806 E0.93672
G1 X157.251 Y124.018 E0.96318
G1 X157.792 Y124.174 E0.98191
G1 X158.494 Y124.388 E1.00632
G1 X159.353 Y124.689 E1.03659
G1 X160.159 Y125.011 E1.06546
G1 X160.612 Y125.2 E1.08179
G1 X161.287 Y125.491 E1.10623
G1 X161.791 Y125.723 E1.12469
G1 X162.176 Y125.92 E1.13907
G1 X162.828 Y126.269 E1.16367
G1 X163.345 Y126.556 E1.18334
G1 X163.946 Y126.899 E1.20635
G1 X164.743 Y127.4 E1.23766
G1 X165.492 Y127.918 E1.26795
G1 X165.741 Y128.094 E1.27809
G1 X166.512 Y128.659 E1.30989
G1 X167.211 Y129.217 E1.33963
G1 X167.796 Y129.726 E1.36543
G1 X168.274 Y130.155 E1.38679
G1 X168.778 Y130.62 E1.4096
G1 X169.419 Y131.262 E1.43977
G1 X169.872 Y131.755 E1.46204
G1 X170.346 Y132.287 E1.48574
G1 X170.829 Y132.844 E1.51026
G1 X171.41 Y133.576 E1.54134
G1 X171.859 Y134.193 E1.56672
G1 X172.197 Y134.67 E1.58617
G1 X172.589 Y135.238 E1.60912
G1 X173.094 Y136.041 E1.64067
G1 X173.53 Y136.808 E1.67001
G1 X173.758 Y137.223 E1.68576
G1 X174.109 Y137.879 E1.71051
G1 X174.522 Y138.74 E1.74227
G1 X174.845 Y139.494 E1.76955
G1 X175.034 Y139.952 E1.78603
G1 X175.315 Y140.658 E1.8113
G1 X175.621 Y141.531 E1.84207
G1 X175.875 Y142.371 E1.87126
G1 X176.022 Y142.888 E1.88914
G1 X176.201 Y143.544 E1.91175
G1 X176.407 Y144.445 E1.94249
G1 X176.537 Y145.15 E1.96634
G1 X176.645 Y145.797 E1.98816
G1 X176.762 Y146.549 E2.01347
G1 X176.868 Y147.494 E2.0451
G1 X176.918 Y148.24 E2.06996
G1 X176.952 Y148.87 E2.09095
G1 X176.98 Y149.527 E2.11282
G1 X176.981 Y150.445 E2.14335
G1 X176.945 Y151.302 E2.17188
G1 X176.912 Y151.888 E2.1914
G1 X176.888 Y152.26 E2.2038
G1 X176.855 Y152.669 E2.21745
G1 X176.778 Y153.31 E2.23892
G1 X176.626 Y154.32 E2.27289
G1 X176.538 Y154.843 E2.29053
G1 X176.416 Y155.512 E2.31315
G1 X176.207 Y156.431 E2.3445
G1 X175.98 Y157.259 E2.37305
G1 X175.828 Y157.782 E2.39117
G1 X175.614 Y158.486 E2.41564
G1 X175.308 Y159.359 E2.44641
G1 X174.992 Y160.152 E2.4748
G1 X174.789 Y160.64 E2.49238
G1 X174.506 Y161.295 E2.51611
G1 X174.277 Y161.791 E2.53428
G1 X174.08 Y162.176 E2.54867
G1 X173.735 Y162.82 E2.57297
G1 X173.453 Y163.329 E2.59232
G1 X173.109 Y163.934 E2.61547
G1 X172.599 Y164.747 E2.64739
G1 X172.071 Y165.51 E2.67825
G1 X171.796 Y165.894 E2.69396
G1 X171.368 Y166.478 E2.71804
G1 X170.81 Y167.179 E2.74784
G1 X170.274 Y167.796 E2.77502
G1 X169.966 Y168.141 E2.79041
G1 X169.374 Y168.783 E2.81945
G1 X168.748 Y169.408 E2.84887
G1 X168.254 Y169.863 E2.87121
G1 X167.737 Y170.324 E2.89425
G1 X167.196 Y170.796 E2.91813
G1 X166.44 Y171.399 E2.95029
G1 X165.807 Y171.859 E2.97632
G1 X165.325 Y172.201 E2.99598
G1 X164.752 Y172.596 E3.01912
G1 X163.958 Y173.094 E3.0503
G1 X163.177 Y173.538 E3.08018
G1 X162.757 Y173.768 E3.0961
G1 X162.109 Y174.114 E3.12054
G1 X161.276 Y174.515 E3.15129
G1 X160.489 Y174.853 E3.17977
G1 X160.001 Y175.054 E3.19733
G1 X159.36 Y175.309 E3.22027
G1 X158.814 Y175.51 E3.23962
G1 X158.409 Y175.64 E3.25377
G1 X157.719 Y175.848 E3.27774
G1 X157.269 Y175.978 E3.29332
G1 X156.434 Y176.206 E3.32211
G1 X155.523 Y176.414 E3.35319
G1 X154.834 Y176.54 E3.37648
G1 X154.192 Y176.647 E3.39813
G1 X153.447 Y176.762 E3.4232
G1 X152.542 Y176.864 E3.45349
G1 X151.729 Y176.92 E3.4806
G1 X151.137 Y176.952 E3.50032
G1 X150.431 Y176.981 E3.52382
G1 X149.517 Y176.98 E3.55422
G1 X148.702 Y176.945 E3.58135
G1 X148.029 Y176.907 E3.60377
G1 X147.58 Y176.876 E3.61874
G1 X147.427 Y176.863 E3.62385
G1 X146.732 Y176.781 E3.64712
G1 X145.608 Y176.613 E3.68492
G1 X145.274 Y176.558 E3.69618
G1 X144.501 Y176.418 E3.72231
G1 X143.569 Y176.207 E3.75409
G1 X142.741 Y175.98 E3.78265
G1 X142.214 Y175.827 E3.8009
G1 X141.501 Y175.61 E3.82569
G1 X140.63 Y175.305 E3.85638
G1 X139.879 Y175.005 E3.88328
G1 X139.356 Y174.787 E3.90213
G1 X138.703 Y174.506 E3.92577
G1 X137.85 Y174.095 E3.95726
G1 X137.12 Y173.702 E3.98484
G1 X136.658 Y173.446 E4.00241
G1 X136.032 Y173.088 E4.02639
G1 X135.254 Y172.599 E4.05695
G1 X134.647 Y172.181 E4.08147
G1 X134.089 Y171.784 E4.10424
G1 X133.521 Y171.368 E4.12766
G1 X132.807 Y170.798 E4.15805
G1 X132.206 Y170.275 E4.18455
G1 X131.726 Y169.845 E4.20598
G1 X131.222 Y169.38 E4.22879
G1 X130.581 Y168.738 E4.25896
G1 X130.128 Y168.245 E4.28123
G1 X129.654 Y167.713 E4.30493
G1 X129.171 Y167.156 E4.32945
G1 X128.59 Y166.424 E4.36053
G1 X128.141 Y165.807 E4.38591
G1 X127.8 Y165.326 E4.40552
G1 X127.407 Y164.756 E4.42855
G1 X126.906 Y163.958 E4.45989
G1 X126.47 Y163.192 E4.48921
G1 X126.242 Y162.776 E4.50498
G1 X125.89 Y162.118 E4.5298
G1 X125.476 Y161.257 E4.56158
G1 X125.155 Y160.506 E4.58874
G1 X124.967 Y160.05 E4.60515
G1 X124.685 Y159.342 E4.6305
G1 X124.376 Y158.461 E4.66155
G1 X124.125 Y157.629 E4.69045
G1 X123.975 Y157.102 E4.70868
G1 X123.792 Y156.429 E4.73187
G1 X123.587 Y155.525 E4.7627
G1 X123.432 Y154.669 E4.79164
G1 X123.354 Y154.202 E4.80739
G1 X123.238 Y153.455 E4.83253
G1 X123.134 Y152.527 E4.86359
G1 X123.079 Y151.718 E4.89056
G1 X123.051 Y151.193 E4.90804
G1 X123.02 Y150.46 E4.93244
G1 X123.02 Y149.526 E4.96351
G1 X123.062 Y148.577 E4.9951
G1 X123.087 Y148.16 E5.009
G1 X123.138 Y147.434 E5.03321
G1 X123.24 Y146.525 E5.06363
G1 X123.34 Y145.878 E5.0854
G1 X123.462 Y145.157 E5.10972
G1 X123.584 Y144.488 E5.13234
G1 X123.793 Y143.569 E5.16369
G1 X124.02 Y142.741 E5.19225
G1 X124.173 Y142.214 E5.2105
G1 X124.387 Y141.511 E5.23494
G1 X124.689 Y140.647 E5.26538
G1 X125.008 Y139.848 E5.29399
G1 X125.211 Y139.36 E5.31157
G1 X125.494 Y138.705 E5.33531
G1 X125.723 Y138.209 E5.35348
G1 X125.926 Y137.812 E5.36831
G1 X126.261 Y137.187 E5.39189
G1 X126.547 Y136.671 E5.41151
G1 X126.891 Y136.066 E5.43466
G1 X127.407 Y135.244 E5.46694
G1 X127.917 Y134.508 E5.49672
G1 X128.2 Y134.11 E5.51297
G1 X128.629 Y133.524 E5.53712
G1 X129.197 Y132.812 E5.56742
G1 X129.726 Y132.204 E5.59422
G1 X130.155 Y131.726 E5.61558
G1 X130.62 Y131.222 E5.63839
G0 F6000 X130.914 Y131.493
G1 F1200 X131.533 Y130.876 E5.66746
G1 X132.157 Y130.304 E5.69561
G1 X132.55 Y129.957 E5.71305
G1 X133.107 Y129.474 E5.73757
G1 X133.812 Y128.913 E5.76754
G1 X134.425 Y128.467 E5.79275
G1 X134.901 Y128.129 E5.81217
G1 X135.471 Y127.736 E5.8352
G1 X136.24 Y127.253 E5.8654
G1 X137.002 Y126.82 E5.89455
G1 X137.412 Y126.595 E5.91011
G1 X138.068 Y126.244 E5.93485
G1 X138.892 Y125.848 E5.96526
G1 X139.679 Y125.511 E5.99373
G1 X140.1 Y125.337 E6.00888
G1 X140.806 Y125.056 E6.03416
G1 X141.647 Y124.762 E6.06379
G1 X142.482 Y124.51 E6.0928
G1 X142.999 Y124.362 E6.11069
G1 X143.671 Y124.179 E6.13385
G1 X144.549 Y123.98 E6.16379
G1 X145.397 Y123.826 E6.19246
G1 X145.859 Y123.75 E6.20803
G1 X146.606 Y123.634 E6.23317
G1 X147.501 Y123.533 E6.26313
G1 X148.275 Y123.481 E6.28893
G1 X148.902 Y123.447 E6.30982
G1 X149.592 Y123.419 E6.33279
G1 X150.481 Y123.42 E6.36235
G1 X151.341 Y123.458 E6.39099
G1 X151.892 Y123.491 E6.40935
G1 X152.58 Y123.541 E6.43229
G1 X153.443 Y123.639 E6.46118
G1 X154.237 Y123.764 E6.48791
G1 X154.804 Y123.862 E6.50705
G1 X155.51 Y123.993 E6.53093
G1 X156.379 Y124.192 E6.56058
G1 X157.141 Y124.402 E6.58687
G1 X157.675 Y124.557 E6.60537
G1 X158.377 Y124.771 E6.62977
G1 X159.205 Y125.061 E6.65895
G1 X160.006 Y125.381 E6.68764
G1 X160.453 Y125.567 E6.70375
G1 X161.128 Y125.858 E6.72819
G1 X161.614 Y126.082 E6.74599
G1 X161.988 Y126.273 E6.75996
G1 X162.635 Y126.619 E6.78436
G1 X163.147 Y126.904 E6.80385
G1 X163.748 Y127.247 E6.82687
G1 X164.516 Y127.73 E6.85704
G1 X165.261 Y128.245 E6.88717
G1 X165.668 Y128.535 E6.90379
G1 X166.275 Y128.981 E6.92884
G1 X166.949 Y129.519 E6.95752
G1 X167.42 Y129.928 E6.97827
G1 X168.003 Y130.449 E7.00428
G1 X168.507 Y130.914 E7.02709
G1 X169.124 Y131.533 E7.05615
G1 X169.696 Y132.157 E7.08431
G1 X170.043 Y132.55 E7.10175
G1 X170.526 Y133.107 E7.12627
G1 X171.087 Y133.812 E7.15623
G1 X171.533 Y134.425 E7.18145
G1 X171.868 Y134.897 E7.2007
G1 X172.26 Y135.465 E7.22365
G1 X172.746 Y136.239 E7.25405
G1 X173.18 Y137.002 E7.28325
G1 X173.405 Y137.412 E7.2988
G1 X173.756 Y138.068 E7.32355
G1 X174.154 Y138.897 E7.35413
G1 X174.476 Y139.648 E7.38131
G1 X174.663 Y140.1 E7.39758
G1 X174.944 Y140.806 E7.42285
G1 X175.238 Y141.647 E7.45248
G1 X175.49 Y142.482 E7.48149
G1 X175.636 Y142.994 E7.4992
G1 X175.815 Y143.65 E7.52182
G1 X176.013 Y144.518 E7.55143
G1 X176.176 Y145.407 E7.58149
G1 X176.25 Y145.858 E7.59669
G1 X176.367 Y146.61 E7.622
G1 X176.469 Y147.521 E7.65249
G1 X176.518 Y148.263 E7.67723
G1 X176.552 Y148.887 E7.69801
G1 X176.58 Y149.544 E7.71988
G1 X176.581 Y150.429 E7.74932
G1 X176.545 Y151.28 E7.77765
G1 X176.513 Y151.862 E7.79703
G1 X176.489 Y152.234 E7.80943
G1 X176.456 Y152.633 E7.82275
G1 X176.382 Y153.25 E7.84342
G1 X176.23 Y154.26 E7.87739
G1 X176.164 Y154.658 E7.89081
G1 X176.022 Y155.441 E7.91727
G1 X175.821 Y156.325 E7.94743
G1 X175.596 Y157.148 E7.9758
G1 X175.446 Y157.666 E7.99374
G1 X175.232 Y158.37 E8.01821
G1 X174.937 Y159.211 E8.04786
G1 X174.622 Y159.999 E8.07608
G1 X174.422 Y160.481 E8.09344
G1 X174.139 Y161.136 E8.11717
G1 X173.918 Y161.614 E8.13469
G1 X173.727 Y161.988 E8.14865
G1 X173.385 Y162.627 E8.17276
G1 X173.106 Y163.131 E8.19192
G1 X172.762 Y163.736 E8.21507
G1 X172.27 Y164.52 E8.24585
G1 X171.745 Y165.278 E8.27652
G1 X171.474 Y165.658 E8.29204
G1 X171.046 Y166.242 E8.31613
G1 X170.507 Y166.917 E8.34486
G1 X169.975 Y167.529 E8.37183
G1 X169.544 Y168.01 E8.39331
G1 X169.08 Y168.512 E8.41604
G1 X168.477 Y169.114 E8.44438
G1 X167.983 Y169.569 E8.46672
G1 X167.532 Y169.971 E8.48682
G1 X166.933 Y170.494 E8.51326
G1 X166.204 Y171.075 E8.54427
G1 X165.575 Y171.533 E8.57015
G1 X165.098 Y171.871 E8.58959
G1 X164.525 Y172.266 E8.61274
G1 X163.76 Y172.747 E8.6428
G1 X162.984 Y173.188 E8.67248
G1 X162.569 Y173.416 E8.68823
G1 X161.921 Y173.762 E8.71266
G1 X161.118 Y174.148 E8.7423
G1 X160.336 Y174.483 E8.77059
G1 X159.853 Y174.682 E8.78797
G1 X159.212 Y174.937 E8.81091
G1 X158.683 Y175.132 E8.82966
G1 X158.294 Y175.258 E8.84326
G1 X157.608 Y175.464 E8.86709
G1 X157.001 Y175.638 E8.88809
G1 X156.329 Y175.821 E8.91125
G1 X155.451 Y176.02 E8.9412
G1 X154.603 Y176.174 E8.96986
G1 X154.131 Y176.252 E8.98577
G1 X153.386 Y176.367 E9.01085
G1 X152.514 Y176.465 E9.04003
G1 X151.707 Y176.521 E9.06694
G1 X151.121 Y176.552 E9.08646
G1 X150.415 Y176.581 E9.10996
G1 X149.534 Y176.581 E9.13926
G1 X148.724 Y176.546 E9.16622
G1 X148.055 Y176.508 E9.18851
G1 X147.614 Y176.477 E9.20322
G1 X147.461 Y176.464 E9.20832
G1 X146.791 Y176.386 E9.23076
G1 X145.667 Y176.218 E9.26856
G1 X145.345 Y176.164 E9.27942
G1 X144.572 Y176.024 E9.30554
G1 X143.675 Y175.821 E9.33613
G1 X142.852 Y175.596 E9.36451
G1 X142.331 Y175.445 E9.38255
G1 X141.618 Y175.228 E9.40734
G1 X140.778 Y174.933 E9.43695
G1 X140.032 Y174.635 E9.46367
G1 X139.514 Y174.42 E9.48233
G1 X138.861 Y174.139 E9.50597
G1 X138.039 Y173.742 E9.53633
G1 X137.313 Y173.352 E9.56374
G1 X136.857 Y173.099 E9.58109
G1 X136.231 Y172.741 E9.60507
G1 X135.481 Y172.269 E9.63455
G1 X134.747 Y171.762 E9.66422
G1 X134.326 Y171.462 E9.68141
G1 X133.758 Y171.046 E9.70483
G1 X133.07 Y170.496 E9.73412
G1 X132.472 Y169.976 E9.76048
G1 X131.997 Y169.551 E9.78168
G1 X131.493 Y169.086 E9.80449
G1 X130.876 Y168.467 E9.83356
G1 X130.304 Y167.843 E9.86171
G1 X129.957 Y167.45 E9.87915
G1 X129.474 Y166.893 E9.90367
G1 X128.913 Y166.188 E9.93364
G1 X128.467 Y165.575 E9.95885
G1 X128.129 Y165.099 E9.97827
G1 X127.736 Y164.529 E10.00129
G1 X127.253 Y163.76 E10.0315
G1 X126.82 Y162.998 E10.06065
G1 X126.594 Y162.587 E10.07625
G1 X126.242 Y161.929 E10.10107
G1 X125.844 Y161.099 E10.13168
G1 X125.524 Y160.352 E10.15871
G1 X125.338 Y159.902 E10.17491
G1 X125.056 Y159.194 E10.20026
G1 X124.759 Y158.345 E10.23017
G1 X124.51 Y157.518 E10.2589
G1 X124.361 Y156.997 E10.27692
G1 X124.178 Y156.324 E10.30012
G1 X123.98 Y155.453 E10.32983
G1 X123.826 Y154.603 E10.35856
G1 X123.75 Y154.141 E10.37413
G1 X123.634 Y153.394 E10.39927
G1 X123.533 Y152.5 E10.4292
G1 X123.479 Y151.696 E10.456
G1 X123.45 Y151.176 E10.47332
G1 X123.419 Y150.443 E10.49772
G1 X123.42 Y149.543 E10.52766
G1 X123.461 Y148.601 E10.55902
G1 X123.486 Y148.188 E10.57278
G1 X123.537 Y147.462 E10.59698
G1 X123.635 Y146.586 E10.6263
G1 X123.735 Y145.939 E10.64808
G1 X123.856 Y145.228 E10.67206
G1 X123.978 Y144.559 E10.69468
G1 X124.179 Y143.675 E10.72484
G1 X124.404 Y142.852 E10.75321
G1 X124.555 Y142.33 E10.77129
G1 X124.769 Y141.627 E10.79573
G1 X125.061 Y140.795 E10.82506
G1 X125.378 Y140.001 E10.85349
G1 X125.578 Y139.519 E10.87085
G1 X125.861 Y138.864 E10.89458
G1 X126.082 Y138.386 E10.91209
G1 X126.279 Y138.001 E10.92648
G1 X126.612 Y137.38 E10.94992
G1 X126.894 Y136.869 E10.96933
G1 X127.238 Y136.264 E10.99248
G1 X127.736 Y135.471 E11.02362
G1 X128.244 Y134.739 E11.05326
G1 X128.523 Y134.347 E11.06926
G1 X128.952 Y133.761 E11.09341
G1 X129.5 Y133.074 E11.12264
G1 X130.025 Y132.471 E11.14923
G1 X130.449 Y131.997 E11.17039
G1 X130.914 Y131.493 E11.19319
G0 F6000 X131.208 Y131.764
G1 F1200 X131.804 Y131.17 E11.22118
G1 X132.423 Y130.603 E11.2491
G1 X132.812 Y130.259 E11.26637
G1 X133.369 Y129.776 E11.29089
G1 X134.047 Y129.236 E11.31972
G1 X134.658 Y128.792 E11.34484
G1 X135.128 Y128.459 E11.364
G1 X135.698 Y128.066 E11.38703
G1 X136.438 Y127.601 E11.4161
G1 X137.195 Y127.17 E11.44507
G1 X137.601 Y126.947 E11.46048
G1 X138.257 Y126.596 E11.48522
G1 X139.049 Y126.215 E11.51445
G1 X139.832 Y125.881 E11.54277
G1 X140.248 Y125.709 E11.55774
G1 X140.954 Y125.428 E11.58301
G1 X141.764 Y125.145 E11.61155
G1 X142.592 Y124.894 E11.64033
G1 X143.104 Y124.748 E11.65804
G1 X143.776 Y124.565 E11.6812
G1 X144.621 Y124.373 E11.71002
G1 X145.31 Y124.247 E11.73332
G1 X145.921 Y124.145 E11.75392
G1 X146.668 Y124.029 E11.77906
G1 X147.529 Y123.932 E11.80788
G1 X148.297 Y123.88 E11.83348
G1 X148.918 Y123.846 E11.85417
G1 X149.608 Y123.818 E11.87714
G1 X150.463 Y123.82 E11.90558
G1 X151.318 Y123.858 E11.93404
G1 X151.863 Y123.89 E11.9522
G1 X152.551 Y123.94 E11.97514
G1 X153.382 Y124.035 E12.00296
G1 X154.17 Y124.158 E12.02949
G1 X154.731 Y124.255 E12.04842
G1 X155.437 Y124.386 E12.07231
G1 X156.273 Y124.578 E12.10084
G1 X157.031 Y124.786 E12.12698
G1 X157.558 Y124.939 E12.14523
G1 X158.26 Y125.153 E12.16964
G1 X159.057 Y125.433 E12.19774
G1 X159.853 Y125.75 E12.22623
G1 X160.295 Y125.934 E12.24216
G1 X160.97 Y126.225 E12.26661
G1 X161.437 Y126.441 E12.28372
G1 X161.8 Y126.625 E12.29725
G1 X162.441 Y126.969 E12.32145
G1 X162.949 Y127.251 E12.34078
G1 X163.55 Y127.594 E12.36379
