;FLAVOR:Marlin
;TIME:429
;Filament used: 0.0779651m
;Layer height: 0.2
;MINX:135.141
;MINY:135.18
;MINZ:0.2
;MAXX:164.852
;MAXY:164.831
;MAXZ:6
;Generated with Creality Slicer 4.8.2-191
M140 S50
M105
M190 S50
M104 S200
M105
M109 S200
M82 ;absolute extrusion mode

G28 ;Home

G92 E0 ;Reset Extruder
G1 Z2.0 F3000 ;Move Z Axis up
G1 X10.1 Y20 Z0.28 F5000.0 ;Move to start position
G1 X10.1 Y200.0 Z0.28 F1500.0 E15 ;Draw the first line
G1 X10.4 Y200.0 Z0.28 F5000.0 ;Move to side a little
G1 X10.4 Y20 Z0.28 F1500.0 E30 ;Draw the second line
G92 E0 ;Reset Extruder
G1 Z2.0 F3000 ;Move Z Axis up

G92 E0
G92 E0
G1 F2700 E-5
;LAYER_COUNT:30
;LAYER:0
M107
G0 F6000 X140.181 Y138.934 Z0.2
;TYPE:SKIRT
G1 F2700 E0
G1 F1200 X140.884 Y138.314 E0.03118
G1 X141.62 Y137.768 E0.06166
G1 X141.795 Y137.649 E0.06869
G1 X142.592 Y137.155 E0.09988
G1 X143.428 Y136.731 E0.13106
G1 X144.298 Y136.38 E0.16226
G1 X144.837 Y136.204 E0.18112
G1 X146.413 Y135.735 E0.23581
G1 X146.893 Y135.599 E0.2524
G1 X147.806 Y135.382 E0.28362
G1 X148.733 Y135.243 E0.31479
G1 X149.733 Y135.183 E0.34811
G1 X149.94 Y135.18 E0.355
G1 X150.877 Y135.207 E0.38618
G1 X151.809 Y135.313 E0.41737
G1 X153.046 Y135.581 E0.45947
G1 X153.521 Y135.714 E0.47588
G1 X154.115 Y135.886 E0.49645
G1 X155.156 Y136.199 E0.5326
G1 X156.042 Y136.507 E0.5638
G1 X156.899 Y136.889 E0.59501
G1 X157.86 Y137.43 E0.63169
G1 X158.066 Y137.56 E0.63979
G1 X158.837 Y138.094 E0.67098
G1 X159.559 Y138.692 E0.70216
G1 X160.405 Y139.542 E0.74205
G1 X160.72 Y139.896 E0.75781
G1 X161.655 Y140.976 E0.80532
G1 X161.905 Y141.272 E0.81821
G1 X162.479 Y142.014 E0.84941
G1 X162.988 Y142.802 E0.88061
G1 X163.427 Y143.63 E0.91178
G1 X163.761 Y144.405 E0.93985
G1 X163.841 Y144.612 E0.94723
G1 X164.142 Y145.5 E0.97842
G1 X164.366 Y146.411 E1.00962
G1 X164.459 Y146.945 E1.02765
G1 X164.639 Y148.151 E1.06821
G1 X164.758 Y149.024 E1.09751
G1 X164.845 Y149.958 E1.12871
G1 X164.852 Y150.896 E1.15991
G1 X164.767 Y151.926 E1.19428
G1 X164.74 Y152.134 E1.20126
G1 X164.58 Y153.058 E1.23245
G1 X164.342 Y153.965 E1.26364
G1 X163.869 Y155.22 E1.30824
G1 X163.379 Y156.309 E1.34796
G1 X162.979 Y157.167 E1.37945
G1 X162.547 Y157.999 E1.41063
G1 X162.045 Y158.792 E1.44184
G1 X161.484 Y159.531 E1.4727
G1 X161.345 Y159.699 E1.47996
G1 X160.717 Y160.396 E1.51116
G1 X160.032 Y161.036 E1.54234
G1 X159.295 Y161.616 E1.57353
G1 X158.824 Y161.936 E1.59247
G1 X157.252 Y162.948 E1.65466
G1 X156.443 Y163.422 E1.68584
G1 X155.657 Y163.799 E1.71484
G1 X155.372 Y163.922 E1.72516
G1 X154.496 Y164.256 E1.75634
G1 X153.594 Y164.515 E1.78755
G1 X152.674 Y164.696 E1.81874
G1 X151.512 Y164.811 E1.85758
G1 X151.014 Y164.825 E1.87415
G1 X149.887 Y164.831 E1.91163
G1 X148.949 Y164.824 E1.94283
G1 X148.012 Y164.777 E1.97403
G1 X147.083 Y164.65 E2.00522
G1 X146.094 Y164.425 E2.03896
G1 X145.863 Y164.361 E2.04693
G1 X144.971 Y164.072 E2.07811
G1 X144.106 Y163.708 E2.10933
G1 X142.992 Y163.102 E2.15151
G1 X142.325 Y162.686 E2.17765
G1 X142.008 Y162.482 E2.19019
G1 X141.107 Y161.891 E2.22603
G1 X140.345 Y161.343 E2.25725
G1 X139.633 Y160.733 E2.28843
G1 X138.982 Y160.072 E2.31929
G1 X138.84 Y159.915 E2.32633
G1 X138.241 Y159.193 E2.35753
G1 X137.706 Y158.423 E2.38872
G1 X137.064 Y157.26 E2.4329
G1 X136.838 Y156.783 E2.45046
G1 X136.564 Y156.189 E2.47221
G1 X136.135 Y155.228 E2.50722
G1 X135.79 Y154.356 E2.53841
G1 X135.52 Y153.458 E2.5696
G1 X135.327 Y152.537 E2.60089
G1 X135.288 Y152.301 E2.60885
G1 X135.175 Y151.37 E2.64004
G1 X135.141 Y150.433 E2.67123
G1 X135.231 Y149.107 E2.71543
G1 X135.32 Y148.414 E2.73867
G1 X135.357 Y148.151 E2.7475
G1 X135.548 Y146.903 E2.7895
G1 X135.729 Y145.983 E2.82068
G1 X135.988 Y145.081 E2.85189
G1 X136.33 Y144.188 E2.8837
G1 X136.422 Y143.976 E2.89139
G1 X136.832 Y143.132 E2.92259
G1 X137.312 Y142.327 E2.95377
G1 X138.101 Y141.267 E2.99772
G1 X138.476 Y140.822 E3.01707
G1 X139.534 Y139.613 E3.07051
G1 X140.181 Y138.934 E3.1017
G0 F6000 X140.471 Y139.211
G1 F1200 X141.162 Y138.603 E3.13231
G1 X141.845 Y138.099 E3.16055
G1 X142.02 Y137.98 E3.16758
G1 X142.803 Y137.495 E3.19822
G1 X143.625 Y137.081 E3.22883
G1 X144.48 Y136.74 E3.25945
G1 X144.951 Y136.587 E3.27592
G1 X146.522 Y136.119 E3.33044
G1 X147.002 Y135.983 E3.34703
G1 X147.898 Y135.771 E3.37766
G1 X148.809 Y135.637 E3.40828
G1 X149.738 Y135.583 E3.43923
G1 X149.945 Y135.58 E3.44612
G1 X150.866 Y135.607 E3.47676
G1 X151.78 Y135.713 E3.50737
G1 X152.939 Y135.966 E3.54682
G1 X153.411 Y136.098 E3.56312
G1 X154 Y136.269 E3.58352
G1 X155.041 Y136.582 E3.61968
G1 X155.91 Y136.885 E3.65029
G1 X156.75 Y137.262 E3.68091
G1 X157.646 Y137.769 E3.71515
G1 X157.852 Y137.899 E3.72325
G1 X158.609 Y138.423 E3.75388
G1 X159.317 Y139.012 E3.78451
G1 X160.107 Y139.808 E3.82181
G1 X160.321 Y140.048 E3.8325
G1 X161.349 Y141.234 E3.88471
G1 X161.599 Y141.53 E3.89759
G1 X162.162 Y142.259 E3.92823
G1 X162.66 Y143.033 E3.95884
G1 X163.088 Y143.848 E3.98946
G1 X163.388 Y144.549 E4.01482
G1 X163.468 Y144.756 E4.0222
G1 X163.763 Y145.628 E4.05282
G1 X163.98 Y146.523 E4.08345
G1 X164.064 Y147.005 E4.09972
G1 X164.243 Y148.205 E4.14007
G1 X164.362 Y149.078 E4.16938
G1 X164.446 Y149.995 E4.20001
G1 X164.451 Y150.916 E4.23064
G1 X164.371 Y151.875 E4.26265
G1 X164.344 Y152.083 E4.26962
G1 X164.186 Y152.989 E4.30021
G1 X163.95 Y153.879 E4.33083
G1 X163.504 Y155.056 E4.3727
G1 X163.016 Y156.14 E4.41224
G1 X162.616 Y156.998 E4.44372
G1 X162.191 Y157.815 E4.47435
G1 X161.697 Y158.591 E4.50495
G1 X161.176 Y159.276 E4.53357
G1 X161.037 Y159.444 E4.54083
G1 X160.42 Y160.127 E4.57144
G1 X159.746 Y160.754 E4.60206
G1 X159.02 Y161.321 E4.6327
G1 X158.608 Y161.6 E4.64924
G1 X157.036 Y162.612 E4.71143
G1 X156.241 Y163.076 E4.74204
G1 X155.498 Y163.431 E4.76943
G1 X155.213 Y163.554 E4.77976
G1 X154.353 Y163.882 E4.81037
G1 X153.467 Y164.134 E4.84101
G1 X152.563 Y164.308 E4.87163
G1 X151.494 Y164.411 E4.90735
G1 X151.012 Y164.425 E4.92338
G1 X149.89 Y164.431 E4.9607
G1 X148.952 Y164.424 E4.9919
G1 X148.032 Y164.377 E5.02254
G1 X147.121 Y164.25 E5.05313
G1 X146.201 Y164.039 E5.08453
G1 X145.97 Y163.975 E5.0925
G1 X145.094 Y163.691 E5.12313
G1 X144.246 Y163.332 E5.15376
G1 X143.203 Y162.762 E5.19329
G1 X142.541 Y162.349 E5.21924
G1 X142.227 Y162.147 E5.23166
G1 X141.326 Y161.556 E5.2675
G1 X140.579 Y161.018 E5.29812
G1 X139.881 Y160.418 E5.32873
G1 X139.279 Y159.803 E5.35735
G1 X139.137 Y159.646 E5.36439
G1 X138.549 Y158.937 E5.39503
G1 X138.026 Y158.18 E5.42563
G1 X137.425 Y157.088 E5.46709
G1 X137.201 Y156.615 E5.4845
G1 X136.93 Y156.026 E5.50606
G1 X136.501 Y155.065 E5.54106
G1 X136.162 Y154.209 E5.57169
G1 X135.899 Y153.326 E5.60233
G1 X135.722 Y152.472 E5.63134
G1 X135.683 Y152.236 E5.63929
G1 X135.572 Y151.322 E5.66992
G1 X135.542 Y150.402 E5.70053
G1 X135.627 Y149.158 E5.742
G1 X135.716 Y148.465 E5.76524
G1 X135.752 Y148.211 E5.77378
G1 X135.943 Y146.963 E5.81577
G1 X136.122 Y146.06 E5.84639
G1 X136.378 Y145.176 E5.877
G1 X136.697 Y144.347 E5.90654
G1 X136.789 Y144.135 E5.91423
G1 X137.192 Y143.307 E5.94485
G1 X137.665 Y142.518 E5.97545
G1 X138.407 Y141.524 E6.01671
G1 X138.782 Y141.079 E6.03606
G1 X138.917 Y140.922 E6.04295
G1 X139.834 Y139.876 E6.08922
G1 X140.471 Y139.211 E6.11984
G0 F6000 X140.76 Y139.488
G1 F1200 X141.44 Y138.894 E6.14987
G1 X142.069 Y138.429 E6.17589
G1 X142.244 Y138.31 E6.18293
G1 X143.013 Y137.836 E6.21298
G1 X143.82 Y137.432 E6.24299
G1 X145.065 Y136.97 E6.28716
G1 X146.631 Y136.504 E6.3415
G1 X147.111 Y136.368 E6.3581
G1 X147.99 Y136.161 E6.38813
G1 X148.884 Y136.032 E6.41817
G1 X149.744 Y135.983 E6.44682
G1 X149.951 Y135.98 E6.45371
G1 X150.854 Y136.007 E6.48376
G1 X151.751 Y136.114 E6.5138
G1 X152.832 Y136.352 E6.55062
G1 X153.3 Y136.482 E6.56677
G1 X153.885 Y136.652 E6.58703
G1 X154.926 Y136.965 E6.62319
G1 X155.778 Y137.263 E6.65321
G1 X156.601 Y137.635 E6.68325
G1 X157.433 Y138.107 E6.71507
G1 X157.639 Y138.237 E6.72317
G1 X158.38 Y138.752 E6.75318
G1 X159.073 Y139.331 E6.78322
G1 X159.808 Y140.075 E6.818
G1 X160.115 Y140.421 E6.83339
G1 X161.044 Y141.492 E6.88054
G1 X161.294 Y141.788 E6.89343
G1 X161.845 Y142.504 E6.92348
G1 X162.331 Y143.265 E6.95351
G1 X162.748 Y144.066 E6.98354
G1 X163.015 Y144.693 E7.00621
G1 X163.095 Y144.9 E7.01359
G1 X163.383 Y145.756 E7.04363
G1 X163.668 Y147.064 E7.08816
G1 X163.847 Y148.259 E7.12835
G1 X163.966 Y149.132 E7.15765
G1 X164.048 Y150.032 E7.18771
G1 X164.05 Y150.935 E7.21774
G1 X163.974 Y151.823 E7.24739
G1 X163.947 Y152.031 E7.25436
G1 X163.791 Y152.921 E7.28441
G1 X163.557 Y153.793 E7.31444
G1 X163.139 Y154.893 E7.35358
G1 X162.654 Y155.971 E7.3929
G1 X162.254 Y156.829 E7.42438
G1 X161.836 Y157.63 E7.45443
G1 X161.35 Y158.39 E7.48444
G1 X160.868 Y159.021 E7.51085
G1 X160.729 Y159.189 E7.5181
G1 X160.123 Y159.859 E7.54815
G1 X159.46 Y160.472 E7.57818
G1 X158.391 Y161.263 E7.62241
G1 X156.819 Y162.275 E7.68459
G1 X156.039 Y162.73 E7.71463
G1 X155.34 Y163.064 E7.74039
G1 X155.055 Y163.187 E7.75072
G1 X154.211 Y163.508 E7.78075
G1 X153.341 Y163.753 E7.81081
G1 X152.454 Y163.92 E7.84083
G1 X151.476 Y164.011 E7.8735
G1 X151.01 Y164.025 E7.88901
G1 X149.893 Y164.031 E7.92616
G1 X148.955 Y164.024 E7.95736
G1 X148.053 Y163.977 E7.9874
G1 X147.159 Y163.851 E8.01743
G1 X146.308 Y163.654 E8.04648
G1 X146.077 Y163.59 E8.05445
G1 X145.218 Y163.31 E8.0845
G1 X144.387 Y162.956 E8.11455
G1 X143.414 Y162.422 E8.15146
G1 X142.756 Y162.012 E8.17725
G1 X142.447 Y161.813 E8.18947
G1 X141.546 Y161.222 E8.22531
G1 X140.813 Y160.694 E8.25536
G1 X140.13 Y160.103 E8.2854
G1 X139.575 Y159.535 E8.31181
G1 X139.433 Y159.378 E8.31885
G1 X138.858 Y158.682 E8.34888
G1 X138.346 Y157.938 E8.37892
G1 X137.787 Y156.916 E8.41766
G1 X137.564 Y156.447 E8.43494
G1 X137.295 Y155.863 E8.45632
G1 X136.866 Y154.902 E8.49132
G1 X136.535 Y154.062 E8.52135
G1 X136.279 Y153.196 E8.55139
G1 X136.116 Y152.407 E8.57819
G1 X136.077 Y152.171 E8.58614
G1 X135.97 Y151.274 E8.61619
G1 X135.942 Y150.372 E8.6462
G1 X136.024 Y149.209 E8.68498
G1 X136.113 Y148.516 E8.70822
G1 X136.147 Y148.272 E8.71641
G1 X136.338 Y147.024 E8.7584
G1 X136.514 Y146.138 E8.78845
G1 X136.768 Y145.271 E8.8185
G1 X137.064 Y144.506 E8.84578
G1 X137.156 Y144.294 E8.85347
G1 X137.552 Y143.483 E8.88348
G1 X138.018 Y142.709 E8.91353
G1 X138.713 Y141.782 E8.95207
G1 X139.088 Y141.337 E8.97142
G1 X139.218 Y141.186 E8.97805
G1 X140.135 Y140.14 E9.02432
G1 X140.76 Y139.488 E9.05436
G1 F2700 E4.05436
;MESH:11???6X2_5_06m.STL
G0 F6000 X147.24 Y147.678
G0 X148.395 Y148.67
G0 X148.329 Y150.352
G0 X148.521 Y150.894
G0 X148.879 Y151.338
G0 X149.987 Y151.915
;TYPE:WALL-INNER
G1 F2700 E9.05436
G1 F1200 X150.544 Y151.844 E9.07303
G1 X151.005 Y151.611 E9.09021
G1 X151.105 Y151.56 E9.09395
G1 X151.39 Y151.264 E9.10761
G1 X151.54 Y151.108 E9.11481
G1 X151.669 Y150.821 E9.12528
G1 X151.794 Y150.546 E9.13532
G1 X151.82 Y150.333 E9.14246
G1 X151.854 Y150.069 E9.15131
G1 X151.823 Y149.808 E9.16006
G1 X151.795 Y149.587 E9.16746
G1 X151.667 Y149.303 E9.17783
G1 X151.54 Y149.024 E9.18802
G1 X151.389 Y148.868 E9.19524
G1 X151.105 Y148.572 E9.20889
G1 X151.011 Y148.525 E9.21238
G1 X150.544 Y148.289 E9.22978
G1 X149.981 Y148.216 E9.24867
G1 X149.921 Y148.208 E9.25068
G1 X149.475 Y148.305 E9.26586
G1 X149.306 Y148.342 E9.27161
G1 X149.003 Y148.529 E9.28346
G1 X148.772 Y148.672 E9.29249
G1 X148.62 Y148.861 E9.30056
G1 X148.378 Y149.16 E9.31335
G1 X148.333 Y149.287 E9.31784
G1 X148.168 Y149.752 E9.33425
G1 X148.168 Y149.795 E9.33568
G1 X148.168 Y150.351 E9.35417
G1 X148.168 Y150.381 E9.35517
G1 X148.328 Y150.833 E9.37111
G1 X148.378 Y150.973 E9.37606
G1 X148.619 Y151.272 E9.38883
G1 X148.772 Y151.462 E9.39695
G1 X149.004 Y151.604 E9.40599
G1 X149.307 Y151.79 E9.41782
G1 X149.472 Y151.825 E9.42343
G1 X149.92 Y151.923 E9.43868
G1 X149.987 Y151.915 E9.44093
G0 F6000 X149.938 Y151.518
;TYPE:WALL-OUTER
G1 F1200 X150.425 Y151.456 E9.45725
G1 X150.864 Y151.234 E9.47362
G1 X151.204 Y150.88 E9.48994
G1 X151.405 Y150.436 E9.50615
G1 X151.451 Y150.069 E9.51845
G1 X151.405 Y149.696 E9.53095
G1 X151.204 Y149.252 E9.54716
G1 X150.864 Y148.898 E9.56349
G1 X150.425 Y148.677 E9.57984
G1 X149.938 Y148.614 E9.59617
G1 X149.458 Y148.718 E9.6125
G1 X149.04 Y148.976 E9.62884
G1 X148.732 Y149.358 E9.64516
G1 X148.568 Y149.821 E9.6615
G1 X148.568 Y150.312 E9.67783
G1 X148.732 Y150.775 E9.69417
G1 X149.04 Y151.157 E9.71049
G1 X149.458 Y151.414 E9.72681
G1 X149.938 Y151.518 E9.74314
G0 F6000 X149.919 Y151.957
G0 X149.44 Y151.976
;TYPE:WALL-INNER
G1 F1200 X149.26 Y151.877 E9.74576
G1 X148.944 Y151.703 E9.74901
G1 X148.718 Y151.535 E9.75153
G1 X148.498 Y151.371 E9.75473
G1 X148.304 Y151.014 E9.75909
G1 X148.226 Y150.87 E9.76059
G1 X148.058 Y150.423 E9.76504
G1 X148.03 Y150.351 E9.76642
G1 X148.072 Y149.795 E9.77188
G1 X148.084 Y149.735 E9.77259
G1 X148.191 Y149.237 E9.77779
G1 X148.296 Y149.099 E9.78009
G1 X148.53 Y148.789 E9.78365
G1 X148.708 Y148.609 E9.78594
G1 X148.92 Y148.395 E9.78942
G1 X149.276 Y148.263 E9.79353
G1 X149.451 Y148.198 E9.79521
G1 X149.897 Y148.1 E9.79938
G1 X149.999 Y148.077 E9.801
G1 X150.551 Y148.198 E9.8066
G1 X150.574 Y148.206 E9.8071
G1 X151.077 Y148.392 E9.81255
G1 X151.18 Y148.496 E9.8146
G1 X151.47 Y148.789 E9.81839
G1 X151.608 Y148.972 E9.82044
G1 X151.809 Y149.238 E9.82414
G1 X151.879 Y149.568 E9.82788
G1 X151.928 Y149.795 E9.82985
G1 X151.948 Y150.061 E9.8321
G1 X151.97 Y150.351 E9.83537
G1 X151.884 Y150.579 E9.83823
G1 X151.775 Y150.868 E9.84101
G1 X151.622 Y151.152 E9.8439
G1 X151.503 Y151.371 E9.8469
G1 X151.157 Y151.628 E9.85148
G1 X151.054 Y151.705 E9.85272
G1 X150.604 Y151.952 E9.85759
G1 X150.56 Y151.976 E9.85869
G1 X150 Y152.013 E9.86407
G1 X149.915 Y152.008 E9.86495
G1 X149.44 Y151.976 E9.86992
G1 F2700 E4.86992
G0 F6000 X148.859 Y153.546
G0 X148.968 Y153.604
;TYPE:WALL-OUTER
G1 F2700 E9.86992
G1 F1200 X148.883 Y153.35 E9.87883
G1 X148.879 Y152.994 E9.89067
G1 X148.994 Y152.644 E9.90293
G1 X149.208 Y152.305 E9.91626
G1 X148.729 Y152.042 E9.93443
G1 X148.306 Y151.727 E9.95198
G1 X147.948 Y152.187 E9.97136
G1 X147.653 Y152.384 E9.98316
G1 X147.298 Y152.482 E9.99541
G1 X147.218 Y152.484 E9.99807
G1 X147.282 Y152.228 E10.00685
G1 X147.476 Y151.923 E10.01887
G1 X147.756 Y151.695 E10.03088
G1 X148.124 Y151.52 E10.04443
G1 X147.861 Y151.036 E10.06276
G1 X147.677 Y150.548 E10.0801
G1 X147.128 Y150.74 E10.09945
G1 X146.771 Y150.747 E10.11132
G1 X146.419 Y150.637 E10.12359
G1 X146.352 Y150.597 E10.12618
G1 X146.548 Y150.414 E10.1351
G1 X146.87 Y150.265 E10.1469
G1 X147.238 Y150.223 E10.15922
G1 X147.635 Y150.274 E10.17254
G1 X147.675 Y149.739 E10.19038
G1 X147.787 Y149.215 E10.2082
G1 X147.218 Y149.081 E10.22764
G1 X146.915 Y148.893 E10.2395
G1 X146.68 Y148.613 E10.25166
G1 X146.645 Y148.541 E10.25432
G1 X146.909 Y148.492 E10.26326
G1 X147.261 Y148.539 E10.27507
G1 X147.588 Y148.702 E10.28722
G1 X147.897 Y148.963 E10.30067
G1 X148.226 Y148.528 E10.31881
G1 X148.597 Y148.153 E10.33636
G1 X148.194 Y147.733 E10.35572
G1 X148.039 Y147.411 E10.3676
G1 X147.994 Y147.049 E10.37974
G1 X148.003 Y146.969 E10.38241
G1 X148.248 Y147.07 E10.39123
G1 X148.521 Y147.304 E10.40319
G1 X148.709 Y147.615 E10.41527
G1 X148.828 Y148.002 E10.42874
G1 X149.343 Y147.812 E10.447
G1 X149.854 Y147.699 E10.4644
G1 X149.743 Y147.13 E10.48369
G1 X149.786 Y146.772 E10.49568
G1 X149.942 Y146.443 E10.50779
G1 X149.995 Y146.38 E10.51053
G1 X150.146 Y146.596 E10.51929
G1 X150.249 Y146.942 E10.5313
G1 X150.239 Y147.307 E10.54344
G1 X150.131 Y147.696 E10.55687
G1 X150.658 Y147.812 E10.57482
G1 X151.157 Y147.996 E10.59251
G1 X151.371 Y147.456 E10.61183
G1 X151.602 Y147.179 E10.62382
G1 X151.911 Y146.988 E10.63591
G1 X151.988 Y146.963 E10.6386
G1 X151.999 Y147.23 E10.64749
G1 X151.9 Y147.572 E10.65933
G1 X151.693 Y147.875 E10.67153
G1 X151.391 Y148.141 E10.68492
G1 X151.774 Y148.528 E10.70303
G1 X152.093 Y148.951 E10.72065
G1 X152.564 Y148.612 E10.73995
G1 X152.908 Y148.504 E10.75194
G1 X153.274 Y148.509 E10.76412
G1 X153.352 Y148.53 E10.7668
G1 X153.217 Y148.758 E10.77562
G1 X152.948 Y148.994 E10.78752
G1 X152.605 Y149.137 E10.79988
G1 X152.21 Y149.202 E10.81319
G1 X152.325 Y149.739 E10.83146
G1 X152.364 Y150.259 E10.8488
G1 X152.946 Y150.228 E10.86819
