;FLAVOR:Marlin
;TIME:3056
;Filament used: 1.5285m
;Layer height: 0.2
;MINX:122.474
;MINY:126.724
;MINZ:0.2
;MAXX:177.812
;MAXY:173.276
;MAXZ:21
;Generated with Creality Slicer 4.8.2-191
M140 S50
M105
M190 S50
M104 S200
M105
M109 S200
M82 ;absolute extrusion mode

G28 ;Home

G92 E0 ;Reset Extruder
G1 Z2.0 F3000 ;Move Z Axis up
G1 X10.1 Y20 Z0.28 F5000.0 ;Move to start position
G1 X10.1 Y200.0 Z0.28 F1500.0 E15 ;Draw the first line
G1 X10.4 Y200.0 Z0.28 F5000.0 ;Move to side a little
G1 X10.4 Y20 Z0.28 F1500.0 E30 ;Draw the second line
G92 E0 ;Reset Extruder
G1 Z2.0 F3000 ;Move Z Axis up

G92 E0
G92 E0
G1 F2700 E-5
;LAYER_COUNT:105
;LAYER:0
M107
G0 F6000 X130.353 Y136.042 Z0.2
;TYPE:SKIRT
G1 F2700 E0
G1 F1200 X131.05 Y135.414 E0.0312
G1 X132.108 Y134.641 E0.07479
G1 X132.688 Y134.268 E0.09772
G1 X133.498 Y133.795 E0.12892
G1 X133.937 Y133.575 E0.14525
G1 X134.047 Y133.523 E0.1493
G1 X134.659 Y133.256 E0.17151
G1 X135.126 Y133.069 E0.18824
G1 X137.333 Y132.223 E0.26685
G1 X139.66 Y131.255 E0.35068
G1 X141.954 Y130.226 E0.4343
G1 X144.629 Y128.927 E0.53321
G1 X145.344 Y128.611 E0.55921
G1 X146.218 Y128.261 E0.59052
G1 X146.571 Y128.127 E0.60308
G1 X147.075 Y127.945 E0.6209
G1 X147.997 Y127.657 E0.65303
G1 X148.904 Y127.417 E0.68423
G1 X149.24 Y127.334 E0.69574
G1 X149.785 Y127.208 E0.71435
G1 X150.75 Y127.03 E0.74699
G1 X151.65 Y126.905 E0.77721
G1 X152.005 Y126.861 E0.78911
G1 X152.581 Y126.8 E0.80837
G1 X153.543 Y126.741 E0.84043
G1 X154.441 Y126.725 E0.8703
G1 X154.807 Y126.724 E0.88247
G1 X155.388 Y126.733 E0.9018
G1 X156.345 Y126.79 E0.93368
G1 X157.238 Y126.882 E0.96354
G1 X157.583 Y126.923 E0.9751
G1 X158.168 Y127.002 E0.99473
G1 X159.16 Y127.183 E1.02827
G1 X160.017 Y127.38 E1.05752
G1 X160.353 Y127.462 E1.06902
G1 X160.938 Y127.616 E1.08914
G1 X161.847 Y127.898 E1.1208
G1 X162.693 Y128.201 E1.15069
G1 X163.05 Y128.336 E1.16338
G1 X163.588 Y128.55 E1.18264
G1 X164.451 Y128.937 E1.2141
G1 X165.255 Y129.34 E1.24401
G1 X165.588 Y129.514 E1.2565
G1 X166.102 Y129.794 E1.27597
G1 X166.922 Y130.288 E1.30781
G1 X167.668 Y130.783 E1.33759
G1 X167.969 Y130.99 E1.34974
G1 X168.449 Y131.332 E1.36934
G1 X169.215 Y131.931 E1.40168
G1 X169.912 Y132.527 E1.43219
G1 X170.184 Y132.768 E1.44427
G1 X170.591 Y133.14 E1.46261
G1 X171.269 Y133.815 E1.49443
G1 X171.917 Y134.52 E1.52628
G1 X172.148 Y134.78 E1.53785
G1 X172.499 Y135.187 E1.55573
G1 X173.111 Y135.965 E1.58865
G1 X173.639 Y136.702 E1.6188
G1 X173.847 Y137.002 E1.63094
G1 X174.16 Y137.471 E1.6497
G1 X174.653 Y138.285 E1.68135
G1 X175.103 Y139.105 E1.71246
G1 X175.284 Y139.447 E1.72533
G1 X175.546 Y139.967 E1.7447
G1 X175.932 Y140.823 E1.77593
G1 X176.254 Y141.626 E1.8047
G1 X176.38 Y141.955 E1.81642
G1 X176.604 Y142.57 E1.83819
G1 X176.757 Y143.02 E1.854
G1 X176.902 Y143.499 E1.87064
G1 X176.989 Y143.813 E1.88148
G1 X177.077 Y144.152 E1.89313
G1 X177.191 Y144.621 E1.90918
G1 X177.252 Y144.885 E1.9182
G1 X177.374 Y145.447 E1.93732
G1 X177.491 Y146.073 E1.9585
G1 X177.524 Y146.283 E1.96557
G1 X177.569 Y146.604 E1.97636
G1 X177.643 Y147.186 E1.99587
G1 X177.668 Y147.398 E2.00297
G1 X177.733 Y148.003 E2.02321
G1 X177.794 Y148.975 E2.0556
G1 X177.811 Y149.896 E2.08624
G1 X177.812 Y150.253 E2.09811
G1 X177.804 Y150.825 E2.11714
G1 X177.748 Y151.794 E2.14942
G1 X177.655 Y152.7 E2.17971
G1 X177.61 Y153.071 E2.19214
G1 X177.532 Y153.64 E2.21124
G1 X177.362 Y154.576 E2.24289
G1 X177.16 Y155.468 E2.27331
G1 X177.07 Y155.835 E2.28587
G1 X176.928 Y156.375 E2.30444
G1 X176.645 Y157.288 E2.33624
G1 X176.329 Y158.17 E2.3674
G1 X176.203 Y158.505 E2.3793
G1 X175.995 Y159.031 E2.39811
G1 X175.6 Y159.915 E2.43032
G1 X175.2 Y160.713 E2.46001
G1 X175.032 Y161.035 E2.47209
G1 X174.762 Y161.532 E2.4909
G1 X174.263 Y162.361 E2.52308
G1 X173.743 Y163.145 E2.55437
G1 X173.537 Y163.444 E2.56645
G1 X173.206 Y163.909 E2.58543
G1 X172.607 Y164.677 E2.61783
G1 X172.036 Y165.345 E2.64706
G1 X171.806 Y165.606 E2.65863
G1 X171.407 Y166.044 E2.67833
G1 X170.718 Y166.735 E2.71079
G1 X170.027 Y167.37 E2.742
G1 X169.774 Y167.596 E2.75328
G1 X169.363 Y167.951 E2.77135
G1 X168.582 Y168.566 E2.80441
G1 X167.833 Y169.103 E2.83506
G1 X167.544 Y169.303 E2.84675
G1 X167.081 Y169.613 E2.86529
G1 X166.248 Y170.119 E2.8977
G1 X165.436 Y170.564 E2.9285
G1 X165.123 Y170.729 E2.94027
G1 X164.618 Y170.985 E2.9591
G1 X163.738 Y171.384 E2.99124
G1 X162.88 Y171.728 E3.02198
G1 X162.545 Y171.856 E3.03391
G1 X162.028 Y172.044 E3.05221
G1 X161.1 Y172.335 E3.08455
G1 X160.199 Y172.575 E3.11557
G1 X159.86 Y172.66 E3.12719
G1 X159.314 Y172.787 E3.14584
G1 X158.347 Y172.967 E3.17855
G1 X157.44 Y173.094 E3.20901
G1 X157.09 Y173.137 E3.22074
G1 X156.541 Y173.196 E3.2391
G1 X155.578 Y173.257 E3.2712
G1 X154.643 Y173.275 E3.3023
G1 X154.274 Y173.276 E3.31458
G1 X153.714 Y173.268 E3.3332
G1 X152.752 Y173.212 E3.36525
G1 X151.833 Y173.118 E3.39598
G1 X151.476 Y173.076 E3.40793
G1 X150.863 Y172.993 E3.42851
G1 X150.241 Y172.89 E3.44948
G1 X149.834 Y172.808 E3.46329
G1 X149.548 Y172.746 E3.47302
G1 X149.265 Y172.681 E3.48268
G1 X148.672 Y172.536 E3.50298
G1 X148.312 Y172.442 E3.51536
G1 X148.027 Y172.362 E3.5252
G1 X147.607 Y172.235 E3.5398
G1 X147.343 Y172.149 E3.54903
G1 X147.108 Y172.069 E3.55729
G1 X146.793 Y171.956 E3.56842
G1 X146.1 Y171.695 E3.59305
G1 X145.54 Y171.475 E3.61306
G1 X144.77 Y171.138 E3.64102
G1 X142.448 Y170.014 E3.72682
G1 X140.168 Y168.99 E3.80995
G1 X137.836 Y168.021 E3.89394
G1 X135.447 Y167.105 E3.97904
G1 X134.487 Y166.76 E4.01297
G1 X133.619 Y166.405 E4.04416
G1 X132.784 Y165.978 E4.07535
G1 X131.989 Y165.481 E4.10654
G1 X131.238 Y164.918 E4.13776
G1 X130.34 Y164.095 E4.17827
G1 X129.704 Y163.444 E4.20854
G1 X127.872 Y161.624 E4.29443
G1 X126.553 Y160.374 E4.35487
G1 X126.25 Y160.092 E4.36864
G1 X125.59 Y159.425 E4.39985
G1 X124.99 Y158.705 E4.43102
G1 X124.594 Y158.15 E4.4537
G1 X124.392 Y157.848 E4.46578
G1 X123.904 Y157.047 E4.49698
G1 X123.486 Y156.207 E4.52818
G1 X123.142 Y155.335 E4.55936
G1 X122.771 Y153.998 E4.60551
G1 X122.731 Y153.808 E4.61197
G1 X122.577 Y152.883 E4.64316
G1 X122.497 Y151.76 E4.6806
G1 X122.476 Y150.7 E4.71587
G1 X122.474 Y150.49 E4.72285
G1 X122.474 Y148.997 E4.77251
G1 X122.483 Y148.393 E4.7926
G1 X122.537 Y147.457 E4.82378
G1 X122.736 Y146.208 E4.86585
G1 X122.809 Y145.874 E4.87722
G1 X123.048 Y144.967 E4.90842
G1 X123.363 Y144.084 E4.9396
G1 X123.753 Y143.231 E4.97079
G1 X124.461 Y142.034 E5.01705
G1 X124.625 Y141.793 E5.02674
G1 X125.185 Y141.041 E5.05793
G1 X125.807 Y140.34 E5.0891
G1 X126.274 Y139.885 E5.11078
G1 X127.154 Y139.078 E5.1505
G1 X127.452 Y138.813 E5.16376
G1 X129.817 Y136.568 E5.27222
G1 X130.353 Y136.042 E5.2972
G0 F6000 X130.634 Y136.327
G1 F1200 X131.318 Y135.712 E5.32779
G1 X132.324 Y134.978 E5.36921
G1 X132.904 Y134.605 E5.39214
G1 X134.108 Y133.937 E5.43794
G1 X134.218 Y133.885 E5.44199
G1 X134.808 Y133.628 E5.46339
G1 X135.424 Y133.382 E5.48545
G1 X137.493 Y132.59 E5.55914
G1 X139.829 Y131.618 E5.64329
G1 X142.127 Y130.587 E5.72706
G1 X144.804 Y129.287 E5.82604
G1 X145.492 Y128.983 E5.85106
G1 X146.366 Y128.633 E5.88237
G1 X146.707 Y128.503 E5.89451
G1 X147.211 Y128.321 E5.91233
G1 X148.099 Y128.044 E5.94327
G1 X149.006 Y127.804 E5.97448
G1 X149.33 Y127.723 E5.98559
G1 X149.875 Y127.597 E6.00419
G1 X150.805 Y127.426 E6.03564
G1 X151.705 Y127.301 E6.06586
G1 X152.047 Y127.259 E6.07732
G1 X152.623 Y127.198 E6.09659
G1 X153.55 Y127.141 E6.12748
G1 X154.448 Y127.125 E6.15735
G1 X154.801 Y127.124 E6.16909
G1 X155.382 Y127.133 E6.18842
G1 X156.304 Y127.188 E6.21914
G1 X157.197 Y127.28 E6.249
G1 X157.53 Y127.319 E6.26015
G1 X158.115 Y127.398 E6.27978
G1 X159.071 Y127.572 E6.3121
G1 X159.928 Y127.769 E6.34135
G1 X160.251 Y127.849 E6.35242
G1 X160.836 Y128.003 E6.37254
G1 X161.712 Y128.275 E6.40304
G1 X162.558 Y128.578 E6.43293
G1 X162.902 Y128.708 E6.44516
G1 X163.44 Y128.922 E6.46442
G1 X164.272 Y129.295 E6.49475
G1 X165.076 Y129.698 E6.52466
G1 X165.397 Y129.866 E6.53671
G1 X165.911 Y130.146 E6.55618
G1 X166.701 Y130.622 E6.58685
G1 X167.447 Y131.117 E6.61663
G1 X167.737 Y131.316 E6.62833
G1 X168.217 Y131.658 E6.64793
G1 X168.955 Y132.235 E6.67909
G1 X169.652 Y132.831 E6.70959
G1 X169.914 Y133.063 E6.72123
G1 X170.321 Y133.435 E6.73957
G1 X170.974 Y134.086 E6.77024
G1 X171.622 Y134.791 E6.80209
G1 X171.845 Y135.041 E6.81323
G1 X172.196 Y135.448 E6.83111
G1 X172.786 Y136.198 E6.86285
G1 X173.314 Y136.935 E6.893
G1 X173.514 Y137.224 E6.90469
G1 X173.827 Y137.693 E6.92344
G1 X174.303 Y138.477 E6.95395
G1 X174.753 Y139.297 E6.98506
G1 X174.926 Y139.627 E6.99745
G1 X175.188 Y140.147 E7.01682
G1 X175.56 Y140.972 E7.04692
G1 X175.882 Y141.775 E7.07569
G1 X176.004 Y142.092 E7.08699
G1 X176.228 Y142.707 E7.10876
G1 X176.377 Y143.144 E7.12412
G1 X176.516 Y143.606 E7.14016
G1 X176.603 Y143.92 E7.151
G1 X176.688 Y144.246 E7.16221
G1 X176.802 Y144.715 E7.17826
G1 X176.861 Y144.97 E7.18696
G1 X176.983 Y145.532 E7.20609
G1 X177.095 Y146.135 E7.22649
G1 X177.128 Y146.345 E7.23356
G1 X177.172 Y146.654 E7.24394
G1 X177.246 Y147.236 E7.26345
G1 X177.27 Y147.441 E7.27032
G1 X177.335 Y148.046 E7.29056
G1 X177.394 Y148.982 E7.32175
G1 X177.411 Y149.903 E7.35239
G1 X177.412 Y150.247 E7.36383
G1 X177.404 Y150.819 E7.38286
G1 X177.35 Y151.753 E7.41397
G1 X177.257 Y152.659 E7.44427
G1 X177.214 Y153.017 E7.45626
G1 X177.136 Y153.586 E7.47536
G1 X176.972 Y154.487 E7.50582
G1 X176.77 Y155.379 E7.53624
G1 X176.683 Y155.734 E7.5484
G1 X176.541 Y156.274 E7.56697
G1 X176.269 Y157.153 E7.59757
G1 X175.953 Y158.035 E7.62873
G1 X175.831 Y158.358 E7.64022
G1 X175.623 Y158.884 E7.65903
G1 X175.242 Y159.736 E7.69007
G1 X174.842 Y160.534 E7.71976
G1 X174.68 Y160.844 E7.73139
G1 X174.41 Y161.341 E7.75021
G1 X173.93 Y162.14 E7.78121
G1 X173.41 Y162.924 E7.8125
G1 X173.212 Y163.212 E7.82412
G1 X172.881 Y163.677 E7.84311
G1 X172.302 Y164.417 E7.87436
G1 X171.731 Y165.085 E7.90359
G1 X171.51 Y165.336 E7.91471
G1 X171.111 Y165.774 E7.93442
G1 X170.447 Y166.441 E7.96572
G1 X169.756 Y167.076 E7.99693
G1 X169.513 Y167.293 E8.00777
G1 X169.102 Y167.648 E8.02583
G1 X168.349 Y168.241 E8.05771
G1 X167.6 Y168.778 E8.08836
G1 X167.321 Y168.971 E8.09965
G1 X166.858 Y169.281 E8.11818
G1 X166.055 Y169.769 E8.14943
G1 X165.243 Y170.214 E8.18023
G1 X164.942 Y170.373 E8.19155
G1 X164.437 Y170.629 E8.21038
G1 X163.589 Y171.013 E8.24134
G1 X162.731 Y171.357 E8.27209
G1 X162.408 Y171.48 E8.28358
G1 X161.891 Y171.668 E8.30188
G1 X160.997 Y171.949 E8.33305
G1 X160.096 Y172.189 E8.36406
G1 X159.769 Y172.27 E8.37527
G1 X159.223 Y172.397 E8.39391
G1 X158.292 Y172.571 E8.42541
G1 X157.385 Y172.698 E8.45588
G1 X157.048 Y172.739 E8.46717
G1 X156.499 Y172.798 E8.48553
G1 X155.57 Y172.857 E8.51649
G1 X154.635 Y172.875 E8.5476
G1 X154.28 Y172.876 E8.5594
G1 X153.72 Y172.868 E8.57803
G1 X152.792 Y172.814 E8.60895
G1 X151.873 Y172.72 E8.63967
G1 X151.53 Y172.679 E8.65116
G1 X150.917 Y172.596 E8.67174
G1 X150.317 Y172.497 E8.69196
G1 X149.918 Y172.417 E8.7055
G1 X149.632 Y172.355 E8.71523
G1 X149.36 Y172.293 E8.72451
G1 X148.767 Y172.148 E8.74482
G1 X148.42 Y172.057 E8.75675
G1 X148.135 Y171.977 E8.76659
G1 X147.726 Y171.853 E8.78081
G1 X147.472 Y171.77 E8.7897
G1 X147.237 Y171.69 E8.79795
G1 X146.933 Y171.582 E8.80868
G1 X146.246 Y171.323 E8.8331
G1 X145.686 Y171.103 E8.85311
G1 X144.944 Y170.778 E8.88006
G1 X142.608 Y169.647 E8.96638
G1 X140.319 Y168.619 E9.04984
G1 X137.984 Y167.648 E9.13395
G1 X135.569 Y166.723 E9.21996
G1 X134.623 Y166.383 E9.25339
G1 X133.771 Y166.034 E9.28402
G1 X132.952 Y165.613 E9.31465
G1 X132.173 Y165.122 E9.34527
G1 X131.44 Y164.566 E9.37587
G1 X130.626 Y163.816 E9.41269
G1 X130 Y163.175 E9.44249
G1 X128.126 Y161.313 E9.53035
G1 X126.829 Y160.084 E9.58978
G1 X126.522 Y159.799 E9.60371
G1 X125.875 Y159.144 E9.63433
G1 X125.288 Y158.435 E9.66495
G1 X124.926 Y157.927 E9.6857
G1 X124.724 Y157.625 E9.69778
G1 X124.246 Y156.839 E9.72838
G1 X123.838 Y156.013 E9.75902
G1 X123.503 Y155.156 E9.78962
G1 X123.162 Y153.916 E9.8324
G1 X123.122 Y153.726 E9.83886
G1 X122.972 Y152.817 E9.8695
G1 X122.897 Y151.752 E9.90501
G1 X122.876 Y150.692 E9.94027
G1 X122.874 Y150.49 E9.94699
G1 X122.874 Y149.003 E9.99645
G1 X122.883 Y148.399 E10.01654
G1 X122.937 Y147.48 E10.04716
G1 X123.126 Y146.294 E10.0871
G1 X123.199 Y145.96 E10.09847
G1 X123.435 Y145.07 E10.1291
G1 X123.747 Y144.203 E10.15974
G1 X124.132 Y143.367 E10.19036
G1 X124.792 Y142.26 E10.23322
G1 X124.956 Y142.019 E10.24292
G1 X125.506 Y141.281 E10.27353
G1 X126.119 Y140.593 E10.30418
G1 X126.544 Y140.179 E10.32391
G1 X127.289 Y139.494 E10.35757
G1 X127.728 Y139.103 E10.37713
G1 X130.12 Y136.832 E10.48683
G1 X130.634 Y136.327 E10.5108
G0 F6000 X130.914 Y136.613
G1 F1200 X131.586 Y136.009 E10.54085
G1 X132.541 Y135.314 E10.58013
G1 X133.121 Y134.941 E10.60307
G1 X134.279 Y134.298 E10.64712
G1 X134.389 Y134.246 E10.65117
G1 X134.956 Y133.999 E10.67174
G1 X135.567 Y133.756 E10.69361
G1 X137.641 Y132.962 E10.76747
G1 X139.98 Y131.989 E10.85173
G1 X142.3 Y130.947 E10.93632
G1 X144.979 Y129.647 E11.03536
G1 X145.641 Y129.354 E11.05944
G1 X146.515 Y129.004 E11.09075
G1 X146.843 Y128.879 E11.10243
G1 X147.347 Y128.697 E11.12025
G1 X148.202 Y128.43 E11.15004
G1 X149.109 Y128.19 E11.18125
G1 X149.42 Y128.113 E11.1919
G1 X149.965 Y127.987 E11.21051
G1 X150.86 Y127.822 E11.24078
G1 X151.76 Y127.697 E11.271
G1 X152.089 Y127.657 E11.28202
G1 X152.665 Y127.596 E11.30129
G1 X153.557 Y127.541 E11.33101
G1 X154.455 Y127.525 E11.36089
G1 X154.795 Y127.524 E11.37219
G1 X155.376 Y127.533 E11.39152
G1 X156.263 Y127.586 E11.42107
G1 X157.156 Y127.678 E11.45093
G1 X157.476 Y127.716 E11.46165
G1 X158.061 Y127.795 E11.48128
G1 X158.981 Y127.962 E11.51238
G1 X159.838 Y128.159 E11.54163
G1 X160.15 Y128.236 E11.55232
G1 X160.735 Y128.39 E11.57244
G1 X161.577 Y128.651 E11.60176
G1 X162.423 Y128.954 E11.63165
G1 X162.754 Y129.079 E11.64342
G1 X163.292 Y129.293 E11.66267
G1 X164.093 Y129.652 E11.69187
G1 X164.897 Y130.055 E11.72178
G1 X165.205 Y130.217 E11.73336
G1 X165.719 Y130.497 E11.75282
G1 X166.48 Y130.955 E11.78236
G1 X167.226 Y131.45 E11.81214
G1 X167.505 Y131.642 E11.82341
G1 X167.985 Y131.984 E11.84301
G1 X168.695 Y132.539 E11.87298
G1 X169.392 Y133.135 E11.90348
G1 X169.644 Y133.358 E11.91468
G1 X170.051 Y133.73 E11.93302
G1 X170.68 Y134.356 E11.96253
G1 X171.328 Y135.061 E11.99438
G1 X171.542 Y135.303 E12.00513
G1 X171.893 Y135.71 E12.023
G1 X172.461 Y136.431 E12.05353
G1 X172.989 Y137.168 E12.08368
G1 X173.181 Y137.446 E12.09492
G1 X173.494 Y137.915 E12.11367
G1 X173.952 Y138.67 E12.14304
G1 X174.402 Y139.49 E12.17416
G1 X174.569 Y139.807 E12.18607
G1 X174.831 Y140.327 E12.20544
G1 X175.189 Y141.121 E12.23441
G1 X175.511 Y141.924 E12.26318
G1 X175.628 Y142.229 E12.27405
G1 X175.852 Y142.844 E12.29582
G1 X175.964 Y143.167 E12.30719
G1 X175.997 Y143.268 E12.31072
G1 X176.131 Y143.712 E12.32615
G1 X176.218 Y144.026 E12.33698
G1 X176.299 Y144.341 E12.3478
G1 X176.413 Y144.81 E12.36386
G1 X176.47 Y145.055 E12.37222
G1 X176.592 Y145.617 E12.39135
G1 X176.7 Y146.198 E12.411
G1 X176.733 Y146.408 E12.41807
G1 X176.776 Y146.704 E12.42802
G1 X176.85 Y147.286 E12.44754
G1 X176.938 Y148.088 E12.47437
G1 X176.994 Y148.99 E12.50443
G1 X177.011 Y149.911 E12.53507
G1 X177.012 Y150.242 E12.54608
G1 X177.004 Y150.814 E12.5651
G1 X176.952 Y151.713 E12.59505
G1 X176.859 Y152.619 E12.62535
G1 X176.817 Y152.962 E12.63684
G1 X176.739 Y153.531 E12.65594
G1 X176.582 Y154.399 E12.68528
G1 X176.38 Y155.291 E12.7157
G1 X176.297 Y155.632 E12.72737
G1 X176.155 Y156.172 E12.74594
G1 X175.892 Y157.018 E12.77541
G1 X175.576 Y157.9 E12.80657
G1 X175.459 Y158.211 E12.81762
G1 X175.251 Y158.737 E12.83644
G1 X174.885 Y159.557 E12.8663
G1 X174.485 Y160.355 E12.89599
G1 X174.329 Y160.653 E12.90718
G1 X174.059 Y161.15 E12.92599
G1 X173.596 Y161.919 E12.95585
G1 X173.076 Y162.703 E12.98714
G1 X172.886 Y162.98 E12.99831
G1 X172.555 Y163.445 E13.01729
G1 X171.998 Y164.158 E13.04739
G1 X171.427 Y164.826 E13.07661
G1 X171.214 Y165.067 E13.08731
G1 X170.815 Y165.505 E13.10702
G1 X170.177 Y166.146 E13.1371
G1 X169.486 Y166.781 E13.16831
G1 X169.251 Y166.99 E13.17877
G1 X168.84 Y167.345 E13.19683
