;FLAVOR:Marlin
;TIME:4650
;Filament used:0.46777m
;Layer height: 0.1
;MINX:106.33
;MINY:106.33
;MINZ:0.1
;MAXX:113.666
;MAXY:113.67
;MAXZ:58
                                 
;Creality Print GCode Generated by CXEngine:NO_MAGE_VERSION_GIT_HEAD_BRANCH
;CXEngine Release Time:2022-09-30 09:53:04
;Gcode Generated Time:2023-01-17 02:15:25
;----------Machine Config--------------
;Machine Name:Creality Ender-3
;Machine Height:250
;Machine Width:220
;Machine Depth:220
;Material name:PLA
;Number of Extruders:1
;ExtruderParams[0] Nozzle Diameter1000
;----------Profile Config---------------
;Engine Version:275f99b
;Engine Release Time:2022-09-30 09:42:18
;Layer Height:0.1
;Wall Thickness:0.8
;Top/Bottom Thickness:0.5
;Out Wall Line Width:0.4
;Inner Wall Line Width:0.4
;Inital Layer Height:100
;Wall Line Count:2
;Infill Line Distance:4
;Infill Pattern:grid
;Infill Sparse Density:20
;Infill Wipe Distance:0
;Print Temperature:200
;Bed Temperature:60
;Support Enable:true
;Support Density:0
;Support Angle:60
;Adhesion Type:none
;machine is belt:false
;machine belt offset:10
;machine belt offset Y:0
;Raft Base Line Spacing:1.6
;Wait Heatup Sync:true
;----------Shell Config----------------
;Outer Wall Wipe Distance:200
;Outer Inset First:false
;Infill Before Walls:false
;Infill Overlap:0.16
;Fill Gaps Between Walls:everywhere
;Minimum Infill Area:1
;Top Surface Skin Layer:0
;Top Layers:4
;Z Seam Alignment:sharpest_corner
;Seam Corner Preference:z_seam_corner_inner
;Z Seam X:110
;Z Seam Y:110
;Horizontal Expansion:0
;Top/Bottom Pattern:zigzag
;Ironing Pattern:zigzag
;Vase Model:false
;----------Support Config----------------
;Support Type:everywhere
;Support Pattern:zigzag
;Support Infill Layer Thickness:0.1
;Minimum Support Area:5
;Enable Support Roof:true
;Support Roof Thickness:0.8
;Support Roof Pattern:lines
;Connect Support Lines:0
;Connect Support ZigZags:0
;Minimum Support X/Y Distance:0.2
;Support Line Distance:0
; ---------PrintSpeed & Travel----------
;Enable Print Cool:true
;Avoid Printed Parts Traveling:true
;Enable Retraction:true
;Retraction Distance:8
;Retraction Speed:100
;Retraction Prime Speed:100
;Maximum Retraction Count:100
;Minimum Extrusion Distance Window:1
;Z Hop When Retracted:false
;Z Hop Height:0.2
;Retract Before Outer Wall:true
;Print Speed:50
;Infill Speed:50

;Prime Tower Speed:50
;Travel Speed:120
;Initial Layer Speed:25
;Skirt/Brim Speed:25
;Combing Mode:infill
; --------SpecialModel&Mesh Fixes--------
;Union Overlapping Volum:true
;Remove All Holes:false
;Maximum Travel Resolution:0.6
;Maximum Deviation:0.05
;Maximum Model Angle:0.872665
;IS Mold Print:false
;Make Overhang Printable:false
;Enable Coasting:false
;Coasting Volumes:0.06
;Coasting Speed:0.9
;Raft AirGap:0.25
;Layer0 ZOverLap:0.13
;---------------------End of Head--------------------------
M140 S60
M105
M104 S200
M105
M109 S200
M105
M190 S60
M82 ;absolute extrusion mode
M220 S100 ;Reset Feedrate
M221 S100 ;Reset Flowrate

G28 ;Home

G92 E0 ;Reset Extruder
G1 Z2.0 F3000 ;Move Z Axis up
G1 X10.1 Y20 Z0.28 F5000.0 ;Move to start position
G1 X10.1 Y145.0 Z0.28 F1500.0 E15 ;Draw the first line
G1 X10.4 Y145.0 Z0.28 F5000.0 ;Move to side a little
G1 X10.4 Y20 Z0.28 F1500.0 E30 ;Draw the second line
G92 E0  ;Reset Extruder
G1 E-1.0000 F1800 ;Retract a bit
G1 Z2.0 F3000 ;Move Z Axis up
G1 E0.0000 F1800 

G92 E0
G92 E0
G1 F6000 E-8

;LAYER_COUNT:580

;LAYER:0
M107
G0 F3600 X109.427 Y109.702 Z0.1
;TYPE:SUPPORT
G1 F6000 E0
G1 F1500 X109.854 Y109.391 E0.00773
G1 X110.376 Y109.391 E0.01537
G1 X110.803 Y109.702 E0.0231
G1 X110.966 Y110.2 E0.03077
G1 X110.803 Y110.698 E0.03844
G1 X110.376 Y111.009 E0.04617
G1 X109.854 Y111.009 E0.05381
G1 X109.427 Y110.698 E0.06154
G1 X109.264 Y110.2 E0.06921
G1 X109.427 Y109.702 E0.07687
;;retract;;
G1 F6000 E-7.92313
;MESH:
G0 F3600 X108.915 Y108.999
G0 X109.505 Y108.571
G0 X111.095 Y108.236
G0 X112.193 Y107.6
;TYPE:WALL-INNER
G1 F6000 E0.07687
G1 F600 X112.4 Y107.6 E0.08066
G1 X112.4 Y107.958 E0.08721
G1 X112.245 Y107.69 E0.0883
G1 X112.193 Y107.6
;;retract;;
G1 F6000 E-7.9117
G0 F3600 X111.059 Y108.164
G0 X108.7 Y108.593
G0 X107.6 Y107.958
G1 F6000 E0.0883
G1 F600 X107.6 Y107.6 E0.09484
G1 X107.807 Y107.6 E0.09863
G1 X107.756 Y107.689
G1 X107.6 Y107.958 E0.09972
;;retract;;
G1 F6000 E-7.90028
G0 F3600 X107.2 Y109.45
;TYPE:WALL-OUTER
G1 F6000 E0.09972
G1 F723.3 X107.2 Y108.705 E0.11335
G1 X107.2 Y108.704 E0.11337
G1 X107.2 Y107.2 E0.14088
G1 X108.183 Y107.2 E0.15886
G1 X108.442 Y107.2 E0.1636
G1 X111.558 Y107.2 E0.2206
G1 X111.817 Y107.2 E0.22534
G1 X112.8 Y107.2 E0.24332
G1 X112.8 Y108.704 E0.27084
G1 X112.8 Y108.705 E0.27085
G1 X112.8 Y109.45 E0.28448
G1 X112.427 Y108.804 E0.29153
G1 X111.687 Y107.524 E0.31858
G1 X111.558 Y107.3 E0.32177
G1 X108.442 Y107.3 E0.33602
G1 X108.313 Y107.524 E0.33921
G1 X107.573 Y108.804 E0.36626
G1 X107.2 Y109.45 E0.37331
G0 F3600 X107.2 Y109.25
;;retract;;
G1 F6000 E-7.62669
G0 F3600 X108.04 Y109.735
G0 X108.689 Y111.234
G0 X109.571 Y111.877
G0 X110.659 Y111.877
G0 X112.193 Y112.4
;TYPE:WALL-INNER
G1 F6000 E0.37331
G1 F600 X112.244 Y112.311 E0.37518
G1 X112.4 Y112.042 E0.38087
G1 X112.4 Y112.4 E0.38284
G1 X112.193 Y112.4 E0.3847
;;retract;;
G1 F6000 E-7.6153
G0 F3600 X111.059 Y111.836
G0 X109.571 Y111.877
G0 X108.699 Y111.406
G0 X107.6 Y112.042
G1 F6000 E0.3847
G1 F600 X107.755 Y112.31 E0.39036
G1 X107.807 Y112.4 E0.39226
G1 X107.6 Y112.4 E0.3941
G1 X107.6 Y112.042 E0.39608
;;retract;;
G1 F6000 E-7.60392
G0 F3600 X107.2 Y110.55
;TYPE:WALL-OUTER
G1 F6000 E0.39608
G1 F723.3 X107.573 Y111.196 E0.40973
G1 X108.313 Y112.476 E0.43677
G1 X108.442 Y112.7 E0.4415
G1 X111.558 Y112.7 E0.4985
G1 X111.687 Y112.476 E0.50323
G1 X112.427 Y111.196 E0.53028
G1 X112.8 Y110.55 E0.54393
G1 X112.8 Y111.295 E0.55097
G1 X112.8 Y111.296 E0.55099
G1 X112.8 Y112.8 E0.5785
G1 X111.817 Y112.8 E0.59648
G1 X111.558 Y112.8 E0.59968
G1 X108.442 Y112.8 E0.61393
G1 X108.183 Y112.8 E0.61713
G1 X107.2 Y112.8 E0.63512
G1 X107.2 Y111.296 E0.66263
G1 X107.2 Y111.295 E0.66265
G1 X107.2 Y110.55 E0.66969
G0 F3600 X107.3 Y110.723
;;retract;;
G1 F6000 E-7.33031
;MESH:NONMESH
G0 F600 X107.3 Y110.723 Z0.2
G0 F3600 X109.273 Y110.2
;TIME_ELAPSED:13.393152

;LAYER:1
M140 S60
M106 S127.5
;TYPE:SUPPORT
G1 F6000 E0.66969
G1 F2250 X109.434 Y109.707 E0.67659
G1 X109.856 Y109.4 E0.68353
G1 X110.374 Y109.4 E0.69042
G1 X110.796 Y109.707 E0.69737
G1 X110.957 Y110.2 E0.70427
G1 X110.796 Y110.693 E0.71117
G1 X110.374 Y111 E0.71811
G1 X109.856 Y111 E0.725
G1 X109.434 Y110.693 E0.73194
G1 X109.273 Y110.2 E0.73884
;;retract;;
G1 F6000 E-7.26116
;MESH:
G0 F5400 X108.445 Y109.931
G0 X108.696 Y109.171
G0 X109.573 Y108.532
G0 X111.095 Y108.236
G0 X112.193 Y107.6
;TYPE:WALL-INNER
G1 F6000 E0.73884
G1 F600 X112.4 Y107.6 E0.74229
G1 X112.4 Y107.958 E0.74824
G1 X112.245 Y107.69 E0.74923
G1 X112.193 Y107.6
;;retract;;
G1 F6000 E-7.25077
G0 F5400 X111.059 Y108.164
G0 X108.7 Y108.593
G0 X107.6 Y107.958
G1 F6000 E0.74923
G1 F600 X107.6 Y107.6 E0.75518
G1 X107.807 Y107.6 E0.75862
G1 X107.756 Y107.689
G1 X107.6 Y107.958 E0.75961
;;retract;;
G1 F6000 E-7.24039
G0 F5400 X107.2 Y109.45
;TYPE:WALL-OUTER
G1 F6000 E0.75961
G1 F723.3 X107.2 Y108.705 E0.772
G1 X107.2 Y108.704 E0.77202
G1 X107.2 Y107.2 E0.79703
G1 X108.183 Y107.2 E0.81338
G1 X108.442 Y107.2 E0.81769
G1 X111.558 Y107.2 E0.86951
G1 X111.817 Y107.2 E0.87381
G1 X112.8 Y107.2 E0.89016
G1 X112.8 Y108.704 E0.91517
G1 X112.8 Y108.705 E0.91519
G1 X112.8 Y109.45 E0.92758
G1 X112.427 Y108.804 E0.93399
G1 X111.687 Y107.524 E0.95858
G1 X111.558 Y107.3 E0.96148
G1 X108.442 Y107.3 E0.97443
G1 X108.313 Y107.524 E0.97733
G1 X107.573 Y108.804 E1.00192
G1 X107.2 Y109.45 E1.00833
G0 F5400 X107.2 Y109.25
;;retract;;
G1 F6000 E-6.99167
G0 F5400 X108.04 Y109.735
G0 X108.696 Y111.229
G0 X109.573 Y111.868
G0 X110.45 Y111.868
G0 X111.093 Y111.766
G0 X112.193 Y112.4
;TYPE:WALL-INNER
G1 F6000 E1.00833
G1 F600 X112.244 Y112.311 E1.01003
G1 X112.4 Y112.042 E1.01521
G1 X112.4 Y112.4 E1.01699
G1 X112.193 Y112.4 E1.01868
;;retract;;
G1 F6000 E-6.98132
G0 F5400 X111.059 Y111.836
G0 X109.573 Y111.868
G0 X108.699 Y111.406
G0 X107.6 Y112.042
G1 F6000 E1.01868
G1 F600 X107.755 Y112.31 E1.02383
G1 X107.807 Y112.4 E1.02556
G1 X107.6 Y112.4 E1.02723
G1 X107.6 Y112.042 E1.02903
;;retract;;
G1 F6000 E-6.97097
G0 F5400 X107.2 Y110.55
;TYPE:WALL-OUTER
G1 F6000 E1.02903
G1 F723.3 X107.573 Y111.196 E1.04144
G1 X108.313 Y112.476 E1.06603
G1 X108.442 Y112.7 E1.07032
G1 X111.558 Y112.7 E1.12214
G1 X111.687 Y112.476 E1.12644
G1 X112.427 Y111.196 E1.15103
G1 X112.8 Y110.55 E1.16344
G1 X112.8 Y111.295 E1.16984
G1 X112.8 Y111.296 E1.16985
G1 X112.8 Y112.8 E1.19487
G1 X111.817 Y112.8 E1.21121
G1 X111.558 Y112.8 E1.21412
G1 X108.442 Y112.8 E1.22708
G1 X108.183 Y112.8 E1.22999
G1 X107.2 Y112.8 E1.24634
G1 X107.2 Y111.296 E1.27135
G1 X107.2 Y111.295 E1.27136
G1 X107.2 Y110.55 E1.27777
G0 F5400 X107.3 Y110.723
;;retract;;
G1 F6000 E-6.72223
;MESH:NONMESH
G0 F600 X107.3 Y110.723 Z0.3
G0 F5400 X109.471 Y110.669
;TIME_ELAPSED:21.987365

;LAYER:2
M106 S255
;TYPE:SUPPORT
G1 F6000 E1.27777
G1 F3000 X109.471 Y109.735 E1.29019
G1 X110.36 Y109.445 E1.30263
G1 X110.91 Y110.202 E1.31508
G1 X110.36 Y110.959 E1.32753
G1 X109.471 Y110.669 E1.33997
;;retract;;
G1 F6000 E-6.66003
;MESH:
G0 F7200 X108.601 Y110.669
G0 X108.609 Y109.11
G0 X111.095 Y108.236
G0 X112.193 Y107.6
;TYPE:WALL-INNER
G1 F6000 E1.33997
G1 F600 X112.4 Y107.6 E1.34341
G1 X112.4 Y107.958 E1.34937
G1 X112.245 Y107.69 E1.35035
G1 X112.193 Y107.6
;;retract;;
G1 F6000 E-6.64965
G0 F7200 X111.059 Y108.164
G0 X108.7 Y108.593
G0 X107.6 Y107.958
G1 F6000 E1.35035
G1 F600 X107.6 Y107.6 E1.35631
G1 X107.807 Y107.6 E1.35975
G1 X107.756 Y107.689
G1 X107.6 Y107.958 E1.36074
;;retract;;
G1 F6000 E-6.63926
G0 F7200 X107.2 Y109.45
;TYPE:WALL-OUTER
G1 F6000 E1.36074
G1 F723.3 X107.2 Y108.705 E1.37313
G1 X107.2 Y108.704 E1.37315
G1 X107.2 Y107.2 E1.39816
G1 X108.183 Y107.2 E1.41451
G1 X108.442 Y107.2 E1.41881
G1 X111.558 Y107.2 E1.47063
G1 X111.817 Y107.2 E1.47494
G1 X112.8 Y107.2 E1.49129
G1 X112.8 Y108.704 E1.5163
G1 X112.8 Y108.705 E1.51632
G1 X112.8 Y109.45 E1.52871
G1 X112.427 Y108.804 E1.53512
G1 X111.687 Y107.524 E1.5597
G1 X111.558 Y107.3 E1.5626
G1 X108.442 Y107.3 E1.57556
G1 X108.313 Y107.524 E1.57846
G1 X107.573 Y108.804 E1.60305
G1 X107.2 Y109.45 E1.60946
G0 F7200 X107.2 Y109.25
;;retract;;
G1 F6000 E-6.39054
G0 F7200 X108.04 Y109.735
G0 X108.609 Y109.11
G0 X110.689 Y108.431
G0 X111.977 Y110.202
G0 X111.094 Y111.765
G0 X112.193 Y112.4
;TYPE:WALL-INNER
G1 F6000 E1.60946
G1 F600 X112.244 Y112.311 E1.61116
G1 X112.4 Y112.042 E1.61633
G1 X112.4 Y112.4 E1.61812
G1 X112.193 Y112.4 E1.61981
;;retract;;
G1 F6000 E-6.38019
G0 F7200 X111.059 Y111.836
G0 X111.977 Y110.202
G0 X110.689 Y108.431
G0 X108.609 Y109.11
G0 X108.609 Y111.294
G0 X107.6 Y112.042
G1 F6000 E1.61981
G1 F600 X107.755 Y112.31 E1.62496
G1 X107.807 Y112.4 E1.62669
G1 X107.6 Y112.4 E1.62836
G1 X107.6 Y112.042 E1.63016
;;retract;;
G1 F6000 E-6.36984
G0 F7200 X107.2 Y110.55
;TYPE:WALL-OUTER
G1 F6000 E1.63016
G1 F723.3 X107.573 Y111.196 E1.64257
G1 X108.313 Y112.476 E1.66715
G1 X108.442 Y112.7 E1.67145
G1 X111.558 Y112.7 E1.72327
G1 X111.687 Y112.476 E1.72757
G1 X112.427 Y111.196 E1.75216
G1 X112.8 Y110.55 E1.76456
G1 X112.8 Y111.295 E1.77097
G1 X112.8 Y111.296 E1.77098
G1 X112.8 Y112.8 E1.79599
G1 X111.817 Y112.8 E1.81234
G1 X111.558 Y112.8 E1.81525
G1 X108.442 Y112.8 E1.82821
G1 X108.183 Y112.8 E1.83112
G1 X107.2 Y112.8 E1.84746
G1 X107.2 Y111.296 E1.87248
G1 X107.2 Y111.295 E1.87249
G1 X107.2 Y110.55 E1.87889
G0 F7200 X107.3 Y110.723
;;retract;;
G1 F6000 E-6.12111
;MESH:NONMESH
G0 F600 X107.3 Y110.723 Z0.4
G0 F7200 X109.479 Y110.663
;TIME_ELAPSED:31.107492

;LAYER:3
;TYPE:SUPPORT
G1 F6000 E1.87889
G1 F3000 X109.479 Y109.739 E1.89119
G1 X110.358 Y109.452 E1.90349
G1 X110.902 Y110.201 E1.91581
G1 X110.358 Y110.95 E1.92812
G1 X109.479 Y110.663 E1.94042
;;retract;;
G1 F6000 E-6.05958
;MESH:
G0 F7200 X108.609 Y110.663
G0 X108.617 Y109.114
G0 X111.095 Y108.236
G0 X112.193 Y107.6
;TYPE:WALL-INNER
G1 F6000 E1.94042
G1 F600 X112.4 Y107.6 E1.94387
G1 X112.4 Y107.958 E1.94982
G1 X112.245 Y107.69 E1.95081
G1 X112.193 Y107.6
;;retract;;
G1 F6000 E-6.04919
G0 F7200 X111.059 Y108.164
G0 X108.7 Y108.593
G0 X107.6 Y107.958
G1 F6000 E1.95081
G1 F600 X107.6 Y107.6 E1.95676
G1 X107.807 Y107.6 E1.9602
G1 X107.756 Y107.689
G1 X107.6 Y107.958 E1.96119
;;retract;;
G1 F6000 E-6.03881
G0 F7200 X107.2 Y109.45
;TYPE:WALL-OUTER
G1 F6000 E1.96119
G1 F723.3 X107.2 Y108.705 E1.97358
G1 X107.2 Y108.704 E1.9736
G1 X107.2 Y107.2 E1.99861
G1 X108.183 Y107.2 E2.01496
G1 X108.442 Y107.2 E2.01927
G1 X111.558 Y107.2 E2.07109
G1 X111.817 Y107.2 E2.07539
G1 X112.8 Y107.2 E2.09174
G1 X112.8 Y108.704 E2.11675
G1 X112.8 Y108.705 E2.11677
G1 X112.8 Y109.45 E2.12916
G1 X112.427 Y108.804 E2.13557
G1 X111.687 Y107.524 E2.16016
G1 X111.558 Y107.3 E2.16305
G1 X108.442 Y107.3 E2.17601
G1 X108.313 Y107.524 E2.17891
G1 X107.573 Y108.804 E2.2035
G1 X107.2 Y109.45 E2.20991
G0 F7200 X107.2 Y109.25
;;retract;;
G1 F6000 E-5.79009
G0 F7200 X108.04 Y109.735
G0 X108.617 Y109.114
G0 X110.687 Y108.438
G0 X111.969 Y110.201
G0 X111.094 Y111.765
G0 X112.193 Y112.4
;TYPE:WALL-INNER
G1 F6000 E2.20991
G1 F600 X112.244 Y112.311 E2.21161
G1 X112.4 Y112.042 E2.21678
G1 X112.4 Y112.4 E2.21857
G1 X112.193 Y112.4 E2.22026
;;retract;;
G1 F6000 E-5.77974
G0 F7200 X111.059 Y111.836
G0 X111.969 Y110.201
G0 X110.687 Y108.438
G0 X108.617 Y109.114
G0 X108.617 Y111.288
G0 X107.6 Y112.042
G1 F6000 E2.22026
G1 F600 X107.755 Y112.31 E2.22541
G1 X107.807 Y112.4 E2.22714
G1 X107.6 Y112.4 E2.22881
G1 X107.6 Y112.042 E2.23061
;;retract;;
G1 F6000 E-5.76939
G0 F7200 X107.2 Y110.55
;TYPE:WALL-OUTER
G1 F6000 E2.23061
G1 F723.3 X107.573 Y111.196 E2.24302
G1 X108.313 Y112.476 E2.2676
G1 X108.442 Y112.7 E2.2719
G1 X111.558 Y112.7 E2.32372
G1 X111.687 Y112.476 E2.32802
G1 X112.427 Y111.196 E2.35261
G1 X112.8 Y110.55 E2.36501
G1 X112.8 Y111.295 E2.37142
G1 X112.8 Y111.296 E2.37143
G1 X112.8 Y112.8 E2.39645
G1 X111.817 Y112.8 E2.41279
G1 X111.558 Y112.8 E2.4157
G1 X108.442 Y112.8 E2.42866
G1 X108.183 Y112.8 E2.43157
G1 X107.2 Y112.8 E2.44792
G1 X107.2 Y111.296 E2.47293
G1 X107.2 Y111.295 E2.47294
G1 X107.2 Y110.55 E2.47935
G0 F7200 X107.3 Y110.723
;;retract;;
G1 F6000 E-5.52065
;MESH:NONMESH
G0 F600 X107.3 Y110.723 Z0.5
G0 F7200 X109.488 Y110.657
;TIME_ELAPSED:40.223049

;LAYER:4
;TYPE:SUPPORT
G1 F6000 E2.47935
G1 F3000 X109.488 Y109.743 E2.49151
G1 X110.358 Y109.46 E2.50368
G1 X110.896 Y110.2 E2.51585
G1 X110.358 Y110.94 E2.52802
G1 X109.488 Y110.657 E2.54019
;;retract;;
G1 F6000 E-5.45981
;MESH:
G0 F7200 X108.618 Y110.657
G0 X108.626 Y109.117
G0 X111.095 Y108.236
G0 X112.193 Y107.6
;TYPE:WALL-INNER
G1 F6000 E2.54019
G1 F600 X112.4 Y107.6 E2.54364
G1 X112.4 Y107.958 E2.54959
G1 X112.245 Y107.69 E2.55058
G1 X112.193 Y107.6
;;retract;;
G1 F6000 E-5.44942
G0 F7200 X111.059 Y108.164
G0 X108.7 Y108.593
G0 X107.6 Y107.958
G1 F6000 E2.55058
G1 F600 X107.6 Y107.6 E2.55653
G1 X107.807 Y107.6 E2.55997
G1 X107.756 Y107.689
G1 X107.6 Y107.958 E2.56096
;;retract;;
G1 F6000 E-5.43904
G0 F7200 X107.2 Y109.45
;TYPE:WALL-OUTER
G1 F6000 E2.56096
G1 F723.3 X107.2 Y108.705 E2.57335
G1 X107.2 Y108.704 E2.57337
G1 X107.2 Y107.2 E2.59838
G1 X108.183 Y107.2 E2.61473
G1 X108.442 Y107.2 E2.61904
G1 X111.558 Y107.2 E2.67085
G1 X111.817 Y107.2 E2.67516
G1 X112.8 Y107.2 E2.69151
G1 X112.8 Y108.704 E2.71652
G1 X112.8 Y108.705 E2.71654
G1 X112.8 Y109.45 E2.72893
G1 X112.427 Y108.804 E2.73534
G1 X111.687 Y107.524 E2.75993
G1 X111.558 Y107.3 E2.76282
G1 X108.442 Y107.3 E2.77578
G1 X108.313 Y107.524 E2.77868
G1 X107.573 Y108.804 E2.80327
G1 X107.2 Y109.45 E2.80968
G0 F7200 X107.2 Y109.25
;;retract;;
G1 F6000 E-5.19032
G0 F7200 X108.04 Y109.735
G0 X108.626 Y109.117
G0 X110.687 Y108.446
G0 X111.963 Y110.2
G0 X111.094 Y111.765
G0 X112.193 Y112.4
;TYPE:WALL-INNER
G1 F6000 E2.80968
G1 F600 X112.244 Y112.311 E2.81138
G1 X112.4 Y112.042 E2.81655
G1 X112.4 Y112.4 E2.81834
G1 X112.193 Y112.4 E2.82003
;;retract;;
G1 F6000 E-5.17997
G0 F7200 X111.059 Y111.836
G0 X111.963 Y110.2
