;FLAVOR:Marlin
;TIME:6499
;Filament used:1.85356m
;Layer height: 0.1
;MINX:104.33
;MINY:103.33
;MINZ:0.1
;MAXX:115.67
;MAXY:116.67
;MAXZ:54
                                  
;Creality Print GCode Generated by CXEngine:NO_MAGE_VERSION_GIT_HEAD_BRANCH
;CXEngine Release Time:2022-09-30 09:53:04
;Gcode Generated Time:2023-01-14 05:35:50
;----------Machine Config--------------
;Machine Name:Creality Ender-3
;Machine Height:250
;Machine Width:220
;Machine Depth:220
;Material name:PLA
;Number of Extruders:1
;ExtruderParams[0] Nozzle Diameter1000
;----------Profile Config---------------
;Engine Version:275f99b
;Engine Release Time:2022-09-30 09:42:18
;Layer Height:0.1
;Wall Thickness:0.8
;Top/Bottom Thickness:0.5
;Out Wall Line Width:0.4
;Inner Wall Line Width:0.4
;Inital Layer Height:100
;Wall Line Count:2
;Infill Line Distance:4
;Infill Pattern:grid
;Infill Sparse Density:20
;Infill Wipe Distance:0
;Print Temperature:200
;Bed Temperature:60
;Support Enable:true
;Support Density:0
;Support Angle:60
;Adhesion Type:none
;machine is belt:false
;machine belt offset:10
;machine belt offset Y:0
;Raft Base Line Spacing:1.6
;Wait Heatup Sync:true
;----------Shell Config----------------
;Outer Wall Wipe Distance:200
;Outer Inset First:false
;Infill Before Walls:false
;Infill Overlap:0.16
;Fill Gaps Between Walls:everywhere
;Minimum Infill Area:1
;Top Surface Skin Layer:0
;Top Layers:4
;Z Seam Alignment:sharpest_corner
;Seam Corner Preference:z_seam_corner_inner
;Z Seam X:110
;Z Seam Y:110
;Horizontal Expansion:0
;Top/Bottom Pattern:zigzag
;Ironing Pattern:zigzag
;Vase Model:false
;----------Support Config----------------
;Support Type:everywhere
;Support Pattern:zigzag
;Support Infill Layer Thickness:0.1
;Minimum Support Area:5
;Enable Support Roof:true
;Support Roof Thickness:0.8
;Support Roof Pattern:lines
;Connect Support Lines:0
;Connect Support ZigZags:0
;Minimum Support X/Y Distance:0.2
;Support Line Distance:0
; ---------PrintSpeed & Travel----------
;Enable Print Cool:true
;Avoid Printed Parts Traveling:true
;Enable Retraction:true
;Retraction Distance:8
;Retraction Speed:100
;Retraction Prime Speed:100
;Maximum Retraction Count:100
;Minimum Extrusion Distance Window:1
;Z Hop When Retracted:false
;Z Hop Height:0.2
;Retract Before Outer Wall:true
;Print Speed:50
;Infill Speed:50

;Prime Tower Speed:50
;Travel Speed:120
;Initial Layer Speed:25
;Skirt/Brim Speed:25
;Combing Mode:infill
; --------SpecialModel&Mesh Fixes--------
;Union Overlapping Volum:true
;Remove All Holes:false
;Maximum Travel Resolution:0.6
;Maximum Deviation:0.05
;Maximum Model Angle:0.872665
;IS Mold Print:false
;Make Overhang Printable:false
;Enable Coasting:false
;Coasting Volumes:0.06
;Coasting Speed:0.9
;Raft AirGap:0.25
;Layer0 ZOverLap:0.13
;---------------------End of Head--------------------------
M140 S60
M105
M104 S200
M105
M109 S200
M105
M190 S60
M82 ;absolute extrusion mode
M220 S100 ;Reset Feedrate
M221 S100 ;Reset Flowrate

G28 ;Home

G92 E0 ;Reset Extruder
G1 Z2.0 F3000 ;Move Z Axis up
G1 X10.1 Y20 Z0.28 F5000.0 ;Move to start position
G1 X10.1 Y145.0 Z0.28 F1500.0 E15 ;Draw the first line
G1 X10.4 Y145.0 Z0.28 F5000.0 ;Move to side a little
G1 X10.4 Y20 Z0.28 F1500.0 E30 ;Draw the second line
G92 E0  ;Reset Extruder
G1 E-1.0000 F1800 ;Retract a bit
G1 Z2.0 F3000 ;Move Z Axis up
G1 E0.0000 F1800 

G92 E0
G92 E0
G1 F6000 E-8

;LAYER_COUNT:540

;LAYER:0
M107
;MESH:
G0 F3600 X106.7 Y106.7 Z0.1
;TYPE:WALL-INNER
G1 F6000 E0
G1 F1500 X106.7 Y113.3 E0.12073
G1 X113.3 Y113.3 E0.24147
G1 X113.3 Y106.7 E0.3622
G1 X106.7 Y106.7 E0.48294
G0 F3600 X107.1 Y107.1
;TYPE:WALL-OUTER
G1 F1500 X107.1 Y112.9 E0.58904
G1 X112.9 Y112.9 E0.69514
G1 X112.9 Y107.1 E0.80124
G1 X107.1 Y107.1 E0.90734
G0 F3600 X107.1 Y107.3
G0 X106.66 Y107.3
;;retract;;
G1 F6000 E-7.09266
G0 F3600 X107.958 Y107.958
G0 X114.401 Y103.338
G0 X114.4 Y104.609
;TYPE:WALL-INNER
G1 F6000 E0.90734
G1 F1500 X114.392 Y115.4 E1.10474
G1 X105.6 Y115.398 E1.26557
G1 X105.6 Y104.799 E1.45946
G1 X105.6 Y104.6 E1.4631
G1 X105.799 Y104.6 E1.46545
G1 X114.4 Y104.609 E1.62279
;;retract;;
G1 F6000 E-6.37721
G0 F3600 X114.401 Y103.338
G0 X105.4 Y103.33
G0 X105.4 Y104.2
;TYPE:WALL-OUTER
G1 F6000 E1.62279
G1 F1500 X114.8 Y104.209 E1.79475
G1 X114.792 Y115.8 E2.00678
G1 X105.2 Y115.798 E2.18225
G1 X105.2 Y104.4 E2.39075
G1 X105.2 Y104.2 E2.39441
G1 X105.4 Y104.2 E2.39678
G0 F3600 X105.6 Y104.2
G0 X105.64 Y104.64
;;retract;;
G1 F6000 E-5.60322
G0 F3600 X105.641 Y103.33
G0 X114.159 Y103.338
G0 X114.158 Y104.849
;TYPE:SKIN
G1 F6000 E2.39678
G1 F1500 X113.9 Y104.849 E2.4015
G1 X114.158 Y105.107 E2.40818
G1 X114.158 Y105.673 E2.41853
G1 X113.333 Y104.848 E2.43987
G1 X112.767 Y104.847 E2.45023
G1 X114.158 Y106.238 E2.48621
G1 X114.158 Y106.804 E2.49657
G1 X112.2 Y104.846 E2.54722
G1 X111.635 Y104.846 E2.55756
G1 X113.248 Y106.459 E2.59928
G1 X112.682 Y106.459 E2.60964
G1 X111.068 Y104.846 E2.65138
G1 X110.502 Y104.845 E2.66173
G1 X112.116 Y106.459 E2.70349
G1 X111.551 Y106.459 E2.71382
G1 X109.936 Y104.844 E2.75561
G1 X109.369 Y104.844 E2.76598
G1 X110.985 Y106.459 E2.80777
G1 X110.419 Y106.459 E2.81812
G1 X108.803 Y104.843 E2.85993
G1 X108.236 Y104.842 E2.8703
G1 X109.853 Y106.459 E2.91214
G1 X109.288 Y106.459 E2.92247
G1 X107.67 Y104.842 E2.96432
G1 X107.104 Y104.841 E2.97467
G1 X108.722 Y106.459 E3.01653
G1 X108.156 Y106.459 E3.02688
G1 X106.538 Y104.841 E3.06874
G1 X105.971 Y104.84 E3.07911
G1 X107.591 Y106.459 E3.12101
G1 X107.025 Y106.459 E3.13136
G1 X105.839 Y105.274 E3.16203
G1 X105.839 Y105.839 E3.17237
G1 X106.459 Y106.459 E3.18841
G1 X106.459 Y107.025 E3.19876
G1 X105.839 Y106.405 E3.2148
G1 X105.839 Y106.971 E3.22516
G1 X106.459 Y107.591 E3.2412
G1 X106.459 Y108.156 E3.25153
G1 X105.839 Y107.536 E3.26757
G1 X105.839 Y108.102 E3.27792
G1 X106.459 Y108.722 E3.29396
G1 X106.459 Y109.288 E3.30432
G1 X105.839 Y108.668 E3.32036
G1 X105.839 Y109.233 E3.33069
G1 X106.459 Y109.853 E3.34673
G1 X106.459 Y110.419 E3.35709
G1 X105.839 Y109.799 E3.37313
G1 X105.839 Y110.365 E3.38348
G1 X106.459 Y110.985 E3.39952
G1 X106.459 Y111.551 E3.40987
G1 X105.839 Y110.93 E3.42593
G1 X105.839 Y111.496 E3.43628
G1 X106.459 Y112.116 E3.45232
G1 X106.459 Y112.682 E3.46267
G1 X105.839 Y112.062 E3.47871
G1 X105.839 Y112.627 E3.48905
G1 X106.459 Y113.248 E3.5051
G1 X106.459 Y113.539 E3.51042
G0 F3600 X105.84 Y115.157
G1 F1500 X106.106 Y115.157 E3.51529
G1 X105.839 Y114.89 E3.5222
G1 X105.839 Y114.325 E3.53253
G1 X106.672 Y115.157 E3.55407
G1 X107.237 Y115.157 E3.56441
G1 X105.839 Y113.759 E3.60057
G1 X105.839 Y113.193 E3.61093
G1 X107.803 Y115.157 E3.66174
G1 X108.369 Y115.157 E3.67209
G1 X106.751 Y113.539 E3.71395
G1 X107.316 Y113.539 E3.72428
G1 X108.935 Y115.157 E3.76615
G1 X109.501 Y115.157 E3.77651
G1 X107.882 Y113.539 E3.81838
G1 X108.448 Y113.539 E3.82873
G1 X110.066 Y115.157 E3.87059
G1 X110.632 Y115.157 E3.88095
G1 X109.013 Y113.539 E3.92282
G1 X109.579 Y113.539 E3.93317
G1 X111.198 Y115.157 E3.97504
G1 X111.764 Y115.158 E3.9854
G1 X110.145 Y113.539 E4.02728
G1 X110.711 Y113.539 E4.03763
G1 X112.33 Y115.158 E4.07952
G1 X112.895 Y115.158 E4.08985
G1 X111.276 Y113.539 E4.13174
G1 X111.842 Y113.539 E4.14209
G1 X113.461 Y115.158 E4.18397
G1 X114.027 Y115.158 E4.19433
G1 X112.408 Y113.539 E4.23621
G1 X112.973 Y113.539 E4.24655
G1 X114.153 Y114.718 E4.27706
G1 X114.153 Y114.153 E4.2874
G1 X113.539 Y113.539 E4.30328
G1 X113.539 Y112.973 E4.31364
G1 X114.153 Y113.588 E4.32953
G1 X114.153 Y113.022 E4.33989
G1 X113.539 Y112.408 E4.35577
G1 X113.539 Y111.842 E4.36613
G1 X114.154 Y112.457 E4.38204
G1 X114.154 Y111.891 E4.39239
G1 X113.539 Y111.276 E4.4083
G1 X113.539 Y110.711 E4.41864
G1 X114.155 Y111.326 E4.43456
G1 X114.155 Y110.761 E4.44489
G1 X113.539 Y110.145 E4.46083
G1 X113.539 Y109.579 E4.47118
G1 X114.156 Y110.196 E4.48715
G1 X114.156 Y109.63 E4.4975
G1 X113.539 Y109.013 E4.51346
G1 X113.539 Y108.448 E4.5238
G1 X114.156 Y109.065 E4.53976
G1 X114.156 Y108.499 E4.55011
G1 X113.539 Y107.882 E4.56608
G1 X113.539 Y107.316 E4.57643
G1 X114.157 Y107.934 E4.59242
G1 X114.157 Y107.369 E4.60275
G1 X113.539 Y106.751 E4.61874
G1 X113.539 Y106.459 E4.62408
;;retract;;
G1 F6000 E-3.37592
;MESH:NONMESH
G0 F600 X113.539 Y106.459 Z0.2
G0 F3600 X112.042 Y107.958
G0 X107.958 Y107.958
G0 X106.7 Y106.7
;TIME_ELAPSED:21.367540

;LAYER:1
M140 S60
M106 S127.5
;TYPE:WALL-INNER
;MESH:
G1 F6000 E4.62408
G1 F1500 X106.7 Y113.3 E4.73384
G1 X113.3 Y113.3 E4.8436
G1 X113.3 Y106.7 E4.95336
G1 X106.7 Y106.7 E5.06312
G0 F5400 X107.1 Y107.1
;TYPE:WALL-OUTER
G1 F1500 X107.1 Y112.9 E5.15957
G1 X112.9 Y112.9 E5.25602
G1 X112.9 Y107.1 E5.35248
G1 X107.1 Y107.1 E5.44893
G0 F5400 X107.1 Y107.3
G0 X106.66 Y107.3
;;retract;;
G1 F6000 E-2.55107
G0 F5400 X107.958 Y107.958
G0 X114.4 Y103.33
G0 X114.4 Y104.6
;TYPE:WALL-INNER
G1 F6000 E5.44893
G1 F1500 X114.4 Y115.201 E5.62523
G1 X114.4 Y115.4 E5.62854
G1 X114.201 Y115.4 E5.63068
G1 X105.6 Y115.393 E5.77371
G1 X105.6 Y104.6 E5.9532
G1 X114.4 Y104.6 E6.09955
;;retract;;
G1 F6000 E-1.90045
G0 F5400 X115.67 Y104.6
G0 X115.67 Y115.6
G0 X114.8 Y115.6
;TYPE:WALL-OUTER
G1 F6000 E6.09955
G1 F1500 X114.8 Y115.8 E6.10287
G1 X114.6 Y115.8 E6.10503
G1 X105.2 Y115.793 E6.26135
G1 X105.2 Y104.2 E6.45414
G1 X114.8 Y104.2 E6.61379
G1 X114.8 Y115.6 E6.80337
G0 F5400 X114.8 Y115.8
G0 X114.159 Y115.159
;TYPE:SKIN
G1 F1500 X114.159 Y114.943 E6.80697
G1 X114.159 Y114.377 E6.81638
G1 X113.377 Y115.159 E6.83477
G1 X112.812 Y115.158 E6.84417
G1 X114.159 Y113.811 E6.87585
G1 X114.159 Y113.245 E6.88526
G1 X112.247 Y115.157 E6.93023
G1 X111.681 Y115.157 E6.93964
G1 X113.3 Y113.539 E6.9777
G1 X112.734 Y113.539 E6.98712
G1 X111.116 Y115.157 E7.02517
G1 X110.551 Y115.156 E7.03456
G1 X112.169 Y113.539 E7.07261
G1 X111.603 Y113.539 E7.08202
G1 X109.986 Y115.155 E7.12004
G1 X109.421 Y115.155 E7.12943
G1 X111.037 Y113.539 E7.16744
G1 X110.471 Y113.539 E7.17685
G1 X108.856 Y115.155 E7.21484
G1 X108.291 Y115.154 E7.22424
G1 X109.906 Y113.539 E7.26222
G1 X109.34 Y113.539 E7.27164
G1 X107.725 Y115.154 E7.30962
G1 X107.16 Y115.153 E7.31901
G1 X108.774 Y113.539 E7.35697
G1 X108.209 Y113.539 E7.36637
G1 X106.595 Y115.153 E7.40433
G1 X106.029 Y115.153 E7.41374
G1 X107.643 Y113.539 E7.4517
G1 X107.077 Y113.539 E7.46111
G1 X105.839 Y114.777 E7.49023
G1 X105.839 Y114.211 E7.49964
G1 X106.512 Y113.539 E7.51546
G1 X106.459 Y113.539 E7.51634
G1 X106.459 Y113.026 E7.52487
G1 X105.839 Y113.646 E7.53945
G1 X105.839 Y113.08 E7.54886
G1 X106.459 Y112.46 E7.56344
G1 X106.459 Y111.894 E7.57286
G1 X105.839 Y112.514 E7.58744
G1 X105.839 Y111.949 E7.59683
G1 X106.459 Y111.329 E7.61142
G1 X106.459 Y110.763 E7.62083
G1 X105.839 Y111.383 E7.63541
G1 X105.839 Y110.817 E7.64482
G1 X106.459 Y110.197 E7.6594
G1 X106.459 Y109.631 E7.66882
G1 X105.839 Y110.252 E7.68341
G1 X105.839 Y109.686 E7.69282
G1 X106.459 Y109.066 E7.7074
G1 X106.459 Y108.5 E7.71682
G1 X105.839 Y109.12 E7.7314
G1 X105.839 Y108.555 E7.74079
G1 X106.459 Y107.934 E7.75539
G1 X106.459 Y107.369 E7.76478
G1 X105.839 Y107.989 E7.77936
G1 X105.839 Y107.423 E7.78878
G1 X106.459 Y106.803 E7.80336
G0 F5400 X106.459 Y106.459
G1 F1500 X106.803 Y106.459 E7.80908
G1 X107.369 Y106.459 E7.81849
G1 X108.989 Y104.839 E7.85659
G1 X109.554 Y104.839 E7.86599
G1 X107.934 Y106.459 E7.90409
G1 X108.5 Y106.459 E7.9135
G1 X110.12 Y104.839 E7.9516
G1 X110.686 Y104.839 E7.96101
G1 X109.066 Y106.459 E7.99911
G1 X109.631 Y106.459 E8.00851
G1 X111.251 Y104.839 E8.04661
G1 X111.817 Y104.839 E8.05602
G1 X110.197 Y106.459 E8.09412
G1 X110.763 Y106.459 E8.10353
G1 X112.383 Y104.839 E8.14163
G1 X112.948 Y104.839 E8.15103
G1 X111.329 Y106.459 E8.18912
G1 X111.894 Y106.459 E8.19851
G1 X113.514 Y104.839 E8.23661
G1 X114.08 Y104.839 E8.24603
G1 X112.46 Y106.459 E8.28413
G1 X113.026 Y106.459 E8.29354
G1 X114.159 Y105.326 E8.32019
G1 X114.159 Y105.892 E8.3296
G1 X113.539 Y106.512 E8.34418
G1 X113.539 Y107.077 E8.35358
G1 X114.159 Y106.457 E8.36816
G1 X114.159 Y107.023 E8.37757
G1 X113.539 Y107.643 E8.39215
G1 X113.539 Y108.209 E8.40156
G1 X114.159 Y107.589 E8.41614
G1 X114.159 Y108.154 E8.42554
G1 X113.539 Y108.774 E8.44012
G1 X113.539 Y109.34 E8.44953
G1 X114.159 Y108.72 E8.46412
G1 X114.159 Y109.286 E8.47353
G1 X113.539 Y109.906 E8.48811
G1 X113.539 Y110.471 E8.49751
G1 X114.159 Y109.851 E8.51209
G1 X114.159 Y110.417 E8.5215
G1 X113.539 Y111.037 E8.53608
G1 X113.539 Y111.603 E8.54549
G1 X114.159 Y110.983 E8.56008
G1 X114.159 Y111.548 E8.56947
G1 X113.539 Y112.169 E8.58407
G1 X113.539 Y112.734 E8.59346
G1 X114.159 Y112.114 E8.60804
G1 X114.159 Y112.68 E8.61746
G1 X113.539 Y113.3 E8.63204
G0 F5400 X113.539 Y113.539
G1 F1500 X113.3 Y113.539 E8.63601
G0 F5400 X113.943 Y115.159
G1 F1500 X114.159 Y114.943 E8.64109
;;retract;;
G1 F6000 E0.64109
G0 F5400 X115.67 Y114.943
G0 X107.958 Y107.958
G0 X106.803 Y106.459
G1 F6000 E8.64109
G1 F1500 X108.423 Y104.839 E8.67919
G1 X107.857 Y104.839 E8.6886
G1 X105.839 Y106.857 E8.73606
G1 X105.839 Y106.292 E8.74546
G1 X107.292 Y104.839 E8.77963
G1 X106.726 Y104.839 E8.78904
G1 X105.839 Y105.726 E8.80991
G1 X105.839 Y105.16 E8.81932
G1 X105.839 Y104.839 E8.82466
G0 F5400 X106.16 Y104.839
G1 F1500 X105.839 Y105.16 E8.83221
;MESH:NONMESH
G0 F600 X105.839 Y105.16 Z0.3
G0 F5400 X106.7 Y106.7
;TIME_ELAPSED:37.680701

;LAYER:2
M106 S255
;TYPE:WALL-INNER
;MESH:
G1 F1500 X106.7 Y113.3 E8.94196
G1 X113.3 Y113.3 E9.05172
G1 X113.3 Y106.7 E9.16148
G1 X106.7 Y106.7 E9.27124
G0 F7200 X107.1 Y107.1
;TYPE:WALL-OUTER
G1 F1500 X107.1 Y112.9 E9.36769
G1 X112.9 Y112.9 E9.46415
G1 X112.9 Y107.1 E9.5606
G1 X107.1 Y107.1 E9.65706
G0 F7200 X107.1 Y107.3
G0 X106.66 Y107.3
;;retract;;
G1 F6000 E1.65706
G0 F7200 X107.958 Y107.958
G0 X114.4 Y103.33
G0 X114.4 Y104.6
;TYPE:WALL-INNER
G1 F6000 E9.65706
G1 F1500 X114.4 Y115.201 E9.83335
G1 X114.4 Y115.4 E9.83666
G1 X114.201 Y115.4 E9.8388
G1 X105.6 Y115.389 E9.98184
G1 X105.6 Y104.6 E10.16126
G1 X114.4 Y104.6 E10.30761
;;retract;;
G1 F6000 E2.30761
G0 F7200 X115.67 Y104.6
G0 X115.67 Y115.6
G0 X114.8 Y115.6
;TYPE:WALL-OUTER
G1 F6000 E10.30761
G1 F1500 X114.8 Y115.8 E10.31093
G1 X114.6 Y115.8 E10.31308
G1 X105.2 Y115.789 E10.46941
G1 X105.2 Y104.2 E10.66213
G1 X114.8 Y104.2 E10.82178
G1 X114.8 Y115.6 E11.01136
G0 F7200 X114.8 Y115.8
;;retract;;
G1 F6000 E3.01136
G0 F7200 X114.8 Y116.67
G0 X105.838 Y116.661
G0 X105.839 Y115.148
;TYPE:SKIN
G1 F6000 E11.01136
G1 F1500 X106.097 Y115.148 E11.01566
G1 X105.839 Y114.89 E11.02172
G1 X105.839 Y114.325 E11.03112
G1 X106.663 Y115.148 E11.05049
G1 X107.229 Y115.149 E11.0599
G1 X105.839 Y113.759 E11.09259
G1 X105.839 Y113.193 E11.102
G1 X107.796 Y115.15 E11.14803
G1 X108.362 Y115.15 E11.15744
G1 X106.751 Y113.539 E11.19533
G1 X107.316 Y113.539 E11.20472
G1 X108.929 Y115.151 E11.24265
G1 X109.496 Y115.153 E11.25208
G1 X107.882 Y113.539 E11.29004
G1 X108.448 Y113.539 E11.29945
G1 X110.062 Y115.153 E11.33741
G1 X110.628 Y115.154 E11.34682
G1 X109.013 Y113.539 E11.3848
G1 X109.579 Y113.539 E11.39422
G1 X111.195 Y115.155 E11.43222
G1 X111.761 Y115.155 E11.44163
G1 X110.145 Y113.539 E11.47964
G1 X110.711 Y113.539 E11.48905
G1 X112.328 Y115.156 E11.52708
G1 X112.894 Y115.157 E11.53649
G1 X111.276 Y113.539 E11.57455
G1 X111.842 Y113.539 E11.58396
G1 X113.46 Y115.157 E11.62201
G1 X114.027 Y115.158 E11.63144
G1 X112.408 Y113.539 E11.66952
G1 X112.973 Y113.539 E11.67891
G1 X114.159 Y114.725 E11.70681
G1 X114.159 Y114.159 E11.71622
G1 X113.539 Y113.539 E11.7308
G1 X113.539 Y112.973 E11.74021
G1 X114.159 Y113.593 E11.7548
G1 X114.159 Y113.028 E11.76419
G1 X113.539 Y112.408 E11.77877
G1 X113.539 Y111.842 E11.78819
G1 X114.159 Y112.462 E11.80277
G1 X114.159 Y111.896 E11.81218
G1 X113.539 Y111.276 E11.82676
G1 X113.539 Y110.711 E11.83616
G1 X114.159 Y111.331 E11.85074
G1 X114.159 Y110.765 E11.86015
G1 X113.539 Y110.145 E11.87473
G1 X113.539 Y109.579 E11.88415
G1 X114.159 Y110.199 E11.89873
G1 X114.159 Y109.634 E11.90812
G1 X113.539 Y109.013 E11.92272
G1 X113.539 Y108.448 E11.93211
G1 X114.159 Y109.068 E11.94669
G1 X114.159 Y108.502 E11.95611
G1 X113.539 Y107.882 E11.97069
G1 X113.539 Y107.316 E11.9801
G1 X114.159 Y107.937 E11.99469
G1 X114.159 Y107.371 E12.00411
