;FLAVOR:Marlin
;TIME:194
;Filament used:0.0264985m
;Layer height: 0.1
;MINX:105.231
;MINY:104.959
;MINZ:0.1
;MAXX:114.774
;MAXY:114.597
;MAXZ:3.5
                            
;Creality Print GCode Generated by CXEngine:NO_MAGE_VERSION_GIT_HEAD_BRANCH
;CXEngine Release Time:2022-09-30 09:53:04
;Gcode Generated Time:2023-01-18 07:56:13
;----------Machine Config--------------
;Machine Name:Creality Ender-3
;Machine Height:250
;Machine Width:220
;Machine Depth:220
;Material name:PLA
;Number of Extruders:1
;ExtruderParams[0] Nozzle Diameter1000
;----------Profile Config---------------
;Engine Version:275f99b
;Engine Release Time:2022-09-30 09:42:18
;Layer Height:0.1
;Wall Thickness:0.8
;Top/Bottom Thickness:0.5
;Out Wall Line Width:0.4
;Inner Wall Line Width:0.4
;Inital Layer Height:100
;Wall Line Count:2
;Infill Line Distance:4
;Infill Pattern:grid
;Infill Sparse Density:20
;Infill Wipe Distance:0
;Print Temperature:200
;Bed Temperature:60
;Support Enable:true
;Support Density:0
;Support Angle:60
;Adhesion Type:none
;machine is belt:false
;machine belt offset:10
;machine belt offset Y:0
;Raft Base Line Spacing:1.6
;Wait Heatup Sync:true
;----------Shell Config----------------
;Outer Wall Wipe Distance:200
;Outer Inset First:false
;Infill Before Walls:false
;Infill Overlap:0.16
;Fill Gaps Between Walls:everywhere
;Minimum Infill Area:1
;Top Surface Skin Layer:0
;Top Layers:4
;Z Seam Alignment:sharpest_corner
;Seam Corner Preference:z_seam_corner_inner
;Z Seam X:110
;Z Seam Y:110
;Horizontal Expansion:0
;Top/Bottom Pattern:zigzag
;Ironing Pattern:zigzag
;Vase Model:false
;----------Support Config----------------
;Support Type:everywhere
;Support Pattern:zigzag
;Support Infill Layer Thickness:0.1
;Minimum Support Area:5
;Enable Support Roof:true
;Support Roof Thickness:0.8
;Support Roof Pattern:lines
;Connect Support Lines:0
;Connect Support ZigZags:0
;Minimum Support X/Y Distance:0.2
;Support Line Distance:0
; ---------PrintSpeed & Travel----------
;Enable Print Cool:true
;Avoid Printed Parts Traveling:true
;Enable Retraction:true
;Retraction Distance:8
;Retraction Speed:100
;Retraction Prime Speed:100
;Maximum Retraction Count:100
;Minimum Extrusion Distance Window:1
;Z Hop When Retracted:false
;Z Hop Height:0.2
;Retract Before Outer Wall:true
;Print Speed:50
;Infill Speed:50

;Prime Tower Speed:50
;Travel Speed:120
;Initial Layer Speed:25
;Skirt/Brim Speed:25
;Combing Mode:infill
; --------SpecialModel&Mesh Fixes--------
;Union Overlapping Volum:true
;Remove All Holes:false
;Maximum Travel Resolution:0.6
;Maximum Deviation:0.05
;Maximum Model Angle:0.872665
;IS Mold Print:false
;Make Overhang Printable:false
;Enable Coasting:false
;Coasting Volumes:0.06
;Coasting Speed:0.9
;Raft AirGap:0.25
;Layer0 ZOverLap:0.13
;---------------------End of Head--------------------------
M140 S60
M105
M104 S200
M105
M109 S200
M105
M190 S60
M82 ;absolute extrusion mode
M220 S100 ;Reset Feedrate
M221 S100 ;Reset Flowrate

G28 ;Home

G92 E0 ;Reset Extruder
G1 Z2.0 F3000 ;Move Z Axis up
G1 X10.1 Y20 Z0.28 F5000.0 ;Move to start position
G1 X10.1 Y145.0 Z0.28 F1500.0 E15 ;Draw the first line
G1 X10.4 Y145.0 Z0.28 F5000.0 ;Move to side a little
G1 X10.4 Y20 Z0.28 F1500.0 E30 ;Draw the second line
G92 E0  ;Reset Extruder
G1 E-1.0000 F1800 ;Retract a bit
G1 Z2.0 F3000 ;Move Z Axis up
G1 E0.0000 F1800 

G92 E0
G92 E0
G1 F6000 E-8

;LAYER_COUNT:35

;LAYER:0
M107
G0 F3600 X107.395 Y106.586 Z0.1
;TYPE:SUPPORT
G1 F6000 E0
G1 F1500 X108.116 Y106.237 E0.01172
G1 X109.034 Y105.96 E0.02576
G1 X109.568 Y106.695 E0.03905
G1 X108.982 Y107.502 E0.05365
G1 X108.293 Y107.82 E0.06475
G1 X107.522 Y108.66 E0.08144
G1 X107.372 Y109.356 E0.09186
G1 X107.097 Y109.556 E0.09683
G1 X107.166 Y110.673 E0.11321
G1 X107.8 Y111.622 E0.12991
G1 X108.345 Y112.157 E0.14109
G1 X108.675 Y112.575 E0.14888
G1 X109.864 Y112.933 E0.16706
G1 X110.858 Y112.651 E0.18218
G1 X111.23 Y112.921 E0.1889
G1 X112.027 Y111.911 E0.20773
G1 X112.33 Y111.153 E0.21968
G1 X112.805 Y110.807 E0.22828
G1 X112.668 Y109.438 E0.24841
G1 X112.469 Y108.893 E0.2569
G1 X113.024 Y108.129 E0.27072
G1 X113.927 Y108.423 E0.28462
G1 X114.28 Y109.438 E0.30035
G1 X114.321 Y110.331 E0.31343
G1 X113.707 Y111.227 E0.32933
G1 X113.623 Y112.093 E0.34206
G1 X112.941 Y112.459 E0.35339
G1 X112.812 Y113.221 E0.3647
G1 X111.887 Y113.522 E0.37893
G1 X111.519 Y113.255 E0.38558
G1 X110.825 Y114.135 E0.40199
G1 X109.826 Y113.835 E0.41725
G1 X108.868 Y114.107 E0.43182
G1 X108.214 Y113.271 E0.44736
G1 X107.449 Y113.373 E0.45865
G1 X106.806 Y112.489 E0.47465
G1 X106.31 Y112.002 E0.48482
G1 X106.243 Y111.041 E0.49892
G1 X105.689 Y110.213 E0.5135
G1 X106.096 Y109.498 E0.52554
G1 X106.105 Y108.333 E0.54259
G1 X106.662 Y107.36 E0.559
G1 X107.395 Y106.586 E0.5746
;;retract;;
G1 F6000 E-7.4254
;MESH:
G0 F3600 X107.016 Y105.803
G0 X107.798 Y105.425
G0 X109.372 Y104.959
G0 X110.635 Y106.695
G0 X111.676 Y109.364
G0 X110.577 Y110
;TYPE:WALL-INNER
G1 F6000 E0.5746
G1 F600 X110.288 Y110.5 E0.58516
G1 X109.712 Y110.5 E0.5957
G1 X109.423 Y110 E0.60626
G1 X109.712 Y109.5 E0.61683
G1 X110.288 Y109.5 E0.62736
G1 X110.577 Y110 E0.63793
G0 F3600 X111.039 Y110
;TYPE:WALL-OUTER
G1 F600 X110.52 Y110.9 E0.65693
G1 X109.48 Y110.9 E0.67596
G1 X108.961 Y110 E0.69496
G1 X109.48 Y109.1 E0.71397
G1 X110.52 Y109.1 E0.73299
G1 X111.039 Y110 E0.752
G0 F3600 X110.939 Y110.173
G0 X110.518 Y109.977
G0 X110.148 Y109.74
;TYPE:SKIN
G1 F600 X109.849 Y109.74 E0.75747
G1 X109.809 Y109.809 E0.75893
G1 X110.189 Y110.189 E0.76876
G1 X110.15 Y110.259 E0.77022
G1 X109.85 Y110.259 E0.77571
G1 X109.701 Y109.999 E0.78119
G0 F3600 X110.298 Y109.999
G1 F600 X110.148 Y109.74 E0.78667
;;retract;;
G1 F6000 E-7.21333
;MESH:NONMESH
G0 F600 X110.148 Y109.74 Z0.2
G0 F3600 X112.345 Y111.143
;TIME_ELAPSED:9.727263

;LAYER:1
M140 S60
M106 S127.5
;TYPE:SUPPORT
G1 F6000 E0.78667
G1 F2250 X112.812 Y110.804 E0.79435
G1 X112.84 Y109.897 E0.80642
G1 X112.442 Y108.819 E0.82171
G1 X112.991 Y108.064 E0.83413
G1 X113.886 Y108.356 E0.84665
G1 X114.257 Y109.372 E0.86104
G1 X114.314 Y110.295 E0.87334
G1 X113.697 Y111.189 E0.8878
G1 X113.623 Y112.073 E0.8996
G1 X112.942 Y112.436 E0.90986
G1 X112.818 Y113.204 E0.92021
G1 X111.904 Y113.501 E0.933
G1 X111.493 Y113.204 E0.93975
G1 X110.788 Y114.128 E0.95521
G1 X109.816 Y113.841 E0.96869
G1 X108.883 Y114.1 E0.98157
G1 X108.217 Y113.22 E0.99626
G1 X107.431 Y113.341 E1.00684
G1 X106.806 Y112.481 E1.02098
G1 X106.154 Y111.473 E1.03695
G1 X106.28 Y111.082 E1.04242
G1 X105.699 Y110.22 E1.05625
G1 X106.125 Y109.492 E1.06747
G1 X106.126 Y108.309 E1.08321
G1 X106.655 Y107.388 E1.09734
G1 X107.307 Y107.028 E1.10725
G1 X107.961 Y106.192 E1.12137
G1 X108.608 Y105.918 E1.13072
G1 X109.088 Y105.918 E1.1371
G1 X109.639 Y106.677 E1.14958
G1 X109.06 Y107.474 E1.16269
G1 X108.34 Y107.778 E1.17308
G1 X107.53 Y108.638 E1.1888
G1 X107.379 Y109.322 E1.19812
G1 X107.081 Y109.54 E1.20303
G1 X107.157 Y110.683 E1.21827
G1 X108.544 Y112.75 E1.25139
G1 X109.378 Y112.622 E1.26261
G1 X109.816 Y112.94 E1.26982
G1 X110.824 Y112.66 E1.28373
G1 X111.239 Y112.96 E1.29055
G1 X112.045 Y111.904 E1.30822
G1 X112.345 Y111.143 E1.3191
;;retract;;
G1 F6000 E-6.6809
;MESH:
G0 F5400 X110.577 Y110
;TYPE:WALL-INNER
G1 F6000 E1.3191
G1 F600 X110.288 Y110.5 E1.32871
G1 X109.712 Y110.5 E1.33829
G1 X109.423 Y110 E1.34789
G1 X109.712 Y109.5 E1.35749
G1 X110.288 Y109.5 E1.36707
G1 X110.577 Y110 E1.37668
G0 F5400 X111.039 Y110
;TYPE:WALL-OUTER
G1 F600 X110.52 Y110.9 E1.39395
G1 X109.48 Y110.9 E1.41125
G1 X108.961 Y110 E1.42853
G1 X109.48 Y109.1 E1.4458
G1 X110.52 Y109.1 E1.4631
G1 X111.039 Y110 E1.48038
G0 F5400 X110.939 Y110.173
G0 X110.518 Y109.977
G0 X109.85 Y110.259
;TYPE:SKIN
G1 F600 X110.15 Y110.259 E1.48537
G1 X110.298 Y109.999 E1.49034
G1 X110.207 Y109.844 E1.49333
G1 X109.829 Y110.221 E1.50221
G1 X109.701 Y109.999 E1.50647
G1 X109.849 Y109.74 E1.51143
G1 X110.148 Y109.74 E1.5164
;;retract;;
G1 F6000 E-6.4836
;MESH:NONMESH
G0 F600 X110.148 Y109.74 Z0.3
G0 F5400 X112.193 Y111.027
;TIME_ELAPSED:14.382892

;LAYER:2
M106 S255
;TYPE:SUPPORT
G1 F6000 E1.5164
G1 F3000 X112.629 Y110.708 E1.52359
G1 X112.488 Y109.417 E1.54087
G1 X112.24 Y108.843 E1.54919
G1 X112.779 Y108.101 E1.56139
G1 X113.668 Y108.391 E1.57383
G1 X114.042 Y109.353 E1.58756
G1 X114.111 Y110.245 E1.59946
G1 X113.539 Y111.102 E1.61317
G1 X113.456 Y111.951 E1.62452
G1 X112.818 Y112.31 E1.63426
G1 X112.685 Y113.034 E1.64405
G1 X111.778 Y113.329 E1.65674
G1 X111.448 Y113.089 E1.66217
G1 X110.774 Y113.922 E1.67643
G1 X109.82 Y113.645 E1.68964
G1 X108.904 Y113.895 E1.70227
G1 X108.277 Y113.115 E1.71559
G1 X107.573 Y113.182 E1.725
G1 X106.949 Y112.323 E1.73912
G1 X106.333 Y111.369 E1.75423
G1 X106.442 Y111.036 E1.75889
G1 X105.918 Y110.218 E1.77182
G1 X106.31 Y109.52 E1.78247
G1 X106.322 Y108.384 E1.79758
G1 X106.844 Y107.478 E1.81149
G1 X107.488 Y107.122 E1.82128
G1 X108.118 Y106.339 E1.83465
G1 X108.734 Y106.102 E1.84343
G1 X109.212 Y106.102 E1.84979
G1 X109.757 Y106.853 E1.86214
G1 X109.187 Y107.638 E1.87504
G1 X108.502 Y107.902 E1.88481
G1 X107.729 Y108.696 E1.89955
G1 X107.303 Y109.64 E1.91333
G1 X107.381 Y110.625 E1.92648
G1 X107.947 Y111.509 E1.94044
G1 X108.64 Y112.498 E1.95651
G1 X109.391 Y112.426 E1.96655
G1 X109.818 Y112.736 E1.97357
G1 X110.805 Y112.467 E1.98718
G1 X111.14 Y112.711 E1.99269
G1 X111.918 Y111.75 E2.00914
G1 X112.193 Y111.027 E2.01943
;MESH:
G0 F7200 X110.577 Y110
;TYPE:WALL-INNER
G1 F600 X110.288 Y110.5 E2.02903
G1 X109.712 Y110.5 E2.03861
G1 X109.423 Y110 E2.04822
G1 X109.712 Y109.5 E2.05782
G1 X110.288 Y109.5 E2.0674
G1 X110.577 Y110 E2.077
G0 F7200 X111.039 Y110
;TYPE:WALL-OUTER
G1 F600 X110.52 Y110.9 E2.09428
G1 X109.48 Y110.9 E2.11158
G1 X108.961 Y110 E2.12885
G1 X109.48 Y109.1 E2.14613
G1 X110.52 Y109.1 E2.16343
G1 X111.039 Y110 E2.1807
G0 F7200 X110.939 Y110.173
G0 X110.518 Y109.977
G0 X110.148 Y109.74
;TYPE:SKIN
G1 F600 X109.849 Y109.74 E2.18568
G1 X109.809 Y109.809 E2.187
G1 X110.189 Y110.189 E2.19594
G1 X110.15 Y110.259 E2.19727
G1 X109.85 Y110.259 E2.20226
G1 X109.701 Y109.999 E2.20725
G0 F7200 X110.298 Y109.999
G1 F600 X110.148 Y109.74 E2.21222
;MESH:NONMESH
G0 X110.148 Y109.74 Z0.4
G0 F7200 X112.204 Y111.008
;TIME_ELAPSED:18.179800

;LAYER:3
;TYPE:SUPPORT
G1 F3000 X112.622 Y110.703 E2.21911
G1 X112.651 Y109.825 E2.23079
G1 X112.199 Y108.772 E2.24604
G1 X112.738 Y108.03 E2.25824
G1 X113.628 Y108.32 E2.27069
G1 X114.018 Y109.292 E2.28463
G1 X114.112 Y110.218 E2.29701
G1 X113.544 Y111.07 E2.31063
G1 X113.463 Y111.96 E2.32252
G1 X112.921 Y112.449 E2.33224
G1 X112.296 Y113.309 E2.34638
G1 X111.395 Y113.1 E2.35868
G1 X110.748 Y113.922 E2.3726
G1 X109.813 Y113.657 E2.38553
G1 X108.913 Y113.896 E2.39792
G1 X108.274 Y113.082 E2.41169
G1 X107.555 Y113.159 E2.42131
G1 X106.932 Y112.301 E2.43541
G1 X106.335 Y111.375 E2.45007
G1 X106.444 Y111.044 E2.45471
G1 X105.92 Y110.227 E2.46762
G1 X106.33 Y109.515 E2.47855
G1 X106.336 Y108.359 E2.49393
G1 X106.84 Y107.486 E2.50734
G1 X107.524 Y107.129 E2.51761
G1 X108.165 Y106.313 E2.53141
G1 X108.811 Y106.085 E2.54053
G1 X109.292 Y106.085 E2.54693
G1 X109.837 Y106.836 E2.55927
G1 X109.268 Y107.619 E2.57215
G1 X108.552 Y107.872 E2.58225
G1 X107.749 Y108.683 E2.59743
G1 X107.297 Y109.626 E2.61135
G1 X107.383 Y110.629 E2.62474
G1 X108.634 Y112.509 E2.65478
G1 X109.399 Y112.428 E2.66502
G1 X109.808 Y112.726 E2.67175
G1 X110.781 Y112.467 E2.68515
G1 X111.149 Y112.734 E2.69119
G1 X111.939 Y111.731 E2.70818
G1 X112.204 Y111.008 E2.71842
;MESH:
G0 F7200 X110.577 Y110
;TYPE:WALL-INNER
G1 F600 X110.288 Y110.5 E2.72803
G1 X109.712 Y110.5 E2.73761
G1 X109.423 Y110 E2.74721
G1 X109.712 Y109.5 E2.75682
G1 X110.288 Y109.5 E2.76639
G1 X110.577 Y110 E2.776
G0 F7200 X111.039 Y110
;TYPE:WALL-OUTER
G1 F600 X110.52 Y110.9 E2.79328
G1 X109.48 Y110.9 E2.81057
G1 X108.961 Y110 E2.82785
G1 X109.48 Y109.1 E2.84513
G1 X110.52 Y109.1 E2.86242
G1 X111.039 Y110 E2.8797
G0 F7200 X110.939 Y110.173
G0 X110.518 Y109.977
G0 X110.447 Y109.887
;TYPE:SKIN
G1 F600 X109.89 Y110.444 E2.88625
G0 F7200 X109.694 Y110.357
G1 F600 X110.343 Y109.708 E2.89388
G0 F7200 X110.213 Y109.554
G1 F600 X109.59 Y110.178 E2.90121
G0 F7200 X109.486 Y109.999
G1 F600 X109.931 Y109.554 E2.90645
G0 F7200 X110.37 Y110.247
G1 F600 X110.172 Y110.444 E2.90877
;;retract;;
G1 F6000 E-5.09123
;MESH:NONMESH
G0 F600 X110.172 Y110.444 Z0.5
G0 F7200 X109.889 Y111.742
G0 X108.456 Y109.284
G0 X106.837 Y106.507
G0 X107.198 Y107.198
;TIME_ELAPSED:22.445059

;LAYER:4
;TYPE:SUPPORT-INTERFACE
G1 F6000 E2.90877
G1 F1999.8 X108.509 Y108.509 E2.93343
G0 F7200 X107.898 Y109.595
G1 F1999.8 X106.538 Y108.235 E2.95902
G0 F7200 X106.16 Y109.554
G1 F1999.8 X110.505 Y113.899 E3.04077
G0 F7200 X111.425 Y113.122
G1 F1999.8 X110.397 Y112.094 E3.06011
G0 F7200 X111.551 Y111.551
G1 F1999.8 X112.818 Y112.818 E3.08395
G0 F7200 X113.516 Y111.819
G1 F1999.8 X112.216 Y110.519 E3.10841
G0 F7200 X113.982 Y110.587
G1 F1999.8 X111.872 Y108.478 E3.1481
G0 F7200 X112.978 Y107.887
G1 F1999.8 X113.579 Y108.487 E3.1594
;;retract;;
G1 F6000 E-4.8406
G0 F7200 X114.206 Y108.254
G0 X113.239 Y107.232
G0 X112.219 Y107.178
G0 X110.229 Y108.259
G0 X109.606 Y107.909
G1 F6000 E3.1594
G1 F1999.8 X108.079 Y106.382 E3.18813
G0 F7200 X109.785 Y106.391
G1 F1999.8 X109.974 Y106.58 E3.19169
;;retract;;
G1 F6000 E-4.80831
G0 F7200 X110.601 Y106.346
G0 X109.695 Y105.488
G0 X108.675 Y105.434
G0 X107.967 Y105.645
G0 X107.128 Y106.235
G0 X106.308 Y107.008
G0 X105.751 Y107.974
G0 X105.475 Y108.962
G0 X105.231 Y110.185
G0 X105.817 Y111.769
G0 X106.444 Y111.535
G1 F6000 E3.19169
G1 F1999.8 X108.096 Y113.187 E3.22277
;;retract;;
G1 F6000 E-4.77723
;MESH:
G0 F7200 X107.849 Y113.84
G0 X108.681 Y114.516
G0 X111.032 Y114.597
G0 X112.503 Y114.013
G0 X113.342 Y113.423
G0 X114.059 Y112.355
G0 X114.498 Y111.223
G0 X114.774 Y110.236
G0 X114.65 Y109.274
G0 X114.301 Y108.333
G0 X113.239 Y107.232
G0 X112.219 Y107.178
G0 X111.38 Y107.768
G0 X111.183 Y108.558
G0 X110.577 Y110
;TYPE:WALL-INNER
G1 F6000 E3.22277
G1 F600 X110.288 Y110.5 E3.23237
G1 X109.712 Y110.5 E3.24195
G1 X109.423 Y110 E3.25155
G1 X109.712 Y109.5 E3.26116
G1 X110.288 Y109.5 E3.27074
G1 X110.577 Y110 E3.28034
G0 F7200 X111.039 Y110
;TYPE:WALL-OUTER
G1 F600 X110.52 Y110.9 E3.29762
G1 X109.48 Y110.9 E3.31491
G1 X108.961 Y110 E3.33219
G1 X109.48 Y109.1 E3.34947
G1 X110.52 Y109.1 E3.36676
G1 X111.039 Y110 E3.38404
G0 F7200 X110.939 Y110.173
G0 X110.518 Y109.977
G0 X110.44 Y109.875
;TYPE:SKIN
G1 F600 X110.12 Y109.554 E3.38781
G0 F7200 X109.837 Y109.554
G1 F600 X110.428 Y110.146 E3.39477
G0 F7200 X110.325 Y110.325
G1 F600 X109.673 Y109.673 E3.40243
G0 F7200 X109.57 Y109.853
G1 F600 X110.161 Y110.444 E3.40938
G0 F7200 X109.878 Y110.444
G1 F600 X109.558 Y110.124 E3.41315
;;retract;;
G1 F6000 E-4.58685
;MESH:NONMESH
G0 F600 X109.558 Y110.124 Z0.6
G0 F7200 X110.229 Y108.259
G0 X110.862 Y107.051
G0 X110.508 Y106.098
G0 X109.695 Y105.488
G0 X108.675 Y105.434
G0 X107.967 Y105.645
G0 X107.128 Y106.235
G0 X106.308 Y107.008
G0 X105.751 Y107.974
G0 X105.475 Y108.962
G0 X106.367 Y109.158
;TIME_ELAPSED:29.862466

;LAYER:5
;TYPE:SUPPORT-INTERFACE
G1 F6000 E3.41315
G1 F1999.8 X109.347 Y106.178 E3.46921
G0 F7200 X110.56 Y106.662
G1 F1999.8 X109.002 Y108.22 E3.49853
G0 F7200 X108.602 Y108.62
G1 F1999.8 X106.411 Y110.812 E3.53976
G0 F7200 X106.929 Y111.99
G1 F1999.8 X108.213 Y110.706 E3.56392
G0 F7200 X108.9 Y111.717
G1 F1999.8 X107.611 Y113.006 E3.58817
G0 F7200 X108.722 Y113.591
G1 F1999.8 X110.415 Y111.898 E3.62002
G0 F7200 X110.229 Y113.781
G1 F1999.8 X113.936 Y110.075 E3.68976
G0 F7200 X113.593 Y108.72
G1 F1999.8 X112.026 Y110.287 E3.71924
G0 F7200 X111.616 Y109
G1 F1999.8 X112.753 Y107.864 E3.74063
G0 F7200 X111.792 Y107.128
G1 F1999.8 X110.808 Y108.111 E3.75913
;;retract;;
G1 F6000 E-4.24087
G0 F7200 X111.964 Y106.435
G0 X113.158 Y107.236
G0 X113.931 Y107.838
G0 X114.572 Y109.234
G0 X114.724 Y110.222
G0 X114.505 Y111.2
G0 X114.073 Y112.346
G0 X113.526 Y112.713
G0 X112.797 Y112.91
G1 F6000 E3.75913
G1 F1999.8 X112.553 Y113.155 E3.76373
;MESH:
G0 F7200 X110.577 Y110
;TYPE:WALL-INNER
G1 F600 X110.288 Y110.5 E3.77334
G1 X109.712 Y110.5 E3.78291
