;FLAVOR:Marlin
;TIME:617
;Filament used:0.141857m
;Layer height: 0.1
;MINX:99.33
;MINY:103.33
;MINZ:0.1
;MAXX:120.67
;MAXY:116.67
;MAXZ:2
                                    
;Creality Print GCode Generated by CXEngine:NO_MAGE_VERSION_GIT_HEAD_BRANCH
;CXEngine Release Time:2022-09-30 09:53:04
;Gcode Generated Time:2023-01-14 05:54:48
;----------Machine Config--------------
;Machine Name:Creality Ender-3
;Machine Height:250
;Machine Width:220
;Machine Depth:220
;Material name:PLA
;Number of Extruders:1
;ExtruderParams[0] Nozzle Diameter1000
;----------Profile Config---------------
;Engine Version:275f99b
;Engine Release Time:2022-09-30 09:42:18
;Layer Height:0.1
;Wall Thickness:0.8
;Top/Bottom Thickness:0.5
;Out Wall Line Width:0.4
;Inner Wall Line Width:0.4
;Inital Layer Height:100
;Wall Line Count:2
;Infill Line Distance:4
;Infill Pattern:grid
;Infill Sparse Density:20
;Infill Wipe Distance:0
;Print Temperature:200
;Bed Temperature:60
;Support Enable:true
;Support Density:0
;Support Angle:60
;Adhesion Type:none
;machine is belt:false
;machine belt offset:10
;machine belt offset Y:0
;Raft Base Line Spacing:1.6
;Wait Heatup Sync:true
;----------Shell Config----------------
;Outer Wall Wipe Distance:200
;Outer Inset First:false
;Infill Before Walls:false
;Infill Overlap:0.16
;Fill Gaps Between Walls:everywhere
;Minimum Infill Area:1
;Top Surface Skin Layer:0
;Top Layers:4
;Z Seam Alignment:sharpest_corner
;Seam Corner Preference:z_seam_corner_inner
;Z Seam X:110
;Z Seam Y:110
;Horizontal Expansion:0
;Top/Bottom Pattern:zigzag
;Ironing Pattern:zigzag
;Vase Model:false
;----------Support Config----------------
;Support Type:everywhere
;Support Pattern:zigzag
;Support Infill Layer Thickness:0.1
;Minimum Support Area:5
;Enable Support Roof:true
;Support Roof Thickness:0.8
;Support Roof Pattern:lines
;Connect Support Lines:0
;Connect Support ZigZags:0
;Minimum Support X/Y Distance:0.2
;Support Line Distance:0
; ---------PrintSpeed & Travel----------
;Enable Print Cool:true
;Avoid Printed Parts Traveling:true
;Enable Retraction:true
;Retraction Distance:8
;Retraction Speed:100
;Retraction Prime Speed:100
;Maximum Retraction Count:100
;Minimum Extrusion Distance Window:1
;Z Hop When Retracted:false
;Z Hop Height:0.2
;Retract Before Outer Wall:true
;Print Speed:50
;Infill Speed:50

;Prime Tower Speed:50
;Travel Speed:120
;Initial Layer Speed:25
;Skirt/Brim Speed:25
;Combing Mode:infill
; --------SpecialModel&Mesh Fixes--------
;Union Overlapping Volum:true
;Remove All Holes:false
;Maximum Travel Resolution:0.6
;Maximum Deviation:0.05
;Maximum Model Angle:0.872665
;IS Mold Print:false
;Make Overhang Printable:false
;Enable Coasting:false
;Coasting Volumes:0.06
;Coasting Speed:0.9
;Raft AirGap:0.25
;Layer0 ZOverLap:0.13
;---------------------End of Head--------------------------
M140 S60
M105
M104 S200
M105
M109 S200
M105
M190 S60
M82 ;absolute extrusion mode
M220 S100 ;Reset Feedrate
M221 S100 ;Reset Flowrate

G28 ;Home

G92 E0 ;Reset Extruder
G1 Z2.0 F3000 ;Move Z Axis up
G1 X10.1 Y20 Z0.28 F5000.0 ;Move to start position
G1 X10.1 Y145.0 Z0.28 F1500.0 E15 ;Draw the first line
G1 X10.4 Y145.0 Z0.28 F5000.0 ;Move to side a little
G1 X10.4 Y20 Z0.28 F1500.0 E30 ;Draw the second line
G92 E0  ;Reset Extruder
G1 E-1.0000 F1800 ;Retract a bit
G1 Z2.0 F3000 ;Move Z Axis up
G1 E0.0000 F1800 

G92 E0
G92 E0
G1 F6000 E-8

;LAYER_COUNT:20

;LAYER:0
M107
;MESH:
G0 F3600 X104.179 Y109.406 Z0.1
;TYPE:WALL-INNER
G1 F6000 E0
G1 F600 X103.739 Y108.906 E0.01218
G1 X103.111 Y108.685 E0.02436
G1 X102.457 Y108.797 E0.0365
G1 X101.939 Y109.215 E0.04868
G1 X101.691 Y109.832 E0.06084
G1 X101.774 Y110.492 E0.07301
G1 X102.171 Y111.028 E0.08521
G1 X102.729 Y111.279 E0.0964
G1 X103.051 Y111.306 E0.10231
G1 X103.644 Y111.152 E0.11352
G1 X104.124 Y110.692 E0.12568
G1 X104.318 Y110.057 E0.13783
G1 X104.179 Y109.406 E0.15001
G0 F3600 X103.81 Y109.592
;TYPE:WALL-OUTER
G1 F600 X103.508 Y109.249 E0.15837
G1 X103.076 Y109.097 E0.16675
G1 X102.627 Y109.174 E0.17508
G1 X102.271 Y109.461 E0.18344
G1 X102.101 Y109.885 E0.1918
G1 X102.158 Y110.338 E0.20015
G1 X102.43 Y110.706 E0.20852
G1 X102.831 Y110.886 E0.21656
G1 X103.017 Y110.902 E0.21998
G1 X103.442 Y110.791 E0.22801
G1 X103.772 Y110.475 E0.23637
G1 X103.905 Y110.039 E0.24471
G1 X103.81 Y109.592 E0.25307
G0 F3600 X103.678 Y109.442
G0 X104.009 Y109.153
;;retract;;
G1 F6000 E-7.74693
G0 F3600 X103.008 Y109.994
G0 X107.008 Y112.994
G0 X108.179 Y112.406
;TYPE:WALL-INNER
G1 F6000 E0.25307
G1 F600 X107.739 Y111.906 E0.26525
G1 X107.111 Y111.685 E0.27743
G1 X106.457 Y111.797 E0.28957
G1 X105.939 Y112.215 E0.30175
G1 X105.691 Y112.832 E0.31391
G1 X105.774 Y113.492 E0.32608
G1 X106.171 Y114.028 E0.33828
G1 X106.729 Y114.279 E0.34947
G1 X107.051 Y114.306 E0.35539
G1 X107.644 Y114.152 E0.36659
G1 X108.124 Y113.692 E0.37876
G1 X108.318 Y113.057 E0.3909
G1 X108.179 Y112.406 E0.40308
G0 F3600 X107.81 Y112.592
;TYPE:WALL-OUTER
G1 F600 X107.508 Y112.249 E0.41144
G1 X107.076 Y112.097 E0.41982
G1 X106.627 Y112.174 E0.42815
G1 X106.271 Y112.461 E0.43651
G1 X106.101 Y112.885 E0.44487
G1 X106.158 Y113.338 E0.45322
G1 X106.43 Y113.706 E0.46159
G1 X106.831 Y113.886 E0.46963
G1 X107.017 Y113.902 E0.47305
G1 X107.442 Y113.791 E0.48109
G1 X107.772 Y113.475 E0.48944
G1 X107.905 Y113.039 E0.49778
G1 X107.81 Y112.592 E0.50614
G0 F3600 X107.678 Y112.442
G0 X108.009 Y112.153
;;retract;;
G1 F6000 E-7.49386
G0 F3600 X107.008 Y112.994
G0 X117.008 Y109.994
G0 X118.179 Y109.406
;TYPE:WALL-INNER
G1 F6000 E0.50614
G1 F600 X117.739 Y108.906 E0.51833
G1 X117.111 Y108.685 E0.5305
G1 X116.457 Y108.797 E0.54264
G1 X115.939 Y109.215 E0.55482
G1 X115.691 Y109.832 E0.56698
G1 X115.774 Y110.492 E0.57915
G1 X116.171 Y111.028 E0.59135
G1 X116.729 Y111.279 E0.60255
G1 X117.051 Y111.306 E0.60846
G1 X117.644 Y111.152 E0.61966
G1 X118.124 Y110.692 E0.63183
G1 X118.318 Y110.057 E0.64397
G1 X118.179 Y109.406 E0.65615
G0 F3600 X117.81 Y109.592
;TYPE:WALL-OUTER
G1 F600 X117.508 Y109.249 E0.66451
G1 X117.076 Y109.097 E0.67289
G1 X116.627 Y109.174 E0.68122
G1 X116.271 Y109.461 E0.68959
G1 X116.101 Y109.885 E0.69794
G1 X116.158 Y110.338 E0.70629
G1 X116.43 Y110.706 E0.71467
G1 X116.831 Y110.886 E0.72271
G1 X117.017 Y110.902 E0.72612
G1 X117.442 Y110.791 E0.73416
G1 X117.772 Y110.475 E0.74251
G1 X117.905 Y110.039 E0.75085
G1 X117.81 Y109.592 E0.75921
G0 F3600 X117.678 Y109.442
G0 X118.009 Y109.153
;;retract;;
G1 F6000 E-7.24079
G0 F3600 X117.008 Y109.994
G0 X114.008 Y112.994
G0 X115.179 Y112.406
;TYPE:WALL-INNER
G1 F6000 E0.75921
G1 F600 X114.739 Y111.906 E0.7714
G1 X114.111 Y111.685 E0.78357
G1 X113.457 Y111.797 E0.79571
G1 X112.939 Y112.215 E0.80789
G1 X112.691 Y112.832 E0.82005
G1 X112.774 Y113.492 E0.83222
G1 X113.171 Y114.028 E0.84442
G1 X113.729 Y114.279 E0.85562
G1 X114.051 Y114.306 E0.86153
G1 X114.644 Y114.152 E0.87274
G1 X115.124 Y113.692 E0.8849
G1 X115.318 Y113.057 E0.89704
G1 X115.179 Y112.406 E0.90922
G0 F3600 X114.81 Y112.592
;TYPE:WALL-OUTER
G1 F600 X114.508 Y112.249 E0.91758
G1 X114.076 Y112.097 E0.92596
G1 X113.627 Y112.174 E0.93429
G1 X113.271 Y112.461 E0.94266
G1 X113.101 Y112.885 E0.95101
G1 X113.158 Y113.338 E0.95936
G1 X113.43 Y113.706 E0.96774
G1 X113.831 Y113.886 E0.97578
G1 X114.017 Y113.902 E0.97919
G1 X114.442 Y113.791 E0.98723
G1 X114.772 Y113.475 E0.99559
G1 X114.905 Y113.039 E1.00392
G1 X114.81 Y112.592 E1.01228
G0 F3600 X114.678 Y112.442
G0 X115.009 Y112.153
;;retract;;
G1 F6000 E-6.98772
G0 F3600 X114.008 Y112.994
G0 X119.4 Y116.67
G0 X119.4 Y115.4
;TYPE:WALL-INNER
G1 F6000 E1.01228
G1 F1500 X100.6 Y115.4 E1.35619
G1 X100.6 Y104.6 E1.55376
G1 X119.4 Y104.6 E1.89767
G1 X119.4 Y115.4 E2.09523
G0 F3600 X119.8 Y115.8
;TYPE:WALL-OUTER
G1 F1500 X100.2 Y115.8 E2.45378
G1 X100.2 Y104.2 E2.66598
G1 X119.8 Y104.2 E3.02452
G1 X119.8 Y115.8 E3.23672
G0 F3600 X119.6 Y115.8
G0 X119.36 Y115.36
;;retract;;
G1 F6000 E-4.76328
G0 F3600 X120.67 Y115.36
G0 X120.67 Y105.017
G0 X119.159 Y105.017
;TYPE:SKIN
G1 F6000 E3.23672
G1 F600 X118.982 Y104.839 E3.24131
G1 X118.416 Y104.839 E3.25167
G1 X119.159 Y105.583 E3.2709
G1 X119.159 Y106.148 E3.28124
G1 X117.85 Y104.839 E3.3151
G1 X117.284 Y104.839 E3.32546
G1 X119.159 Y106.714 E3.37396
G1 X119.159 Y107.28 E3.38432
G1 X116.719 Y104.839 E3.44745
G1 X116.153 Y104.839 E3.45781
G1 X119.159 Y107.845 E3.53557
G1 X119.159 Y108.411 E3.54593
G1 X115.587 Y104.839 E3.63834
G1 X115.022 Y104.839 E3.64867
G1 X119.159 Y108.977 E3.75571
G1 X119.159 Y109.542 E3.76605
G1 F1500 X114.456 Y104.839 E3.88771
G1 F600 X113.89 Y104.839 E3.89807
G1 X117.683 Y108.632 E3.99619
G1 X117.13 Y108.438 E4.00691
G1 X116.953 Y108.468 E4.0102
G1 X113.325 Y104.839 E4.10407
G1 X112.759 Y104.839 E4.11442
G1 X116.47 Y108.55 E4.21043
G1 X116.354 Y108.57 E4.21258
G1 X116.116 Y108.762 E4.21817
G1 X112.193 Y104.839 E4.31966
G1 X111.628 Y104.839 E4.33
G1 X115.802 Y109.014 E4.43799
G1 X115.739 Y109.066 E4.43949
G1 X115.61 Y109.388 E4.44583
G1 F1500 X111.062 Y104.839 E4.56351
G1 F600 X110.496 Y104.839 E4.57386
G1 F1500 X115.447 Y109.791 E4.70196
G1 F600 X115.443 Y109.8 E4.70214
G1 X115.524 Y110.433 E4.71381
G1 X115.543 Y110.583 E4.71658
G1 X116.014 Y111.221 E4.73108
G0 F3600 X116.555 Y111.464
G1 F600 X119.159 Y114.068 E4.79845
G1 X119.159 Y113.502 E4.8088
G1 X117.177 Y111.52 E4.86008
G1 X117.626 Y111.403 E4.86857
G1 X119.159 Y112.936 E4.90823
G1 X119.159 Y112.371 E4.91856
G1 X117.964 Y111.176 E4.94948
G1 X118.253 Y110.899 E4.9568
G1 X119.159 Y111.805 E4.98024
G1 X119.159 Y111.239 E4.99059
G1 X118.429 Y110.509 E5.00948
G1 X118.561 Y110.076 E5.01776
G1 X119.159 Y110.674 E5.03323
G1 X119.159 Y110.108 E5.04358
G1 X118.414 Y109.363 E5.06285
G1 X118.4 Y109.293 E5.06416
G1 X117.877 Y108.7 E5.07862
G0 F3600 X115.524 Y110.433
G1 F1500 X109.931 Y104.839 E5.22333
G1 F600 X109.365 Y104.839 E5.23368
G1 F1500 X119.159 Y114.634 E5.48707
G1 F600 X119.159 Y115.16 E5.49669
G1 X119.119 Y115.159 E5.49743
G1 F1500 X108.799 Y104.839 E5.76441
G1 F600 X108.234 Y104.839 E5.77474
G1 F1500 X118.553 Y115.159 E6.04171
G1 F600 X117.987 Y115.159 E6.05207
G1 X115.474 Y112.645 E6.11709
G1 X115.563 Y113.067 E6.12498
G1 X115.508 Y113.245 E6.12839
G1 X117.422 Y115.159 E6.1779
G1 X116.856 Y115.159 E6.18826
G1 X115.377 Y113.68 E6.22652
G1 X115.334 Y113.822 E6.22923
G1 X115.14 Y114.008 E6.23415
G1 X116.29 Y115.159 E6.26391
G1 X115.725 Y115.159 E6.27425
G1 X114.851 Y114.285 E6.29686
G1 X114.764 Y114.368 E6.29906
G1 X114.45 Y114.45 E6.305
G1 X115.159 Y115.159 E6.32334
G1 X114.593 Y115.159 E6.33369
G1 X113.974 Y114.539 E6.34972
G1 X113.668 Y114.513 E6.35534
G1 X113.149 Y114.28 E6.36574
G1 X114.028 Y115.159 E6.38848
G1 X113.462 Y115.159 E6.39884
G1 F1500 X103.142 Y104.839 E6.66582
G1 F600 X102.577 Y104.839 E6.67615
G1 F1500 X112.896 Y115.159 E6.94312
G1 F600 X112.33 Y115.159 E6.95348
G1 F1500 X102.011 Y104.839 E7.22045
G1 F600 X101.445 Y104.839 E7.2308
G1 F1500 X111.765 Y115.159 E7.49778
G1 F600 X111.199 Y115.159 E7.50814
G1 X108.418 Y112.378 E7.58008
G1 X108.564 Y113.067 E7.59296
G1 X108.559 Y113.084 E7.59329
G1 X110.633 Y115.159 E7.64696
G1 X110.068 Y115.159 E7.65729
G1 X108.427 Y113.518 E7.69975
G1 X108.335 Y113.82 E7.70552
G1 X108.248 Y113.905 E7.70775
G1 X109.502 Y115.159 E7.74019
G1 X108.936 Y115.159 E7.75054
G1 X107.958 Y114.181 E7.77584
G1 X107.764 Y114.367 E7.78076
G1 X107.618 Y114.406 E7.78352
G1 X108.371 Y115.159 E7.803
G1 X107.805 Y115.159 E7.81336
G1 X107.169 Y114.523 E7.82981
G1 X107.07 Y114.547 E7.83167
G1 X106.668 Y114.513 E7.83905
G1 X106.532 Y114.452 E7.84178
G1 X107.239 Y115.159 E7.86007
G1 X106.674 Y115.159 E7.87041
G1 X103.061 Y111.546 E7.96388
G1 X102.667 Y111.513 E7.97111
G1 X102.295 Y111.346 E7.97857
G1 X106.108 Y115.159 E8.07721
G1 X105.542 Y115.159 E8.08757
G1 F1500 X100.839 Y110.456 E8.20923
G1 F600 X100.839 Y111.022 E8.21959
G1 X104.977 Y115.159 E8.32663
G1 X104.411 Y115.159 E8.33698
G1 X100.839 Y111.587 E8.42939
G1 X100.839 Y112.153 E8.43974
G1 X103.845 Y115.159 E8.51751
G1 X103.28 Y115.159 E8.52784
G1 X100.839 Y112.719 E8.59098
G1 X100.839 Y113.284 E8.60132
G1 X102.714 Y115.159 E8.64982
G1 X102.148 Y115.159 E8.66018
G1 X100.839 Y113.85 E8.69404
G1 X100.839 Y114.416 E8.7044
G1 X101.582 Y115.159 E8.72362
G1 X101.017 Y115.159 E8.73395
G1 X100.84 Y115.159 E8.73719
G0 F3600 X100.839 Y114.981
G1 F600 X101.017 Y115.159 E8.7418
;;retract;;
G1 F6000 E0.7418
G0 F3600 X99.33 Y115.159
G0 X102.993 Y110.008
G0 X102.015 Y111.22
G1 F6000 E8.7418
G1 F600 X101.576 Y110.627 E8.75529
G1 X100.839 Y109.89 E8.77436
G1 X100.839 Y109.325 E8.78469
G1 X101.464 Y109.949 E8.80085
G1 X101.445 Y109.8 E8.8036
G1 X101.57 Y109.489 E8.80973
G1 X100.839 Y108.759 E8.82863
G1 X100.839 Y108.193 E8.83898
G1 X101.732 Y109.086 E8.86208
G1 X101.74 Y109.066 E8.86248
G1 X102.037 Y108.825 E8.86947
G1 X100.839 Y107.628 E8.90045
G1 X100.839 Y107.062 E8.91081
G1 X102.35 Y108.573 E8.9499
G1 X102.355 Y108.57 E8.95
G1 X102.831 Y108.487 E8.95884
G1 X100.839 Y106.496 E9.01036
G1 X100.839 Y105.93 E9.02072
G1 X103.462 Y108.553 E9.08858
G0 F3600 X103.878 Y108.7
G1 F600 X104.401 Y109.293 E9.10304
G1 X104.454 Y109.545 E9.10775
G1 X104.564 Y110.067 E9.11751
G1 X104.528 Y110.184 E9.11975
G1 X106.109 Y111.766 E9.16066
G1 X105.796 Y112.019 E9.16803
G1 X104.395 Y110.618 E9.20427
G1 X104.334 Y110.821 E9.20815
G1 X104.18 Y110.969 E9.21205
G1 X105.607 Y112.396 E9.24897
G1 X105.445 Y112.799 E9.25692
G1 X103.892 Y111.246 E9.29709
G1 X103.765 Y111.367 E9.3003
G1 X103.514 Y111.433 E9.30505
G1 X105.526 Y113.446 E9.35711
G1 X105.543 Y113.583 E9.35964
G1 X106.015 Y114.22 E9.37414
G0 F3600 X108.418 Y112.378
G1 F600 X108.4 Y112.292 E9.37575
G1 X107.877 Y111.7 E9.3902
G0 F3600 X107.665 Y111.625
G1 F1500 X100.88 Y104.839 E9.56574
G1 F600 X100.839 Y104.839 E9.56649
G1 X100.839 Y105.365 E9.57611
G1 F1500 X106.943 Y111.469 E9.73403
G1 F600 X106.46 Y111.551 E9.74299
G1 X104.454 Y109.545 E9.79489
;;retract;;
G1 F6000 E1.79489
G0 F3600 X103.01 Y110.002
G0 X113.993 Y113.008
G0 X113.015 Y114.22
G1 F6000 E9.79489
G1 F600 X112.806 Y113.937 E9.80132
G1 F1500 X103.708 Y104.839 E10.03669
G1 F600 X104.274 Y104.839 E10.04704
G1 F1500 X112.475 Y113.041 E10.25922
G1 F600 X112.444 Y112.799 E10.26368
G1 X112.546 Y112.546 E10.26867
G1 F1500 X104.839 Y104.839 E10.46805
G1 F600 X105.405 Y104.839 E10.47841
G1 F1500 X112.709 Y112.143 E10.66736
G1 F600 X112.738 Y112.067 E10.66885
G1 X112.992 Y111.861 E10.67484
G1 F1500 X105.971 Y104.839 E10.85648
G1 F600 X106.536 Y104.839 E10.86682
G1 F1500 X113.306 Y111.609 E11.04196
G1 F600 X113.354 Y111.57 E11.04309
G1 X113.762 Y111.5 E11.05067
G1 F1500 X107.102 Y104.839 E11.22297
G1 F600 X107.668 Y104.839 E11.23333
G1 F1500 X114.339 Y111.511 E11.40592
G0 F3600 X114.877 Y111.7
G1 F600 X115.399 Y112.294 E11.42039
G1 X115.474 Y112.645 E11.42695
;;retract;;
G1 F6000 E3.42695
G0 F3600 X114.008 Y112.994
G0 X118.982 Y103.33
G0 X118.982 Y104.839
G1 F6000 E11.42695
G1 F600 X119.158 Y104.839 E11.43017
;;retract;;
G1 F6000 E3.43017
;MESH:NONMESH
G0 F600 X119.158 Y104.839 Z0.2
G0 F3600 X119.158 Y103.33
G0 X102.991 Y110.004
G0 X101.774 Y110.475
;TIME_ELAPSED:55.930746

;LAYER:1
M140 S60
M106 S127.5
;TYPE:WALL-INNER
;MESH:
G1 F6000 E11.43017
G1 F600 X102.052 Y110.904 E11.43867
G1 X102.54 Y111.23 E11.44843
G1 X103.005 Y111.309 E11.45628
G1 X103.485 Y111.219 E11.4644
G1 X103.974 Y110.881 E11.47429
G1 X104.236 Y110.441 E11.4828
G1 X104.305 Y109.851 E11.49268
G1 X104.147 Y109.364 E11.50119
G1 X103.75 Y108.921 E11.51109
G1 X103.279 Y108.719 E11.51961
G1 X102.688 Y108.724 E11.52944
G1 X102.222 Y108.942 E11.53799
G1 X101.835 Y109.393 E11.54788
G1 X101.693 Y109.884 E11.55638
G1 X101.774 Y110.475 E11.5663
G0 F5400 X102.158 Y110.332
;TYPE:WALL-OUTER
G1 F600 X102.343 Y110.617 E11.57195
G1 X102.691 Y110.85 E11.57891
G1 X103.002 Y110.903 E11.58416
G1 X103.328 Y110.842 E11.58967
G1 X103.675 Y110.602 E11.59669
G1 X103.849 Y110.31 E11.60234
G1 X103.898 Y109.891 E11.60936
G1 X103.793 Y109.568 E11.61501
G1 X103.511 Y109.254 E11.62203
G1 X103.198 Y109.12 E11.62769
G1 X102.779 Y109.123 E11.63466
G1 X102.47 Y109.268 E11.64033
G1 X102.195 Y109.588 E11.64735
G1 X102.101 Y109.914 E11.65299
G1 X102.158 Y110.332 E11.66001
G0 F5400 X102.267 Y110.5
