;FLAVOR:Marlin
;TIME:6966
;Filament used:1.99435m
;Layer height: 0.1
;MINX:103.33
;MINY:104.33
;MINZ:0.1
;MAXX:116.67
;MAXY:115.67
;MAXZ:59
                                  
;Creality Print GCode Generated by CXEngine:NO_MAGE_VERSION_GIT_HEAD_BRANCH
;CXEngine Release Time:2022-09-30 09:53:04
;Gcode Generated Time:2023-01-17 02:20:10
;----------Machine Config--------------
;Machine Name:Creality Ender-3
;Machine Height:250
;Machine Width:220
;Machine Depth:220
;Material name:PLA
;Number of Extruders:1
;ExtruderParams[0] Nozzle Diameter1000
;----------Profile Config---------------
;Engine Version:275f99b
;Engine Release Time:2022-09-30 09:42:18
;Layer Height:0.1
;Wall Thickness:0.8
;Top/Bottom Thickness:0.5
;Out Wall Line Width:0.4
;Inner Wall Line Width:0.4
;Inital Layer Height:100
;Wall Line Count:2
;Infill Line Distance:4
;Infill Pattern:grid
;Infill Sparse Density:20
;Infill Wipe Distance:0
;Print Temperature:200
;Bed Temperature:60
;Support Enable:true
;Support Density:0
;Support Angle:60
;Adhesion Type:none
;machine is belt:false
;machine belt offset:10
;machine belt offset Y:0
;Raft Base Line Spacing:1.6
;Wait Heatup Sync:true
;----------Shell Config----------------
;Outer Wall Wipe Distance:200
;Outer Inset First:false
;Infill Before Walls:false
;Infill Overlap:0.16
;Fill Gaps Between Walls:everywhere
;Minimum Infill Area:1
;Top Surface Skin Layer:0
;Top Layers:4
;Z Seam Alignment:sharpest_corner
;Seam Corner Preference:z_seam_corner_inner
;Z Seam X:110
;Z Seam Y:110
;Horizontal Expansion:0
;Top/Bottom Pattern:zigzag
;Ironing Pattern:zigzag
;Vase Model:false
;----------Support Config----------------
;Support Type:everywhere
;Support Pattern:zigzag
;Support Infill Layer Thickness:0.1
;Minimum Support Area:5
;Enable Support Roof:true
;Support Roof Thickness:0.8
;Support Roof Pattern:lines
;Connect Support Lines:0
;Connect Support ZigZags:0
;Minimum Support X/Y Distance:0.2
;Support Line Distance:0
; ---------PrintSpeed & Travel----------
;Enable Print Cool:true
;Avoid Printed Parts Traveling:true
;Enable Retraction:true
;Retraction Distance:8
;Retraction Speed:100
;Retraction Prime Speed:100
;Maximum Retraction Count:100
;Minimum Extrusion Distance Window:1
;Z Hop When Retracted:false
;Z Hop Height:0.2
;Retract Before Outer Wall:true
;Print Speed:50
;Infill Speed:50

;Prime Tower Speed:50
;Travel Speed:120
;Initial Layer Speed:25
;Skirt/Brim Speed:25
;Combing Mode:infill
; --------SpecialModel&Mesh Fixes--------
;Union Overlapping Volum:true
;Remove All Holes:false
;Maximum Travel Resolution:0.6
;Maximum Deviation:0.05
;Maximum Model Angle:0.872665
;IS Mold Print:false
;Make Overhang Printable:false
;Enable Coasting:false
;Coasting Volumes:0.06
;Coasting Speed:0.9
;Raft AirGap:0.25
;Layer0 ZOverLap:0.13
;---------------------End of Head--------------------------
M140 S60
M105
M104 S200
M105
M109 S200
M105
M190 S60
M82 ;absolute extrusion mode
M220 S100 ;Reset Feedrate
M221 S100 ;Reset Flowrate

G28 ;Home

G92 E0 ;Reset Extruder
G1 Z2.0 F3000 ;Move Z Axis up
G1 X10.1 Y20 Z0.28 F5000.0 ;Move to start position
G1 X10.1 Y145.0 Z0.28 F1500.0 E15 ;Draw the first line
G1 X10.4 Y145.0 Z0.28 F5000.0 ;Move to side a little
G1 X10.4 Y20 Z0.28 F1500.0 E30 ;Draw the second line
G92 E0  ;Reset Extruder
G1 E-1.0000 F1800 ;Retract a bit
G1 Z2.0 F3000 ;Move Z Axis up
G1 E0.0000 F1800 

G92 E0
G92 E0
G1 F6000 E-8

;LAYER_COUNT:590

;LAYER:0
M107
;MESH:
G0 F3600 X106.7 Y106.7 Z0.1
;TYPE:WALL-INNER
G1 F6000 E0
G1 F1500 X106.7 Y113.3 E0.12073
G1 X113.3 Y113.3 E0.24147
G1 X113.3 Y106.7 E0.3622
G1 X106.7 Y106.7 E0.48294
G0 F3600 X107.1 Y107.1
;TYPE:WALL-OUTER
G1 F1500 X107.1 Y112.9 E0.58904
G1 X112.9 Y112.9 E0.69514
G1 X112.9 Y107.1 E0.80124
G1 X107.1 Y107.1 E0.90734
G0 F3600 X107.1 Y107.3
G0 X106.66 Y107.3
;;retract;;
G1 F6000 E-7.09266
G0 F3600 X107.958 Y107.958
G0 X115.392 Y115.67
G0 X115.392 Y114.4
;TYPE:WALL-INNER
G1 F6000 E0.90734
G1 F1500 X104.6 Y114.396 E1.10476
G1 X104.602 Y105.6 E1.26566
G1 X115.201 Y105.6 E1.45955
G1 X115.4 Y105.6 E1.46319
G1 X115.4 Y105.799 E1.46555
G1 X115.392 Y114.4 E1.62288
;;retract;;
G1 F6000 E-6.37712
G0 F3600 X116.663 Y114.4
G0 X116.67 Y105.4
G0 X115.8 Y105.4
;TYPE:WALL-OUTER
G1 F6000 E1.62288
G1 F1500 X115.792 Y114.8 E1.79484
G1 X104.2 Y114.796 E2.00689
G1 X104.202 Y105.2 E2.18243
G1 X115.6 Y105.2 E2.39094
G1 X115.8 Y105.2 E2.3946
G1 X115.8 Y105.4 E2.39696
G0 F3600 X115.8 Y105.6
G0 X115.36 Y105.64
;;retract;;
G1 F6000 E-5.60304
G0 F3600 X116.67 Y105.64
G0 X112.042 Y112.042
G0 X113.539 Y113.539
;TYPE:SKIN
G1 F6000 E2.39696
G1 F1500 X113.539 Y112.973 E2.40732
G1 X114.725 Y114.159 E2.438
G1 X115.151 Y114.16 E2.44579
G1 X115.152 Y114.02 E2.44835
G1 X113.539 Y112.408 E2.49007
G1 X113.539 Y111.842 E2.50042
G1 X115.152 Y113.455 E2.54215
G1 X115.153 Y112.89 E2.55249
G1 X113.539 Y111.276 E2.59424
G1 X113.539 Y110.711 E2.60458
G1 X115.153 Y112.325 E2.64633
G1 X115.154 Y111.76 E2.65667
G1 X113.539 Y110.145 E2.69845
G1 X113.539 Y109.579 E2.7088
G1 X115.154 Y111.194 E2.75058
G1 X115.155 Y110.629 E2.76092
G1 X113.539 Y109.013 E2.80273
G1 X113.539 Y108.448 E2.81306
G1 X115.155 Y110.064 E2.85487
G1 X115.156 Y109.499 E2.8652
G1 X113.539 Y107.882 E2.90704
G1 X113.539 Y107.316 E2.91739
G1 X115.156 Y108.934 E2.95924
G1 X115.157 Y108.369 E2.96957
G1 X113.539 Y106.751 E3.01143
G1 X113.539 Y106.459 E3.01677
;;retract;;
G1 F6000 E-4.98323
G0 F3600 X112.042 Y107.958
G0 X112.042 Y112.042
G0 X113.539 Y113.539
G1 F6000 E3.01677
G1 F1500 X114.159 Y114.159 E3.03281
G1 X113.593 Y114.158 E3.04316
G1 X112.973 Y113.539 E3.05919
G1 X112.408 Y113.539 E3.06953
G1 X113.027 Y114.158 E3.08554
G1 X112.461 Y114.158 E3.09589
G1 X111.842 Y113.539 E3.11191
G1 X111.276 Y113.539 E3.12226
G1 X111.895 Y114.158 E3.13828
G1 X111.329 Y114.158 E3.14863
G1 X110.711 Y113.539 E3.16463
G1 X110.145 Y113.539 E3.17498
G1 X110.764 Y114.158 E3.191
G1 X110.197 Y114.157 E3.20137
G1 X109.579 Y113.539 E3.21736
G1 X109.013 Y113.539 E3.22771
G1 X109.631 Y114.157 E3.2437
G1 X109.065 Y114.156 E3.25405
G1 X108.448 Y113.539 E3.27002
G1 X107.882 Y113.539 E3.28037
G1 X108.499 Y114.156 E3.29633
G1 X107.934 Y114.156 E3.30667
G1 X107.316 Y113.539 E3.32264
G1 X106.751 Y113.539 E3.33298
G1 X107.367 Y114.156 E3.34893
G1 X106.802 Y114.156 E3.35926
G1 X104.839 Y112.193 E3.41005
G1 X104.839 Y112.759 E3.4204
G1 X106.235 Y114.155 E3.45651
G1 X105.67 Y114.155 E3.46685
G1 X104.839 Y113.325 E3.48834
G1 X104.839 Y113.89 E3.49867
G1 X105.104 Y114.155 E3.50553
G1 X104.839 Y114.155 E3.51037
G0 F3600 X106.459 Y113.539
G1 F1500 X106.459 Y113.248 E3.5157
G1 X104.839 Y111.628 E3.55761
G1 X104.84 Y111.063 E3.56794
G1 X106.459 Y112.682 E3.60983
G1 X106.459 Y112.116 E3.62018
G1 X104.84 Y110.497 E3.66207
G1 X104.84 Y109.931 E3.67242
G1 X106.459 Y111.551 E3.71432
G1 X106.459 Y110.985 E3.72467
G1 X104.84 Y109.366 E3.76655
G1 X104.84 Y108.8 E3.77691
G1 X106.459 Y110.419 E3.81879
G1 X106.459 Y109.853 E3.82915
G1 X104.841 Y108.235 E3.871
G1 X104.841 Y107.669 E3.88136
G1 X106.459 Y109.288 E3.92323
G1 X106.459 Y108.722 E3.93358
G1 X104.841 Y107.104 E3.97544
G1 X104.841 Y106.538 E3.98579
G1 X106.459 Y108.156 E4.02765
G1 X106.459 Y107.591 E4.03799
G1 X104.841 Y105.972 E4.07986
G1 X104.842 Y105.839 E4.08229
G1 X105.274 Y105.839 E4.0902
G1 X106.459 Y107.025 E4.12086
G1 X106.459 Y106.459 E4.13122
G1 X105.839 Y105.839 E4.14726
G1 X106.405 Y105.839 E4.15761
G1 X107.025 Y106.459 E4.17365
G1 X107.591 Y106.459 E4.18401
G1 X106.971 Y105.839 E4.20004
G1 X107.536 Y105.839 E4.21038
G1 X108.156 Y106.459 E4.22642
G1 X108.722 Y106.459 E4.23677
G1 X108.102 Y105.839 E4.25281
G1 X108.668 Y105.839 E4.26317
G1 X109.288 Y106.459 E4.27921
G1 X109.853 Y106.459 E4.28954
G1 X109.233 Y105.839 E4.30558
G1 X109.799 Y105.839 E4.31594
G1 X110.419 Y106.459 E4.33198
G1 X110.985 Y106.459 E4.34233
G1 X110.365 Y105.839 E4.35837
G1 X110.93 Y105.839 E4.3687
G1 X111.551 Y106.459 E4.38476
G1 X112.116 Y106.459 E4.39509
G1 X111.496 Y105.839 E4.41113
G1 X112.062 Y105.839 E4.42149
G1 X112.682 Y106.459 E4.43753
G1 X113.248 Y106.459 E4.44788
G1 X112.627 Y105.839 E4.46393
G1 X113.193 Y105.839 E4.47429
G1 X115.157 Y107.804 E4.52511
G1 X115.158 Y107.239 E4.53544
G1 X113.759 Y105.839 E4.57165
G1 X114.325 Y105.839 E4.582
G1 X115.158 Y106.673 E4.60357
G1 X115.159 Y106.108 E4.6139
G1 X114.89 Y105.839 E4.62086
G1 X115.159 Y105.839 E4.62578
;;retract;;
G1 F6000 E-3.37422
;MESH:NONMESH
G0 F600 X115.159 Y105.839 Z0.2
G0 F3600 X115.159 Y104.33
G0 X107.958 Y107.958
G0 X106.7 Y106.7
;TIME_ELAPSED:22.320255

;LAYER:1
M140 S60
M106 S127.5
;TYPE:WALL-INNER
;MESH:
G1 F6000 E4.62578
G1 F1500 X106.7 Y113.3 E4.73554
G1 X113.3 Y113.3 E4.8453
G1 X113.3 Y106.7 E4.95506
G1 X106.7 Y106.7 E5.06482
G0 F5400 X107.1 Y107.1
;TYPE:WALL-OUTER
G1 F1500 X107.1 Y112.9 E5.16127
G1 X112.9 Y112.9 E5.25772
G1 X112.9 Y107.1 E5.35418
G1 X107.1 Y107.1 E5.45063
G0 F5400 X107.1 Y107.3
G0 X106.66 Y107.3
;;retract;;
G1 F6000 E-2.54937
G0 F5400 X107.958 Y107.958
G0 X115.399 Y115.67
G0 X115.4 Y114.4
;TYPE:WALL-INNER
G1 F6000 E5.45063
G1 F1500 X115.201 Y114.4 E5.45394
G1 X104.6 Y114.387 E5.63024
G1 X104.605 Y105.6 E5.77637
G1 X115.4 Y105.6 E5.95589
G1 X115.4 Y114.201 E6.09892
G1 X115.4 Y114.4 E6.10106
G0 F5400 X115.8 Y114.6
;TYPE:WALL-OUTER
G1 F1500 X115.8 Y114.8 E6.10439
G1 X115.6 Y114.8 E6.10654
G1 X104.2 Y114.787 E6.29613
G1 X104.205 Y105.2 E6.45556
G1 X115.8 Y105.2 E6.64839
G1 X115.8 Y114.6 E6.80471
G0 F5400 X115.8 Y114.8
G0 X115.159 Y114.159
;TYPE:SKIN
G1 F1500 X115.159 Y113.943 E6.8083
G1 X115.159 Y113.377 E6.81771
G1 X114.378 Y114.158 E6.83608
G1 X113.813 Y114.158 E6.84548
G1 X115.159 Y112.811 E6.87714
G1 X115.159 Y112.246 E6.88654
G1 X113.248 Y114.157 E6.93148
G1 X112.683 Y114.156 E6.94088
G1 X113.3 Y113.539 E6.95539
G1 X112.734 Y113.539 E6.9648
G1 X112.118 Y114.156 E6.9793
G1 X111.553 Y114.155 E6.9887
G1 X112.169 Y113.539 E7.00319
G1 X111.603 Y113.539 E7.0126
G1 X110.988 Y114.154 E7.02706
G1 X110.423 Y114.153 E7.03646
G1 X111.037 Y113.539 E7.0509
G1 X110.471 Y113.539 E7.06031
G1 X109.858 Y114.153 E7.07474
G1 X109.293 Y114.152 E7.08414
G1 X109.906 Y113.539 E7.09855
G1 X109.34 Y113.539 E7.10797
G1 X108.728 Y114.151 E7.12236
G1 X108.163 Y114.151 E7.13175
G1 X108.774 Y113.539 E7.14614
G1 X108.209 Y113.539 E7.15553
G1 X107.598 Y114.15 E7.1699
G1 X107.033 Y114.149 E7.1793
G1 X107.643 Y113.539 E7.19364
G1 X107.077 Y113.539 E7.20306
G1 X106.468 Y114.148 E7.21738
G1 X105.903 Y114.148 E7.22678
G1 X106.512 Y113.539 E7.2411
G1 X106.459 Y113.539 E7.24198
G1 X106.459 Y113.026 E7.25051
G1 X105.338 Y114.147 E7.27688
G1 X104.839 Y114.146 E7.28517
G1 X104.84 Y114.079 E7.28629
G1 X106.459 Y112.46 E7.32436
G1 X106.459 Y111.894 E7.33378
G1 X104.84 Y113.513 E7.37185
G1 X104.841 Y112.947 E7.38127
G1 X106.459 Y111.329 E7.41932
G1 X106.459 Y110.763 E7.42873
G1 X104.841 Y112.381 E7.46678
G1 X104.841 Y111.816 E7.47618
G1 X106.459 Y110.197 E7.51425
G1 X106.459 Y109.631 E7.52366
G1 X104.842 Y111.249 E7.5617
G1 X104.842 Y110.684 E7.57109
G1 X106.459 Y109.066 E7.60914
G1 X106.459 Y108.5 E7.61855
G1 X104.842 Y110.117 E7.65658
G1 X104.842 Y109.552 E7.66597
G1 X106.459 Y107.934 E7.70402
G1 X106.459 Y107.369 E7.71341
G1 X104.843 Y108.985 E7.75142
G1 X104.843 Y108.419 E7.76083
G1 X106.459 Y106.803 E7.79884
G0 F5400 X106.459 Y106.459
G1 F1500 X106.803 Y106.459 E7.80456
G1 X107.369 Y106.459 E7.81397
G1 X107.99 Y105.839 E7.82856
G1 X108.555 Y105.839 E7.83796
G1 X107.934 Y106.459 E7.85255
G1 X108.5 Y106.459 E7.86196
G1 X109.121 Y105.839 E7.87656
G1 X109.687 Y105.839 E7.88597
G1 X109.066 Y106.459 E7.90056
G1 X109.631 Y106.459 E7.90996
G1 X110.252 Y105.839 E7.92455
G1 X110.818 Y105.839 E7.93396
G1 X110.197 Y106.459 E7.94856
G1 X110.763 Y106.459 E7.95797
G1 X111.384 Y105.839 E7.97256
G1 X111.949 Y105.839 E7.98196
G1 X111.329 Y106.459 E7.99654
G1 X111.894 Y106.459 E8.00594
G1 X112.515 Y105.839 E8.02053
G1 X113.081 Y105.839 E8.02994
G1 X112.46 Y106.459 E8.04454
G1 X113.026 Y106.459 E8.05395
G1 X113.646 Y105.839 E8.06853
G1 X114.212 Y105.839 E8.07794
G1 X113.539 Y106.512 E8.09377
G1 X113.539 Y107.077 E8.10317
G1 X114.778 Y105.839 E8.13229
G1 X115.159 Y105.839 E8.13863
G1 X115.159 Y106.023 E8.14169
G1 X113.539 Y107.643 E8.17979
G1 X113.539 Y108.209 E8.1892
G1 X115.159 Y106.589 E8.2273
G1 X115.159 Y107.154 E8.2367
G1 X113.539 Y108.774 E8.2748
G1 X113.539 Y109.34 E8.28421
G1 X115.159 Y107.72 E8.32231
G1 X115.159 Y108.286 E8.33172
G1 X113.539 Y109.906 E8.36982
G1 X113.539 Y110.471 E8.37922
G1 X115.159 Y108.852 E8.41731
G1 X115.159 Y109.417 E8.4267
G1 X113.539 Y111.037 E8.4648
G1 X113.539 Y111.603 E8.47422
G1 X115.159 Y109.983 E8.51232
G1 X115.159 Y110.549 E8.52173
G1 X113.539 Y112.169 E8.55983
G1 X113.539 Y112.734 E8.56922
G1 X115.159 Y111.114 E8.60732
G1 X115.159 Y111.68 E8.61674
G1 X113.539 Y113.3 E8.65484
G0 F5400 X113.539 Y113.539
G1 F1500 X113.3 Y113.539 E8.65881
G0 F5400 X114.943 Y114.159
G1 F1500 X115.159 Y113.943 E8.66389
;;retract;;
G1 F6000 E0.66389
G0 F5400 X116.67 Y113.943
G0 X107.958 Y107.958
G0 X106.803 Y106.459
G1 F6000 E8.66389
G1 F1500 X107.424 Y105.839 E8.67849
G1 X106.858 Y105.839 E8.6879
G1 X104.844 Y107.853 E8.73526
G1 X104.844 Y107.287 E8.74468
G1 X106.292 Y105.839 E8.77873
G1 X105.727 Y105.839 E8.78813
G1 X104.844 Y106.721 E8.80888
G1 X104.844 Y106.155 E8.81829
G1 X104.844 Y105.839 E8.82355
G0 F5400 X105.161 Y105.839
G1 F1500 X104.844 Y106.155 E8.83099
;MESH:NONMESH
G0 F600 X104.844 Y106.155 Z0.3
G0 F5400 X106.7 Y106.7
;TIME_ELAPSED:37.776758

;LAYER:2
M106 S255
;TYPE:WALL-INNER
;MESH:
G1 F1500 X106.7 Y113.3 E8.94075
G1 X113.3 Y113.3 E9.05051
G1 X113.3 Y106.7 E9.16027
G1 X106.7 Y106.7 E9.27003
G0 F7200 X107.1 Y107.1
;TYPE:WALL-OUTER
G1 F1500 X107.1 Y112.9 E9.36648
G1 X112.9 Y112.9 E9.46294
G1 X112.9 Y107.1 E9.55939
G1 X107.1 Y107.1 E9.65585
G0 F7200 X107.1 Y107.3
G0 X106.66 Y107.3
;;retract;;
G1 F6000 E1.65585
G0 F7200 X107.958 Y107.958
G0 X115.4 Y115.67
G0 X115.4 Y114.4
;TYPE:WALL-INNER
G1 F6000 E9.65585
G1 F1500 X104.799 Y114.4 E9.83214
G1 X104.6 Y114.4 E9.83545
G1 X104.6 Y114.201 E9.83759
G1 X104.609 Y105.6 E9.98063
G1 X115.4 Y105.6 E10.16008
G1 X115.4 Y114.4 E10.30643
G0 F7200 X115.8 Y114.8
;TYPE:WALL-OUTER
G1 F1500 X104.4 Y114.8 E10.49601
G1 X104.2 Y114.8 E10.49933
G1 X104.2 Y114.6 E10.50149
G1 X104.209 Y105.2 E10.65781
G1 X115.8 Y105.2 E10.85057
G1 X115.8 Y114.8 E11.01022
G0 F7200 X115.6 Y114.8
G0 X115.36 Y114.36
G0 X113.539 Y113.539
;TYPE:SKIN
G1 F1500 X113.539 Y112.973 E11.01963
G1 X114.725 Y114.159 E11.04752
G1 X115.159 Y114.159 E11.05474
G1 X115.159 Y114.028 E11.05692
G1 X113.539 Y112.408 E11.09502
G1 X113.539 Y111.842 E11.10443
G1 X115.159 Y113.462 E11.14253
G1 X115.159 Y112.896 E11.15195
G1 X113.539 Y111.276 E11.19005
G1 X113.539 Y110.711 E11.19944
G1 X115.159 Y112.33 E11.23753
G1 X115.159 Y111.765 E11.24693
G1 X113.539 Y110.145 E11.28503
G1 X113.539 Y109.579 E11.29444
G1 X115.159 Y111.199 E11.33254
G1 X115.159 Y110.633 E11.34195
G1 X113.539 Y109.013 E11.38005
G1 X113.539 Y108.448 E11.38945
G1 X115.159 Y110.068 E11.42755
G1 X115.159 Y109.502 E11.43696
G1 X113.539 Y107.882 E11.47506
G1 X113.539 Y107.316 E11.48447
G1 X115.159 Y108.936 E11.52257
G1 X115.159 Y108.371 E11.53197
G1 X113.539 Y106.751 E11.57007
G1 X113.539 Y106.459 E11.57492
;;retract;;
G1 F6000 E3.57492
G0 F7200 X112.042 Y107.958
G0 X112.042 Y112.042
G0 X113.539 Y113.539
G1 F6000 E11.57492
G1 F1500 X114.159 Y114.159 E11.5895
G1 X113.593 Y114.159 E11.59892
G1 X112.973 Y113.539 E11.6135
G1 X112.408 Y113.539 E11.62289
G1 X113.028 Y114.159 E11.63748
G1 X112.462 Y114.159 E11.64689
G1 X111.842 Y113.539 E11.66147
G1 X111.276 Y113.539 E11.67088
G1 X111.896 Y114.159 E11.68546
G1 X111.331 Y114.159 E11.69486
G1 X110.711 Y113.539 E11.70944
G1 X110.145 Y113.539 E11.71885
G1 X110.765 Y114.159 E11.73344
G1 X110.199 Y114.159 E11.74285
G1 X109.579 Y113.539 E11.75743
G1 X109.013 Y113.539 E11.76684
G1 X109.634 Y114.159 E11.78144
G1 X109.068 Y114.159 E11.79085
G1 X108.448 Y113.539 E11.80543
G1 X107.882 Y113.539 E11.81484
G1 X108.502 Y114.159 E11.82942
G1 X107.937 Y114.159 E11.83882
G1 X107.316 Y113.539 E11.85341
G1 X106.751 Y113.539 E11.86281
G1 X107.371 Y114.159 E11.87739
G1 X106.805 Y114.159 E11.8868
G1 X104.842 Y112.195 E11.93298
