;FLAVOR:Marlin
;TIME:268
;Filament used:0.0433396m
;Layer height: 0.1
;MINX:103.33
;MINY:104.33
;MINZ:0.1
;MAXX:116.67
;MAXY:115.67
;MAXZ:1
                                  
;Creality Print GCode Generated by CXEngine:NO_MAGE_VERSION_GIT_HEAD_BRANCH
;CXEngine Release Time:2022-09-30 09:53:04
;Gcode Generated Time:2023-01-14 05:41:15
;----------Machine Config--------------
;Machine Name:Creality Ender-3
;Machine Height:250
;Machine Width:220
;Machine Depth:220
;Material name:PLA
;Number of Extruders:1
;ExtruderParams[0] Nozzle Diameter1000
;----------Profile Config---------------
;Engine Version:275f99b
;Engine Release Time:2022-09-30 09:42:18
;Layer Height:0.1
;Wall Thickness:0.8
;Top/Bottom Thickness:0.5
;Out Wall Line Width:0.4
;Inner Wall Line Width:0.4
;Inital Layer Height:100
;Wall Line Count:2
;Infill Line Distance:4
;Infill Pattern:grid
;Infill Sparse Density:20
;Infill Wipe Distance:0
;Print Temperature:200
;Bed Temperature:60
;Support Enable:true
;Support Density:0
;Support Angle:60
;Adhesion Type:none
;machine is belt:false
;machine belt offset:10
;machine belt offset Y:0
;Raft Base Line Spacing:1.6
;Wait Heatup Sync:true
;----------Shell Config----------------
;Outer Wall Wipe Distance:200
;Outer Inset First:false
;Infill Before Walls:false
;Infill Overlap:0.16
;Fill Gaps Between Walls:everywhere
;Minimum Infill Area:1
;Top Surface Skin Layer:0
;Top Layers:4
;Z Seam Alignment:sharpest_corner
;Seam Corner Preference:z_seam_corner_inner
;Z Seam X:110
;Z Seam Y:110
;Horizontal Expansion:0
;Top/Bottom Pattern:zigzag
;Ironing Pattern:zigzag
;Vase Model:false
;----------Support Config----------------
;Support Type:everywhere
;Support Pattern:zigzag
;Support Infill Layer Thickness:0.1
;Minimum Support Area:5
;Enable Support Roof:true
;Support Roof Thickness:0.8
;Support Roof Pattern:lines
;Connect Support Lines:0
;Connect Support ZigZags:0
;Minimum Support X/Y Distance:0.2
;Support Line Distance:0
; ---------PrintSpeed & Travel----------
;Enable Print Cool:true
;Avoid Printed Parts Traveling:true
;Enable Retraction:true
;Retraction Distance:8
;Retraction Speed:100
;Retraction Prime Speed:100
;Maximum Retraction Count:100
;Minimum Extrusion Distance Window:1
;Z Hop When Retracted:false
;Z Hop Height:0.2
;Retract Before Outer Wall:true
;Print Speed:50
;Infill Speed:50

;Prime Tower Speed:50
;Travel Speed:120
;Initial Layer Speed:25
;Skirt/Brim Speed:25
;Combing Mode:infill
; --------SpecialModel&Mesh Fixes--------
;Union Overlapping Volum:true
;Remove All Holes:false
;Maximum Travel Resolution:0.6
;Maximum Deviation:0.05
;Maximum Model Angle:0.872665
;IS Mold Print:false
;Make Overhang Printable:false
;Enable Coasting:false
;Coasting Volumes:0.06
;Coasting Speed:0.9
;Raft AirGap:0.25
;Layer0 ZOverLap:0.13
;---------------------End of Head--------------------------
M140 S60
M105
M104 S200
M105
M109 S200
M105
M190 S60
M82 ;absolute extrusion mode
M220 S100 ;Reset Feedrate
M221 S100 ;Reset Flowrate

G28 ;Home

G92 E0 ;Reset Extruder
G1 Z2.0 F3000 ;Move Z Axis up
G1 X10.1 Y20 Z0.28 F5000.0 ;Move to start position
G1 X10.1 Y145.0 Z0.28 F1500.0 E15 ;Draw the first line
G1 X10.4 Y145.0 Z0.28 F5000.0 ;Move to side a little
G1 X10.4 Y20 Z0.28 F1500.0 E30 ;Draw the second line
G92 E0  ;Reset Extruder
G1 E-1.0000 F1800 ;Retract a bit
G1 Z2.0 F3000 ;Move Z Axis up
G1 E0.0000 F1800 

G92 E0
G92 E0
G1 F6000 E-8

;LAYER_COUNT:10

;LAYER:0
M107
;MESH:
G0 F3600 X106.63 Y105.6 Z0.1
;;retract;;
G0 X105.508 Y106.244
G0 X109.434 Y109.515
G0 X110.572 Y110.353
G0 X114.507 Y113.742
G0 X115.4 Y112.839
;TYPE:WALL-INNER
G1 F6000 E0
G1 F1500 X115.239 Y112.656 E0.00446
G1 X115.081 Y112.601 E0.00752
G1 X114.611 Y112.435 E0.01664
G1 X113.957 Y112.547 E0.02878
G1 X113.439 Y112.965 E0.04095
G1 X113.191 Y113.582 E0.05312
G1 X113.258 Y114.108 E0.06282
G1 X113.274 Y114.242 E0.06528
G1 X113.391 Y114.4 E0.06888
G1 X113.274 Y114.4 E0.06895
G1 X113.138 Y114.4 E0.07088
G1 X106.753 Y114.4 E0.18768
G1 X106.624 Y114.4 E0.19004
G1 X106.407 Y114.4 E0.19401
G1 X106.624 Y114.192 E0.19625
G1 X106.661 Y114.069 E0.19815
G1 X106.818 Y113.557 E0.20795
G1 X106.679 Y112.906 E0.22012
G1 X106.239 Y112.406 E0.23231
G1 X105.611 Y112.185 E0.24449
G1 X104.98 Y112.293 E0.2562
G1 X104.957 Y112.297 E0.25662
G1 X104.6 Y112.585 E0.26501
G1 X104.6 Y112.297 E0.26686
G1 X104.6 Y112.273 E0.26728
G1 X104.6 Y107.531 E0.35403
G1 X104.6 Y107.278 E0.35866
G1 X104.6 Y107.182 E0.36041
G1 X104.671 Y107.278 E0.36089
G1 X104.902 Y107.381 E0.36392
G1 X105.229 Y107.529 E0.37048
G1 X105.551 Y107.556 E0.3764
G1 X106.144 Y107.402 E0.3876
G1 X106.624 Y106.942 E0.39976
G1 X106.818 Y106.307 E0.41191
G1 X106.723 Y105.862 E0.42023
G1 X106.679 Y105.656 E0.42409
G1 X106.63 Y105.6 E0.42545
G1 X106.679 Y105.6
G1 X106.89 Y105.6 E0.42802
G1 X113.229 Y105.6 E0.54398
G1 X113.439 Y105.6 E0.54783
G1 X113.582 Y105.6 E0.55044
G1 X113.439 Y105.715 E0.55138
G1 X113.361 Y105.91 E0.55409
G1 X113.191 Y106.332 E0.56241
G1 X113.274 Y106.992 E0.57458
G1 X113.671 Y107.528 E0.58679
G1 X114.229 Y107.779 E0.59798
G1 X114.551 Y107.806 E0.60389
G1 X115.055 Y107.675 E0.61341
G1 X115.144 Y107.652 E0.6151
G1 X115.4 Y107.407 E0.62158
G1 X115.4 Y107.652 E0.62263
G1 X115.4 Y107.744 E0.62408
G1 X115.4 Y112.488 E0.71086
G1 X115.4 Y112.656 E0.71267
G1 X115.4 Y112.839 E0.7131
;;retract;;
G1 F6000 E-7.2869
G0 F3600 X114.507 Y113.742
G0 X110.574 Y110.467
G0 X109.622 Y109.445
G0 X105.51 Y106.252
G0 X106.31 Y105.842
;TYPE:WALL-OUTER
G1 F6000 E0.7131
G1 F600 X106.081 Y105.582 E0.71944
G1 X106.008 Y105.499 E0.72146
G1 X105.576 Y105.347 E0.72984
G1 X105.127 Y105.424 E0.73817
G1 X104.934 Y105.58 E0.74271
G1 X104.771 Y105.711 E0.74654
G1 X104.601 Y106.135 E0.75489
G1 X104.658 Y106.588 E0.76325
G1 X104.93 Y106.956 E0.77162
G1 X105.331 Y107.136 E0.77966
G1 X105.517 Y107.152 E0.78307
G1 X105.942 Y107.041 E0.79111
G1 X106.272 Y106.725 E0.79947
G1 X106.405 Y106.289 E0.80781
G1 X106.31 Y105.842 E0.81617
G0 F3600 X106.178 Y105.692
;;retract;;
G1 F6000 E-7.18383
G0 F3600 X105.508 Y106.244
G0 X105.507 Y113.492
G0 X106.31 Y113.092
G1 F6000 E0.81617
G1 F600 X106.008 Y112.749 E0.82453
G1 X105.576 Y112.597 E0.8329
G1 X105.127 Y112.674 E0.84124
G1 X104.771 Y112.961 E0.8496
G1 X104.601 Y113.385 E0.85796
G1 X104.658 Y113.838 E0.86631
G1 X104.93 Y114.206 E0.87468
G1 X105.331 Y114.386 E0.88272
G1 X105.494 Y114.401 E0.88572
G1 X105.517 Y114.402 E0.88614
G1 X105.523 Y114.401 E0.88625
G1 X105.942 Y114.291 E0.89417
G1 X106.272 Y113.975 E0.90253
G1 X106.405 Y113.539 E0.91087
G1 X106.31 Y113.092 E0.91923
G0 F3600 X106.178 Y112.942
G0 X106.509 Y112.653
;;retract;;
G1 F6000 E-7.08077
G0 F3600 X105.508 Y113.494
G0 X114.493 Y113.758
G0 X113.93 Y114.456
G1 F6000 E0.91923
G1 F600 X114.331 Y114.636 E0.92727
G1 X114.517 Y114.652 E0.93069
G1 X114.942 Y114.541 E0.93872
G1 X115.068 Y114.42 E0.94192
G1 X115.272 Y114.225 E0.94708
G1 X115.401 Y113.804 E0.95513
G1 X115.405 Y113.789 E0.95542
G1 X115.401 Y113.767 E0.95583
G1 X115.31 Y113.342 E0.96378
G1 X115.008 Y112.999 E0.97214
G1 X114.576 Y112.847 E0.98051
G1 X114.127 Y112.924 E0.98885
G1 X113.771 Y113.211 E0.99721
G1 X113.601 Y113.635 E1.00557
G1 X113.658 Y114.088 E1.01392
G1 X113.898 Y114.412 E1.0213
G1 X113.93 Y114.456 E1.02229
G0 F3600 X114.112 Y114.538
;;retract;;
G1 F6000 E-6.97771
G0 F3600 X114.493 Y113.758
G0 X110.572 Y110.353
G0 X111.669 Y111.027
;TYPE:WALL-INNER
G1 F6000 E1.02229
G1 F600 X111.915 Y110.412 E1.03441
G1 X111.943 Y109.751 E1.04651
G1 X111.748 Y109.118 E1.05863
G1 X111.355 Y108.585 E1.07074
G1 X110.806 Y108.215 E1.08285
G1 X110.165 Y108.049 E1.09497
G1 X109.507 Y108.105 E1.10705
G1 X108.903 Y108.378 E1.11917
G1 X108.426 Y108.834 E1.13124
G1 X108.127 Y109.426 E1.14338
G1 X108.042 Y110.083 E1.15549
G1 X108.183 Y110.731 E1.16763
G1 X108.53 Y111.294 E1.17972
G1 X109.045 Y111.71 E1.19183
G1 X109.646 Y111.922 E1.20349
G1 X110.027 Y111.954 E1.21049
G1 X110.653 Y111.847 E1.2221
G1 X111.23 Y111.524 E1.2342
G1 X111.669 Y111.027 E1.24633
G0 F3600 X111.323 Y110.814
;TYPE:WALL-OUTER
G1 F600 X111.518 Y110.327 E1.25593
G1 X111.54 Y109.803 E1.26552
G1 X111.386 Y109.301 E1.27513
G1 X111.074 Y108.878 E1.28474
G1 X110.639 Y108.585 E1.29434
G1 X110.131 Y108.453 E1.30394
G1 X109.609 Y108.498 E1.31352
G1 X109.13 Y108.714 E1.32313
G1 X108.752 Y109.076 E1.33271
G1 X108.515 Y109.545 E1.34232
G1 X108.448 Y110.066 E1.35193
G1 X108.559 Y110.579 E1.36153
G1 X108.835 Y111.026 E1.37114
G1 X109.243 Y111.356 E1.38074
G1 X109.73 Y111.528 E1.39019
G1 X110.009 Y111.551 E1.39531
G1 X110.518 Y111.464 E1.40476
G1 X110.975 Y111.208 E1.41434
G1 X111.323 Y110.814 E1.42396
G0 F3600 X111.397 Y110.629
G0 X111.805 Y110.793
;;retract;;
G1 F6000 E-6.57604
G0 F3600 X110.656 Y110.142
G0 X114.493 Y106.508
G0 X113.93 Y107.206
G1 F6000 E1.42396
G1 F600 X114.331 Y107.386 E1.432
G1 X114.517 Y107.402 E1.43541
G1 X114.942 Y107.291 E1.44345
G1 X115.272 Y106.975 E1.4518
G1 X115.401 Y106.554 E1.45986
G1 X115.405 Y106.539 E1.46014
G1 X115.401 Y106.517 E1.46055
G1 X115.31 Y106.092 E1.4685
G1 X115.008 Y105.749 E1.47686
G1 X114.583 Y105.599 E1.48511
G1 X114.576 Y105.597 E1.48524
G1 X114.56 Y105.599 E1.48554
G1 X114.127 Y105.674 E1.49357
G1 X113.771 Y105.961 E1.50194
G1 X113.601 Y106.385 E1.5103
G1 X113.658 Y106.838 E1.51865
G1 X113.93 Y107.206 E1.52702
G0 F3600 X114.112 Y107.288
G0 X113.931 Y107.688
;;retract;;
G1 F6000 E-6.47298
G0 F3600 X115.8 Y106.516
G1 F6000 E1.52702
G1 F1500 X115.8 Y106.539 E1.52744
G1 X115.8 Y106.555 E1.52773
G1 X115.8 Y113.766 E1.65964
G1 X115.8 Y113.789 E1.66006
G1 X115.8 Y113.805 E1.66035
G1 X115.8 Y114.8 E1.67855
G1 X115.117 Y114.8 E1.69104
G1 X114.942 Y114.8 E1.69372
G1 X114.517 Y114.8 E1.69765
G1 X114.331 Y114.8 E1.69897
G1 X113.93 Y114.8 E1.70357
G1 X113.875 Y114.8 E1.70451
G1 X105.524 Y114.8 E1.85728
G1 X105.517 Y114.8 E1.85741
G1 X105.494 Y114.8 E1.85783
G1 X104.2 Y114.8 E1.8815
G1 X104.2 Y105.2 E2.05711
G1 X104.878 Y105.2 E2.06951
G1 X105.127 Y105.2 E2.07313
G1 X105.576 Y105.2 E2.07692
G1 X106.008 Y105.2 E2.08127
G1 X106.119 Y105.2 E2.08307
G1 X114.559 Y105.2 E2.23747
G1 X114.576 Y105.2 E2.23778
G1 X114.584 Y105.2 E2.23792
G1 X115.8 Y105.2 E2.26017
G1 X115.8 Y106.516 E2.28424
G0 F3600 X115.8 Y106.539
G0 X115.8 Y106.555
G0 X115.8 Y106.716
G0 X113.006 Y106.783
;TYPE:SKIN
G1 F600 X112.944 Y106.3 E2.29315
G1 X112.986 Y106.198 E2.29517
G1 X112.628 Y105.84 E2.30443
G1 X113.129 Y105.84 E2.31359
G0 F3600 X113.006 Y106.783
G1 F600 X113.043 Y107.084 E2.31914
G1 X113.513 Y107.721 E2.33362
G1 X114.167 Y108.014 E2.34673
G0 F3600 X114.243 Y108.021
G1 F600 X115.159 Y108.936 E2.37042
G1 X115.159 Y108.371 E2.38075
G1 X114.781 Y107.993 E2.39053
G1 X115.159 Y107.896 E2.39767
G0 F3600 X113.006 Y106.783
G1 F600 X112.062 Y105.84 E2.42208
G1 X111.497 Y105.84 E2.43241
G1 X115.159 Y109.502 E2.52715
G1 X115.159 Y110.068 E2.5375
G1 X110.931 Y105.84 E2.64688
G1 X110.365 Y105.84 E2.65724
G1 F1500 X115.159 Y110.633 E2.78125
G1 F600 X115.159 Y111.199 E2.7916
G1 F1500 X109.8 Y105.84 E2.93024
G1 F600 X109.234 Y105.84 E2.94059
G1 F1500 X115.159 Y111.765 E3.09388
G1 F600 X115.159 Y112.33 E3.10421
G1 X112.02 Y109.192 E3.1854
G1 X112.183 Y109.719 E3.1955
G1 X112.174 Y109.911 E3.19901
G1 X114.477 Y112.214 E3.25859
G1 X113.994 Y112.297 E3.26756
G1 X112.152 Y110.455 E3.31521
G1 X112.152 Y110.463 E3.31536
G1 X111.992 Y110.861 E3.3232
G1 X113.631 Y112.499 E3.36559
G1 X113.318 Y112.752 E3.37295
G1 X111.802 Y111.236 E3.41217
G1 X111.536 Y111.536 E3.41951
G1 X113.118 Y113.118 E3.46043
G1 X112.956 Y113.522 E3.4684
G1 X111.232 Y111.797 E3.51301
G1 X110.869 Y112 E3.52062
G1 X113.02 Y114.151 E3.57627
G1 X113.021 Y114.159 E3.57641
G1 X112.462 Y114.159 E3.58664
G1 X110.43 Y112.128 E3.63919
G1 X110.037 Y112.194 E3.64648
G1 X109.922 Y112.185 E3.64859
G1 X111.896 Y114.159 E3.69966
G1 X111.331 Y114.159 E3.71
G1 X109.183 Y112.012 E3.76555
G0 F3600 X108.926 Y111.921
G1 F600 X108.348 Y111.454 E3.77915
G1 X107.957 Y110.821 E3.79276
G1 X107.947 Y110.776 E3.7936
G1 X107.797 Y110.092 E3.80641
G1 X107.801 Y110.064 E3.80693
G1 X105.531 Y107.794 E3.86565
G1 X105.571 Y107.797 E3.86639
G1 X105.991 Y107.688 E3.87433
G1 X107.867 Y109.564 E3.92286
G1 X107.893 Y109.353 E3.92675
G1 X108.004 Y109.135 E3.93122
G1 X106.378 Y107.509 E3.97329
G1 X106.667 Y107.232 E3.98061
G1 X108.194 Y108.76 E4.02013
G1 X108.229 Y108.687 E4.02161
G1 X108.463 Y108.463 E4.02753
G1 X106.889 Y106.889 E4.06825
G1 X107.022 Y106.456 E4.07654
G1 X108.753 Y108.187 E4.12132
G1 X108.765 Y108.176 E4.12162
G1 X109.139 Y108.007 E4.12913
G1 X106.971 Y105.84 E4.1852
G1 X107.537 Y105.84 E4.19555
G1 X109.557 Y107.859 E4.2478
G1 X110.078 Y107.815 E4.25736
G1 X108.103 Y105.84 E4.30846
G1 X108.668 Y105.84 E4.31879
G1 X110.791 Y107.963 E4.37372
G0 F3600 X110.904 Y107.992
G1 F600 X111.522 Y108.409 E4.38735
G1 X111.964 Y109.008 E4.40097
G1 X112.02 Y109.192 E4.40449
;;retract;;
G1 F6000 E-3.59551
G0 F3600 X110.6 Y109.698
G0 X109.376 Y110.249
G0 X107.947 Y110.776
G1 F6000 E4.40449
G1 F600 X104.839 Y107.668 E4.4849
G1 X104.839 Y108.234 E4.49525
G1 F1500 X110.765 Y114.159 E4.64854
G1 F600 X110.199 Y114.159 E4.6589
G1 F1500 X104.839 Y108.799 E4.79756
G1 F600 X104.839 Y109.365 E4.80792
G1 F1500 X109.634 Y114.159 E4.93195
G1 F600 X109.068 Y114.159 E4.94231
G1 X104.839 Y109.931 E5.0517
G1 X104.839 Y110.496 E5.06203
G1 X108.502 Y114.159 E5.1568
G1 X107.937 Y114.159 E5.16713
G1 X106.989 Y113.212 E5.19164
G1 X107.065 Y113.567 E5.19829
G1 X106.997 Y113.786 E5.20248
G1 X107.371 Y114.159 E5.21214
G1 X106.884 Y114.159 E5.22105
G0 F3600 X106.989 Y113.212
G1 F600 X106.901 Y112.792 E5.2289
G1 X106.377 Y112.2 E5.24336
G0 F3600 X105.759 Y111.982
G1 F600 X104.839 Y111.062 E5.26717
G1 X104.839 Y111.628 E5.27752
G1 X105.218 Y112.007 E5.28732
G1 X104.854 Y112.07 E5.29408
G1 X104.839 Y112.082 E5.29443
G0 F3600 X104.875 Y111.947
;TYPE:SKIN
G1 F600 X104.998 Y112.07 E5.29602
G0 F3600 X104.909 Y112.263
G1 F600 X104.655 Y112.009 E5.29931
;;retract;;
G1 F6000 E-2.70069
;MESH:NONMESH
G0 F600 X104.655 Y112.009 Z0.2
G0 F3600 X103.33 Y112.009
G0 X114.491 Y106.504
G0 X113.274 Y106.975
;TIME_ELAPSED:34.940014

;LAYER:1
M140 S60
M106 S127.5
;TYPE:WALL-INNER
;MESH:
G1 F6000 E5.29931
G1 F1500 X113.552 Y107.404 E5.30781
G1 X114.04 Y107.73 E5.31757
G1 X114.505 Y107.809 E5.32541
G1 X114.985 Y107.719 E5.33354
G1 X115.088 Y107.648 E5.33562
G1 X115.4 Y107.432 E5.34193
G1 X115.4 Y107.811 E5.34544
G1 X115.4 Y107.812 E5.34546
G1 X115.4 Y112.483 E5.42314
G1 X115.4 Y112.671 E5.42626
G1 X115.4 Y112.838 E5.42904
G1 X115.25 Y112.671 E5.4303
G1 X115.078 Y112.597 E5.4326
G1 X114.779 Y112.469 E5.43801
G1 X114.188 Y112.474 E5.44783
G1 X113.722 Y112.692 E5.45639
G1 X113.335 Y113.143 E5.46627
G1 X113.193 Y113.634 E5.47477
G1 X113.257 Y114.099 E5.48258
G1 X113.274 Y114.225 E5.48469
G1 X113.387 Y114.4 E5.48816
G1 X113.274 Y114.4 E5.48819
G1 X113.146 Y114.4 E5.48987
G1 X106.823 Y114.381 E5.59502
G1 X106.821 Y114.381 E5.59505
G1 X106.474 Y114.381 E5.60082
G1 X106.652 Y114.082 E5.60409
G1 X106.736 Y113.941 E5.60682
G1 X106.805 Y113.351 E5.6167
G1 X106.647 Y112.864 E5.62521
G1 X106.25 Y112.421 E5.63511
G1 X105.779 Y112.219 E5.64363
G1 X105.188 Y112.224 E5.65346
G1 X104.918 Y112.35 E5.65841
G1 X104.722 Y112.442 E5.66201
G1 X104.6 Y112.584 E5.66513
G1 X104.6 Y112.442 E5.66531
G1 X104.6 Y112.225 E5.66787
G1 X104.6 Y107.559 E5.74546
G1 X104.6 Y107.558 E5.74548
G1 X104.6 Y107.186 E5.75167
G1 X104.91 Y107.393 E5.75513
G1 X105.04 Y107.48 E5.75773
G1 X105.505 Y107.559 E5.76558
G1 X105.985 Y107.469 E5.7737
G1 X106.474 Y107.131 E5.78359
G1 X106.736 Y106.691 E5.7921
G1 X106.805 Y106.101 E5.80198
G1 X106.723 Y105.863 E5.80617
G1 X106.634 Y105.6 E5.81078
G1 X106.911 Y105.6 E5.81352
G1 X106.912 Y105.6 E5.81354
G1 X113.265 Y105.6 E5.91919
G1 X113.335 Y105.6 E5.92035
G1 X113.586 Y105.6 E5.92452
G1 X113.335 Y105.893 E5.92788
G1 X113.316 Y105.96 E5.92891
G1 X113.193 Y106.384 E5.93625
G1 X113.274 Y106.975 E5.94617
G0 F5400 X113.658 Y106.832
;TYPE:WALL-OUTER
G1 F600 X113.843 Y107.117 E5.95182
G1 X114.191 Y107.35 E5.95879
G1 X114.502 Y107.403 E5.96404
G1 X114.828 Y107.342 E5.96955
G1 X115.175 Y107.102 E5.97657
G1 X115.349 Y106.81 E5.98222
G1 X115.398 Y106.391 E5.98924
G1 X115.293 Y106.068 E5.99488
