;FLAVOR:Marlin
;TIME:106
;Filament used:0.0192559m
;Layer height: 0.1
;MINX:106.7
;MINY:105.83
;MINZ:0.1
;MAXX:114.17
;MAXY:114.17
;MAXZ:1
                                   
;Creality Print GCode Generated by CXEngine:NO_MAGE_VERSION_GIT_HEAD_BRANCH
;CXEngine Release Time:2022-09-30 09:53:04
;Gcode Generated Time:2023-01-17 02:21:37
;----------Machine Config--------------
;Machine Name:Creality Ender-3
;Machine Height:250
;Machine Width:220
;Machine Depth:220
;Material name:PLA
;Number of Extruders:1
;ExtruderParams[0] Nozzle Diameter1000
;----------Profile Config---------------
;Engine Version:275f99b
;Engine Release Time:2022-09-30 09:42:18
;Layer Height:0.1
;Wall Thickness:0.8
;Top/Bottom Thickness:0.5
;Out Wall Line Width:0.4
;Inner Wall Line Width:0.4
;Inital Layer Height:100
;Wall Line Count:2
;Infill Line Distance:4
;Infill Pattern:grid
;Infill Sparse Density:20
;Infill Wipe Distance:0
;Print Temperature:200
;Bed Temperature:60
;Support Enable:true
;Support Density:0
;Support Angle:60
;Adhesion Type:none
;machine is belt:false
;machine belt offset:10
;machine belt offset Y:0
;Raft Base Line Spacing:1.6
;Wait Heatup Sync:true
;----------Shell Config----------------
;Outer Wall Wipe Distance:200
;Outer Inset First:false
;Infill Before Walls:false
;Infill Overlap:0.16
;Fill Gaps Between Walls:everywhere
;Minimum Infill Area:1
;Top Surface Skin Layer:0
;Top Layers:4
;Z Seam Alignment:sharpest_corner
;Seam Corner Preference:z_seam_corner_inner
;Z Seam X:110
;Z Seam Y:110
;Horizontal Expansion:0
;Top/Bottom Pattern:zigzag
;Ironing Pattern:zigzag
;Vase Model:false
;----------Support Config----------------
;Support Type:everywhere
;Support Pattern:zigzag
;Support Infill Layer Thickness:0.1
;Minimum Support Area:5
;Enable Support Roof:true
;Support Roof Thickness:0.8
;Support Roof Pattern:lines
;Connect Support Lines:0
;Connect Support ZigZags:0
;Minimum Support X/Y Distance:0.2
;Support Line Distance:0
; ---------PrintSpeed & Travel----------
;Enable Print Cool:true
;Avoid Printed Parts Traveling:true
;Enable Retraction:true
;Retraction Distance:8
;Retraction Speed:100
;Retraction Prime Speed:100
;Maximum Retraction Count:100
;Minimum Extrusion Distance Window:1
;Z Hop When Retracted:false
;Z Hop Height:0.2
;Retract Before Outer Wall:true
;Print Speed:50
;Infill Speed:50

;Prime Tower Speed:50
;Travel Speed:120
;Initial Layer Speed:25
;Skirt/Brim Speed:25
;Combing Mode:infill
; --------SpecialModel&Mesh Fixes--------
;Union Overlapping Volum:true
;Remove All Holes:false
;Maximum Travel Resolution:0.6
;Maximum Deviation:0.05
;Maximum Model Angle:0.872665
;IS Mold Print:false
;Make Overhang Printable:false
;Enable Coasting:false
;Coasting Volumes:0.06
;Coasting Speed:0.9
;Raft AirGap:0.25
;Layer0 ZOverLap:0.13
;---------------------End of Head--------------------------
M140 S60
M105
M104 S200
M105
M109 S200
M105
M190 S60
M82 ;absolute extrusion mode
M220 S100 ;Reset Feedrate
M221 S100 ;Reset Flowrate

G28 ;Home

G92 E0 ;Reset Extruder
G1 Z2.0 F3000 ;Move Z Axis up
G1 X10.1 Y20 Z0.28 F5000.0 ;Move to start position
G1 X10.1 Y145.0 Z0.28 F1500.0 E15 ;Draw the first line
G1 X10.4 Y145.0 Z0.28 F5000.0 ;Move to side a little
G1 X10.4 Y20 Z0.28 F1500.0 E30 ;Draw the second line
G92 E0  ;Reset Extruder
G1 E-1.0000 F1800 ;Retract a bit
G1 Z2.0 F3000 ;Move Z Axis up
G1 E0.0000 F1800 

G92 E0
G92 E0
G1 F6000 E-8

;LAYER_COUNT:10

;LAYER:0
M107
;MESH:
G0 F3600 X111.203 Y111.545 Z0.1
;TYPE:WALL-INNER
G1 F6000 E0
G1 F600 X111.639 Y111.071 E0.01178
G1 X111.899 Y110.48 E0.02359
G1 X111.951 Y109.838 E0.03538
G1 X111.793 Y109.214 E0.04715
G1 X111.44 Y108.675 E0.05894
G1 X110.933 Y108.279 E0.0707
G1 X110.322 Y108.068 E0.08253
G1 X109.678 Y108.068 E0.09431
G1 X109.067 Y108.279 E0.10614
G1 X108.56 Y108.675 E0.1179
G1 X108.207 Y109.214 E0.12969
G1 X108.049 Y109.838 E0.14146
G1 X108.101 Y110.48 E0.15325
G1 X108.361 Y111.071 E0.16506
G1 X108.797 Y111.545 E0.17684
G1 X109.364 Y111.853 E0.18864
G1 X110 Y111.959 E0.20044
G1 X110.636 Y111.853 E0.21223
G1 X111.203 Y111.545 E0.22404
G0 F3600 X110.954 Y111.225
;TYPE:WALL-OUTER
G1 F600 X111.3 Y110.849 E0.23338
G1 X111.506 Y110.381 E0.24274
G1 X111.547 Y109.872 E0.25208
G1 X111.422 Y109.377 E0.26142
G1 X111.142 Y108.949 E0.27077
G1 X110.74 Y108.635 E0.28011
G1 X110.255 Y108.468 E0.28949
G1 X109.745 Y108.468 E0.29882
G1 X109.26 Y108.635 E0.3082
G1 X108.858 Y108.949 E0.31753
G1 X108.578 Y109.377 E0.32689
G1 X108.453 Y109.872 E0.33623
G1 X108.494 Y110.381 E0.34557
G1 X108.7 Y110.849 E0.35492
G1 X109.046 Y111.225 E0.36427
G1 X109.496 Y111.469 E0.37364
G1 X110 Y111.553 E0.38298
G1 X110.504 Y111.469 E0.39233
G1 X110.954 Y111.225 E0.40169
G0 F3600 X111.089 Y111.078
G0 X111.413 Y111.377
G0 X112.9 Y112.9
;TYPE:WALL-INNER
G1 F1500 X107.1 Y112.9 E0.50779
G1 X107.1 Y107.1 E0.61389
G1 X112.9 Y107.1 E0.71999
G1 X112.9 Y112.9 E0.82609
G0 F3600 X113.3 Y113.3
;TYPE:WALL-OUTER
G1 F1500 X106.7 Y113.3 E0.94683
G1 X106.7 Y106.7 E1.06756
G1 X113.3 Y106.7 E1.1883
G1 X113.3 Y113.3 E1.30903
G0 F3600 X113.1 Y113.3
G0 X112.86 Y112.86
;;retract;;
G1 F6000 E-6.69097
G0 F3600 X114.17 Y112.86
G0 X114.17 Y107.568
G0 X112.659 Y107.568
;TYPE:SKIN
G1 F6000 E1.30903
G1 F600 X112.431 Y107.34 E1.31493
G1 X111.865 Y107.34 E1.32528
G1 X112.659 Y108.134 E1.34582
G1 X112.659 Y108.699 E1.35616
G1 X111.3 Y107.34 E1.39132
G1 X110.734 Y107.34 E1.40167
G1 X112.659 Y109.265 E1.45147
G1 X112.659 Y109.831 E1.46182
G1 X112.038 Y109.209 E1.4779
G1 X112.192 Y109.817 E1.48938
G1 X112.183 Y109.921 E1.49129
G1 X112.659 Y110.397 E1.5036
G1 X112.659 Y110.962 E1.51394
G1 X112.141 Y110.444 E1.52734
G1 X112.134 Y110.54 E1.5291
G1 X111.992 Y110.861 E1.53552
G1 X112.659 Y111.528 E1.55277
G1 X112.659 Y112.094 E1.56313
G1 X111.807 Y111.242 E1.58517
G1 X111.536 Y111.536 E1.59248
G1 X112.659 Y112.659 E1.62154
G1 X112.093 Y112.659 E1.63189
G1 X111.234 Y111.8 E1.65411
G1 X110.867 Y111.999 E1.66175
G1 X111.527 Y112.659 E1.67882
G1 X110.962 Y112.659 E1.68916
G1 X110.433 Y112.13 E1.70285
G1 X110 Y112.202 E1.71087
G1 X109.927 Y112.19 E1.71223
G1 X110.396 Y112.659 E1.72436
G1 X109.83 Y112.659 E1.73472
G1 X109.216 Y112.045 E1.7506
G0 F3600 X108.647 Y111.736
G1 F600 X108.156 Y111.203 E1.76386
G1 X107.986 Y110.814 E1.77162
G1 X107.864 Y110.539 E1.77713
G1 X107.829 Y110.092 E1.78533
G1 X107.339 Y109.602 E1.798
G1 X107.339 Y109.036 E1.80836
G1 X107.87 Y109.567 E1.8221
G1 X107.983 Y109.115 E1.83062
G1 X107.339 Y108.47 E1.84729
G1 X107.339 Y107.905 E1.85763
G1 X108.208 Y108.774 E1.88011
G1 X108.381 Y108.509 E1.8859
G1 X108.453 Y108.453 E1.88757
G1 X107.339 Y107.339 E1.91639
G1 X107.905 Y107.34 E1.92674
G1 X108.77 Y108.205 E1.94912
G1 X108.95 Y108.065 E1.95329
G1 X109.132 Y108.001 E1.95682
G1 X108.471 Y107.34 E1.97392
G1 X109.037 Y107.34 E1.98427
G1 X109.552 Y107.855 E1.9976
G1 X109.636 Y107.827 E1.99922
G1 X110.09 Y107.827 E2.00752
G1 X109.602 Y107.34 E2.02013
G1 X110.168 Y107.34 E2.03049
G1 X110.81 Y107.982 E2.04709
G0 F3600 X111.048 Y108.064
G1 F600 X111.618 Y108.511 E2.06035
G1 X112.014 Y109.115 E2.07356
G1 X112.038 Y109.209 E2.07533
G0 F3600 X112.431 Y107.34
G1 F600 X112.659 Y107.34 E2.0795
;;retract;;
G1 F6000 E-5.9205
G0 F3600 X112.659 Y105.83
G0 X109.347 Y110.163
G0 X107.986 Y110.814
G1 F6000 E2.0795
G1 F600 X107.339 Y110.167 E2.09624
G1 X107.339 Y110.733 E2.1066
G1 X109.264 Y112.659 E2.15641
G1 X108.699 Y112.659 E2.16674
G1 X107.339 Y111.299 E2.20193
G1 X107.339 Y111.864 E2.21226
G1 X108.133 Y112.659 E2.23282
G1 X107.567 Y112.659 E2.24317
G1 X107.34 Y112.659 E2.24732
G0 F3600 X107.339 Y112.43
G1 F600 X107.567 Y112.659 E2.25323
;;retract;;
G1 F6000 E-5.74677
;MESH:NONMESH
G0 F600 X107.567 Y112.659 Z0.2
G0 F3600 X107.567 Y114.17
G0 X110.414 Y110.529
G0 X111.203 Y111.545
;TIME_ELAPSED:17.627309

;LAYER:1
M140 S60
M106 S127.5
;TYPE:WALL-INNER
;MESH:
G1 F6000 E2.25323
G1 F600 X111.639 Y111.071 E2.26395
G1 X111.899 Y110.48 E2.27468
G1 X111.951 Y109.838 E2.28539
G1 X111.793 Y109.214 E2.2961
G1 X111.44 Y108.675 E2.30681
G1 X110.933 Y108.279 E2.31751
G1 X110.322 Y108.068 E2.32826
G1 X109.678 Y108.068 E2.33897
G1 X109.067 Y108.279 E2.34972
G1 X108.56 Y108.675 E2.36042
G1 X108.207 Y109.214 E2.37113
G1 X108.049 Y109.838 E2.38184
G1 X108.101 Y110.48 E2.39255
G1 X108.361 Y111.071 E2.40329
G1 X108.797 Y111.545 E2.414
G1 X109.364 Y111.853 E2.42473
G1 X110 Y111.959 E2.43545
G1 X110.636 Y111.853 E2.44617
G1 X111.203 Y111.545 E2.45691
G0 F5400 X110.954 Y111.225
;TYPE:WALL-OUTER
G1 F600 X111.3 Y110.849 E2.4654
G1 X111.506 Y110.381 E2.47391
G1 X111.547 Y109.872 E2.4824
G1 X111.422 Y109.377 E2.49089
G1 X111.142 Y108.949 E2.49939
G1 X110.74 Y108.635 E2.50788
G1 X110.255 Y108.468 E2.51641
G1 X109.745 Y108.468 E2.52489
G1 X109.26 Y108.635 E2.53342
G1 X108.858 Y108.949 E2.5419
G1 X108.578 Y109.377 E2.55041
G1 X108.453 Y109.872 E2.5589
G1 X108.494 Y110.381 E2.56739
G1 X108.7 Y110.849 E2.57589
G1 X109.046 Y111.225 E2.58439
G1 X109.496 Y111.469 E2.5929
G1 X110 Y111.553 E2.6014
G1 X110.504 Y111.469 E2.6099
G1 X110.954 Y111.225 E2.61841
G0 F5400 X111.089 Y111.078
G0 X111.413 Y111.377
G0 X112.9 Y112.9
;TYPE:WALL-INNER
G1 F1500 X107.1 Y112.9 E2.71487
G1 X107.1 Y107.1 E2.81132
G1 X112.9 Y107.1 E2.90777
G1 X112.9 Y112.9 E3.00423
G0 F5400 X113.3 Y113.3
;TYPE:WALL-OUTER
G1 F1500 X106.7 Y113.3 E3.11399
G1 X106.7 Y106.7 E3.22375
G1 X113.3 Y106.7 E3.3335
G1 X113.3 Y113.3 E3.44326
G0 F5400 X113.1 Y113.3
G0 X112.86 Y112.86
G0 X112.659 Y112.659
;TYPE:SKIN
G1 F600 X112.659 Y112.483 E3.44619
G1 X112.483 Y112.659 E3.45033
G1 X111.917 Y112.659 E3.45974
G1 X112.659 Y111.918 E3.47718
G1 X112.659 Y111.352 E3.48659
G1 X111.351 Y112.659 E3.51734
G1 X110.785 Y112.659 E3.52676
G1 X112.659 Y110.786 E3.57082
G1 X112.659 Y110.22 E3.58023
G1 X111.973 Y110.906 E3.59636
G1 X112.134 Y110.54 E3.60301
G1 X112.166 Y110.148 E3.60955
G1 X112.659 Y109.655 E3.62115
G1 X112.659 Y109.089 E3.63056
G1 X112.14 Y109.608 E3.64277
G1 X112.025 Y109.157 E3.65051
G1 X112.659 Y108.523 E3.66542
G1 X112.659 Y107.958 E3.67481
G1 X111.811 Y108.805 E3.69475
G1 X111.618 Y108.511 E3.70059
G1 X111.574 Y108.477 E3.70152
G1 X112.659 Y107.392 E3.72704
G1 X112.659 Y107.34 E3.7279
G1 X112.146 Y107.339 E3.73643
G1 X111.256 Y108.229 E3.75736
G1 X111.048 Y108.064 E3.76178
G1 X110.904 Y108.015 E3.76431
G1 X111.58 Y107.339 E3.78021
G1 X111.015 Y107.339 E3.7896
G1 X110.484 Y107.87 E3.80209
G1 X110.362 Y107.828 E3.80424
G1 X109.96 Y107.828 E3.81092
G1 X110.449 Y107.339 E3.82242
G1 X109.883 Y107.339 E3.83184
G1 X109.267 Y107.955 E3.84632
G1 X108.95 Y108.065 E3.8519
G1 X108.381 Y108.509 E3.86391
G1 X107.983 Y109.115 E3.87596
G0 F5400 X107.339 Y107.339
G1 F600 X107.34 Y107.62 E3.88064
G1 X107.62 Y107.339 E3.88723
G1 X108.186 Y107.339 E3.89665
G1 X107.34 Y108.185 E3.91654
G1 X107.34 Y108.751 E3.92595
G1 X108.752 Y107.339 E3.95916
G1 X109.318 Y107.339 E3.96858
G1 X107.34 Y109.317 E4.01509
G1 X107.34 Y109.882 E4.02449
G1 X107.941 Y109.281 E4.03863
G1 X107.807 Y109.817 E4.04781
G1 X107.819 Y109.969 E4.05035
G1 X107.34 Y110.448 E4.06161
G1 X107.34 Y111.014 E4.07103
G1 X107.86 Y110.493 E4.08327
G1 X107.864 Y110.539 E4.08404
G1 X108.021 Y110.898 E4.09055
G1 X107.34 Y111.58 E4.10658
G1 X107.34 Y112.145 E4.11598
G1 X108.217 Y111.268 E4.1366
G1 X108.487 Y111.563 E4.14325
G1 X107.391 Y112.659 E4.16903
G1 X107.957 Y112.659 E4.17844
G1 X108.798 Y111.818 E4.19822
G1 X109.165 Y112.017 E4.20516
G1 X108.523 Y112.659 E4.22026
G1 X109.088 Y112.659 E4.22966
G1 X109.612 Y112.136 E4.24197
G1 X110 Y112.202 E4.24852
G1 X110.134 Y112.179 E4.25078
G1 X109.654 Y112.659 E4.26207
G1 X110.22 Y112.659 E4.27148
G1 X110.896 Y111.983 E4.28738
G1 X111.353 Y111.736 E4.29602
G1 X111.842 Y111.204 E4.30803
;MESH:NONMESH
G0 X111.842 Y111.204 Z0.3
G0 F5400 X111.203 Y111.545
;TIME_ELAPSED:28.165516

;LAYER:2
M106 S255
;TYPE:WALL-INNER
;MESH:
G1 F600 X111.639 Y111.071 E4.31874
G1 X111.899 Y110.48 E4.32948
G1 X111.951 Y109.838 E4.34019
G1 X111.793 Y109.214 E4.3509
G1 X111.44 Y108.675 E4.36161
G1 X110.933 Y108.279 E4.37231
G1 X110.322 Y108.068 E4.38306
G1 X109.678 Y108.068 E4.39377
G1 X109.067 Y108.279 E4.40452
G1 X108.56 Y108.675 E4.41522
G1 X108.207 Y109.214 E4.42593
G1 X108.049 Y109.838 E4.43664
G1 X108.101 Y110.48 E4.44735
G1 X108.361 Y111.071 E4.45809
G1 X108.797 Y111.545 E4.4688
G1 X109.364 Y111.853 E4.47953
G1 X110 Y111.959 E4.49025
G1 X110.636 Y111.853 E4.50097
G1 X111.203 Y111.545 E4.5117
G0 F7200 X110.954 Y111.225
;TYPE:WALL-OUTER
G1 F600 X111.3 Y110.849 E4.5202
G1 X111.506 Y110.381 E4.5287
G1 X111.547 Y109.872 E4.5372
G1 X111.422 Y109.377 E4.54569
G1 X111.142 Y108.949 E4.55419
G1 X110.74 Y108.635 E4.56267
G1 X110.255 Y108.468 E4.5712
G1 X109.745 Y108.468 E4.57969
G1 X109.26 Y108.635 E4.58822
G1 X108.858 Y108.949 E4.5967
G1 X108.578 Y109.377 E4.6052
G1 X108.453 Y109.872 E4.61369
G1 X108.494 Y110.381 E4.62219
G1 X108.7 Y110.849 E4.63069
G1 X109.046 Y111.225 E4.63919
G1 X109.496 Y111.469 E4.6477
G1 X110 Y111.553 E4.6562
G1 X110.504 Y111.469 E4.66469
G1 X110.954 Y111.225 E4.67321
G0 F7200 X111.089 Y111.078
G0 X111.413 Y111.377
G0 X112.9 Y112.9
;TYPE:WALL-INNER
G1 F1500 X107.1 Y112.9 E4.76966
G1 X107.1 Y107.1 E4.86612
G1 X112.9 Y107.1 E4.96257
G1 X112.9 Y112.9 E5.05903
G0 F7200 X113.3 Y113.3
;TYPE:WALL-OUTER
G1 F1500 X106.7 Y113.3 E5.16878
G1 X106.7 Y106.7 E5.27854
G1 X113.3 Y106.7 E5.3883
G1 X113.3 Y113.3 E5.49806
G0 F7200 X113.1 Y113.3
G0 X112.86 Y112.86
;;retract;;
G1 F6000 E-2.50194
G0 F7200 X114.17 Y112.86
G0 X114.17 Y107.568
G0 X112.659 Y107.568
;TYPE:SKIN
G1 F6000 E5.49806
G1 F600 X112.431 Y107.34 E5.50342
G1 X111.865 Y107.34 E5.51283
G1 X112.659 Y108.134 E5.53151
G1 X112.659 Y108.699 E5.5409
G1 X111.3 Y107.34 E5.57287
G1 X110.734 Y107.34 E5.58228
G1 X112.659 Y109.265 E5.62755
G1 X112.659 Y109.831 E5.63696
G1 X112.038 Y109.209 E5.65158
G1 X112.192 Y109.817 E5.66201
G1 X112.183 Y109.921 E5.66375
G1 X112.659 Y110.397 E5.67494
G1 X112.659 Y110.962 E5.68434
G1 X112.141 Y110.444 E5.69652
G1 X112.134 Y110.54 E5.69812
G1 X111.992 Y110.861 E5.70396
G1 X112.659 Y111.528 E5.71964
G1 X112.659 Y112.094 E5.72906
G1 X111.807 Y111.242 E5.7491
G1 X111.536 Y111.536 E5.75574
G1 X112.659 Y112.659 E5.78216
G1 X112.093 Y112.659 E5.79157
G1 X111.234 Y111.8 E5.81177
G1 X110.867 Y111.999 E5.81871
G1 X111.527 Y112.659 E5.83424
G1 X110.962 Y112.659 E5.84363
G1 X110.433 Y112.13 E5.85607
G1 X110 Y112.202 E5.86337
G1 X109.927 Y112.19 E5.8646
G1 X110.396 Y112.659 E5.87563
G1 X109.83 Y112.659 E5.88505
G1 X109.216 Y112.045 E5.89949
G0 F7200 X108.647 Y111.736
G1 F600 X108.156 Y111.203 E5.91154
G1 X107.986 Y110.814 E5.9186
G1 X107.864 Y110.539 E5.9236
G1 X107.829 Y110.092 E5.93106
G1 X107.339 Y109.602 E5.94258
G1 X107.339 Y109.036 E5.95199
G1 X107.87 Y109.567 E5.96448
G1 X107.983 Y109.115 E5.97223
G1 X107.339 Y108.47 E5.98739
G1 X107.339 Y107.905 E5.99678
G1 X108.208 Y108.774 E6.01722
G1 X108.381 Y108.509 E6.02248
G1 X108.453 Y108.453 E6.024
G1 X107.339 Y107.339 E6.0502
G1 X107.905 Y107.34 E6.05961
G1 X108.77 Y108.205 E6.07996
G1 X108.95 Y108.065 E6.08375
G1 X109.132 Y108.001 E6.08696
G1 X108.471 Y107.34 E6.1025
G1 X109.037 Y107.34 E6.11192
G1 X109.552 Y107.855 E6.12403
G1 X109.636 Y107.827 E6.1255
G1 X110.09 Y107.827 E6.13305
G1 X109.602 Y107.34 E6.14452
G1 X110.168 Y107.34 E6.15393
G1 X110.81 Y107.982 E6.16903
G0 F7200 X111.048 Y108.064
G1 F600 X111.618 Y108.511 E6.18107
G1 X112.014 Y109.115 E6.19308
G1 X112.038 Y109.209 E6.1947
G0 F7200 X112.431 Y107.34
G1 F600 X112.659 Y107.34 E6.19849
;;retract;;
G1 F6000 E-1.80151
G0 F7200 X112.659 Y105.83
G0 X109.347 Y110.163
G0 X107.986 Y110.814
G1 F6000 E6.19849
G1 F600 X107.339 Y110.167 E6.21371
G1 X107.339 Y110.733 E6.22312
G1 X109.264 Y112.659 E6.2684
G1 X108.699 Y112.659 E6.2778
G1 X107.339 Y111.299 E6.30978
G1 X107.339 Y111.864 E6.31918
G1 X108.133 Y112.659 E6.33787
G1 X107.567 Y112.659 E6.34728
G1 X107.34 Y112.659 E6.35105
G0 F7200 X107.339 Y112.43
G1 F600 X107.567 Y112.659 E6.35643
;;retract;;
G1 F6000 E-1.64357
;MESH:NONMESH
G0 F600 X107.567 Y112.659 Z0.4
G0 F7200 X107.567 Y114.17
G0 X110.414 Y110.529
G0 X111.203 Y111.545
;TIME_ELAPSED:40.694231

;LAYER:3
;TYPE:WALL-INNER
;MESH:
G1 F6000 E6.35643
G1 F600 X111.639 Y111.071 E6.36714
G1 X111.899 Y110.48 E6.37787
