;FLAVOR:Marlin
;TIME:362
;Filament used:0.0471609m
;Layer height: 0.1
;MINX:105.231
;MINY:105.05
;MINZ:0.1
;MAXX:114.774
;MAXY:114.597
;MAXZ:6.5
                             
;Creality Print GCode Generated by CXEngine:NO_MAGE_VERSION_GIT_HEAD_BRANCH
;CXEngine Release Time:2022-09-30 09:53:04
;Gcode Generated Time:2023-01-17 02:23:04
;----------Machine Config--------------
;Machine Name:Creality Ender-3
;Machine Height:250
;Machine Width:220
;Machine Depth:220
;Material name:PLA
;Number of Extruders:1
;ExtruderParams[0] Nozzle Diameter1000
;----------Profile Config---------------
;Engine Version:275f99b
;Engine Release Time:2022-09-30 09:42:18
;Layer Height:0.1
;Wall Thickness:0.8
;Top/Bottom Thickness:0.5
;Out Wall Line Width:0.4
;Inner Wall Line Width:0.4
;Inital Layer Height:100
;Wall Line Count:2
;Infill Line Distance:4
;Infill Pattern:grid
;Infill Sparse Density:20
;Infill Wipe Distance:0
;Print Temperature:200
;Bed Temperature:60
;Support Enable:true
;Support Density:0
;Support Angle:60
;Adhesion Type:none
;machine is belt:false
;machine belt offset:10
;machine belt offset Y:0
;Raft Base Line Spacing:1.6
;Wait Heatup Sync:true
;----------Shell Config----------------
;Outer Wall Wipe Distance:200
;Outer Inset First:false
;Infill Before Walls:false
;Infill Overlap:0.16
;Fill Gaps Between Walls:everywhere
;Minimum Infill Area:1
;Top Surface Skin Layer:0
;Top Layers:4
;Z Seam Alignment:sharpest_corner
;Seam Corner Preference:z_seam_corner_inner
;Z Seam X:110
;Z Seam Y:110
;Horizontal Expansion:0
;Top/Bottom Pattern:zigzag
;Ironing Pattern:zigzag
;Vase Model:false
;----------Support Config----------------
;Support Type:everywhere
;Support Pattern:zigzag
;Support Infill Layer Thickness:0.1
;Minimum Support Area:5
;Enable Support Roof:true
;Support Roof Thickness:0.8
;Support Roof Pattern:lines
;Connect Support Lines:0
;Connect Support ZigZags:0
;Minimum Support X/Y Distance:0.2
;Support Line Distance:0
; ---------PrintSpeed & Travel----------
;Enable Print Cool:true
;Avoid Printed Parts Traveling:true
;Enable Retraction:true
;Retraction Distance:8
;Retraction Speed:100
;Retraction Prime Speed:100
;Maximum Retraction Count:100
;Minimum Extrusion Distance Window:1
;Z Hop When Retracted:false
;Z Hop Height:0.2
;Retract Before Outer Wall:true
;Print Speed:50
;Infill Speed:50

;Prime Tower Speed:50
;Travel Speed:120
;Initial Layer Speed:25
;Skirt/Brim Speed:25
;Combing Mode:infill
; --------SpecialModel&Mesh Fixes--------
;Union Overlapping Volum:true
;Remove All Holes:false
;Maximum Travel Resolution:0.6
;Maximum Deviation:0.05
;Maximum Model Angle:0.872665
;IS Mold Print:false
;Make Overhang Printable:false
;Enable Coasting:false
;Coasting Volumes:0.06
;Coasting Speed:0.9
;Raft AirGap:0.25
;Layer0 ZOverLap:0.13
;---------------------End of Head--------------------------
M140 S60
M105
M104 S200
M105
M109 S200
M105
M190 S60
M82 ;absolute extrusion mode
M220 S100 ;Reset Feedrate
M221 S100 ;Reset Flowrate

G28 ;Home

G92 E0 ;Reset Extruder
G1 Z2.0 F3000 ;Move Z Axis up
G1 X10.1 Y20 Z0.28 F5000.0 ;Move to start position
G1 X10.1 Y145.0 Z0.28 F1500.0 E15 ;Draw the first line
G1 X10.4 Y145.0 Z0.28 F5000.0 ;Move to side a little
G1 X10.4 Y20 Z0.28 F1500.0 E30 ;Draw the second line
G92 E0  ;Reset Extruder
G1 E-1.0000 F1800 ;Retract a bit
G1 Z2.0 F3000 ;Move Z Axis up
G1 E0.0000 F1800 

G92 E0
G92 E0
G1 F6000 E-8

;LAYER_COUNT:65

;LAYER:0
M107
G0 F3600 X107.399 Y106.581 Z0.1
;TYPE:SUPPORT
G1 F6000 E0
G1 F1500 X108.539 Y105.928 E0.01923
G1 X109.011 Y105.928 E0.02613
G1 X109.568 Y106.695 E0.04001
G1 X108.985 Y107.498 E0.05453
G1 X108.167 Y107.819 E0.06739
G1 X107.52 Y108.669 E0.08302
G1 X107.372 Y109.356 E0.09331
G1 X107.096 Y109.556 E0.09829
G1 X107.167 Y110.673 E0.11467
G1 X108.556 Y112.72 E0.15088
G1 X109.368 Y112.611 E0.16287
G1 X109.827 Y112.944 E0.17116
G1 X110.858 Y112.651 E0.18685
G1 X111.23 Y112.921 E0.19358
G1 X112.013 Y111.928 E0.21208
G1 X112.801 Y110.765 E0.23264
G1 X112.671 Y109.443 E0.25208
G1 X112.472 Y108.899 E0.26056
G1 X113.027 Y108.135 E0.27438
G1 X113.93 Y108.429 E0.28828
G1 X114.281 Y109.44 E0.30394
G1 X114.321 Y110.332 E0.317
G1 X113.707 Y111.228 E0.3329
G1 X113.621 Y112.121 E0.34603
G1 X113.034 Y112.642 E0.35752
G1 X112.396 Y113.519 E0.37339
G1 X111.479 Y113.307 E0.38716
G1 X110.825 Y114.135 E0.4026
G1 X109.826 Y113.835 E0.41787
G1 X108.868 Y114.107 E0.43244
G1 X108.214 Y113.271 E0.44797
G1 X107.449 Y113.373 E0.45927
G1 X106.816 Y112.502 E0.47503
G1 X106.141 Y111.464 E0.49315
G1 X106.266 Y111.079 E0.49907
G1 X105.689 Y110.214 E0.51429
G1 X106.096 Y109.499 E0.52633
G1 X106.105 Y108.333 E0.54339
G1 X106.662 Y107.36 E0.5598
G1 X107.399 Y106.581 E0.57549
;;retract;;
G1 F6000 E-7.42451
;MESH:
G0 F3600 X106.967 Y105.828
G0 X108.307 Y105.06
G0 X109.452 Y105.063
G0 X110.635 Y106.695
G0 X111.676 Y109.364
G0 X110.577 Y110
;TYPE:WALL-INNER
G1 F6000 E0.57549
G1 F600 X110.288 Y110.5 E0.58606
G1 X109.712 Y110.5 E0.59659
G1 X109.423 Y110 E0.60716
G1 X109.712 Y109.5 E0.61772
G1 X110.288 Y109.5 E0.62826
G1 X110.577 Y110 E0.63882
G0 F3600 X111.039 Y110
;TYPE:WALL-OUTER
G1 F600 X110.52 Y110.9 E0.65783
G1 X109.48 Y110.9 E0.67685
G1 X108.961 Y110 E0.69586
G1 X109.48 Y109.1 E0.71486
G1 X110.52 Y109.1 E0.73389
G1 X111.039 Y110 E0.75289
G0 F3600 X110.939 Y110.173
G0 X110.518 Y109.977
G0 X110.148 Y109.74
;TYPE:SKIN
G1 F600 X109.849 Y109.74 E0.75836
G1 X109.809 Y109.809 E0.75982
G1 X110.189 Y110.189 E0.76965
G1 X110.15 Y110.259 E0.77112
G1 X109.85 Y110.259 E0.77661
G1 X109.701 Y109.999 E0.78209
G0 F3600 X110.298 Y109.999
G1 F600 X110.148 Y109.74 E0.78756
;;retract;;
G1 F6000 E-7.21244
;MESH:NONMESH
G0 F600 X110.148 Y109.74 Z0.2
G0 F3600 X112.665 Y109.378
;TIME_ELAPSED:9.731327

;LAYER:1
M140 S60
M106 S127.5
;TYPE:SUPPORT
G1 F6000 E0.78756
G1 F2250 X112.446 Y108.822 E0.79551
G1 X112.994 Y108.069 E0.8079
G1 X113.889 Y108.361 E0.82043
G1 X114.257 Y109.373 E0.83475
G1 X114.314 Y110.296 E0.84706
G1 X113.697 Y111.19 E0.86151
G1 X113.621 Y112.104 E0.87371
G1 X113.038 Y112.63 E0.88416
G1 X112.409 Y113.496 E0.8984
G1 X111.455 Y113.254 E0.91149
G1 X110.788 Y114.128 E0.92612
G1 X109.816 Y113.841 E0.9396
G1 X108.883 Y114.1 E0.95248
G1 X108.217 Y113.22 E0.96717
G1 X107.431 Y113.341 E0.97775
G1 X106.806 Y112.481 E0.99189
G1 X106.154 Y111.473 E1.00786
G1 X106.28 Y111.083 E1.01331
G1 X105.699 Y110.22 E1.02715
G1 X106.126 Y109.493 E1.03837
G1 X106.126 Y108.309 E1.05412
G1 X106.67 Y107.362 E1.06865
G1 X107.454 Y106.555 E1.08362
G1 X108.618 Y105.918 E1.10128
G1 X109.088 Y105.918 E1.10753
G1 X109.639 Y106.677 E1.12001
G1 X109.065 Y107.468 E1.13301
G1 X108.173 Y107.777 E1.14557
G1 X107.527 Y108.65 E1.16002
G1 X107.379 Y109.322 E1.16917
G1 X107.08 Y109.54 E1.17409
G1 X107.157 Y110.683 E1.18933
G1 X108.544 Y112.75 E1.22245
G1 X109.378 Y112.622 E1.23368
G1 X109.816 Y112.94 E1.24088
G1 X110.824 Y112.66 E1.2548
G1 X111.239 Y112.96 E1.26161
G1 X112.032 Y111.922 E1.27899
G1 X112.822 Y110.751 E1.29778
G1 X112.665 Y109.378 E1.31617
;;retract;;
G1 F6000 E-6.68383
;MESH:
G0 F5400 X110.577 Y110
;TYPE:WALL-INNER
G1 F6000 E1.31617
G1 F600 X110.288 Y110.5 E1.32577
G1 X109.712 Y110.5 E1.33535
G1 X109.423 Y110 E1.34495
G1 X109.712 Y109.5 E1.35456
G1 X110.288 Y109.5 E1.36414
G1 X110.577 Y110 E1.37374
G0 F5400 X111.039 Y110
;TYPE:WALL-OUTER
G1 F600 X110.52 Y110.9 E1.39102
G1 X109.48 Y110.9 E1.40831
G1 X108.961 Y110 E1.42559
G1 X109.48 Y109.1 E1.44287
G1 X110.52 Y109.1 E1.46016
G1 X111.039 Y110 E1.47744
G0 F5400 X110.939 Y110.173
G0 X110.518 Y109.977
G0 X109.85 Y110.259
;TYPE:SKIN
G1 F600 X110.15 Y110.259 E1.48243
G1 X110.298 Y109.999 E1.4874
G1 X110.207 Y109.844 E1.49039
G1 X109.829 Y110.221 E1.49927
G1 X109.701 Y109.999 E1.50353
G1 X109.849 Y109.74 E1.50849
G1 X110.148 Y109.74 E1.51347
;;retract;;
G1 F6000 E-6.48653
;MESH:NONMESH
G0 F600 X110.148 Y109.74 Z0.3
G0 F5400 X110.148 Y108.23
G0 X110.706 Y106.677
G0 X109.529 Y105.053
G0 X108.398 Y105.05
G0 X106.92 Y105.857
G0 X106.114 Y106.688
G0 X106.881 Y107.431
;TIME_ELAPSED:14.643009

;LAYER:2
M106 S255
;TYPE:SUPPORT
G1 F6000 E1.51347
G1 F3000 X107.612 Y106.702 E1.5272
G1 X108.39 Y106.361 E1.5385
G1 X109.233 Y106.131 E1.55013
G1 X109.757 Y106.853 E1.562
G1 X109.191 Y107.633 E1.57482
G1 X108.336 Y107.901 E1.58674
G1 X107.724 Y108.707 E1.6002
G1 X107.29 Y109.667 E1.61422
G1 X107.73 Y110.87 E1.63126
G1 X107.913 Y111.582 E1.64104
G1 X108.649 Y112.497 E1.65666
G1 X109.391 Y112.426 E1.66658
G1 X109.818 Y112.736 E1.6736
G1 X110.805 Y112.467 E1.68721
G1 X111.14 Y112.711 E1.69272
G1 X111.904 Y111.767 E1.70888
G1 X112.625 Y110.666 E1.72639
G1 X112.489 Y109.422 E1.74304
G1 X112.243 Y108.848 E1.75135
G1 X112.782 Y108.106 E1.76355
G1 X113.671 Y108.396 E1.77599
G1 X114.042 Y109.351 E1.78962
G1 X114.111 Y110.246 E1.80156
G1 X113.539 Y111.102 E1.81526
G1 X113.454 Y111.976 E1.82694
G1 X112.902 Y112.465 E1.83675
G1 X112.275 Y113.328 E1.85094
G1 X111.406 Y113.142 E1.86277
G1 X110.774 Y113.922 E1.87612
G1 X109.82 Y113.645 E1.88934
G1 X108.904 Y113.895 E1.90197
G1 X108.277 Y113.115 E1.91529
G1 X107.573 Y113.182 E1.92469
G1 X106.949 Y112.323 E1.93882
G1 X106.333 Y111.369 E1.95393
G1 X106.442 Y111.037 E1.95858
G1 X105.897 Y110.186 E1.97202
G1 X106.121 Y108.994 E1.98816
G1 X106.73 Y108.105 E2.00249
G1 X106.881 Y107.431 E2.01168
;;retract;;
G1 F6000 E-5.98832
;MESH:
G0 F7200 X106.032 Y107.241
G0 X107.114 Y105.973
G0 X108.102 Y105.538
G0 X109.581 Y105.143
G0 X110.824 Y106.853
G0 X111.156 Y108.467
G0 X110.577 Y110
;TYPE:WALL-INNER
G1 F6000 E2.01168
G1 F600 X110.288 Y110.5 E2.02129
G1 X109.712 Y110.5 E2.03087
G1 X109.423 Y110 E2.04047
G1 X109.712 Y109.5 E2.05007
G1 X110.288 Y109.5 E2.05965
G1 X110.577 Y110 E2.06926
G0 F7200 X111.039 Y110
;TYPE:WALL-OUTER
G1 F600 X110.52 Y110.9 E2.08653
G1 X109.48 Y110.9 E2.10383
G1 X108.961 Y110 E2.12111
G1 X109.48 Y109.1 E2.13838
G1 X110.52 Y109.1 E2.15568
G1 X111.039 Y110 E2.17296
G0 F7200 X110.939 Y110.173
G0 X110.518 Y109.977
G0 X110.148 Y109.74
;TYPE:SKIN
G1 F600 X109.849 Y109.74 E2.17793
G1 X109.809 Y109.809 E2.17926
G1 X110.189 Y110.189 E2.18819
G1 X110.15 Y110.259 E2.18953
G1 X109.85 Y110.259 E2.19451
G1 X109.701 Y109.999 E2.1995
G0 F7200 X110.298 Y109.999
G1 F600 X110.148 Y109.74 E2.20447
;MESH:NONMESH
G0 X110.148 Y109.74 Z0.4
G0 F7200 X112.465 Y109.361
;TIME_ELAPSED:19.207388

;LAYER:3
;TYPE:SUPPORT
G1 F3000 X112.203 Y108.775 E2.21301
G1 X112.741 Y108.035 E2.22519
G1 X113.631 Y108.325 E2.23764
G1 X114.019 Y109.294 E2.25153
G1 X114.112 Y110.219 E2.2639
G1 X113.544 Y111.071 E2.27752
G1 X113.463 Y111.96 E2.28939
G1 X112.921 Y112.449 E2.29911
G1 X112.296 Y113.309 E2.31325
G1 X111.395 Y113.1 E2.32556
G1 X110.748 Y113.922 E2.33947
G1 X109.813 Y113.657 E2.3524
G1 X108.913 Y113.896 E2.36479
G1 X108.274 Y113.082 E2.37856
G1 X107.555 Y113.159 E2.38818
G1 X106.932 Y112.301 E2.40228
G1 X106.335 Y111.375 E2.41694
G1 X106.444 Y111.044 E2.42158
G1 X105.92 Y110.228 E2.43448
G1 X106.33 Y109.516 E2.44541
G1 X106.336 Y108.36 E2.46079
G1 X106.855 Y107.461 E2.4746
G1 X107.656 Y106.678 E2.4895
G1 X108.492 Y106.331 E2.50155
G1 X109.312 Y106.113 E2.51283
G1 X109.837 Y106.836 E2.52472
G1 X109.273 Y107.613 E2.5375
G1 X108.344 Y107.871 E2.55032
G1 X107.743 Y108.698 E2.56392
G1 X107.297 Y109.627 E2.57763
G1 X107.383 Y110.63 E2.59103
G1 X108.634 Y112.509 E2.62106
G1 X109.399 Y112.428 E2.63129
G1 X109.808 Y112.726 E2.63803
G1 X110.781 Y112.467 E2.65142
G1 X111.149 Y112.734 E2.65747
G1 X111.925 Y111.748 E2.67416
G1 X112.633 Y110.646 E2.69159
G1 X112.465 Y109.361 E2.70883
;MESH:
G0 F7200 X110.577 Y110
;TYPE:WALL-INNER
G1 F600 X110.288 Y110.5 E2.71843
G1 X109.712 Y110.5 E2.72801
G1 X109.423 Y110 E2.73762
G1 X109.712 Y109.5 E2.74722
G1 X110.288 Y109.5 E2.7568
G1 X110.577 Y110 E2.7664
G0 F7200 X111.039 Y110
;TYPE:WALL-OUTER
G1 F600 X110.52 Y110.9 E2.78368
G1 X109.48 Y110.9 E2.80098
G1 X108.961 Y110 E2.81825
G1 X109.48 Y109.1 E2.83553
G1 X110.52 Y109.1 E2.85283
G1 X111.039 Y110 E2.8701
G0 F7200 X110.939 Y110.173
G0 X110.518 Y109.977
G0 X110.447 Y109.887
;TYPE:SKIN
G1 F600 X109.89 Y110.444 E2.87665
G0 F7200 X109.694 Y110.357
G1 F600 X110.343 Y109.708 E2.88429
G0 F7200 X110.213 Y109.554
G1 F600 X109.59 Y110.178 E2.89162
G0 F7200 X109.486 Y109.999
G1 F600 X109.931 Y109.554 E2.89685
G0 F7200 X110.37 Y110.247
G1 F600 X110.172 Y110.444 E2.89917
;;retract;;
G1 F6000 E-5.10083
;MESH:NONMESH
G0 F600 X110.172 Y110.444 Z0.5
G0 F7200 X109.889 Y111.742
G0 X108.388 Y109.402
G0 X106.554 Y106.54
G0 X107.198 Y107.198
;TIME_ELAPSED:23.460304

;LAYER:4
;TYPE:SUPPORT-INTERFACE
G1 F6000 E2.89917
G1 F1999.8 X108.509 Y108.509 E2.92384
G0 F7200 X107.898 Y109.595
G1 F1999.8 X106.538 Y108.235 E2.94943
G0 F7200 X106.16 Y109.554
G1 F1999.8 X110.505 Y113.899 E3.03118
G0 F7200 X111.425 Y113.122
G1 F1999.8 X110.397 Y112.094 E3.05052
G0 F7200 X111.551 Y111.551
G1 F1999.8 X112.818 Y112.818 E3.07436
G0 F7200 X113.516 Y111.819
G1 F1999.8 X112.216 Y110.519 E3.09882
G0 F7200 X113.982 Y110.587
G1 F1999.8 X111.876 Y108.482 E3.13843
G0 F7200 X112.982 Y107.891
G1 F1999.8 X113.581 Y108.49 E3.1497
;;retract;;
G1 F6000 E-4.8503
G0 F7200 X114.209 Y108.256
G0 X113.242 Y107.237
G0 X112.222 Y107.183
G0 X110.229 Y108.259
G0 X109.606 Y107.909
G1 F6000 E3.1497
G1 F1999.8 X108.079 Y106.382 E3.17843
G0 F7200 X109.785 Y106.391
G1 F1999.8 X109.974 Y106.58 E3.18199
;;retract;;
G1 F6000 E-4.81801
G0 F7200 X110.601 Y106.346
G0 X109.695 Y105.488
G0 X108.675 Y105.434
G0 X107.967 Y105.645
G0 X107.128 Y106.235
G0 X106.308 Y107.008
G0 X105.751 Y107.974
G0 X105.475 Y108.961
G0 X105.231 Y110.186
G0 X105.816 Y111.767
G0 X106.442 Y111.534
G1 F6000 E3.18199
G1 F1999.8 X108.096 Y113.187 E3.2131
;;retract;;
G1 F6000 E-4.7869
;MESH:
G0 F7200 X107.849 Y113.84
G0 X108.681 Y114.516
G0 X111.032 Y114.597
G0 X112.503 Y114.013
G0 X113.342 Y113.423
G0 X114.059 Y112.355
G0 X114.498 Y111.223
G0 X114.774 Y110.236
G0 X114.652 Y109.276
G0 X114.302 Y108.336
G0 X113.242 Y107.237
G0 X112.222 Y107.183
G0 X111.383 Y107.773
G0 X111.186 Y108.563
G0 X110.577 Y110
;TYPE:WALL-INNER
G1 F6000 E3.2131
G1 F600 X110.288 Y110.5 E3.2227
G1 X109.712 Y110.5 E3.23228
G1 X109.423 Y110 E3.24188
G1 X109.712 Y109.5 E3.25149
G1 X110.288 Y109.5 E3.26107
G1 X110.577 Y110 E3.27067
G0 F7200 X111.039 Y110
;TYPE:WALL-OUTER
G1 F600 X110.52 Y110.9 E3.28795
G1 X109.48 Y110.9 E3.30524
G1 X108.961 Y110 E3.32252
G1 X109.48 Y109.1 E3.3398
G1 X110.52 Y109.1 E3.35709
G1 X111.039 Y110 E3.37437
G0 F7200 X110.939 Y110.173
G0 X110.518 Y109.977
G0 X110.44 Y109.875
;TYPE:SKIN
G1 F600 X110.12 Y109.554 E3.37814
G0 F7200 X109.837 Y109.554
G1 F600 X110.428 Y110.146 E3.3851
G0 F7200 X110.325 Y110.325
G1 F600 X109.673 Y109.673 E3.39276
G0 F7200 X109.57 Y109.853
G1 F600 X110.161 Y110.444 E3.39971
G0 F7200 X109.878 Y110.444
G1 F600 X109.558 Y110.124 E3.40348
;;retract;;
G1 F6000 E-4.59652
;MESH:NONMESH
G0 F600 X109.558 Y110.124 Z0.6
G0 F7200 X110.229 Y108.259
G0 X110.862 Y107.051
G0 X110.508 Y106.098
G0 X109.695 Y105.488
G0 X108.675 Y105.434
G0 X107.967 Y105.645
G0 X107.128 Y106.235
G0 X106.308 Y107.008
G0 X105.751 Y107.974
G0 X105.475 Y108.961
G0 X106.368 Y109.157
;TIME_ELAPSED:30.876549

;LAYER:5
;TYPE:SUPPORT-INTERFACE
G1 F6000 E3.40348
G1 F1999.8 X109.347 Y106.178 E3.45953
G0 F7200 X110.558 Y106.664
G1 F1999.8 X109.002 Y108.22 E3.4888
G0 F7200 X108.601 Y108.621
G1 F1999.8 X106.41 Y110.812 E3.53002
G0 F7200 X106.929 Y111.99
G1 F1999.8 X108.213 Y110.706 E3.55418
G0 F7200 X108.9 Y111.717
G1 F1999.8 X107.611 Y113.006 E3.57843
G0 F7200 X108.722 Y113.591
G1 F1999.8 X110.415 Y111.898 E3.61029
G0 F7200 X110.229 Y113.781
G1 F1999.8 X113.936 Y110.075 E3.68002
G0 F7200 X113.593 Y108.72
G1 F1999.8 X112.026 Y110.287 E3.70951
G0 F7200 X111.616 Y109
G1 F1999.8 X112.75 Y107.867 E3.73083
G0 F7200 X111.796 Y107.123
G1 F1999.8 X110.808 Y108.111 E3.74942
;;retract;;
G1 F6000 E-4.25058
G0 F7200 X111.611 Y106.289
G0 X113.933 Y107.841
G0 X114.573 Y109.236
G0 X114.724 Y110.222
G0 X114.505 Y111.2
G0 X114.073 Y112.346
G0 X113.526 Y112.713
G0 X112.797 Y112.91
G1 F6000 E3.74942
G1 F1999.8 X112.553 Y113.155 E3.75402
;MESH:
G0 F7200 X110.577 Y110
;TYPE:WALL-INNER
G1 F600 X110.288 Y110.5 E3.76363
G1 X109.712 Y110.5 E3.77321
G1 X109.423 Y110 E3.78281
G1 X109.712 Y109.5 E3.79241
