;FLAVOR:Marlin
;TIME:3897
;Filament used:0.523719m
;Layer height: 0.1
;MINX:98.618
;MINY:102.93
;MINZ:0.1
;MAXX:120.67
;MAXY:117.07
;MAXZ:11.8
                               
;Creality Print GCode Generated by CXEngine:NO_MAGE_VERSION_GIT_HEAD_BRANCH
;CXEngine Release Time:2022-09-30 09:53:04
;Gcode Generated Time:2023-01-14 05:42:10
;----------Machine Config--------------
;Machine Name:Creality Ender-3
;Machine Height:250
;Machine Width:220
;Machine Depth:220
;Material name:PLA
;Number of Extruders:1
;ExtruderParams[0] Nozzle Diameter1000
;----------Profile Config---------------
;Engine Version:275f99b
;Engine Release Time:2022-09-30 09:42:18
;Layer Height:0.1
;Wall Thickness:0.8
;Top/Bottom Thickness:0.5
;Out Wall Line Width:0.4
;Inner Wall Line Width:0.4
;Inital Layer Height:100
;Wall Line Count:2
;Infill Line Distance:4
;Infill Pattern:grid
;Infill Sparse Density:20
;Infill Wipe Distance:0
;Print Temperature:200
;Bed Temperature:60
;Support Enable:true
;Support Density:0
;Support Angle:60
;Adhesion Type:none
;machine is belt:false
;machine belt offset:10
;machine belt offset Y:0
;Raft Base Line Spacing:1.6
;Wait Heatup Sync:true
;----------Shell Config----------------
;Outer Wall Wipe Distance:200
;Outer Inset First:false
;Infill Before Walls:false
;Infill Overlap:0.16
;Fill Gaps Between Walls:everywhere
;Minimum Infill Area:1
;Top Surface Skin Layer:0
;Top Layers:4
;Z Seam Alignment:sharpest_corner
;Seam Corner Preference:z_seam_corner_inner
;Z Seam X:110
;Z Seam Y:110
;Horizontal Expansion:0
;Top/Bottom Pattern:zigzag
;Ironing Pattern:zigzag
;Vase Model:false
;----------Support Config----------------
;Support Type:everywhere
;Support Pattern:zigzag
;Support Infill Layer Thickness:0.1
;Minimum Support Area:5
;Enable Support Roof:true
;Support Roof Thickness:0.8
;Support Roof Pattern:lines
;Connect Support Lines:0
;Connect Support ZigZags:0
;Minimum Support X/Y Distance:0.2
;Support Line Distance:0
; ---------PrintSpeed & Travel----------
;Enable Print Cool:true
;Avoid Printed Parts Traveling:true
;Enable Retraction:true
;Retraction Distance:8
;Retraction Speed:100
;Retraction Prime Speed:100
;Maximum Retraction Count:100
;Minimum Extrusion Distance Window:1
;Z Hop When Retracted:false
;Z Hop Height:0.2
;Retract Before Outer Wall:true
;Print Speed:50
;Infill Speed:50

;Prime Tower Speed:50
;Travel Speed:120
;Initial Layer Speed:25
;Skirt/Brim Speed:25
;Combing Mode:infill
; --------SpecialModel&Mesh Fixes--------
;Union Overlapping Volum:true
;Remove All Holes:false
;Maximum Travel Resolution:0.6
;Maximum Deviation:0.05
;Maximum Model Angle:0.872665
;IS Mold Print:false
;Make Overhang Printable:false
;Enable Coasting:false
;Coasting Volumes:0.06
;Coasting Speed:0.9
;Raft AirGap:0.25
;Layer0 ZOverLap:0.13
;---------------------End of Head--------------------------
M140 S60
M105
M104 S200
M105
M109 S200
M105
M190 S60
M82 ;absolute extrusion mode
M220 S100 ;Reset Feedrate
M221 S100 ;Reset Flowrate

G28 ;Home

G92 E0 ;Reset Extruder
G1 Z2.0 F3000 ;Move Z Axis up
G1 X10.1 Y20 Z0.28 F5000.0 ;Move to start position
G1 X10.1 Y145.0 Z0.28 F1500.0 E15 ;Draw the first line
G1 X10.4 Y145.0 Z0.28 F5000.0 ;Move to side a little
G1 X10.4 Y20 Z0.28 F1500.0 E30 ;Draw the second line
G92 E0  ;Reset Extruder
G1 E-1.0000 F1800 ;Retract a bit
G1 Z2.0 F3000 ;Move Z Axis up
G1 E0.0000 F1800 

G92 E0
G92 E0
G1 F6000 E-8

;LAYER_COUNT:118

;LAYER:0
M107
G0 F3600 X101.721 Y105.851 Z0.1
;TYPE:SUPPORT
G1 F6000 E0
G1 F1500 X102.425 Y105.339 E0.01274
G1 X103.293 Y105.339 E0.02544
G1 X104.332 Y106.11 E0.04438
G1 X105.707 Y106.509 E0.06533
G1 X107.321 Y107.489 E0.09296
G1 X108.042 Y108.515 E0.11131
G1 X108.383 Y109.624 E0.12829
G1 X108.222 Y110.856 E0.14648
G1 X107.534 Y111.357 E0.15893
G1 X106.666 Y111.357 E0.17163
G1 X105.959 Y110.842 E0.18443
G1 X105.509 Y109.562 E0.20429
G1 X104.166 Y108.805 E0.22685
G1 X103.721 Y109.416 E0.23791
G1 X104.064 Y111.041 E0.26222
G1 X104.695 Y112.396 E0.28409
G1 X104.431 Y113.312 E0.29804
G1 X103.729 Y113.823 E0.31075
G1 X102.869 Y113.823 E0.32334
G1 X101.982 Y113.067 E0.34039
G1 X101.22 Y111.12 E0.37099
G1 X100.985 Y109.873 E0.38956
G1 X101.009 Y108.662 E0.40729
G1 X101.352 Y107.033 E0.43165
G1 X101.721 Y105.851 E0.44977
;;retract;;
G1 F6000 E-7.55023
G0 F3600 X101.209 Y105.148
G0 X102.142 Y104.471
G0 X103.579 Y104.472
G0 X106.061 Y105.706
G0 X107.928 Y106.841
G0 X108.42 Y107.569
G0 X112.445 Y108.921
G0 X113.273 Y109.189
G1 F6000 E0.44977
G1 F1500 X113.978 Y108.676 E0.46253
G1 X114.846 Y108.676 E0.47523
G1 X115.551 Y109.189 E0.48799
G1 X115.82 Y110.015 E0.5007
G1 X115.551 Y110.841 E0.51342
G1 X114.846 Y111.354 E0.52618
G1 X113.978 Y111.354 E0.53888
G1 X113.273 Y110.841 E0.55164
G1 X113.004 Y110.015 E0.56435
G1 X113.273 Y109.189 E0.57707
;;retract;;
G1 F6000 E-7.42293
;MESH:
G0 F3600 X112.445 Y108.921
G0 X113.695 Y107.808
G0 X115.129 Y107.808
G0 X116.289 Y108.653
G0 X116.732 Y110.015
G0 X116.348 Y112.485
G0 X117.321 Y113.906
;TYPE:WALL-INNER
G1 F6000 E0.57707
G1 F1500 X117.182 Y114.557 E0.58924
G1 X117.339 Y115.069 E0.59904
G1 X117.376 Y115.192 E0.60139
G1 X117.593 Y115.4 E0.60689
G1 X117.376 Y115.4 E0.6076
G1 X117.247 Y115.4 E0.60951
G1 X112.753 Y115.4 E0.69172
G1 X112.624 Y115.4 E0.69408
G1 X112.407 Y115.4 E0.69805
G1 X112.624 Y115.192 E0.70029
G1 X112.661 Y115.069 E0.70219
G1 X112.818 Y114.557 E0.71198
G1 X112.679 Y113.906 E0.72416
G1 X112.52 Y113.725 E0.72857
G1 X112.264 Y113.434 E0.73566
G1 X112.239 Y113.406 E0.73635
G1 X111.985 Y113.317 E0.74127
G1 X111.661 Y113.203 E0.74755
G1 X111.339 Y113.203 E0.75344
G1 X110.918 Y113.351 E0.76161
G1 X110.761 Y113.406 E0.76465
G1 X110.6 Y113.589 E0.76911
G1 X110.6 Y113.406 E0.76954
G1 X110.6 Y113.239 E0.77186
G1 X110.6 Y110.863 E0.81532
G1 X110.6 Y110.342 E0.82485
G1 X110.6 Y109.666 E0.83722
G1 X110.6 Y109.134 E0.84695
G1 X110.6 Y106.744 E0.89067
G1 X110.6 Y106.652 E0.89235
G1 X110.6 Y106.407 E0.89684
G1 X110.856 Y106.652 E0.89989
G1 X110.945 Y106.675 E0.90133
G1 X111.5 Y106.821 E0.91183
G1 X111.971 Y106.697 E0.92074
G1 X112.144 Y106.652 E0.92401
G1 X112.26 Y106.541 E0.92694
G1 X112.6 Y106.215 E0.93556
G1 X112.624 Y106.192 E0.93617
G1 X112.818 Y105.557 E0.94831
G1 X112.691 Y104.964 E0.95941
G1 X112.679 Y104.906 E0.96049
G1 X112.414 Y104.605 E0.96783
G1 X112.679 Y104.605 E0.96921
G1 X112.739 Y104.605 E0.9702
G1 X117.256 Y104.614 E1.05283
G1 X117.321 Y104.614 E1.05402
G1 X117.577 Y104.615 E1.0587
G1 X117.321 Y104.906 E1.06238
G1 X117.308 Y104.969 E1.06343
G1 X117.182 Y105.557 E1.07443
G1 X117.376 Y106.192 E1.08658
G1 X117.404 Y106.219 E1.08729
G1 X117.733 Y106.534 E1.09562
G1 X117.856 Y106.652 E1.09874
G1 X118.029 Y106.697 E1.10201
G1 X118.5 Y106.821 E1.11092
G1 X119.053 Y106.675 E1.12138
G1 X119.144 Y106.652 E1.1231
G1 X119.398 Y106.409 E1.12953
G1 X119.398 Y106.652 E1.13056
G1 X119.398 Y106.746 E1.13203
G1 X119.395 Y109.111 E1.17529
G1 X119.395 Y109.658 E1.1853
G1 X119.394 Y110.334 E1.19767
G1 X119.394 Y110.908 E1.20817
G1 X119.39 Y113.232 E1.25068
G1 X119.39 Y113.406 E1.25386
G1 X119.389 Y113.577 E1.25699
G1 X119.239 Y113.406 E1.25838
G1 X119.075 Y113.349 E1.26075
G1 X118.661 Y113.203 E1.26878
G1 X118.339 Y113.203 E1.27467
G1 X118.016 Y113.317 E1.28093
G1 X117.761 Y113.406 E1.28588
G1 X117.743 Y113.426 E1.28637
G1 X117.482 Y113.723 E1.2936
G1 X117.321 Y113.906 E1.29806
G0 F3600 X117.69 Y114.092
;TYPE:WALL-OUTER
G1 F600 X117.595 Y114.539 E1.30642
G1 X117.728 Y114.975 E1.31476
G1 X118.058 Y115.291 E1.32312
G1 X118.474 Y115.401 E1.33099
G1 X118.5 Y115.407 E1.33148
G1 X118.526 Y115.401 E1.33196
G1 X118.942 Y115.291 E1.33983
G1 X119.272 Y114.975 E1.34819
G1 X119.39 Y114.589 E1.35558
G1 X119.405 Y114.539 E1.35653
G1 X119.39 Y114.466 E1.35789
G1 X119.31 Y114.092 E1.36489
G1 X119.008 Y113.749 E1.37325
G1 X118.593 Y113.603 E1.3813
G1 X118.407 Y113.603 E1.3847
G1 X117.992 Y113.749 E1.39275
G1 X117.69 Y114.092 E1.40111
G0 F3600 X117.649 Y114.288
G0 X117.218 Y114.197
;;retract;;
G1 F6000 E-6.59889
G0 F3600 X118.49 Y114.502
G0 X111.508 Y114.494
G0 X112.31 Y114.092
G1 F6000 E1.40111
G1 F600 X112.008 Y113.749 E1.40947
G1 X111.593 Y113.603 E1.41752
G1 X111.407 Y113.603 E1.42092
G1 X110.992 Y113.749 E1.42897
G1 X110.69 Y114.092 E1.43733
G1 X110.599 Y114.517 E1.44528
G1 X110.595 Y114.539 E1.44569
G1 X110.599 Y114.554 E1.44597
G1 X110.728 Y114.975 E1.45403
G1 X111.058 Y115.291 E1.46238
G1 X111.474 Y115.401 E1.47026
G1 X111.5 Y115.407 E1.47074
G1 X111.526 Y115.401 E1.47123
G1 X111.942 Y115.291 E1.4791
G1 X112.272 Y114.975 E1.48746
G1 X112.405 Y114.539 E1.4958
G1 X112.31 Y114.092 E1.50416
G0 F3600 X112.178 Y113.942
G0 X112.509 Y113.653
;;retract;;
G1 F6000 E-6.49584
G0 F3600 X113.264 Y112.233
G0 X115.129 Y112.222
G0 X116.289 Y111.377
G0 X116.732 Y110.015
G0 X116.289 Y108.653
G0 X115.129 Y107.808
G0 X113.695 Y107.808
G0 X112.535 Y108.653
G0 X111.5 Y105.51
G0 X111.5 Y106.407
G1 F6000 E1.50416
G1 F600 X111.942 Y106.291 E1.51252
G1 X112.272 Y105.975 E1.52088
G1 X112.405 Y105.539 E1.52922
G1 X112.31 Y105.092 E1.53757
G1 X112.008 Y104.749 E1.54593
G1 X111.593 Y104.603 E1.55398
G1 X111.407 Y104.603 E1.55739
G1 X110.992 Y104.749 E1.56543
G1 X110.69 Y105.092 E1.57379
G1 X110.599 Y105.517 E1.58174
G1 X110.595 Y105.539 E1.58215
G1 X110.599 Y105.554 E1.58244
G1 X110.728 Y105.975 E1.59049
G1 X111.058 Y106.291 E1.59885
G1 X111.5 Y106.407 E1.60721
G0 F3600 X111.693 Y106.357
G0 X111.803 Y106.783
G0 X112.476 Y106.766
;TYPE:WALL-INNER
G1 F1500 X112.355 Y106.878 E1.60956
G1 X112.224 Y106.999 E1.61246
G1 X111.979 Y107.226 E1.61857
G1 X111.564 Y107.76 E1.63094
G1 X111.242 Y108.355 E1.64332
G1 X111.022 Y108.997 E1.65574
G1 X110.998 Y109.141 E1.65841
G1 X110.912 Y109.666 E1.66708
G1 X110.913 Y110.342 E1.67676
G1 X110.998 Y110.856 E1.68527
G1 X111.024 Y111.01 E1.68813
G1 X111.246 Y111.652 E1.70055
G1 X111.568 Y112.247 E1.71293
G1 X111.985 Y112.78 E1.72531
G1 X112.236 Y113.011 E1.73155
G1 X112.434 Y113.193 E1.7358
G1 X112.484 Y113.239 E1.73677
G1 X112.808 Y113.451 E1.74292
G1 X113.051 Y113.609 E1.74823
G1 X113.672 Y113.881 E1.76063
G1 X114.328 Y114.046 E1.773
G1 X115.003 Y114.102 E1.78539
G1 X115.679 Y114.045 E1.7978
G1 X116.335 Y113.879 E1.81018
G1 X116.956 Y113.605 E1.8226
G1 X117.193 Y113.45 E1.82778
G1 X117.524 Y113.234 E1.83404
G1 X117.565 Y113.196 E1.83485
G1 X117.763 Y113.013 E1.8391
G1 X118.021 Y112.774 E1.84554
G1 X118.436 Y112.24 E1.85791
G1 X118.758 Y111.645 E1.87028
G1 X118.978 Y111.003 E1.8827
G1 X118.995 Y110.901 E1.88459
G1 X119.088 Y110.334 E1.89388
G1 X119.087 Y109.658 E1.9034
G1 X118.998 Y109.119 E1.91225
G1 X118.976 Y108.99 E1.91465
G1 X118.754 Y108.348 E1.92707
G1 X118.432 Y107.753 E1.93945
G1 X118.015 Y107.22 E1.95183
G1 X117.777 Y107.002 E1.95773
G1 X117.646 Y106.881 E1.96064
G1 X117.516 Y106.761 E1.96318
G1 X117.135 Y106.512 E1.97063
G1 X116.949 Y106.391 E1.97468
G1 X116.328 Y106.119 E1.98709
G1 X115.672 Y105.954 E1.99946
G1 X114.997 Y105.898 E2.01185
G1 X114.321 Y105.955 E2.02426
G1 X113.665 Y106.121 E2.03664
G1 X113.044 Y106.395 E2.04906
G1 X112.871 Y106.508 E2.05284
G1 X112.476 Y106.766 E2.06052
G0 F3600 X112.723 Y107.082
;TYPE:WALL-OUTER
G1 F1500 X112.275 Y107.497 E2.07169
G1 X111.9 Y107.979 E2.08286
G1 X111.61 Y108.516 E2.09403
G1 X111.411 Y109.095 E2.10523
G1 X111.312 Y109.698 E2.1164
G1 X111.313 Y110.309 E2.12758
G1 X111.413 Y110.911 E2.13874
G1 X111.613 Y111.49 E2.14995
G1 X111.904 Y112.027 E2.16112
G1 X112.28 Y112.508 E2.17229
G1 X112.73 Y112.922 E2.18348
G1 X113.242 Y113.256 E2.19466
G1 X113.802 Y113.501 E2.20584
G1 X114.394 Y113.65 E2.21701
G1 X115.003 Y113.701 E2.22819
G1 X115.612 Y113.649 E2.23937
G1 X116.204 Y113.499 E2.25054
G1 X116.765 Y113.252 E2.26175
G1 X117.277 Y112.918 E2.27294
G1 X117.725 Y112.503 E2.28411
G1 X118.1 Y112.021 E2.29528
G1 X118.39 Y111.484 E2.30644
G1 X118.589 Y110.905 E2.31764
G1 X118.688 Y110.302 E2.32882
G1 X118.687 Y109.691 E2.34
G1 X118.587 Y109.089 E2.35116
G1 X118.387 Y108.51 E2.36237
G1 X118.096 Y107.973 E2.37354
G1 X117.72 Y107.492 E2.38471
G1 X117.27 Y107.078 E2.3959
G1 X116.758 Y106.744 E2.40708
G1 X116.198 Y106.499 E2.41826
G1 X115.606 Y106.35 E2.42943
G1 X114.997 Y106.299 E2.44061
G1 X114.388 Y106.351 E2.45179
G1 X113.796 Y106.501 E2.46296
G1 X113.235 Y106.748 E2.47417
G1 X112.723 Y107.082 E2.48535
G0 F3600 X112.577 Y107.218
G0 X112.278 Y106.894
;;retract;;
G1 F6000 E-5.51465
G0 F3600 X113.258 Y107.771
G0 X118.495 Y105.509
G0 X118.5 Y106.407
G1 F6000 E2.48535
G1 F600 X118.942 Y106.291 E2.49371
G1 X119.272 Y105.975 E2.50207
G1 X119.4 Y105.558 E2.51005
G1 X119.405 Y105.539 E2.51041
G1 X119.4 Y105.512 E2.51091
G1 X119.31 Y105.092 E2.51877
G1 X119.008 Y104.749 E2.52713
G1 X118.631 Y104.616 E2.53444
G1 X118.593 Y104.603 E2.53518
G1 X118.407 Y104.603 E2.53858
G1 X118.37 Y104.616 E2.5393
G1 X117.992 Y104.749 E2.54663
G1 X117.69 Y105.092 E2.55499
G1 X117.595 Y105.539 E2.56335
G1 X117.728 Y105.975 E2.57169
G1 X118.058 Y106.291 E2.58005
G1 X118.5 Y106.407 E2.5884
G0 F3600 X118.693 Y106.357
G0 X118.803 Y106.783
;;retract;;
G1 F6000 E-5.4116
G0 F3600 X119.8 Y104.22
G1 F6000 E2.5884
G1 F1500 X119.799 Y105.511 E2.61202
G1 X119.799 Y105.539 E2.61253
G1 X119.799 Y105.559 E2.61289
G1 X119.789 Y114.464 E2.77579
G1 X119.789 Y114.539 E2.77714
G1 X119.789 Y114.592 E2.77809
G1 X119.787 Y115.8 E2.80019
G1 X118.527 Y115.8 E2.82324
G1 X118.5 Y115.8 E2.82373
G1 X118.473 Y115.8 E2.82421
G1 X111.527 Y115.8 E2.95128
G1 X111.5 Y115.8 E2.95177
G1 X111.473 Y115.8 E2.95226
G1 X110.2 Y115.8 E2.97555
G1 X110.2 Y114.555 E2.99832
G1 X110.2 Y114.539 E2.99861
G1 X110.2 Y114.516 E2.99903
G1 X110.2 Y105.555 E3.16295
G1 X110.2 Y105.539 E3.16324
G1 X110.2 Y105.516 E3.16366
G1 X110.2 Y104.2 E3.18774
G1 X118.367 Y104.217 E3.33714
G1 X118.407 Y104.217 E3.33786
G1 X118.593 Y104.217 E3.34114
G1 X118.634 Y104.217 E3.34188
G1 X119.8 Y104.22 E3.36321
G0 F3600 X119.8 Y104.42
G0 X118.855 Y106.976
;TYPE:SKIN
G1 F600 X118.499 Y107.069 E3.36994
G1 X118.342 Y107.028 E3.3729
G1 X119.155 Y107.842 E3.39395
G1 X119.155 Y108.407 E3.40429
G1 X119.154 Y108.772 E3.41096
G1 X118.974 Y108.25 E3.42106
G0 F3600 X118.945 Y108.197
G1 F600 X119.155 Y108.407 E3.4265
G0 F3600 X119.156 Y107.277
G1 F600 X118.855 Y106.976 E3.43428
G1 X119.156 Y106.896 E3.43998
G0 F3600 X117.086 Y104.853
G1 F600 X116.732 Y104.853 E3.44646
G1 X116.165 Y104.851 E3.45683
G1 X116.957 Y105.643 E3.47732
G1 X117.135 Y106.227 E3.48849
G1 X117.062 Y106.178 E3.49009
G1 X116.82 Y106.072 E3.49493
G1 X115.599 Y104.851 E3.52652
G1 X115.032 Y104.85 E3.53689
G1 X115.96 Y105.778 E3.5609
G1 X115.711 Y105.715 E3.56559
G1 X115.298 Y105.681 E3.57317
G1 X114.465 Y104.849 E3.59471
G1 X113.899 Y104.848 E3.60507
G1 X114.729 Y105.678 E3.62654
G1 X114.28 Y105.717 E3.63478
G1 X114.218 Y105.732 E3.63595
G1 X113.332 Y104.847 E3.65886
G1 X112.911 Y104.846 E3.66656
G1 X112.95 Y105.03 E3.67
G1 X113.766 Y105.846 E3.69111
G1 X113.586 Y105.892 E3.69451
G1 X113.35 Y105.996 E3.69923
G1 X113.03 Y105.676 E3.7075
G1 X112.898 Y106.109 E3.71579
G1 X112.958 Y106.169 E3.71734
G1 X112.928 Y106.184 E3.71795
G1 X112.863 Y106.226 E3.71937
;;retract;;
G1 F6000 E-4.28063
G0 F3600 X113.652 Y107.515
G0 X118.49 Y105.502
G0 X117.024 Y105.145
G1 F6000 E3.71937
G1 F600 X116.732 Y104.853 E3.72692
;;retract;;
G1 F6000 E-4.27308
G0 F3600 X116.735 Y103.343
G0 X111.505 Y105.509
G0 X111.8 Y107.063
G1 F6000 E3.72692
G1 F600 X111.911 Y106.961 E3.72968
G1 X111.575 Y107.049 E3.73603
G1 X111.708 Y107.182 E3.73947
G1 X111.46 Y107.5 E3.74685
G1 X110.862 Y106.902 E3.76232
G1 X110.838 Y106.896 E3.76277
G1 X110.838 Y107.444 E3.7728
G1 X111.242 Y107.848 E3.78325
G1 X111.044 Y108.215 E3.79088
G1 X110.838 Y108.01 E3.79619
G1 X110.838 Y108.576 E3.80655
G0 F3600 X110.893 Y108.63
G1 F600 X110.839 Y108.786 E3.80957
G0 F3600 X110.839 Y111.405
G1 F600 X110.839 Y111.971 E3.81992
G1 X111.804 Y112.935 E3.84487
G1 X111.809 Y112.941 E3.84502
G0 F3600 X111.909 Y113.035
G1 F600 X111.829 Y112.961 E3.84701
G1 X111.9 Y113.031 E3.84883
G1 X111.702 Y112.962 E3.85267
G1 X111.297 Y112.962 E3.86008
G1 X111.273 Y112.97 E3.86054
G1 X110.839 Y112.536 E3.87177
G1 X110.839 Y113.102 E3.88212
G0 F3600 X110.839 Y113.123
G1 F600 X110.855 Y113.117 E3.88244
G0 F3600 X110.942 Y111.507
