;FLAVOR:Marlin
;TIME:422
;Filament used:0.0544794m
;Layer height: 0.1
;MINX:104.904
;MINY:104.896
;MINZ:0.1
;MAXX:115.262
;MAXY:114.847
;MAXZ:7.5
                            
;Creality Print GCode Generated by CXEngine:NO_MAGE_VERSION_GIT_HEAD_BRANCH
;CXEngine Release Time:2022-09-30 09:53:04
;Gcode Generated Time:2023-01-14 05:44:07
;----------Machine Config--------------
;Machine Name:Creality Ender-3
;Machine Height:250
;Machine Width:220
;Machine Depth:220
;Material name:PLA
;Number of Extruders:1
;ExtruderParams[0] Nozzle Diameter1000
;----------Profile Config---------------
;Engine Version:275f99b
;Engine Release Time:2022-09-30 09:42:18
;Layer Height:0.1
;Wall Thickness:0.8
;Top/Bottom Thickness:0.5
;Out Wall Line Width:0.4
;Inner Wall Line Width:0.4
;Inital Layer Height:100
;Wall Line Count:2
;Infill Line Distance:4
;Infill Pattern:grid
;Infill Sparse Density:20
;Infill Wipe Distance:0
;Print Temperature:200
;Bed Temperature:60
;Support Enable:true
;Support Density:0
;Support Angle:60
;Adhesion Type:none
;machine is belt:false
;machine belt offset:10
;machine belt offset Y:0
;Raft Base Line Spacing:1.6
;Wait Heatup Sync:true
;----------Shell Config----------------
;Outer Wall Wipe Distance:200
;Outer Inset First:false
;Infill Before Walls:false
;Infill Overlap:0.16
;Fill Gaps Between Walls:everywhere
;Minimum Infill Area:1
;Top Surface Skin Layer:0
;Top Layers:4
;Z Seam Alignment:sharpest_corner
;Seam Corner Preference:z_seam_corner_inner
;Z Seam X:110
;Z Seam Y:110
;Horizontal Expansion:0
;Top/Bottom Pattern:zigzag
;Ironing Pattern:zigzag
;Vase Model:false
;----------Support Config----------------
;Support Type:everywhere
;Support Pattern:zigzag
;Support Infill Layer Thickness:0.1
;Minimum Support Area:5
;Enable Support Roof:true
;Support Roof Thickness:0.8
;Support Roof Pattern:lines
;Connect Support Lines:0
;Connect Support ZigZags:0
;Minimum Support X/Y Distance:0.2
;Support Line Distance:0
; ---------PrintSpeed & Travel----------
;Enable Print Cool:true
;Avoid Printed Parts Traveling:true
;Enable Retraction:true
;Retraction Distance:8
;Retraction Speed:100
;Retraction Prime Speed:100
;Maximum Retraction Count:100
;Minimum Extrusion Distance Window:1
;Z Hop When Retracted:false
;Z Hop Height:0.2
;Retract Before Outer Wall:true
;Print Speed:50
;Infill Speed:50

;Prime Tower Speed:50
;Travel Speed:120
;Initial Layer Speed:25
;Skirt/Brim Speed:25
;Combing Mode:infill
; --------SpecialModel&Mesh Fixes--------
;Union Overlapping Volum:true
;Remove All Holes:false
;Maximum Travel Resolution:0.6
;Maximum Deviation:0.05
;Maximum Model Angle:0.872665
;IS Mold Print:false
;Make Overhang Printable:false
;Enable Coasting:false
;Coasting Volumes:0.06
;Coasting Speed:0.9
;Raft AirGap:0.25
;Layer0 ZOverLap:0.13
;---------------------End of Head--------------------------
M140 S60
M105
M104 S200
M105
M109 S200
M105
M190 S60
M82 ;absolute extrusion mode
M220 S100 ;Reset Feedrate
M221 S100 ;Reset Flowrate

G28 ;Home

G92 E0 ;Reset Extruder
G1 Z2.0 F3000 ;Move Z Axis up
G1 X10.1 Y20 Z0.28 F5000.0 ;Move to start position
G1 X10.1 Y145.0 Z0.28 F1500.0 E15 ;Draw the first line
G1 X10.4 Y145.0 Z0.28 F5000.0 ;Move to side a little
G1 X10.4 Y20 Z0.28 F1500.0 E30 ;Draw the second line
G92 E0  ;Reset Extruder
G1 E-1.0000 F1800 ;Retract a bit
G1 Z2.0 F3000 ;Move Z Axis up
G1 E0.0000 F1800 

G92 E0
G92 E0
G1 F6000 E-8

;LAYER_COUNT:75

;LAYER:0
M107
G0 F3600 X107.243 Y106.878 Z0.1
;TYPE:SUPPORT
G1 F6000 E0
G1 F1500 X107.687 Y106.878 E0.0065
G1 X108.343 Y106.026 E0.02223
G1 X109.177 Y106.21 E0.03473
G1 X110.268 Y105.855 E0.05152
G1 X110.746 Y106.202 E0.06017
G1 X111.616 Y106.008 E0.07321
G1 X112.244 Y106.82 E0.08823
G1 X113.185 Y107.171 E0.10293
G1 X113.322 Y107.837 E0.11288
G1 X113.976 Y108.746 E0.12927
G1 X113.84 Y109.163 E0.13569
G1 X114.344 Y109.991 E0.14988
G1 X114.146 Y110.964 E0.16441
G1 X113.641 Y112.099 E0.18259
G1 X112.728 Y112.396 E0.19664
G1 X112.178 Y111.64 E0.21032
G1 X112.691 Y110.488 E0.22877
G1 X112.87 Y109.489 E0.24363
G1 X111.685 Y107.555 E0.27682
G1 X110.595 Y107.157 E0.2938
G1 X109.72 Y107.352 E0.30692
G1 X109.428 Y107.142 E0.31218
G1 X108.318 Y107.572 E0.3296
G1 X107.583 Y108.525 E0.34722
G1 X107.42 Y109.265 E0.35831
G1 X107.087 Y109.506 E0.36432
G1 X107.164 Y110.647 E0.38106
G1 X107.766 Y111.565 E0.39712
G1 X108.409 Y112.454 E0.41318
G1 X109.559 Y112.613 E0.43017
G1 X110.126 Y113.394 E0.44429
G1 X109.577 Y114.149 E0.45795
G1 X108.339 Y114.009 E0.47619
G1 X107.419 Y113.354 E0.49272
G1 X106.734 Y112.412 E0.50976
G1 X106.116 Y111.424 E0.52681
G1 X106.243 Y111.035 E0.5328
G1 X105.689 Y110.189 E0.5476
G1 X106.151 Y109.431 E0.56059
G1 X106.153 Y108.264 E0.57767
G1 X106.594 Y107.771 E0.58735
G1 X107.243 Y106.878 E0.60351
;;retract;;
G1 F6000 E-7.39649
;MESH:
G0 F3600 X107.262 Y106.013
G0 X107.994 Y105.066
G0 X110.421 Y104.896
G0 X111.963 Y105.046
G0 X113.936 Y106.529
G0 X114.934 Y108.596
G0 X115.262 Y109.832
G0 X114.98 Y111.231
G0 X114.275 Y112.802
G0 X112.399 Y113.41
G0 X111.185 Y111.744
G0 X111.854 Y110.229
G0 X111.676 Y109.364
G0 X110.577 Y110
;TYPE:WALL-INNER
G1 F6000 E0.60351
G1 F600 X110.288 Y110.5 E0.61407
G1 X109.712 Y110.5 E0.62461
G1 X109.423 Y110 E0.63517
G1 X109.712 Y109.5 E0.64574
G1 X110.288 Y109.5 E0.65627
G1 X110.577 Y110 E0.66684
G0 F3600 X111.039 Y110
;TYPE:WALL-OUTER
G1 F600 X110.52 Y110.9 E0.68584
G1 X109.48 Y110.9 E0.70487
G1 X108.961 Y110 E0.72387
G1 X109.48 Y109.1 E0.74288
G1 X110.52 Y109.1 E0.7619
G1 X111.039 Y110 E0.78091
G0 F3600 X110.939 Y110.173
G0 X110.518 Y109.977
G0 X110.148 Y109.74
;TYPE:SKIN
G1 F600 X109.849 Y109.74 E0.78638
G1 X109.809 Y109.809 E0.78784
G1 X110.189 Y110.189 E0.79767
G1 X110.15 Y110.259 E0.79913
G1 X109.85 Y110.259 E0.80462
G1 X109.701 Y109.999 E0.8101
G0 F3600 X110.298 Y109.999
G1 F600 X110.148 Y109.74 E0.81558
;;retract;;
G1 F6000 E-7.18442
;MESH:NONMESH
G0 F600 X110.148 Y109.74 Z0.2
G0 F3600 X110.148 Y108.23
G0 X111.104 Y108.266
G0 X111.959 Y109.66
G0 X111.185 Y111.744
G0 X112.399 Y113.41
G0 X114.275 Y112.802
G0 X114.98 Y111.231
G0 X115.262 Y109.832
G0 X114.934 Y108.596
G0 X113.936 Y106.529
G0 X111.963 Y105.046
G0 X110.421 Y104.896
G0 X107.994 Y105.066
G0 X106.922 Y105.918
G0 X106.229 Y106.794
G0 X106.805 Y107.212
;TIME_ELAPSED:11.241885

;LAYER:1
M140 S60
M106 S127.5
;TYPE:SUPPORT
G1 F6000 E0.81558
G1 F2250 X107.72 Y106.864 E0.8286
G1 X108.35 Y106.034 E0.84247
G1 X109.196 Y106.215 E0.85398
G1 X110.276 Y105.863 E0.86909
G1 X110.75 Y106.207 E0.87688
G1 X111.609 Y106.016 E0.88859
G1 X112.241 Y106.848 E0.90249
G1 X113.229 Y107.211 E0.91649
G1 X113.792 Y108.166 E0.93124
G1 X113.837 Y109.213 E0.94518
G1 X114.334 Y110.013 E0.95771
G1 X114.11 Y111.019 E0.97142
G1 X113.594 Y112.164 E0.98813
G1 X112.69 Y112.459 E1.00078
G1 X112.146 Y111.711 E1.01309
G1 X112.668 Y110.552 E1.03
G1 X112.89 Y109.486 E1.04449
G1 X111.698 Y107.547 E1.07477
G1 X110.599 Y107.152 E1.0903
G1 X109.73 Y107.346 E1.10215
G1 X109.42 Y107.138 E1.10712
G1 X108.306 Y107.562 E1.12297
G1 X107.571 Y108.53 E1.13914
G1 X107.421 Y109.25 E1.14893
G1 X107.079 Y109.523 E1.15475
G1 X107.156 Y110.662 E1.16994
G1 X108.406 Y112.48 E1.19929
G1 X109.638 Y112.629 E1.2158
G1 X110.198 Y113.4 E1.22848
G1 X109.655 Y114.148 E1.24078
G1 X108.387 Y114.016 E1.25774
G1 X107.419 Y113.343 E1.27342
G1 X106.741 Y112.41 E1.28877
G1 X106.135 Y111.443 E1.30395
G1 X106.262 Y111.05 E1.30944
G1 X105.7 Y110.202 E1.32298
G1 X106.206 Y109.398 E1.33562
G1 X106.001 Y108.803 E1.34399
G1 X106.662 Y107.893 E1.35895
G1 X106.805 Y107.212 E1.36821
;;retract;;
G1 F6000 E-6.63179
;MESH:
G0 F5400 X106.495 Y106.4
G0 X107.996 Y105.074
G0 X110.428 Y104.903
G0 X111.961 Y105.053
G0 X113.819 Y106.503
G0 X114.651 Y107.913
G0 X115.257 Y109.856
G0 X114.939 Y111.294
G0 X114.226 Y112.869
G0 X112.361 Y113.473
G0 X111.152 Y111.814
G0 X111.836 Y110.284
G0 X111.676 Y109.364
G0 X110.577 Y110
;TYPE:WALL-INNER
G1 F6000 E1.36821
G1 F600 X110.288 Y110.5 E1.37781
G1 X109.712 Y110.5 E1.38739
G1 X109.423 Y110 E1.397
G1 X109.712 Y109.5 E1.4066
G1 X110.288 Y109.5 E1.41618
G1 X110.577 Y110 E1.42578
G0 F5400 X111.039 Y110
;TYPE:WALL-OUTER
G1 F600 X110.52 Y110.9 E1.44306
G1 X109.48 Y110.9 E1.46036
G1 X108.961 Y110 E1.47763
G1 X109.48 Y109.1 E1.49491
G1 X110.52 Y109.1 E1.51221
G1 X111.039 Y110 E1.52948
G0 F5400 X110.939 Y110.173
G0 X110.518 Y109.977
G0 X109.85 Y110.259
;TYPE:SKIN
G1 F600 X110.15 Y110.259 E1.53447
G1 X110.298 Y109.999 E1.53945
G1 X110.207 Y109.844 E1.54244
G1 X109.829 Y110.221 E1.55131
G1 X109.701 Y109.999 E1.55558
G1 X109.849 Y109.74 E1.56054
G1 X110.148 Y109.74 E1.56551
;;retract;;
G1 F6000 E-6.43449
;MESH:NONMESH
G0 F600 X110.148 Y109.74 Z0.3
G0 F5400 X110.148 Y108.23
G0 X111.118 Y108.26
G0 X111.971 Y109.647
G0 X111.836 Y110.284
G0 X111.152 Y111.814
G0 X112.361 Y113.473
G0 X114.226 Y112.869
G0 X114.939 Y111.294
G0 X115.257 Y109.856
G0 X114.651 Y107.913
G0 X113.819 Y106.503
G0 X111.961 Y105.053
G0 X110.428 Y104.903
G0 X107.996 Y105.074
G0 X107.179 Y106.14
G0 X107.399 Y107.025
;TIME_ELAPSED:17.627724

;LAYER:2
M106 S255
;TYPE:SUPPORT
G1 F6000 E1.56551
G1 F3000 X107.803 Y107.025 E1.57088
G1 X108.461 Y106.189 E1.58504
G1 X109.68 Y106.053 E1.60136
G1 X110.758 Y106.384 E1.61636
G1 X111.555 Y106.217 E1.62719
G1 X112.158 Y106.979 E1.64012
G1 X113.05 Y107.339 E1.65292
G1 X113.616 Y108.278 E1.6675
G1 X113.676 Y109.268 E1.6807
G1 X114.126 Y110.027 E1.69244
G1 X113.895 Y110.978 E1.70546
G1 X113.372 Y112.13 E1.72229
G1 X112.477 Y112.422 E1.73482
G1 X111.939 Y111.682 E1.74699
G1 X112.466 Y110.523 E1.76393
G1 X112.683 Y109.558 E1.77709
G1 X111.539 Y107.712 E1.80598
G1 X110.318 Y107.55 E1.82236
G1 X108.961 Y107.701 E1.84053
G1 X108.468 Y107.701 E1.84709
G1 X107.733 Y108.638 E1.86293
G1 X107.593 Y109.33 E1.87233
G1 X107.26 Y109.572 E1.8778
G1 X107.728 Y110.878 E1.89626
G1 X108.37 Y111.885 E1.91215
G1 X108.507 Y112.306 E1.91804
G1 X109.718 Y112.438 E1.93424
G1 X110.271 Y113.2 E1.94677
G1 X109.732 Y113.942 E1.95897
G1 X108.495 Y113.829 E1.9755
G1 X107.577 Y113.192 E1.99036
G1 X106.905 Y112.267 E2.00557
G1 X106.319 Y111.348 E2.02007
G1 X106.428 Y111.012 E2.02477
G1 X105.916 Y110.204 E2.0375
G1 X106.347 Y109.477 E2.04874
G1 X106.354 Y108.35 E2.06374
G1 X106.761 Y107.902 E2.07179
G1 X107.399 Y107.025 E2.08622
;;retract;;
G1 F6000 E-5.91378
;MESH:
G0 F7200 X107.383 Y106.16
G0 X105.49 Y108.014
G0 X104.904 Y110.219
G0 X105.37 Y111.469
G0 X106.189 Y112.762
G0 X106.96 Y113.821
G0 X108.189 Y114.672
G0 X110.143 Y114.847
G0 X111.338 Y113.2
G0 X110.867 Y112.041
G0 X110.577 Y110
;TYPE:WALL-INNER
G1 F6000 E2.08622
G1 F600 X110.288 Y110.5 E2.09582
G1 X109.712 Y110.5 E2.1054
G1 X109.423 Y110 E2.11501
G1 X109.712 Y109.5 E2.12461
G1 X110.288 Y109.5 E2.13419
G1 X110.577 Y110 E2.14379
G0 F7200 X111.039 Y110
;TYPE:WALL-OUTER
G1 F600 X110.52 Y110.9 E2.16107
G1 X109.48 Y110.9 E2.17836
G1 X108.961 Y110 E2.19564
G1 X109.48 Y109.1 E2.21292
G1 X110.52 Y109.1 E2.23021
G1 X111.039 Y110 E2.24749
G0 F7200 X110.939 Y110.173
G0 X110.518 Y109.977
G0 X110.148 Y109.74
;TYPE:SKIN
G1 F600 X109.849 Y109.74 E2.25246
G1 X109.809 Y109.809 E2.25379
G1 X110.189 Y110.189 E2.26273
G1 X110.15 Y110.259 E2.26406
G1 X109.85 Y110.259 E2.26905
G1 X109.701 Y109.999 E2.27403
G0 F7200 X110.298 Y109.999
G1 F600 X110.148 Y109.74 E2.27901
;;retract;;
G1 F6000 E-5.72099
;MESH:NONMESH
G0 F600 X110.148 Y109.74 Z0.4
G0 F7200 X108.617 Y108.857
G0 X106.371 Y106.96
G0 X106.925 Y107.362
;TIME_ELAPSED:22.796367

;LAYER:3
;TYPE:SUPPORT
G1 F6000 E2.27901
G1 F3000 X107.83 Y107.003 E2.29196
G1 X108.467 Y106.187 E2.30574
G1 X109.69 Y106.052 E2.32211
G1 X110.764 Y106.381 E2.33705
G1 X111.556 Y106.218 E2.34781
G1 X112.167 Y106.999 E2.361
G1 X113.064 Y107.358 E2.37385
G1 X113.611 Y108.271 E2.38801
G1 X113.666 Y109.275 E2.40139
G1 X114.124 Y110.041 E2.41326
G1 X113.866 Y111.04 E2.42699
G1 X113.331 Y112.202 E2.44401
G1 X112.436 Y112.494 E2.45653
G1 X111.899 Y111.755 E2.46869
G1 X112.436 Y110.587 E2.48579
G1 X112.689 Y109.56 E2.49986
G1 X111.549 Y107.713 E2.52874
G1 X110.328 Y107.55 E2.54513
G1 X108.966 Y107.699 E2.56336
G1 X108.462 Y107.699 E2.57006
G1 X107.748 Y108.633 E2.5857
G1 X107.603 Y109.312 E2.59494
G1 X107.256 Y109.566 E2.60066
G1 X107.736 Y110.891 E2.61941
G1 X108.366 Y111.88 E2.63501
G1 X108.511 Y112.324 E2.64122
G1 X109.801 Y112.44 E2.65845
G1 X110.353 Y113.2 E2.67095
G1 X109.813 Y113.943 E2.68317
G1 X108.541 Y113.844 E2.70015
G1 X107.573 Y113.187 E2.71571
G1 X106.901 Y112.262 E2.73092
G1 X106.327 Y111.361 E2.74513
G1 X106.436 Y111.027 E2.74981
G1 X105.919 Y110.215 E2.76261
G1 X106.363 Y109.478 E2.77406
G1 X106.365 Y108.31 E2.7896
G1 X106.925 Y107.362 E2.80425
;;retract;;
G1 F6000 E-5.19575
;MESH:
G0 F7200 X106.604 Y106.554
G0 X105.497 Y108.072
G0 X104.904 Y110.229
G0 X105.378 Y111.48
G0 X106.185 Y112.757
G0 X106.958 Y113.818
G0 X108.244 Y114.691
G0 X110.228 Y114.842
G0 X111.42 Y113.2
G0 X110.822 Y111.912
G0 X110.577 Y110
;TYPE:WALL-INNER
G1 F6000 E2.80425
G1 F600 X110.288 Y110.5 E2.81385
G1 X109.712 Y110.5 E2.82343
G1 X109.423 Y110 E2.83304
G1 X109.712 Y109.5 E2.84264
G1 X110.288 Y109.5 E2.85222
G1 X110.577 Y110 E2.86182
G0 F7200 X111.039 Y110
;TYPE:WALL-OUTER
G1 F600 X110.52 Y110.9 E2.8791
G1 X109.48 Y110.9 E2.8964
G1 X108.961 Y110 E2.91367
G1 X109.48 Y109.1 E2.93095
G1 X110.52 Y109.1 E2.94825
G1 X111.039 Y110 E2.96552
G0 F7200 X110.939 Y110.173
G0 X110.518 Y109.977
G0 X110.447 Y109.887
;TYPE:SKIN
G1 F600 X109.89 Y110.444 E2.97207
G0 F7200 X109.694 Y110.357
G1 F600 X110.343 Y109.708 E2.9797
G0 F7200 X110.213 Y109.554
G1 F600 X109.59 Y110.178 E2.98704
G0 F7200 X109.486 Y109.999
G1 F600 X109.931 Y109.554 E2.99227
G0 F7200 X110.37 Y110.247
G1 F600 X110.172 Y110.444 E2.99459
;;retract;;
G1 F6000 E-5.00541
;MESH:NONMESH
G0 F600 X110.172 Y110.444 Z0.5
G0 F7200 X110.346 Y111.748
G0 X111.42 Y113.2
G0 X110.228 Y114.842
G0 X108.244 Y114.691
G0 X106.958 Y113.818
G0 X106.185 Y112.757
G0 X105.378 Y111.48
G0 X104.904 Y110.229
G0 X105.497 Y108.072
G0 X106.33 Y106.665
G0 X107.165 Y107.165
;TIME_ELAPSED:28.664060

;LAYER:4
;TYPE:SUPPORT-INTERFACE
G1 F6000 E2.99459
G1 F1999.8 X108.525 Y108.525 E3.02018
G0 F7200 X109.477 Y107.78
G1 F1999.8 X108.118 Y106.42 E3.04576
G0 F7200 X109.559 Y106.165
G1 F1999.8 X113.953 Y110.558 E3.12842
G0 F7200 X113.472 Y111.775
G1 F1999.8 X112.113 Y110.416 E3.15399
G0 F7200 X111.545 Y111.545
G1 F1999.8 X112.659 Y112.659 E3.17495
;;retract;;
G1 F6000 E-4.82505
G0 F7200 X110.317 Y113.711
G1 F6000 E3.17495
G1 F1999.8 X106.153 Y109.547 E3.25329
G0 F7200 X106.522 Y108.219
G1 F1999.8 X107.882 Y109.579 E3.27888
G0 F7200 X106.44 Y111.531
G1 F1999.8 X108.709 Y113.801 E3.32158
;;retract;;
G1 F6000 E-4.67842
G0 F7200 X108.674 Y114.471
G0 X110.219 Y114.597
G0 X111.058 Y114.007
G0 X112.989 Y113.346
G0 X113.828 Y112.756
G0 X114.228 Y112.063
G0 X114.79 Y110.042
G0 X114.248 Y108.294
G0 X113.62 Y108.528
G1 F6000 E3.32158
G1 F1999.8 X113.201 Y108.11 E3.32946
G0 F7200 X113.168 Y108.077
G1 F1999.8 X111.347 Y106.256 E3.36372
;;retract;;
G1 F6000 E-4.63628
;MESH:
G0 F7200 X111.382 Y105.587
G0 X113.546 Y106.988
G0 X114.125 Y107.968
G0 X114.479 Y108.921
G0 X114.79 Y110.042
G0 X114.228 Y112.063
G0 X113.828 Y112.756
G0 X112.989 Y113.346
G0 X111.969 Y113.292
G0 X111.156 Y112.682
G0 X110.87 Y111.911
G0 X110.577 Y110
;TYPE:WALL-INNER
G1 F6000 E3.36372
G1 F600 X110.288 Y110.5 E3.37332
G1 X109.712 Y110.5 E3.3829
G1 X109.423 Y110 E3.39251
G1 X109.712 Y109.5 E3.40211
G1 X110.288 Y109.5 E3.41169
G1 X110.577 Y110 E3.42129
G0 F7200 X111.039 Y110
;TYPE:WALL-OUTER
G1 F600 X110.52 Y110.9 E3.43857
G1 X109.48 Y110.9 E3.45587
G1 X108.961 Y110 E3.47314
G1 X109.48 Y109.1 E3.49042
G1 X110.52 Y109.1 E3.50772
G1 X111.039 Y110 E3.52499
G0 F7200 X110.939 Y110.173
G0 X110.518 Y109.977
G0 X110.44 Y109.875
;TYPE:SKIN
G1 F600 X110.12 Y109.554 E3.52876
G0 F7200 X109.837 Y109.554
G1 F600 X110.428 Y110.146 E3.53572
G0 F7200 X110.325 Y110.325
G1 F600 X109.673 Y109.673 E3.54338
G0 F7200 X109.57 Y109.853
G1 F600 X110.161 Y110.444 E3.55033
G0 F7200 X109.878 Y110.444
G1 F600 X109.558 Y110.124 E3.5541
;;retract;;
G1 F6000 E-4.4459
;MESH:NONMESH
G0 F600 X109.558 Y110.124 Z0.6
G0 F7200 X110.505 Y111.742
G0 X111.156 Y112.682
G0 X111.969 Y113.292
G0 X112.989 Y113.346
