;FLAVOR:Marlin
;TIME:2586
;Filament used:0.295845m
;Layer height: 0.1
;MINX:99.33
;MINY:103.33
;MINZ:0.1
;MAXX:120.67
;MAXY:116.67
;MAXZ:5.1
                                 
;Creality Print GCode Generated by CXEngine:NO_MAGE_VERSION_GIT_HEAD_BRANCH
;CXEngine Release Time:2022-09-30 09:53:04
;Gcode Generated Time:2023-01-17 02:26:23
;----------Machine Config--------------
;Machine Name:Creality Ender-3
;Machine Height:250
;Machine Width:220
;Machine Depth:220
;Material name:PLA
;Number of Extruders:1
;ExtruderParams[0] Nozzle Diameter1000
;----------Profile Config---------------
;Engine Version:275f99b
;Engine Release Time:2022-09-30 09:42:18
;Layer Height:0.1
;Wall Thickness:0.8
;Top/Bottom Thickness:0.5
;Out Wall Line Width:0.4
;Inner Wall Line Width:0.4
;Inital Layer Height:100
;Wall Line Count:2
;Infill Line Distance:4
;Infill Pattern:grid
;Infill Sparse Density:20
;Infill Wipe Distance:0
;Print Temperature:200
;Bed Temperature:60
;Support Enable:true
;Support Density:0
;Support Angle:60
;Adhesion Type:none
;machine is belt:false
;machine belt offset:10
;machine belt offset Y:0
;Raft Base Line Spacing:1.6
;Wait Heatup Sync:true
;----------Shell Config----------------
;Outer Wall Wipe Distance:200
;Outer Inset First:false
;Infill Before Walls:false
;Infill Overlap:0.16
;Fill Gaps Between Walls:everywhere
;Minimum Infill Area:1
;Top Surface Skin Layer:0
;Top Layers:4
;Z Seam Alignment:sharpest_corner
;Seam Corner Preference:z_seam_corner_inner
;Z Seam X:110
;Z Seam Y:110
;Horizontal Expansion:0
;Top/Bottom Pattern:zigzag
;Ironing Pattern:zigzag
;Vase Model:false
;----------Support Config----------------
;Support Type:everywhere
;Support Pattern:zigzag
;Support Infill Layer Thickness:0.1
;Minimum Support Area:5
;Enable Support Roof:true
;Support Roof Thickness:0.8
;Support Roof Pattern:lines
;Connect Support Lines:0
;Connect Support ZigZags:0
;Minimum Support X/Y Distance:0.2
;Support Line Distance:0
; ---------PrintSpeed & Travel----------
;Enable Print Cool:true
;Avoid Printed Parts Traveling:true
;Enable Retraction:true
;Retraction Distance:8
;Retraction Speed:100
;Retraction Prime Speed:100
;Maximum Retraction Count:100
;Minimum Extrusion Distance Window:1
;Z Hop When Retracted:false
;Z Hop Height:0.2
;Retract Before Outer Wall:true
;Print Speed:50
;Infill Speed:50

;Prime Tower Speed:50
;Travel Speed:120
;Initial Layer Speed:25
;Skirt/Brim Speed:25
;Combing Mode:infill
; --------SpecialModel&Mesh Fixes--------
;Union Overlapping Volum:true
;Remove All Holes:false
;Maximum Travel Resolution:0.6
;Maximum Deviation:0.05
;Maximum Model Angle:0.872665
;IS Mold Print:false
;Make Overhang Printable:false
;Enable Coasting:false
;Coasting Volumes:0.06
;Coasting Speed:0.9
;Raft AirGap:0.25
;Layer0 ZOverLap:0.13
;---------------------End of Head--------------------------
M140 S60
M105
M104 S200
M105
M109 S200
M105
M190 S60
M82 ;absolute extrusion mode
M220 S100 ;Reset Feedrate
M221 S100 ;Reset Flowrate

G28 ;Home

G92 E0 ;Reset Extruder
G1 Z2.0 F3000 ;Move Z Axis up
G1 X10.1 Y20 Z0.28 F5000.0 ;Move to start position
G1 X10.1 Y145.0 Z0.28 F1500.0 E15 ;Draw the first line
G1 X10.4 Y145.0 Z0.28 F5000.0 ;Move to side a little
G1 X10.4 Y20 Z0.28 F1500.0 E30 ;Draw the second line
G92 E0  ;Reset Extruder
G1 E-1.0000 F1800 ;Retract a bit
G1 Z2.0 F3000 ;Move Z Axis up
G1 E0.0000 F1800 

G92 E0
G92 E0
G1 F6000 E-8

;LAYER_COUNT:51

;LAYER:0
M107
;MESH:
G0 F3600 X110.238 Y105.887 Z0.1
;TYPE:WALL-INNER
G1 F6000 E0
G1 F1500 X110.587 Y106.453 E0.01216
G1 X111.168 Y106.777 E0.02433
G1 X111.832 Y106.777 E0.03648
G1 X111.971 Y106.699 E0.0394
G1 X112.099 Y106.628 E0.04207
G1 X112.413 Y106.453 E0.04865
G1 X112.48 Y106.343 E0.05101
G1 X112.503 Y106.305 E0.05182
G1 X112.762 Y105.887 E0.06081
G1 X112.79 Y105.221 E0.07301
G1 X112.627 Y104.9 E0.07959
G1 X112.49 Y104.629 E0.08515
G1 X112.453 Y104.604 E0.08596
G1 X112.49 Y104.604
G1 X112.794 Y104.604 E0.08931
G1 X116.134 Y104.604 E0.15041
G1 X116.366 Y104.604 E0.15465
G1 X116.788 Y104.605 E0.16237
G1 X116.366 Y104.716 E0.16366
G1 X116.262 Y104.923 E0.1666
G1 X115.993 Y105.457 E0.17753
G1 X116.127 Y105.79 E0.1841
G1 X116.183 Y105.932 E0.18689
G1 X116.254 Y106.108 E0.19036
G1 X115.974 Y106.016 E0.19285
G1 X115.823 Y105.992 E0.19512
G1 X115.33 Y105.911 E0.20426
G1 X114.66 Y105.912 E0.21651
G1 X114.008 Y106.021 E0.22861
G1 X113.384 Y106.231 E0.24065
G1 X112.838 Y106.519 E0.25194
G1 X112.799 Y106.539 E0.2527
G1 X112.595 Y106.693 E0.25684
G1 X112.272 Y106.937 E0.263
G1 X112.171 Y107.043 E0.26552
G1 X111.813 Y107.42 E0.27503
G1 X111.441 Y107.964 E0.28709
G1 X111.159 Y108.562 E0.29919
G1 X110.978 Y109.196 E0.31125
G1 X110.902 Y109.852 E0.32333
G1 X110.932 Y110.511 E0.33539
G1 X111.065 Y111.157 E0.34746
G1 X111.302 Y111.773 E0.35953
G1 X111.63 Y112.337 E0.37147
G1 X112.049 Y112.847 E0.38354
G1 X112.187 Y112.969 E0.38691
G1 X112.229 Y113.006 E0.38794
G1 X112.544 Y113.284 E0.39562
G1 X112.661 Y113.357 E0.39814
G1 X112.78 Y113.432 E0.40072
G1 X113.102 Y113.636 E0.40769
G1 X113.711 Y113.893 E0.41978
G1 X114.351 Y114.05 E0.43184
G1 X115.01 Y114.101 E0.44393
G1 X115.667 Y114.047 E0.45599
G1 X115.854 Y114 E0.45951
G1 X116.276 Y113.895 E0.46747
G1 X116.081 Y114.283 E0.4718
G1 X115.993 Y114.457 E0.47537
G1 X116.24 Y115.073 E0.48751
G1 X116.302 Y115.229 E0.49058
G1 X116.787 Y115.4 E0.49999
G1 X116.302 Y115.4 E0.50179
G1 X116.134 Y115.4 E0.50414
G1 X112.803 Y115.4 E0.56507
G1 X112.802 Y115.4 E0.56509
G1 X112.446 Y115.4 E0.5716
G1 X112.633 Y115.096 E0.57528
G1 X112.762 Y114.887 E0.57977
G1 X112.79 Y114.221 E0.59197
G1 X112.553 Y113.754 E0.60155
G1 X112.49 Y113.629 E0.60387
G1 X112.367 Y113.546 E0.60605
G1 X111.983 Y113.285 E0.61342
G1 X111.928 Y113.271 E0.61442
G1 X111.665 Y113.204 E0.61939
G1 X111.06 Y113.255 E0.6305
G1 X110.51 Y113.629 E0.64266
G1 X110.21 Y114.221 E0.6548
G1 X110.238 Y114.887 E0.667
G1 X110.367 Y115.096 E0.67149
G1 X110.554 Y115.4 E0.67802
G1 X110.198 Y115.4 E0.68169
G1 X110.197 Y115.4 E0.6817
G1 X106.096 Y115.4 E0.75672
G1 X106.087 Y115.4 E0.75689
G1 X106.073 Y115.4 E0.75715
G1 X103.178 Y115.4 E0.8101
G1 X102.945 Y115.4 E0.81437
G1 X102.454 Y115.4 E0.82335
G1 X101.944 Y115.4 E0.83268
G1 X101.476 Y115.4 E0.84124
G1 X101.415 Y115.4 E0.84235
G1 X100.601 Y115.4 E0.85725
G1 X100.601 Y114.523 E0.87329
G1 X100.601 Y114.25 E0.87828
G1 X100.602 Y113.748 E0.88747
G1 X100.603 Y113.249 E0.89659
G1 X100.603 Y113.045 E0.90033
G1 X100.616 Y104.6 E1.05481
G1 X106.821 Y104.6 E1.16832
G1 X106.942 Y104.6 E1.17053
G1 X107.42 Y104.601 E1.17928
G1 X107.904 Y104.601 E1.18813
G1 X108.201 Y104.601 E1.19356
G1 X108.605 Y104.601 E1.20095
G1 X110.208 Y104.602 E1.23028
G1 X110.51 Y104.602 E1.2358
G1 X110.548 Y104.603 E1.2365
G1 X110.51 Y104.629 E1.23663
G1 X110.374 Y104.898 E1.23995
G1 X110.21 Y105.221 E1.24658
G1 X110.238 Y105.887 E1.25877
G0 F3600 X110.633 Y105.766
;TYPE:WALL-OUTER
G1 F600 X110.873 Y106.154 E1.26712
G1 X111.272 Y106.377 E1.27548
G1 X111.728 Y106.377 E1.28382
G1 X112.127 Y106.154 E1.29218
G1 X112.367 Y105.766 E1.30053
G1 X112.386 Y105.309 E1.3089
G1 X112.18 Y104.902 E1.31724
G1 X111.816 Y104.655 E1.32529
G1 X111.632 Y104.608 E1.32876
G1 X111.198 Y104.645 E1.33673
G1 X110.82 Y104.902 E1.34509
G1 X110.614 Y105.309 E1.35344
G1 X110.633 Y105.766 E1.3618
G0 F3600 X110.738 Y105.936
G0 X110.363 Y106.166
G0 X108.345 Y107.578
;TYPE:WALL-INNER
G1 F600 X108.762 Y107.284 E1.37114
G1 X109.058 Y106.87 E1.38045
G1 X109.2 Y106.379 E1.3898
G1 X109.167 Y105.871 E1.39911
G1 X108.97 Y105.403 E1.4084
G1 X108.626 Y105.025 E1.41775
G1 X108.557 Y104.988 E1.41918
G1 X108.201 Y104.797 E1.42475
G1 X107.904 Y104.725 E1.42706
G1 X107.42 Y104.733 E1.4299
G1 X106.942 Y104.911 E1.43527
G1 X106.85 Y104.988 E1.43724
G1 X106.551 Y105.238 E1.44437
G1 X106.291 Y105.678 E1.45371
G1 X106.193 Y106.176 E1.463
G1 X106.266 Y106.679 E1.4723
G1 X106.503 Y107.131 E1.48163
G1 X106.876 Y107.477 E1.49094
G1 X107.344 Y107.679 E1.50026
G1 X107.853 Y107.714 E1.5096
G1 X108.345 Y107.578 E1.51894
G0 F3600 X108.171 Y107.211
;TYPE:WALL-OUTER
G1 F600 X108.476 Y106.996 E1.52576
G1 X108.693 Y106.693 E1.53258
G1 X108.796 Y106.335 E1.53939
G1 X108.772 Y105.964 E1.5462
G1 X108.628 Y105.621 E1.553
G1 X108.377 Y105.345 E1.55982
G1 X108.057 Y105.174 E1.56646
G1 X107.859 Y105.126 E1.57019
G1 X107.495 Y105.132 E1.57685
G1 X107.146 Y105.262 E1.58366
G1 X106.86 Y105.501 E1.59048
G1 X106.67 Y105.822 E1.5973
G1 X106.599 Y106.186 E1.60409
G1 X106.652 Y106.554 E1.61089
G1 X106.825 Y106.884 E1.6177
G1 X107.098 Y107.137 E1.62451
G1 X107.44 Y107.285 E1.63133
G1 X107.812 Y107.31 E1.63815
G1 X108.171 Y107.211 E1.64496
G0 F3600 X108.334 Y107.096
G0 X108.586 Y107.456
;;retract;;
G1 F6000 E-6.35504
G0 F3600 X107.795 Y106.414
G0 X105 Y108.624
G0 X104.997 Y107.345
;TYPE:WALL-INNER
G1 F6000 E1.64496
G1 F661.3 X104.339 Y107.43 E1.6571
G1 X104.166 Y107.492 E1.66046
G1 X103.904 Y107.586 E1.66555
G1 X103.828 Y107.628 E1.66714
G1 X103.51 Y107.806 E1.67381
G1 X103.163 Y108.089 E1.682
G1 X103.023 Y108.248 E1.68587
G1 X102.865 Y108.427 E1.69024
G1 X102.631 Y108.81 E1.69845
G1 X102.463 Y109.228 E1.70669
G1 X102.37 Y109.667 E1.7149
G1 X102.35 Y110.116 E1.72312
G1 X102.409 Y110.564 E1.73139
G1 X102.542 Y110.992 E1.73959
G1 X102.743 Y111.394 E1.74781
G1 X103.012 Y111.755 E1.75605
G1 X103.337 Y112.066 E1.76428
G1 X103.71 Y112.317 E1.7725
G1 X104.12 Y112.502 E1.78073
G1 X104.556 Y112.615 E1.78897
G1 X105.004 Y112.652 E1.79719
G1 X105.452 Y112.614 E1.80542
G1 X105.888 Y112.499 E1.81366
G1 X106.303 Y112.31 E1.82201
G1 X106.675 Y112.056 E1.83025
G1 X106.997 Y111.743 E1.83846
G1 X107.263 Y111.382 E1.84666
G1 X107.465 Y110.978 E1.85493
G1 X107.594 Y110.547 E1.86316
G1 X107.65 Y110.101 E1.87138
G1 X107.628 Y109.652 E1.8796
G1 X107.532 Y109.213 E1.88782
G1 X107.362 Y108.797 E1.89604
G1 X107.125 Y108.414 E1.90428
G1 X106.826 Y108.078 E1.91251
G1 X106.484 Y107.802 E1.92055
G1 X106.089 Y107.582 E1.92882
G1 X105.653 Y107.428 E1.93728
G1 X104.997 Y107.345 E1.94938
G0 F3600 X104.998 Y107.748
;TYPE:WALL-OUTER
G1 F600 X104.433 Y107.821 E1.9598
G1 X104.07 Y107.951 E1.96685
G1 X103.736 Y108.138 E1.97385
G1 X103.441 Y108.378 E1.98081
G1 X103.188 Y108.665 E1.98781
G1 X102.99 Y108.99 E1.99477
G1 X102.847 Y109.345 E2.00177
G1 X102.768 Y109.718 E2.00875
G1 X102.751 Y110.099 E2.01572
G1 X102.801 Y110.478 E2.02272
G1 X102.914 Y110.842 E2.02969
G1 X103.085 Y111.183 E2.03667
G1 X103.313 Y111.489 E2.04365
G1 X103.589 Y111.753 E2.05063
G1 X103.905 Y111.966 E2.0576
G1 X104.253 Y112.123 E2.06459
G1 X104.623 Y112.219 E2.07158
G1 X105.003 Y112.251 E2.07856
G1 X105.383 Y112.218 E2.08553
G1 X105.753 Y112.121 E2.09253
G1 X106.106 Y111.96 E2.09963
G1 X106.421 Y111.745 E2.10661
G1 X106.695 Y111.479 E2.11359
G1 X106.921 Y111.172 E2.12056
G1 X107.092 Y110.83 E2.12756
G1 X107.201 Y110.464 E2.13455
G1 X107.249 Y110.086 E2.14152
G1 X107.23 Y109.705 E2.14849
G1 X107.149 Y109.332 E2.15548
G1 X107.004 Y108.979 E2.16246
G1 X106.803 Y108.654 E2.16945
G1 X106.549 Y108.369 E2.17643
G1 X106.259 Y108.135 E2.18325
G1 X105.924 Y107.948 E2.19027
G1 X105.56 Y107.819 E2.19733
G1 X104.998 Y107.748 E2.20769
G0 F3600 X104.8 Y107.773
G0 X104.745 Y107.337
G0 X102.887 Y107.936
;TYPE:WALL-INNER
G1 F600 X103.087 Y108.006 E2.21041
G1 X103.109 Y107.994 E2.21087
G1 X103.493 Y107.777 E2.21228
G1 X103.81 Y107.598 E2.21286
G1 X103.816 Y107.568
G1 X103.875 Y107.296 E2.21622
G1 X103.986 Y106.788 E2.22573
G1 X103.543 Y106.187 E2.23939
G1 X103.082 Y106.028 E2.24831
G1 X102.366 Y106.216 E2.26185
G1 X101.993 Y106.957 E2.27703
G1 X102.302 Y107.729 E2.29224
G1 X102.887 Y107.936 E2.30359
G0 F3600 X103.049 Y107.568
;TYPE:WALL-OUTER
G1 F600 X103.457 Y107.338 E2.31216
G1 X103.557 Y106.88 E2.32073
G1 X103.295 Y106.525 E2.32881
G1 X103.066 Y106.446 E2.33324
G1 X102.642 Y106.557 E2.34125
G1 X102.431 Y106.976 E2.34984
G1 X102.606 Y107.412 E2.35843
G1 X103.049 Y107.568 E2.36702
G0 F3600 X103.223 Y107.47
G0 X103.438 Y107.854
;;retract;;
G1 F6000 E-5.63298
G0 F3600 X104.046 Y109.005
G0 X102.514 Y113.733
G0 X103.8 Y113.951
;TYPE:WALL-INNER
G1 F6000 E2.36702
G1 F600 X103.767 Y113.441 E2.37637
G1 X103.57 Y112.974 E2.38564
G1 X103.227 Y112.598 E2.39495
G1 X102.8 Y112.367 E2.40383
G1 X102.502 Y112.297 E2.40943
G1 X102.02 Y112.305 E2.41825
G1 X101.543 Y112.482 E2.42756
G1 X101.151 Y112.808 E2.43689
G1 X100.994 Y113.073 E2.44252
G1 X100.891 Y113.249 E2.44575
G1 X100.793 Y113.748 E2.45157
G1 X100.866 Y114.25 E2.45691
G1 X100.992 Y114.492 E2.46108
G1 X101.102 Y114.702 E2.46542
G1 X101.432 Y115.008 E2.47365
G1 X101.476 Y115.049 E2.47469
G1 X101.944 Y115.251 E2.48074
G1 X102.454 Y115.286 E2.48383
G1 X102.945 Y115.148 E2.48826
G1 X103.136 Y115.015 E2.49176
G1 X103.361 Y114.857 E2.49679
G1 X103.658 Y114.442 E2.50613
G1 X103.8 Y113.951 E2.51548
G0 F3600 X103.396 Y113.907
;TYPE:WALL-OUTER
G1 F600 X103.372 Y113.534 E2.52231
G1 X103.228 Y113.193 E2.52909
G1 X102.977 Y112.917 E2.53591
G1 X102.657 Y112.744 E2.54257
G1 X102.459 Y112.698 E2.54628
G1 X102.095 Y112.704 E2.55294
G1 X101.746 Y112.833 E2.55975
G1 X101.46 Y113.071 E2.56656
G1 X101.27 Y113.393 E2.5734
G1 X101.199 Y113.758 E2.5802
G1 X101.252 Y114.125 E2.58698
G1 X101.425 Y114.456 E2.59381
G1 X101.698 Y114.709 E2.60062
G1 X102.04 Y114.857 E2.60744
G1 X102.412 Y114.882 E2.61426
G1 X102.771 Y114.781 E2.62108
G1 X103.076 Y114.568 E2.62789
G1 X103.293 Y114.265 E2.6347
G1 X103.396 Y113.907 E2.64152
G0 F3600 X103.384 Y113.707
G0 X103.824 Y113.679
G0 X106.074 Y115.002
;TYPE:WALL-INNER
G1 F600 X106.087 Y115.006 E2.64177
G1 X106.094 Y115.002 E2.64191
G1 X106.81 Y114.598 E2.65695
G1 X106.986 Y113.788 E2.67211
G1 X106.543 Y113.187 E2.68577
G1 X106.082 Y113.028 E2.69469
G1 X105.366 Y113.216 E2.70824
G1 X104.993 Y113.957 E2.72341
G1 X105.302 Y114.729 E2.73862
G1 X106.074 Y115.002 E2.7536
G0 F3600 X106.049 Y114.568
;TYPE:WALL-OUTER
G1 F600 X106.457 Y114.338 E2.76217
G1 X106.557 Y113.88 E2.77074
G1 X106.295 Y113.525 E2.77882
G1 X106.066 Y113.446 E2.78325
G1 X105.642 Y113.557 E2.79127
G1 X105.431 Y113.976 E2.79985
G1 X105.606 Y114.412 E2.80844
G1 X106.049 Y114.568 E2.81703
G0 F3600 X106.223 Y114.47
G0 X106.438 Y114.854
;;retract;;
G1 F6000 E-5.18297
G0 F3600 X106.438 Y116.67
G0 X111.491 Y114.503
G0 X110.633 Y114.766
G1 F6000 E2.81703
G1 F600 X110.873 Y115.154 E2.82538
G1 X111.272 Y115.377 E2.83374
G1 X111.728 Y115.377 E2.84208
G1 X112.127 Y115.154 E2.85044
G1 X112.367 Y114.766 E2.85879
G1 X112.386 Y114.309 E2.86716
G1 X112.18 Y113.902 E2.8755
G1 X111.816 Y113.655 E2.88355
G1 X111.632 Y113.608 E2.88702
G1 X111.198 Y113.645 E2.89499
G1 X110.82 Y113.902 E2.90335
G1 X110.614 Y114.309 E2.9117
G1 X110.633 Y114.766 E2.92006
G0 F3600 X110.738 Y114.936
G0 X110.363 Y115.166
;;retract;;
G1 F6000 E-5.07994
G0 F3600 X111.492 Y114.506
G0 X116.324 Y112.499
G0 X117.49 Y113.669
;TYPE:WALL-INNER
G1 F6000 E2.92006
G1 F1500 X117.36 Y113.628 E2.92256
G1 X117.063 Y113.533 E2.92826
G1 X117.305 Y113.379 E2.93013
G1 X117.337 Y113.359
G1 X117.472 Y113.273 E2.93255
G1 X117.808 Y112.974 E2.94078
G1 X117.832 Y112.953 E2.94136
G1 X117.964 Y112.835 E2.9446
G1 X118.38 Y112.322 E2.95668
G1 X118.709 Y111.75 E2.96875
G1 X118.943 Y111.132 E2.98084
G1 X118.999 Y110.852 E2.98606
G1 X119.071 Y110.485 E2.9929
G1 X119.097 Y109.826 E3.00497
G1 X119.017 Y109.17 E3.01706
G1 X119.001 Y109.114 E3.01812
G1 X118.831 Y108.536 E3.02914
G1 X118.543 Y107.934 E3.04135
G1 X118.033 Y107.24 E3.05711
G1 X117.84 Y107.05 E3.06206
G1 X117.706 Y106.919 E3.06549
G1 X117.407 Y106.703 E3.07224
G1 X117.257 Y106.595 E3.07562
G1 X117.114 Y106.491 E3.07885
G1 X117.482 Y106.283 E3.08411
G1 X117.587 Y106.453 E3.0873
G1 X117.875 Y106.614 E3.0922
G1 X118.039 Y106.705 E3.09542
G1 X118.168 Y106.777 E3.09812
G1 X118.832 Y106.777 E3.11027
G1 X119.103 Y106.626 E3.11594
G1 X119.399 Y106.461 E3.12214
G1 X119.399 Y106.799 E3.12566
G1 X119.399 Y106.8 E3.12567
G1 X119.399 Y109.111 E3.16795
G1 X119.399 Y109.17 E3.16901
G1 X119.398 Y109.826 E3.17927
G1 X119.397 Y110.485 E3.18877
G1 X119.397 Y110.859 E3.19499
G1 X119.394 Y113.188 E3.2376
G1 X119.394 Y113.189 E3.23761
G1 X119.394 Y113.564 E3.24447
G1 X119.083 Y113.353 E3.24831
G1 X118.983 Y113.285 E3.25052
G1 X118.665 Y113.204 E3.25653
G1 X118.091 Y113.253 E3.26706
