;FLAVOR:Marlin
;TIME:1304
;Filament used:0.193094m
;Layer height: 0.1
;MINX:100.2
;MINY:103.33
;MINZ:0.1
;MAXX:120.67
;MAXY:116.67
;MAXZ:2.5
                                 
;Creality Print GCode Generated by CXEngine:NO_MAGE_VERSION_GIT_HEAD_BRANCH
;CXEngine Release Time:2022-09-30 09:53:04
;Gcode Generated Time:2023-01-17 02:25:50
;----------Machine Config--------------
;Machine Name:Creality Ender-3
;Machine Height:250
;Machine Width:220
;Machine Depth:220
;Material name:PLA
;Number of Extruders:1
;ExtruderParams[0] Nozzle Diameter1000
;----------Profile Config---------------
;Engine Version:275f99b
;Engine Release Time:2022-09-30 09:42:18
;Layer Height:0.1
;Wall Thickness:0.8
;Top/Bottom Thickness:0.5
;Out Wall Line Width:0.4
;Inner Wall Line Width:0.4
;Inital Layer Height:100
;Wall Line Count:2
;Infill Line Distance:4
;Infill Pattern:grid
;Infill Sparse Density:20
;Infill Wipe Distance:0
;Print Temperature:200
;Bed Temperature:60
;Support Enable:true
;Support Density:0
;Support Angle:60
;Adhesion Type:none
;machine is belt:false
;machine belt offset:10
;machine belt offset Y:0
;Raft Base Line Spacing:1.6
;Wait Heatup Sync:true
;----------Shell Config----------------
;Outer Wall Wipe Distance:200
;Outer Inset First:false
;Infill Before Walls:false
;Infill Overlap:0.16
;Fill Gaps Between Walls:everywhere
;Minimum Infill Area:1
;Top Surface Skin Layer:0
;Top Layers:4
;Z Seam Alignment:sharpest_corner
;Seam Corner Preference:z_seam_corner_inner
;Z Seam X:110
;Z Seam Y:110
;Horizontal Expansion:0
;Top/Bottom Pattern:zigzag
;Ironing Pattern:zigzag
;Vase Model:false
;----------Support Config----------------
;Support Type:everywhere
;Support Pattern:zigzag
;Support Infill Layer Thickness:0.1
;Minimum Support Area:5
;Enable Support Roof:true
;Support Roof Thickness:0.8
;Support Roof Pattern:lines
;Connect Support Lines:0
;Connect Support ZigZags:0
;Minimum Support X/Y Distance:0.2
;Support Line Distance:0
; ---------PrintSpeed & Travel----------
;Enable Print Cool:true
;Avoid Printed Parts Traveling:true
;Enable Retraction:true
;Retraction Distance:8
;Retraction Speed:100
;Retraction Prime Speed:100
;Maximum Retraction Count:100
;Minimum Extrusion Distance Window:1
;Z Hop When Retracted:false
;Z Hop Height:0.2
;Retract Before Outer Wall:true
;Print Speed:50
;Infill Speed:50

;Prime Tower Speed:50
;Travel Speed:120
;Initial Layer Speed:25
;Skirt/Brim Speed:25
;Combing Mode:infill
; --------SpecialModel&Mesh Fixes--------
;Union Overlapping Volum:true
;Remove All Holes:false
;Maximum Travel Resolution:0.6
;Maximum Deviation:0.05
;Maximum Model Angle:0.872665
;IS Mold Print:false
;Make Overhang Printable:false
;Enable Coasting:false
;Coasting Volumes:0.06
;Coasting Speed:0.9
;Raft AirGap:0.25
;Layer0 ZOverLap:0.13
;---------------------End of Head--------------------------
M140 S60
M105
M104 S200
M105
M109 S200
M105
M190 S60
M82 ;absolute extrusion mode
M220 S100 ;Reset Feedrate
M221 S100 ;Reset Flowrate

G28 ;Home

G92 E0 ;Reset Extruder
G1 Z2.0 F3000 ;Move Z Axis up
G1 X10.1 Y20 Z0.28 F5000.0 ;Move to start position
G1 X10.1 Y145.0 Z0.28 F1500.0 E15 ;Draw the first line
G1 X10.4 Y145.0 Z0.28 F5000.0 ;Move to side a little
G1 X10.4 Y20 Z0.28 F1500.0 E30 ;Draw the second line
G92 E0  ;Reset Extruder
G1 E-1.0000 F1800 ;Retract a bit
G1 Z2.0 F3000 ;Move Z Axis up
G1 E0.0000 F1800 

G92 E0
G92 E0
G1 F6000 E-8

;LAYER_COUNT:25

;LAYER:0
M107
;MESH:
G0 F3600 X115.738 Y105.887 Z0.1
;TYPE:WALL-INNER
G1 F6000 E0
G1 F1500 X116.087 Y106.453 E0.01216
G1 X116.668 Y106.777 E0.02433
G1 X117.332 Y106.777 E0.03648
G1 X117.913 Y106.453 E0.04865
G1 X118.262 Y105.887 E0.06081
G1 X118.29 Y105.221 E0.07301
G1 X118.126 Y104.897 E0.07965
G1 X117.99 Y104.629 E0.08515
G1 X117.947 Y104.6 E0.0861
G1 X117.99 Y104.6
G1 X118.291 Y104.6 E0.08943
G1 X119.4 Y104.6 E0.10972
G1 X119.4 Y115.4 E0.30728
G1 X118.303 Y115.4 E0.32735
G1 X118.302 Y115.4 E0.32737
G1 X117.946 Y115.4 E0.33388
G1 X118.133 Y115.096 E0.33756
G1 X118.262 Y114.887 E0.34205
G1 X118.29 Y114.221 E0.35425
G1 X117.99 Y113.629 E0.36639
G1 X117.483 Y113.285 E0.37759
G1 X117.161 Y113.203 E0.38367
G1 X116.559 Y113.256 E0.39473
G1 X116.01 Y113.629 E0.40687
G1 X115.71 Y114.221 E0.41901
G1 X115.738 Y114.887 E0.4312
G1 X115.867 Y115.096 E0.4357
G1 X116.054 Y115.4 E0.44223
G1 X115.698 Y115.4 E0.44589
G1 X115.697 Y115.4 E0.44591
G1 X113.096 Y115.4 E0.49349
G1 X113.087 Y115.4 E0.49366
G1 X113.073 Y115.4 E0.49391
G1 X106.862 Y115.4 E0.60753
G1 X106.332 Y115.4 E0.61723
G1 X105.668 Y115.4 E0.62937
G1 X105.138 Y115.4 E0.63907
G1 X100.6 Y115.4 E0.72208
G1 X100.6 Y104.6 E0.91965
G1 X115.709 Y104.6 E1.19604
G1 X116.01 Y104.6 E1.20154
G1 X116.053 Y104.6 E1.20233
G1 X116.01 Y104.629 E1.20247
G1 X115.874 Y104.897 E1.20579
G1 X115.71 Y105.221 E1.21244
G1 X115.738 Y105.887 E1.22463
G0 F3600 X116.133 Y105.766
;TYPE:WALL-OUTER
G1 F600 X116.373 Y106.154 E1.23298
G1 X116.772 Y106.377 E1.24134
G1 X117.228 Y106.377 E1.24968
G1 X117.627 Y106.154 E1.25804
G1 X117.867 Y105.766 E1.26639
G1 X117.886 Y105.309 E1.27476
G1 X117.68 Y104.902 E1.2831
G1 X117.316 Y104.655 E1.29115
G1 X117.128 Y104.607 E1.2947
G1 X116.698 Y104.645 E1.30259
G1 X116.32 Y104.902 E1.31095
G1 X116.114 Y105.309 E1.3193
G1 X116.133 Y105.766 E1.32767
G0 F3600 X116.238 Y105.936
G0 X115.863 Y106.166
G0 X114.996 Y106.795
;TYPE:WALL-INNER
G1 F1500 X114.204 Y106.897 E1.34227
G1 X113.9 Y107.006 E1.34818
G1 X113.671 Y107.087 E1.35263
G1 X113.263 Y107.317 E1.36119
G1 X113.198 Y107.354 E1.36256
G1 X113.175 Y107.372 E1.3631
G1 X112.777 Y107.697 E1.3725
G1 X112.42 Y108.105 E1.38241
G1 X112.136 Y108.568 E1.39235
G1 X111.936 Y109.074 E1.4023
G1 X111.824 Y109.604 E1.41221
G1 X111.801 Y110.146 E1.42214
G1 X111.873 Y110.685 E1.43208
G1 X112.033 Y111.203 E1.442
G1 X112.279 Y111.688 E1.45195
G1 X112.604 Y112.123 E1.46188
G1 X112.997 Y112.498 E1.47182
G1 X113.295 Y112.699 E1.47839
G1 X113.3 Y112.702 E1.4785
G1 X113.449 Y112.802 E1.48178
G1 X113.669 Y112.899 E1.48618
G1 X113.814 Y112.963 E1.48908
G1 X113.945 Y113.021 E1.4917
G1 X114.468 Y113.158 E1.50159
G1 X115.001 Y113.202 E1.51138
G1 X115.553 Y113.154 E1.52151
G1 X116.077 Y113.014 E1.53143
G1 X116.57 Y112.79 E1.54134
G1 X117.019 Y112.485 E1.55127
G1 X117.41 Y112.107 E1.56122
G1 X117.731 Y111.67 E1.57114
G1 X117.976 Y111.183 E1.58111
G1 X118.132 Y110.664 E1.59102
G1 X118.2 Y110.125 E1.60096
G1 X118.174 Y109.582 E1.6109
G1 X118.059 Y109.053 E1.62081
G1 X117.854 Y108.548 E1.63078
G1 X117.567 Y108.087 E1.64071
G1 X117.207 Y107.681 E1.65064
G1 X116.784 Y107.342 E1.66055
G1 X116.309 Y107.079 E1.67049
G1 X115.784 Y106.894 E1.68067
G1 X114.996 Y106.795 E1.6952
G0 F3600 X114.996 Y107.198
;TYPE:WALL-OUTER
G1 F698.4 X114.298 Y107.288 E1.70807
G1 X113.838 Y107.452 E1.717
G1 X113.424 Y107.686 E1.7257
G1 X113.056 Y107.986 E1.73439
G1 X112.743 Y108.343 E1.74307
G1 X112.495 Y108.747 E1.75175
G1 X112.32 Y109.19 E1.76046
G1 X112.222 Y109.654 E1.76914
G1 X112.202 Y110.128 E1.77781
G1 X112.265 Y110.599 E1.78651
G1 X112.405 Y111.052 E1.79518
G1 X112.62 Y111.476 E1.80388
G1 X112.904 Y111.857 E1.81257
G1 X113.248 Y112.185 E1.82126
G1 X113.643 Y112.45 E1.82997
G1 X114.077 Y112.642 E1.83865
G1 X114.536 Y112.762 E1.84733
G1 X115 Y112.801 E1.85584
G1 X115.483 Y112.759 E1.86471
G1 X115.942 Y112.636 E1.87341
G1 X116.373 Y112.44 E1.88207
G1 X116.766 Y112.173 E1.89076
G1 X117.108 Y111.843 E1.89945
G1 X117.389 Y111.46 E1.90814
G1 X117.603 Y111.035 E1.91685
G1 X117.739 Y110.581 E1.92552
G1 X117.799 Y110.109 E1.93422
G1 X117.776 Y109.635 E1.9429
G1 X117.675 Y109.172 E1.95157
G1 X117.496 Y108.73 E1.96029
G1 X117.245 Y108.327 E1.96898
G1 X116.93 Y107.972 E1.97766
G1 X116.56 Y107.675 E1.98634
G1 X116.145 Y107.445 E1.99502
G1 X115.692 Y107.286 E2.0038
G1 X114.996 Y107.198 E2.01663
G0 F3600 X114.798 Y107.223
G0 X114.743 Y106.787
G0 X113.059 Y106.997
;TYPE:WALL-INNER
G1 F600 X113.087 Y107.006 E2.01717
G1 X113.495 Y106.776 E2.02484
G1 X113.707 Y106.657 E2.02905
G1 X113.81 Y106.598 E2.03122
G1 X113.986 Y105.788 E2.04639
G1 X113.543 Y105.187 E2.06005
G1 X113.082 Y105.028 E2.06897
G1 X112.366 Y105.216 E2.08251
G1 X111.993 Y105.957 E2.09768
G1 X112.302 Y106.729 E2.11289
G1 X113.059 Y106.997 E2.12758
G0 F3600 X113.049 Y106.568
;TYPE:WALL-OUTER
G1 F600 X113.457 Y106.338 E2.13615
G1 X113.557 Y105.88 E2.14473
G1 X113.295 Y105.525 E2.1528
G1 X113.066 Y105.446 E2.15723
G1 X112.642 Y105.557 E2.16525
G1 X112.431 Y105.976 E2.17383
G1 X112.606 Y106.412 E2.18242
G1 X113.049 Y106.568 E2.19102
G0 F3600 X113.223 Y106.47
G0 X113.438 Y106.854
;;retract;;
G1 F6000 E-5.80898
G0 F3600 X113.914 Y108.407
G0 X105.991 Y114.003
G0 X104.738 Y114.387
;TYPE:WALL-INNER
G1 F6000 E2.19102
G1 F600 X105.087 Y114.953 E2.20318
G1 X105.205 Y115.019 E2.20565
G1 X105.668 Y115.277 E2.21211
G1 X106.332 Y115.277 E2.21585
G1 X106.795 Y115.019 E2.2223
G1 X106.913 Y114.953 E2.22478
G1 X107.262 Y114.387 E2.23694
G1 X107.29 Y113.721 E2.24914
G1 X106.99 Y113.129 E2.26128
G1 X106.483 Y112.785 E2.27248
G1 X106.161 Y112.703 E2.27856
G1 X105.559 Y112.756 E2.28962
G1 X105.01 Y113.129 E2.30176
G1 X104.71 Y113.721 E2.3139
G1 X104.738 Y114.387 E2.32609
G0 F3600 X105.133 Y114.266
;TYPE:WALL-OUTER
G1 F600 X105.373 Y114.654 E2.33444
G1 X105.772 Y114.877 E2.3428
G1 X106.228 Y114.877 E2.35114
G1 X106.627 Y114.654 E2.3595
G1 X106.867 Y114.266 E2.36785
G1 X106.886 Y113.809 E2.37622
G1 X106.68 Y113.402 E2.38456
G1 X106.316 Y113.155 E2.39261
G1 X106.128 Y113.107 E2.39616
G1 X105.698 Y113.145 E2.40405
G1 X105.32 Y113.402 E2.41242
G1 X105.114 Y113.809 E2.42076
G1 X105.133 Y114.266 E2.42913
G0 F3600 X105.238 Y114.436
G0 X104.863 Y114.666
G0 X103.087 Y114.006
;TYPE:WALL-INNER
G1 F600 X103.81 Y113.598 E2.44431
G1 X103.986 Y112.788 E2.45948
G1 X103.543 Y112.187 E2.47314
G1 X103.082 Y112.028 E2.48206
G1 X102.366 Y112.216 E2.4956
G1 X101.993 Y112.957 E2.51077
G1 X102.302 Y113.729 E2.52599
G1 X103.087 Y114.006 E2.54121
G0 F3600 X103.049 Y113.568
;TYPE:WALL-OUTER
G1 F600 X103.457 Y113.338 E2.54978
G1 X103.557 Y112.88 E2.55836
G1 X103.295 Y112.525 E2.56643
G1 X103.066 Y112.446 E2.57086
G1 X102.642 Y112.557 E2.57888
G1 X102.431 Y112.976 E2.58746
G1 X102.606 Y113.412 E2.59605
G1 X103.049 Y113.568 E2.60464
G0 F3600 X103.223 Y113.47
G0 X103.438 Y113.854
G0 X103.795 Y111.067
;TYPE:WALL-INNER
G1 F600 X104.221 Y111.406 E2.6146
G1 X104.708 Y111.577 E2.62405
G1 X105.027 Y111.604 E2.6299
G1 X105.54 Y111.515 E2.63943
G1 X106.014 Y111.248 E2.64938
G1 X106.373 Y110.839 E2.65933
G1 X106.574 Y110.334 E2.66928
G1 X106.594 Y109.791 E2.67922
G1 X106.434 Y109.271 E2.68917
G1 X106.109 Y108.835 E2.69912
G1 X105.658 Y108.533 E2.70905
G1 X105.134 Y108.398 E2.71894
G1 X104.591 Y108.444 E2.72891
G1 X104.095 Y108.669 E2.73888
G1 X103.703 Y109.048 E2.74885
G1 X103.461 Y109.533 E2.75877
G1 X103.392 Y110.073 E2.76872
G1 X103.51 Y110.604 E2.77868
G1 X103.795 Y111.067 E2.78862
G0 F3600 X104.099 Y110.798
;TYPE:WALL-OUTER
G1 F600 X104.417 Y111.051 E2.79605
G1 X104.792 Y111.183 E2.80333
G1 X105.009 Y111.201 E2.80731
G1 X105.404 Y111.133 E2.81464
G1 X105.758 Y110.933 E2.82208
G1 X106.027 Y110.627 E2.82953
G1 X106.177 Y110.25 E2.83696
G1 X106.192 Y109.844 E2.84439
G1 X106.072 Y109.455 E2.85183
G1 X105.829 Y109.129 E2.85927
G1 X105.492 Y108.903 E2.8667
G1 X105.1 Y108.802 E2.8741
G1 X104.694 Y108.837 E2.88155
G1 X104.323 Y109.005 E2.889
G1 X104.03 Y109.288 E2.89646
G1 X103.849 Y109.651 E2.90388
G1 X103.798 Y110.054 E2.91131
G1 X103.886 Y110.452 E2.91876
G1 X104.099 Y110.798 E2.9262
G0 F3600 X104.255 Y110.922
G0 X103.98 Y111.266
;;retract;;
G1 F6000 E-5.0738
G0 F3600 X104.758 Y110.212
G0 X102.991 Y107.003
G0 X101.738 Y107.387
;TYPE:WALL-INNER
G1 F6000 E2.9262
G1 F600 X102.087 Y107.953 E2.93836
G1 X102.668 Y108.277 E2.95053
G1 X103.332 Y108.277 E2.96268
G1 X103.913 Y107.953 E2.97485
G1 X104.262 Y107.387 E2.98701
G1 X104.29 Y106.721 E2.9992
G1 X103.99 Y106.129 E3.01134
G1 X103.483 Y105.785 E3.02255
G1 X103.161 Y105.703 E3.02863
G1 X102.559 Y105.756 E3.03969
G1 X102.01 Y106.129 E3.05183
G1 X101.71 Y106.721 E3.06397
G1 X101.738 Y107.387 E3.07616
G0 F3600 X102.133 Y107.266
;TYPE:WALL-OUTER
G1 F600 X102.373 Y107.654 E3.08451
G1 X102.772 Y107.877 E3.09287
G1 X103.228 Y107.877 E3.10121
G1 X103.627 Y107.654 E3.10957
G1 X103.867 Y107.266 E3.11792
G1 X103.886 Y106.809 E3.12629
G1 X103.68 Y106.402 E3.13463
G1 X103.316 Y106.155 E3.14268
G1 X103.128 Y106.107 E3.14623
G1 X102.698 Y106.145 E3.15412
G1 X102.32 Y106.402 E3.16248
G1 X102.114 Y106.809 E3.17083
G1 X102.133 Y107.266 E3.1792
G0 F3600 X102.238 Y107.436
G0 X101.863 Y107.666
G0 X106.087 Y107.006
;TYPE:WALL-INNER
G1 F600 X106.81 Y106.598 E3.19438
G1 X106.986 Y105.788 E3.20955
G1 X106.543 Y105.187 E3.2232
G1 X106.082 Y105.028 E3.23212
G1 X105.366 Y105.216 E3.24567
G1 X104.993 Y105.957 E3.26084
G1 X105.302 Y106.729 E3.27605
G1 X106.087 Y107.006 E3.29128
G0 F3600 X106.049 Y106.568
;TYPE:WALL-OUTER
G1 F600 X106.457 Y106.338 E3.29985
G1 X106.557 Y105.88 E3.30842
G1 X106.295 Y105.525 E3.3165
G1 X106.066 Y105.446 E3.32093
G1 X105.642 Y105.557 E3.32895
G1 X105.431 Y105.976 E3.33753
G1 X105.606 Y106.412 E3.34612
G1 X106.049 Y106.568 E3.35471
G0 F3600 X106.223 Y106.47
G0 X106.438 Y106.854
G0 X109.192 Y107.795
;TYPE:WALL-INNER
G1 F600 X108.645 Y107.869 E3.36481
G1 X108.282 Y107.998 E3.37186
G1 X107.956 Y108.183 E3.37871
G1 X107.667 Y108.421 E3.38556
G1 X107.423 Y108.702 E3.39237
G1 X107.229 Y109.019 E3.39917
G1 X107.091 Y109.367 E3.40602
G1 X107.016 Y109.733 E3.41285
G1 X107 Y110.106 E3.41968
G1 X107.051 Y110.476 E3.42651
G1 X107.161 Y110.833 E3.43335
G1 X107.333 Y111.166 E3.4402
G1 X107.556 Y111.464 E3.44701
G1 X107.827 Y111.72 E3.45383
G1 X108.137 Y111.928 E3.46066
G1 X108.479 Y112.08 E3.46751
G1 X108.841 Y112.172 E3.47434
G1 X109.212 Y112.201 E3.48115
G1 X109.584 Y112.168 E3.48798
G1 X109.945 Y112.072 E3.49481
G1 X110.285 Y111.916 E3.50166
G1 X110.593 Y111.705 E3.50849
G1 X110.861 Y111.445 E3.51532
G1 X111.08 Y111.145 E3.52211
G1 X111.249 Y110.809 E3.52899
G1 X111.354 Y110.451 E3.53582
G1 X111.401 Y110.081 E3.54264
G1 X111.382 Y109.708 E3.54947
G1 X111.302 Y109.344 E3.55629
G1 X111.16 Y108.996 E3.56316
G1 X110.962 Y108.681 E3.56997
G1 X110.714 Y108.402 E3.5768
G1 X110.421 Y108.169 E3.58365
G1 X110.096 Y107.989 E3.59044
G1 X109.732 Y107.862 E3.5975
G1 X109.192 Y107.795 E3.60745
G0 F3600 X109.194 Y108.198
;TYPE:WALL-OUTER
G1 F600 X108.74 Y108.26 E3.61583
G1 X108.449 Y108.363 E3.62148
G1 X108.183 Y108.514 E3.62707
G1 X107.947 Y108.708 E3.63266
G1 X107.747 Y108.939 E3.63825
G1 X107.588 Y109.198 E3.64381
G1 X107.476 Y109.482 E3.6494
G1 X107.414 Y109.782 E3.655
G1 X107.401 Y110.087 E3.66058
G1 X107.443 Y110.389 E3.66616
G1 X107.533 Y110.681 E3.67175
G1 X107.673 Y110.953 E3.67735
G1 X107.856 Y111.197 E3.68293
G1 X108.078 Y111.407 E3.68852
G1 X108.331 Y111.577 E3.69409
G1 X108.61 Y111.701 E3.69968
G1 X108.906 Y111.776 E3.70526
G1 X109.21 Y111.8 E3.71084
G1 X109.514 Y111.773 E3.71643
G1 X109.809 Y111.694 E3.72201
G1 X110.087 Y111.567 E3.7276
G1 X110.339 Y111.394 E3.73319
G1 X110.558 Y111.182 E3.73877
G1 X110.737 Y110.936 E3.74434
G1 X110.875 Y110.662 E3.74995
G1 X110.961 Y110.369 E3.75553
G1 X111 Y110.066 E3.76112
G1 X110.984 Y109.761 E3.76671
G1 X110.919 Y109.463 E3.77229
G1 X110.803 Y109.18 E3.77788
G1 X110.641 Y108.922 E3.78346
G1 X110.438 Y108.693 E3.78905
G1 X110.199 Y108.503 E3.79464
G1 X109.932 Y108.356 E3.80022
G1 X109.64 Y108.254 E3.80587
G1 X109.194 Y108.198 E3.8141
G0 F3600 X108.996 Y108.225
G0 X108.938 Y107.788
;;retract;;
G1 F6000 E-4.1859
G0 F3600 X109.199 Y109.074
G0 X113.074 Y116.67
G0 X113.074 Y115.002
;TYPE:WALL-INNER
G1 F6000 E3.8141
G1 F600 X113.087 Y115.006 E3.81434
G1 X113.094 Y115.002 E3.81449
G1 X113.81 Y114.598 E3.82953
G1 X113.986 Y113.788 E3.84469
G1 X113.637 Y113.315 E3.85545
G1 X113.543 Y113.187 E3.85805
G1 X113.341 Y113.118 E3.86117
G1 X113.082 Y113.028 E3.86581
G1 X113.076 Y113.029 E3.86592
G1 X112.366 Y113.216 E3.87935
G1 X111.993 Y113.957 E3.89453
G1 X112.302 Y114.729 E3.90974
G1 X113.074 Y115.002 E3.92472
G0 F3600 X113.049 Y114.568
;TYPE:WALL-OUTER
G1 F600 X113.457 Y114.338 E3.93329
G1 X113.557 Y113.88 E3.94186
G1 X113.295 Y113.525 E3.94993
G1 X113.066 Y113.446 E3.95436
