;FLAVOR:Marlin
;TIME:2023
;Filament used:0.252508m
;Layer height: 0.1
;MINX:99.33
;MINY:103.33
;MINZ:0.1
;MAXX:120.67
;MAXY:116.67
;MAXZ:4.2
                                 
;Creality Print GCode Generated by CXEngine:NO_MAGE_VERSION_GIT_HEAD_BRANCH
;CXEngine Release Time:2022-09-30 09:53:04
;Gcode Generated Time:2023-01-14 05:45:34
;----------Machine Config--------------
;Machine Name:Creality Ender-3
;Machine Height:250
;Machine Width:220
;Machine Depth:220
;Material name:PLA
;Number of Extruders:1
;ExtruderParams[0] Nozzle Diameter1000
;----------Profile Config---------------
;Engine Version:275f99b
;Engine Release Time:2022-09-30 09:42:18
;Layer Height:0.1
;Wall Thickness:0.8
;Top/Bottom Thickness:0.5
;Out Wall Line Width:0.4
;Inner Wall Line Width:0.4
;Inital Layer Height:100
;Wall Line Count:2
;Infill Line Distance:4
;Infill Pattern:grid
;Infill Sparse Density:20
;Infill Wipe Distance:0
;Print Temperature:200
;Bed Temperature:60
;Support Enable:true
;Support Density:0
;Support Angle:60
;Adhesion Type:none
;machine is belt:false
;machine belt offset:10
;machine belt offset Y:0
;Raft Base Line Spacing:1.6
;Wait Heatup Sync:true
;----------Shell Config----------------
;Outer Wall Wipe Distance:200
;Outer Inset First:false
;Infill Before Walls:false
;Infill Overlap:0.16
;Fill Gaps Between Walls:everywhere
;Minimum Infill Area:1
;Top Surface Skin Layer:0
;Top Layers:4
;Z Seam Alignment:sharpest_corner
;Seam Corner Preference:z_seam_corner_inner
;Z Seam X:110
;Z Seam Y:110
;Horizontal Expansion:0
;Top/Bottom Pattern:zigzag
;Ironing Pattern:zigzag
;Vase Model:false
;----------Support Config----------------
;Support Type:everywhere
;Support Pattern:zigzag
;Support Infill Layer Thickness:0.1
;Minimum Support Area:5
;Enable Support Roof:true
;Support Roof Thickness:0.8
;Support Roof Pattern:lines
;Connect Support Lines:0
;Connect Support ZigZags:0
;Minimum Support X/Y Distance:0.2
;Support Line Distance:0
; ---------PrintSpeed & Travel----------
;Enable Print Cool:true
;Avoid Printed Parts Traveling:true
;Enable Retraction:true
;Retraction Distance:8
;Retraction Speed:100
;Retraction Prime Speed:100
;Maximum Retraction Count:100
;Minimum Extrusion Distance Window:1
;Z Hop When Retracted:false
;Z Hop Height:0.2
;Retract Before Outer Wall:true
;Print Speed:50
;Infill Speed:50

;Prime Tower Speed:50
;Travel Speed:120
;Initial Layer Speed:25
;Skirt/Brim Speed:25
;Combing Mode:infill
; --------SpecialModel&Mesh Fixes--------
;Union Overlapping Volum:true
;Remove All Holes:false
;Maximum Travel Resolution:0.6
;Maximum Deviation:0.05
;Maximum Model Angle:0.872665
;IS Mold Print:false
;Make Overhang Printable:false
;Enable Coasting:false
;Coasting Volumes:0.06
;Coasting Speed:0.9
;Raft AirGap:0.25
;Layer0 ZOverLap:0.13
;---------------------End of Head--------------------------
M140 S60
M105
M104 S200
M105
M109 S200
M105
M190 S60
M82 ;absolute extrusion mode
M220 S100 ;Reset Feedrate
M221 S100 ;Reset Flowrate

G28 ;Home

G92 E0 ;Reset Extruder
G1 Z2.0 F3000 ;Move Z Axis up
G1 X10.1 Y20 Z0.28 F5000.0 ;Move to start position
G1 X10.1 Y145.0 Z0.28 F1500.0 E15 ;Draw the first line
G1 X10.4 Y145.0 Z0.28 F5000.0 ;Move to side a little
G1 X10.4 Y20 Z0.28 F1500.0 E30 ;Draw the second line
G92 E0  ;Reset Extruder
G1 E-1.0000 F1800 ;Retract a bit
G1 Z2.0 F3000 ;Move Z Axis up
G1 E0.0000 F1800 

G92 E0
G92 E0
G1 F6000 E-8

;LAYER_COUNT:42

;LAYER:0
M107
;MESH:
G0 F3600 X105.187 Y107.006 Z0.1
;TYPE:WALL-INNER
G1 F6000 E0
G1 F600 X105.91 Y106.598 E0.01519
G1 X106.086 Y105.788 E0.03035
G1 X105.643 Y105.187 E0.04401
G1 X105.182 Y105.028 E0.05293
G1 X104.466 Y105.216 E0.06647
G1 X104.143 Y105.856 E0.07958
G1 X104.093 Y105.957 E0.08165
G1 X104.138 Y106.069 E0.08385
G1 X104.383 Y106.683 E0.09595
G1 X104.402 Y106.729 E0.09686
G1 X104.585 Y106.793 E0.1004
G1 X105.187 Y107.006 E0.11209
G0 F3600 X105.149 Y106.568
;TYPE:WALL-OUTER
G1 F600 X105.557 Y106.338 E0.12065
G1 X105.657 Y105.88 E0.12923
G1 X105.395 Y105.525 E0.1373
G1 X105.166 Y105.446 E0.14173
G1 X104.742 Y105.557 E0.14975
G1 X104.531 Y105.976 E0.15833
G1 X104.706 Y106.412 E0.16692
G1 X105.149 Y106.568 E0.17552
G0 F3600 X105.323 Y106.47
G0 X105.538 Y106.854
G0 X101.738 Y107.387
;TYPE:WALL-INNER
G1 F600 X102.087 Y107.953 E0.18768
G1 X102.668 Y108.277 E0.19985
G1 X103.332 Y108.277 E0.212
G1 X103.913 Y107.953 E0.22417
G1 X104.262 Y107.387 E0.23633
G1 X104.282 Y106.915 E0.24497
G1 X104.29 Y106.721 E0.2475
G1 X103.99 Y106.129 E0.25146
G1 X103.981 Y106.123
G1 X103.888 Y106.06 E0.25313
G1 X103.483 Y105.785 E0.26208
G1 X103.165 Y105.704 E0.26808
G1 X102.56 Y105.755 E0.27919
G1 X102.01 Y106.129 E0.29136
G1 X101.71 Y106.721 E0.3035
G1 X101.738 Y107.387 E0.31569
G0 F3600 X102.133 Y107.266
;TYPE:WALL-OUTER
G1 F600 X102.373 Y107.654 E0.32404
G1 X102.772 Y107.877 E0.3324
G1 X103.228 Y107.877 E0.34074
G1 X103.627 Y107.654 E0.3491
G1 X103.867 Y107.266 E0.35745
G1 X103.886 Y106.809 E0.36582
G1 X103.68 Y106.402 E0.37416
G1 X103.316 Y106.155 E0.38221
G1 X103.132 Y106.108 E0.38568
G1 X102.698 Y106.145 E0.39365
G1 X102.32 Y106.402 E0.40201
G1 X102.114 Y106.809 E0.41036
G1 X102.133 Y107.266 E0.41872
G0 F3600 X102.238 Y107.436
G0 X101.863 Y107.666
;;retract;;
G1 F6000 E-7.58128
G0 F3600 X102.992 Y107.006
G0 X101.991 Y110.003
G0 X100.738 Y110.387
;TYPE:WALL-INNER
G1 F6000 E0.41872
G1 F600 X100.982 Y110.784 E0.42725
G1 X101.087 Y110.953 E0.43089
G1 X101.668 Y111.277 E0.44306
G1 X102.332 Y111.277 E0.4552
G1 X102.913 Y110.953 E0.46737
G1 X103.262 Y110.387 E0.47954
G1 X103.29 Y109.721 E0.49173
G1 X102.99 Y109.129 E0.50387
G1 X102.483 Y108.785 E0.51508
G1 X102.165 Y108.704 E0.52108
G1 X101.56 Y108.755 E0.53219
G1 X101.01 Y109.129 E0.54436
G1 X100.988 Y109.171 E0.54522
G1 X100.71 Y109.721 E0.5565
G1 X100.738 Y110.387 E0.56869
G0 F3600 X101.133 Y110.266
;TYPE:WALL-OUTER
G1 F600 X101.373 Y110.654 E0.57704
G1 X101.772 Y110.877 E0.5854
G1 X102.228 Y110.877 E0.59374
G1 X102.627 Y110.654 E0.6021
G1 X102.867 Y110.266 E0.61045
G1 X102.886 Y109.809 E0.61881
G1 X102.68 Y109.402 E0.62716
G1 X102.316 Y109.155 E0.63521
G1 X102.132 Y109.108 E0.63868
G1 X101.698 Y109.145 E0.64665
G1 X101.32 Y109.402 E0.65501
G1 X101.114 Y109.809 E0.66335
G1 X101.133 Y110.266 E0.67172
G0 F3600 X101.238 Y110.436
G0 X100.863 Y110.666
;;retract;;
G1 F6000 E-7.32828
G0 F3600 X101.992 Y110.006
G0 X102.244 Y114.001
G0 X101.926 Y115.248
;TYPE:WALL-INNER
G1 F6000 E0.67172
G1 F600 X102.434 Y115.288 E0.68104
G1 X102.926 Y115.158 E0.69035
G1 X103.137 Y115.015 E0.69501
G1 X103.349 Y114.871 E0.6997
G1 X103.65 Y114.457 E0.70907
G1 X103.797 Y113.971 E0.71835
G1 X103.773 Y113.46 E0.72771
G1 X103.58 Y112.989 E0.73702
G1 X103.243 Y112.61 E0.7463
G1 X102.818 Y112.373 E0.7552
G1 X102.52 Y112.299 E0.76082
G1 X102.039 Y112.3 E0.76962
G1 X101.559 Y112.471 E0.77894
G1 X101.163 Y112.794 E0.78829
G1 X100.993 Y113.073 E0.79426
G1 X100.898 Y113.229 E0.79761
G1 X100.793 Y113.728 E0.80693
G1 X100.858 Y114.234 E0.81627
G1 X100.991 Y114.493 E0.82159
G1 X101.092 Y114.689 E0.82563
G1 X101.427 Y115.007 E0.83408
G1 X101.46 Y115.038 E0.8349
G1 X101.926 Y115.248 E0.84425
G0 F3600 X102.027 Y114.855
;TYPE:WALL-OUTER
G1 F600 X102.398 Y114.884 E0.85106
G1 X102.758 Y114.789 E0.85787
G1 X103.067 Y114.579 E0.86471
G1 X103.287 Y114.277 E0.87154
G1 X103.394 Y113.921 E0.87834
G1 X103.377 Y113.548 E0.88517
G1 X103.236 Y113.204 E0.89197
G1 X102.989 Y112.926 E0.89878
G1 X102.67 Y112.748 E0.90546
G1 X102.472 Y112.699 E0.90919
G1 X102.109 Y112.7 E0.91583
G1 X101.758 Y112.825 E0.92265
G1 X101.469 Y113.061 E0.92947
G1 X101.275 Y113.379 E0.93629
G1 X101.198 Y113.744 E0.94311
G1 X101.246 Y114.113 E0.94992
G1 X101.417 Y114.446 E0.95676
G1 X101.686 Y114.701 E0.96354
G1 X102.027 Y114.855 E0.97039
G0 F3600 X102.226 Y114.87
G0 X102.191 Y115.308
;;retract;;
G1 F6000 E-7.02961
G0 F3600 X102.318 Y114.007
G0 X106.374 Y116.67
G0 X106.374 Y115.002
;TYPE:WALL-INNER
G1 F6000 E0.97039
G1 F600 X106.387 Y115.006 E0.97064
G1 X106.394 Y115.002 E0.97079
G1 X107.11 Y114.598 E0.98582
G1 X107.286 Y113.788 E1.00099
G1 X106.843 Y113.187 E1.01465
G1 X106.382 Y113.028 E1.02357
G1 X105.666 Y113.216 E1.03711
G1 X105.293 Y113.957 E1.05228
G1 X105.602 Y114.729 E1.0675
G1 X106.374 Y115.002 E1.08247
G0 F3600 X106.349 Y114.568
;TYPE:WALL-OUTER
G1 F600 X106.757 Y114.338 E1.09104
G1 X106.857 Y113.88 E1.09962
G1 X106.595 Y113.525 E1.10769
G1 X106.366 Y113.446 E1.11212
G1 X105.942 Y113.557 E1.12014
G1 X105.731 Y113.976 E1.12872
G1 X105.906 Y114.412 E1.13731
G1 X106.349 Y114.568 E1.14591
G0 F3600 X106.523 Y114.47
G0 X106.738 Y114.854
;;retract;;
G1 F6000 E-6.85409
G0 F3600 X106.738 Y116.67
G0 X116.001 Y114.49
G0 X116.044 Y113.191
;TYPE:WALL-INNER
G1 F6000 E1.14591
G1 F1500 X116 Y113.179 E1.14674
G1 X115.603 Y113.283 E1.15425
G1 X115.41 Y113.334 E1.1579
G1 X115.19 Y113.481 E1.16274
G1 X115.139 Y113.515 E1.16386
G1 X115.109 Y113.556 E1.16479
G1 X114.774 Y114.008 E1.17508
G1 X114.691 Y114.668 E1.18725
G1 X114.861 Y115.09 E1.19557
G1 X114.939 Y115.285 E1.19941
G1 X115.082 Y115.4 E1.20277
G1 X114.939 Y115.4 E1.20298
G1 X114.729 Y115.4 E1.20569
G1 X111.896 Y115.4 E1.25751
G1 X111.887 Y115.4 E1.25768
G1 X111.873 Y115.4 E1.25793
G1 X106.396 Y115.4 E1.35812
G1 X106.387 Y115.4 E1.35829
G1 X106.373 Y115.4 E1.35854
G1 X103.181 Y115.4 E1.41693
G1 X102.926 Y115.4 E1.42072
G1 X102.434 Y115.4 E1.42467
G1 X101.926 Y115.4 E1.42775
G1 X101.46 Y115.4 E1.43317
G1 X101.414 Y115.4 E1.43397
G1 X100.6 Y115.4 E1.44886
G1 X100.6 Y114.525 E1.46487
G1 X100.6 Y114.234 E1.46928
G1 X100.601 Y113.728 E1.47449
G1 X100.602 Y113.229 E1.48025
G1 X100.602 Y113.046 E1.48319
G1 X100.604 Y110.853 E1.5233
G1 X100.604 Y110.387 E1.52911
G1 X100.605 Y109.721 E1.53275
G1 X100.605 Y109.105 E1.53999
G1 X100.611 Y104.6 E1.6224
G1 X112.394 Y104.611 E1.83794
G1 X112.396 Y104.611 E1.83798
G1 X112.717 Y104.611 E1.84385
G1 X112.573 Y104.899 E1.84724
G1 X112.493 Y105.057 E1.85048
G1 X112.802 Y105.829 E1.86569
G1 X113.587 Y106.106 E1.88092
G1 X114.303 Y105.702 E1.89596
G1 X114.31 Y105.698 E1.8961
G1 X114.333 Y105.591 E1.89811
G1 X114.474 Y104.943 E1.91024
G1 X114.486 Y104.888 E1.91127
G1 X114.283 Y104.613 E1.91752
G1 X114.486 Y104.613 E1.9183
G1 X114.774 Y104.613 E1.92229
G1 X115.065 Y104.614 E1.92762
G1 X114.774 Y105.008 E1.93333
G1 X114.691 Y105.668 E1.94358
G1 X114.694 Y105.676 E1.94374
G1 X114.939 Y106.285 E1.95575
G1 X115.189 Y106.486 E1.96161
G1 X115.217 Y106.509 E1.96228
G1 X115.457 Y106.703 E1.96792
G1 X115.791 Y106.76 E1.97412
G1 X116.059 Y106.806 E1.97909
G1 X116.241 Y106.775 E1.98247
G1 X116.379 Y106.751 E1.98503
G1 X116.43 Y106.723 E1.9861
G1 X116.913 Y106.453 E1.99622
G1 X117.262 Y105.887 E2.00839
G1 X117.29 Y105.221 E2.02058
G1 X117.124 Y104.907 E2.02708
G1 X116.97 Y104.615 E2.03312
G1 X117.3 Y104.615 E2.03657
G1 X117.301 Y104.615 E2.03659
G1 X119.4 Y104.618 E2.07498
G1 X119.4 Y115.4 E2.27222
G1 X117.236 Y115.4 E2.31181
G1 X117.179 Y115.4 E2.31285
G1 X116.91 Y115.4 E2.31777
G1 X117.179 Y115.094 E2.32173
G1 X117.19 Y115.039 E2.32267
G1 X117.318 Y114.443 E2.33382
G1 X117.124 Y113.808 E2.34596
G1 X116.644 Y113.348 E2.35813
G1 X116.328 Y113.265 E2.3641
G1 X116.044 Y113.191 E2.36947
G0 F3600 X116 Y113.593
;TYPE:WALL-OUTER
G1 F600 X115.576 Y113.704 E2.37749
G1 X115.419 Y113.809 E2.38094
G1 X115.158 Y114.162 E2.38898
G1 X115.101 Y114.615 E2.39733
G1 X115.271 Y115.039 E2.40568
G1 X115.627 Y115.326 E2.41405
G1 X116.06 Y115.401 E2.42209
G1 X116.076 Y115.403 E2.42238
G1 X116.083 Y115.401 E2.42252
G1 X116.508 Y115.251 E2.43076
G1 X116.81 Y114.908 E2.43912
G1 X116.905 Y114.461 E2.44748
G1 X116.772 Y114.025 E2.45582
G1 X116.442 Y113.709 E2.46418
G1 X116 Y113.593 E2.47254
G0 F3600 X115.807 Y113.643
G0 X115.697 Y113.218
;;retract;;
G1 F6000 E-5.52746
G0 F3600 X115.993 Y114.49
G0 X111.874 Y116.67
G0 X111.874 Y115.002
;TYPE:WALL-INNER
G1 F6000 E2.47254
G1 F1500 X111.887 Y115.006 E2.47278
G1 X111.894 Y115.002 E2.47293
G1 X112.61 Y114.598 E2.48797
G1 X112.786 Y113.788 E2.50313
G1 X112.343 Y113.187 E2.51679
G1 X111.882 Y113.028 E2.52571
G1 X111.813 Y113.046 E2.52702
G1 X111.66 Y113.086 E2.52991
G1 X111.727 Y112.951 E2.5305
G1 X111.767 Y112.871 E2.53091
G1 X111.881 Y112.491 E2.53817
G1 X111.933 Y112.095 E2.54547
G1 X111.917 Y111.76 E2.55161
G1 X111.916 Y111.719 E2.55236
G1 X111.915 Y111.698 E2.55274
G1 X111.83 Y111.305 E2.5601
G1 X111.672 Y110.923 E2.56766
G1 X111.63 Y110.855 E2.56912
G1 X111.461 Y110.585 E2.57495
G1 X111.457 Y110.581 E2.57505
G1 X111.194 Y110.29 E2.58223
G1 X110.883 Y110.042 E2.5895
G1 X110.722 Y109.962 E2.59279
G1 X110.705 Y109.954 E2.59314
G1 X110.409 Y109.807 E2.59918
G1 X110.731 Y109.675 E2.60188
G1 X110.871 Y109.617 E2.60427
G1 X110.887 Y109.606 E2.60461
G1 X111.179 Y109.407 E2.61108
G1 X111.448 Y109.145 E2.61795
G1 X111.587 Y108.952 E2.6223
G1 X111.64 Y108.879 E2.62395
G1 X111.667 Y108.843 E2.62477
G1 X111.831 Y108.508 E2.6316
G1 X111.835 Y108.494 E2.63186
G1 X111.939 Y108.151 E2.63842
G1 X111.942 Y108.125 E2.6389
G1 X111.982 Y107.779 E2.64527
G1 X111.964 Y107.406 E2.6521
G1 X111.881 Y107.042 E2.65893
G1 X111.739 Y106.696 E2.66577
G1 X111.541 Y106.381 E2.67258
G1 X111.293 Y106.103 E2.67939
G1 X111 Y105.871 E2.68623
G1 X110.672 Y105.691 E2.69307
G1 X110.308 Y105.566 E2.70011
G1 X109.772 Y105.5 E2.70999
G1 X109.221 Y105.576 E2.72017
G1 X108.86 Y105.708 E2.7272
G1 X108.535 Y105.891 E2.73402
G1 X108.245 Y106.129 E2.74088
G1 X108.002 Y106.411 E2.74769
G1 X107.809 Y106.73 E2.75451
G1 X107.673 Y107.078 E2.76135
G1 X107.597 Y107.443 E2.76817
G1 X107.585 Y107.816 E2.775
G1 X107.634 Y108.186 E2.78182
G1 X107.747 Y108.542 E2.78866
G1 X107.918 Y108.876 E2.79552
G1 X108.143 Y109.172 E2.80232
G1 X108.413 Y109.429 E2.80914
G1 X108.635 Y109.576 E2.81401
G1 X108.726 Y109.636 E2.81601
G1 X108.954 Y109.736 E2.82056
G1 X108.785 Y109.797 E2.82098
G1 X108.597 Y109.866 E2.82294
G1 X108.502 Y109.92 E2.82464
G1 X108.25 Y110.063 E2.82994
G1 X107.948 Y110.31 E2.83708
G1 X107.689 Y110.605 E2.84426
G1 X107.481 Y110.945 E2.85155
G1 X107.332 Y111.316 E2.85887
G1 X107.25 Y111.707 E2.86618
G1 X107.232 Y112.105 E2.87346
G1 X107.285 Y112.502 E2.88079
G1 X107.403 Y112.88 E2.88803
G1 X107.581 Y113.238 E2.89535
G1 X107.822 Y113.557 E2.90266
G1 X108.108 Y113.833 E2.90993
G1 X108.44 Y114.055 E2.91724
G1 X108.804 Y114.219 E2.92454
G1 X109.189 Y114.319 E2.93182
G1 X109.588 Y114.352 E2.93914
G1 X109.984 Y114.317 E2.94641
G1 X110.37 Y114.216 E2.95371
G1 X110.617 Y114.094 E2.95875
G1 X110.618 Y114.093 E2.95878
G1 X110.81 Y113.999 E2.96269
G1 X110.889 Y114.198 E2.96517
G1 X111.102 Y114.729 E2.97564
G1 X111.874 Y115.002 E2.99061
G0 F3600 X111.849 Y114.568
;TYPE:WALL-OUTER
G1 F600 X112.257 Y114.338 E2.99918
G1 X112.357 Y113.88 E3.00776
G1 X112.095 Y113.525 E3.01583
G1 X111.866 Y113.446 E3.02026
G1 X111.442 Y113.557 E3.02828
G1 X111.231 Y113.976 E3.03686
G1 X111.406 Y114.412 E3.04545
G1 X111.849 Y114.568 E3.05405
G0 F3600 X112.023 Y114.47
G0 X112.238 Y114.854
;;retract;;
G1 F6000 E-4.94595
G0 F3600 X112.238 Y116.67
G0 X109.583 Y110.924
G0 X109.575 Y110.048
G1 F6000 E3.05405
G1 F600 X109.08 Y110.116 E3.06319
G1 X108.765 Y110.23 E3.06931
G1 X108.477 Y110.394 E3.07538
G1 X108.227 Y110.599 E3.08129
G1 X108.012 Y110.843 E3.08724
G1 X107.84 Y111.125 E3.09328
G1 X107.716 Y111.433 E3.09936
G1 X107.648 Y111.757 E3.10541
G1 X107.633 Y112.087 E3.11146
G1 X107.677 Y112.415 E3.11751
G1 X107.775 Y112.73 E3.12354
G1 X107.923 Y113.027 E3.12961
G1 X108.122 Y113.291 E3.13566
G1 X108.36 Y113.52 E3.1417
G1 X108.635 Y113.704 E3.14776
G1 X108.937 Y113.84 E3.15382
G1 X109.257 Y113.923 E3.15986
G1 X109.587 Y113.951 E3.16592
G1 X109.915 Y113.922 E3.17194
G1 X110.236 Y113.838 E3.17801
G1 X110.537 Y113.701 E3.18406
G1 X110.812 Y113.516 E3.19013
G1 X111.049 Y113.285 E3.19618
G1 X111.246 Y113.02 E3.20222
G1 X111.394 Y112.723 E3.20829
G1 X111.489 Y112.407 E3.21433
G1 X111.532 Y112.078 E3.2204
G1 X111.517 Y111.75 E3.2264
G1 X111.447 Y111.425 E3.23249
G1 X111.315 Y111.107 E3.23878
G1 X111.14 Y110.827 E3.24482
G1 X110.919 Y110.582 E3.25086
G1 X110.661 Y110.376 E3.2569
G1 X110.37 Y110.217 E3.26297
G1 X110.054 Y110.107 E3.26909
G1 X109.575 Y110.048 E3.27792
G0 F3600 X109.377 Y110.075
;;retract;;
G1 F6000 E-4.72208
G0 F3600 X109.583 Y110.924
