;FLAVOR:Marlin
;TIME:3807
;Filament used:0.566306m
;Layer height: 0.1
;MINX:99.33
;MINY:103.33
;MINZ:0.1
;MAXX:120.67
;MAXY:116.67
;MAXZ:9.2
                                 
;Creality Print GCode Generated by CXEngine:NO_MAGE_VERSION_GIT_HEAD_BRANCH
;CXEngine Release Time:2022-09-30 09:53:04
;Gcode Generated Time:2023-01-17 02:27:49
;----------Machine Config--------------
;Machine Name:Creality Ender-3
;Machine Height:250
;Machine Width:220
;Machine Depth:220
;Material name:PLA
;Number of Extruders:1
;ExtruderParams[0] Nozzle Diameter1000
;----------Profile Config---------------
;Engine Version:275f99b
;Engine Release Time:2022-09-30 09:42:18
;Layer Height:0.1
;Wall Thickness:0.8
;Top/Bottom Thickness:0.5
;Out Wall Line Width:0.4
;Inner Wall Line Width:0.4
;Inital Layer Height:100
;Wall Line Count:2
;Infill Line Distance:4
;Infill Pattern:grid
;Infill Sparse Density:20
;Infill Wipe Distance:0
;Print Temperature:200
;Bed Temperature:60
;Support Enable:true
;Support Density:0
;Support Angle:60
;Adhesion Type:none
;machine is belt:false
;machine belt offset:10
;machine belt offset Y:0
;Raft Base Line Spacing:1.6
;Wait Heatup Sync:true
;----------Shell Config----------------
;Outer Wall Wipe Distance:200
;Outer Inset First:false
;Infill Before Walls:false
;Infill Overlap:0.16
;Fill Gaps Between Walls:everywhere
;Minimum Infill Area:1
;Top Surface Skin Layer:0
;Top Layers:4
;Z Seam Alignment:sharpest_corner
;Seam Corner Preference:z_seam_corner_inner
;Z Seam X:110
;Z Seam Y:110
;Horizontal Expansion:0
;Top/Bottom Pattern:zigzag
;Ironing Pattern:zigzag
;Vase Model:false
;----------Support Config----------------
;Support Type:everywhere
;Support Pattern:zigzag
;Support Infill Layer Thickness:0.1
;Minimum Support Area:5
;Enable Support Roof:true
;Support Roof Thickness:0.8
;Support Roof Pattern:lines
;Connect Support Lines:0
;Connect Support ZigZags:0
;Minimum Support X/Y Distance:0.2
;Support Line Distance:0
; ---------PrintSpeed & Travel----------
;Enable Print Cool:true
;Avoid Printed Parts Traveling:true
;Enable Retraction:true
;Retraction Distance:8
;Retraction Speed:100
;Retraction Prime Speed:100
;Maximum Retraction Count:100
;Minimum Extrusion Distance Window:1
;Z Hop When Retracted:false
;Z Hop Height:0.2
;Retract Before Outer Wall:true
;Print Speed:50
;Infill Speed:50

;Prime Tower Speed:50
;Travel Speed:120
;Initial Layer Speed:25
;Skirt/Brim Speed:25
;Combing Mode:infill
; --------SpecialModel&Mesh Fixes--------
;Union Overlapping Volum:true
;Remove All Holes:false
;Maximum Travel Resolution:0.6
;Maximum Deviation:0.05
;Maximum Model Angle:0.872665
;IS Mold Print:false
;Make Overhang Printable:false
;Enable Coasting:false
;Coasting Volumes:0.06
;Coasting Speed:0.9
;Raft AirGap:0.25
;Layer0 ZOverLap:0.13
;---------------------End of Head--------------------------
M140 S60
M105
M104 S200
M105
M109 S200
M105
M190 S60
M82 ;absolute extrusion mode
M220 S100 ;Reset Feedrate
M221 S100 ;Reset Flowrate

G28 ;Home

G92 E0 ;Reset Extruder
G1 Z2.0 F3000 ;Move Z Axis up
G1 X10.1 Y20 Z0.28 F5000.0 ;Move to start position
G1 X10.1 Y145.0 Z0.28 F1500.0 E15 ;Draw the first line
G1 X10.4 Y145.0 Z0.28 F5000.0 ;Move to side a little
G1 X10.4 Y20 Z0.28 F1500.0 E30 ;Draw the second line
G92 E0  ;Reset Extruder
G1 E-1.0000 F1800 ;Retract a bit
G1 Z2.0 F3000 ;Move Z Axis up
G1 E0.0000 F1800 

G92 E0
G92 E0
G1 F6000 E-8

;LAYER_COUNT:92

;LAYER:0
M107
;MESH:
G0 F3600 X108.3 Y113.868 Z0.1
;TYPE:WALL-INNER
G1 F6000 E0
G1 F1500 X108.128 Y113.305 E0.01077
G1 X108.085 Y113.264 E0.01186
G1 X107.836 Y113.025 E0.01817
G1 X107.647 Y112.844 E0.02296
G1 X107.566 Y112.823 E0.02449
G1 X107 Y112.674 E0.03519
G1 X106.353 Y112.844 E0.04743
G1 X105.872 Y113.305 E0.05962
G1 X105.677 Y113.943 E0.07182
G1 X105.815 Y114.596 E0.08403
G1 X106.188 Y115.018 E0.09434
G1 X106.258 Y115.098 E0.09628
G1 X106.838 Y115.302 E0.10753
G1 X107.162 Y115.302 E0.11345
G1 X107.742 Y115.098 E0.1247
G1 X107.812 Y115.018 E0.12665
G1 X108.185 Y114.596 E0.13695
G1 X108.3 Y114.1 E0.14626
G1 X112.71 Y114.1 E0.22693
G1 X112.815 Y114.596 E0.23621
G1 X113.188 Y115.018 E0.24651
G1 X113.258 Y115.098 E0.24846
G1 X113.838 Y115.302 E0.2597
G1 X114.162 Y115.302 E0.26563
G1 X114.742 Y115.098 E0.27688
G1 X114.812 Y115.018 E0.27882
G1 X115.185 Y114.596 E0.28913
G1 X115.323 Y113.943 E0.30133
G1 X115.128 Y113.305 E0.31354
G1 X114.647 Y112.844 E0.32573
G1 X114.333 Y112.761 E0.33167
G1 X114.043 Y112.685 E0.33715
G1 X114.226 Y112.448 E0.34034
G1 X114.359 Y112.275 E0.34434
G1 X114.67 Y111.695 E0.35637
G1 X114.882 Y111.072 E0.36841
G1 X114.988 Y110.422 E0.38046
G1 X114.987 Y109.766 E0.39246
G1 X114.879 Y109.117 E0.4045
G1 X114.666 Y108.495 E0.41652
G1 X114.353 Y107.915 E0.42858
G1 X113.95 Y107.396 E0.4406
G1 X113.7 Y107.164 E0.44684
G1 X113.7 Y106.298 E0.46268
G1 X113.7 Y106.099 E0.46632
G1 X113.501 Y106.099 E0.46868
G1 X108.324 Y106.106 E0.56338
G1 X108.303 Y106.107 E0.56376
G1 X108.301 Y106.596 E0.57271
G1 X108.299 Y106.974 E0.57962
G1 X108.297 Y107.167 E0.58316
G1 X108.042 Y107.405 E0.58954
G1 X107.641 Y107.925 E0.60155
G1 X107.33 Y108.505 E0.61359
G1 X107.118 Y109.128 E0.62563
G1 X107.012 Y109.778 E0.63767
G1 X107.013 Y110.434 E0.64967
G1 X107.121 Y111.083 E0.66171
G1 X107.334 Y111.705 E0.67374
G1 X107.647 Y112.285 E0.68579
G1 X107.866 Y112.567 E0.69232
G1 X107.917 Y112.633 E0.69375
G1 X108.049 Y112.802 E0.69686
G1 X108.3 Y113.039 E0.70176
G1 X108.3 Y113.305 E0.70551
G1 X108.3 Y113.868 E0.70764
G0 F3600 X108.7 Y113.7
;TYPE:WALL-OUTER
G1 F1500 X113.09 Y113.7 E0.78795
G1 X113.17 Y113.7 E0.78941
G1 X113.09 Y113.961 E0.79251
G1 X113.185 Y114.41 E0.80091
G1 X113.489 Y114.755 E0.80932
G1 X113.906 Y114.902 E0.81741
G1 X114.094 Y114.902 E0.82084
G1 X114.511 Y114.755 E0.82893
G1 X114.815 Y114.41 E0.83734
G1 X114.91 Y113.961 E0.84574
G1 X114.776 Y113.522 E0.85414
G1 X114.445 Y113.205 E0.86252
G1 X114 Y113.088 E0.87094
G1 X113.646 Y113.181 E0.87763
G1 X113.555 Y113.205 E0.87935
G1 X113.3 Y113.449 E0.88581
G1 X113.301 Y113.204 E0.88685
G1 X113.301 Y113.109 E0.88834
G1 X113.304 Y112.858 E0.89293
G1 X113.661 Y112.525 E0.90186
G1 X114.022 Y112.057 E0.91268
G1 X114.302 Y111.535 E0.92351
G1 X114.493 Y110.975 E0.93434
G1 X114.588 Y110.39 E0.94518
G1 X114.587 Y109.799 E0.95599
G1 X114.49 Y109.215 E0.96682
G1 X114.298 Y108.656 E0.97763
G1 X114.017 Y108.134 E0.98848
G1 X113.654 Y107.667 E0.9993
G1 X113.3 Y107.338 E1.00814
G1 X113.3 Y106.7 E1.01981
G1 X113.3 Y106.5 E1.02347
G1 X113.1 Y106.5 E1.02583
G1 X108.701 Y106.506 E1.10631
G1 X108.696 Y107.342 E1.1216
G1 X108.339 Y107.675 E1.13053
G1 X107.978 Y108.143 E1.14134
G1 X107.698 Y108.665 E1.15218
G1 X107.507 Y109.225 E1.163
G1 X107.412 Y109.81 E1.17384
G1 X107.413 Y110.401 E1.18465
G1 X107.51 Y110.985 E1.19548
G1 X107.702 Y111.544 E1.2063
G1 X107.983 Y112.066 E1.21714
G1 X108.346 Y112.532 E1.22795
G1 X108.7 Y112.866 E1.23685
G1 X108.7 Y113.7 E1.25211
G0 F3600 X108.9 Y113.7
G0 X108.9 Y114.14
;;retract;;
G1 F6000 E-6.74789
G0 F3600 X107 Y113.088
G1 F6000 E1.25211
G1 F600 X106.555 Y113.205 E1.26052
G1 X106.224 Y113.522 E1.26891
G1 X106.09 Y113.961 E1.2773
G1 X106.185 Y114.41 E1.2857
G1 X106.489 Y114.755 E1.29411
G1 X106.906 Y114.902 E1.3022
G1 X107.094 Y114.902 E1.30564
G1 X107.511 Y114.755 E1.31373
G1 X107.815 Y114.41 E1.32214
G1 X107.91 Y113.961 E1.33053
G1 X107.776 Y113.522 E1.33893
G1 X107.445 Y113.205 E1.34731
G1 X107 Y113.088 E1.35573
G0 F3600 X106.807 Y113.138
G0 X106.697 Y112.713
;;retract;;
G1 F6000 E-6.64427
G0 F3600 X106.992 Y113.987
G0 X102.074 Y116.67
G0 X102.074 Y115.002
;TYPE:WALL-INNER
G1 F6000 E1.35573
G1 F600 X102.087 Y115.006 E1.35598
G1 X102.094 Y115.002 E1.35613
G1 X102.81 Y114.598 E1.37117
G1 X102.986 Y113.788 E1.38633
G1 X102.543 Y113.188 E1.39997
G1 X102.083 Y113.028 E1.40888
G1 X101.366 Y113.216 E1.42244
G1 X100.998 Y113.947 E1.43741
G1 X100.993 Y113.957 E1.43762
G1 X100.998 Y113.97 E1.43787
G1 X101.302 Y114.729 E1.45283
G1 X102.074 Y115.002 E1.46781
G0 F3600 X102.049 Y114.568
;TYPE:WALL-OUTER
G1 F600 X102.457 Y114.338 E1.47638
G1 X102.557 Y113.88 E1.48495
G1 X102.295 Y113.525 E1.49302
G1 X102.067 Y113.446 E1.49744
G1 X101.642 Y113.557 E1.50547
G1 X101.431 Y113.976 E1.51405
G1 X101.606 Y114.412 E1.52265
G1 X102.049 Y114.568 E1.53124
G0 F3600 X102.223 Y114.47
G0 X102.438 Y114.854
;;retract;;
G1 F6000 E-6.46876
G0 F3600 X102.438 Y116.67
G0 X99.841 Y116.666
G0 X99.334 Y116.159
G0 X99.33 Y107.006
G0 X102.087 Y107.006
;TYPE:WALL-INNER
G1 F6000 E1.53124
G1 F600 X102.81 Y106.598 E1.54643
G1 X102.986 Y105.788 E1.56159
G1 X102.543 Y105.188 E1.57523
G1 X102.083 Y105.028 E1.58414
G1 X101.366 Y105.216 E1.5977
G1 X100.998 Y105.947 E1.61267
G1 X100.993 Y105.957 E1.61288
G1 X100.998 Y105.97 E1.61313
G1 X101.302 Y106.729 E1.62809
G1 X102.087 Y107.006 E1.64332
G0 F3600 X102.049 Y106.568
;TYPE:WALL-OUTER
G1 F600 X102.457 Y106.338 E1.65188
G1 X102.557 Y105.88 E1.66046
G1 X102.295 Y105.525 E1.66853
G1 X102.067 Y105.446 E1.67295
G1 X101.642 Y105.557 E1.68098
G1 X101.431 Y105.976 E1.68956
G1 X101.606 Y106.412 E1.69816
G1 X102.049 Y106.568 E1.70675
G0 F3600 X102.223 Y106.47
G0 X102.438 Y106.854
;;retract;;
G1 F6000 E-6.29325
G0 F3600 X99.33 Y106.854
G0 X107 Y105.985
G0 X107 Y104.674
;TYPE:WALL-INNER
G1 F6000 E1.70675
G1 F600 X106.353 Y104.844 E1.71899
G1 X106.215 Y104.976 E1.72248
G1 X105.872 Y105.305 E1.73117
G1 X105.677 Y105.943 E1.74338
G1 X105.815 Y106.596 E1.75559
G1 X106.258 Y107.098 E1.76783
G1 X106.838 Y107.302 E1.77908
G1 X107.162 Y107.302 E1.78501
G1 X107.742 Y107.098 E1.79626
G1 X107.935 Y106.879 E1.8016
G1 X108.185 Y106.596 E1.80621
G1 X108.288 Y106.105 E1.80784
G1 X108.323 Y105.943 E1.80965
G1 X108.128 Y105.305 E1.82185
G1 X107.785 Y104.976 E1.83055
G1 X107.647 Y104.844 E1.83404
G1 X107 Y104.674 E1.84628
G0 F3600 X107 Y105.088
;TYPE:WALL-OUTER
G1 F600 X106.555 Y105.205 E1.85469
G1 X106.224 Y105.522 E1.86308
G1 X106.09 Y105.961 E1.87147
G1 X106.185 Y106.41 E1.87987
G1 X106.489 Y106.755 E1.88828
G1 X106.906 Y106.902 E1.89637
G1 X107.094 Y106.902 E1.89981
G1 X107.511 Y106.755 E1.9079
G1 X107.815 Y106.41 E1.91631
G1 X107.91 Y105.961 E1.9247
G1 X107.776 Y105.522 E1.9331
G1 X107.445 Y105.205 E1.94148
G1 X107 Y105.088 E1.9499
G0 F3600 X106.807 Y105.138
G0 X106.697 Y104.713
;;retract;;
G1 F6000 E-6.0501
G0 F3600 X107 Y105.985
G0 X117 Y106.985
G0 X117 Y105.674
;TYPE:WALL-INNER
G1 F6000 E1.9499
G1 F1500 X116.353 Y105.844 E1.96214
G1 X115.872 Y106.305 E1.97433
G1 X115.677 Y106.943 E1.98653
G1 X115.815 Y107.596 E1.99874
G1 X116.258 Y108.098 E2.01099
G1 X116.838 Y108.302 E2.02223
G1 X117.162 Y108.302 E2.02816
G1 X117.742 Y108.098 E2.03941
G1 X118.185 Y107.596 E2.05166
G1 X118.323 Y106.943 E2.06386
G1 X118.224 Y106.618 E2.07008
G1 X118.141 Y106.349 E2.07523
G1 X118.587 Y106.506 E2.08061
G1 X119.081 Y106.227 E2.09099
G1 X119.31 Y106.098 E2.0958
G1 X119.4 Y105.684 E2.10355
G1 X119.4 Y106.098 E2.10437
G1 X119.4 Y106.362 E2.10759
G1 X119.4 Y115.4 E2.27292
G1 X118.096 Y115.4 E2.29678
G1 X118.087 Y115.4 E2.29694
G1 X118.073 Y115.4 E2.2972
G1 X114.849 Y115.4 E2.35618
G1 X114.742 Y115.4 E2.35792
G1 X114.162 Y115.4 E2.36316
G1 X113.838 Y115.4 E2.36461
G1 X113.258 Y115.4 E2.36986
G1 X113.151 Y115.4 E2.3716
G1 X107.849 Y115.4 E2.46859
G1 X107.742 Y115.4 E2.47033
G1 X107.162 Y115.4 E2.47557
G1 X106.838 Y115.4 E2.47703
G1 X106.258 Y115.4 E2.48227
G1 X106.151 Y115.4 E2.48401
G1 X102.096 Y115.4 E2.55819
G1 X102.087 Y115.4 E2.55835
G1 X102.073 Y115.4 E2.5586
G1 X100.6 Y115.4 E2.58555
G1 X100.6 Y113.972 E2.61167
G1 X100.6 Y113.957 E2.61194
G1 X100.6 Y113.945 E2.61216
G1 X100.6 Y105.972 E2.75801
G1 X100.6 Y105.957 E2.75829
G1 X100.6 Y105.945 E2.7585
G1 X100.6 Y104.6 E2.78311
G1 X106.161 Y104.6 E2.88484
G1 X106.353 Y104.6 E2.88772
G1 X107 Y104.6 E2.89237
G1 X107.647 Y104.6 E2.89703
G1 X107.839 Y104.6 E2.89991
G1 X117.866 Y104.6 E3.08334
G1 X118.308 Y104.6 E3.09142
G1 X117.866 Y104.716 E3.0928
G1 X117.493 Y105.457 E3.10798
G1 X117.647 Y105.844 E3.1156
G1 X117.408 Y105.782 E3.11694
G1 X117 Y105.674 E3.12466
G0 F3600 X117 Y106.088
;TYPE:WALL-OUTER
G1 F600 X116.555 Y106.205 E3.13308
G1 X116.224 Y106.522 E3.14146
G1 X116.09 Y106.961 E3.14986
G1 X116.185 Y107.41 E3.15825
G1 X116.489 Y107.755 E3.16666
G1 X116.906 Y107.902 E3.17475
G1 X117.094 Y107.902 E3.17819
G1 X117.511 Y107.755 E3.18628
G1 X117.815 Y107.41 E3.19469
G1 X117.91 Y106.961 E3.20309
G1 X117.776 Y106.522 E3.21148
G1 X117.445 Y106.205 E3.21987
G1 X117 Y106.088 E3.22828
G0 F3600 X116.807 Y106.138
G0 X116.697 Y105.713
G0 X119.4 Y105.172
;TYPE:WALL-INNER
G1 F600 X119.127 Y104.802 E3.2367
G1 X119.043 Y104.688 E3.23929
G1 X118.79 Y104.6 E3.24419
G1 X119.043 Y104.6 E3.24464
G1 X119.4 Y104.6 E3.24923
G1 X119.4 Y104.688 E3.24944
G1 X119.4 Y105.172 E3.25313
;;retract;;
G1 F6000 E-4.74687
G0 F3600 X118.549 Y106.068
;TYPE:WALL-OUTER
G1 F6000 E3.25313
G1 F600 X118.957 Y105.838 E3.2617
G1 X119.057 Y105.38 E3.27027
G1 X118.795 Y105.025 E3.27834
G1 X118.567 Y104.946 E3.28276
G1 X118.142 Y105.057 E3.29079
G1 X117.931 Y105.476 E3.29938
G1 X118.106 Y105.912 E3.30797
G1 X118.549 Y106.068 E3.31656
G0 F3600 X118.723 Y105.97
G0 X118.938 Y106.354
;;retract;;
G1 F6000 E-4.68344
G0 F3600 X120.67 Y106.354
G0 X120.666 Y116.159
G0 X120.159 Y116.666
G0 X118.074 Y116.67
G0 X118.074 Y115.002
;TYPE:WALL-INNER
G1 F6000 E3.31656
G1 F600 X118.087 Y115.006 E3.31681
G1 X118.094 Y115.002 E3.31695
G1 X118.81 Y114.598 E3.33199
G1 X118.986 Y113.788 E3.34716
G1 X118.543 Y113.188 E3.3608
G1 X118.083 Y113.028 E3.36971
G1 X117.366 Y113.216 E3.38327
G1 X116.993 Y113.957 E3.39844
G1 X117.302 Y114.729 E3.41366
G1 X118.074 Y115.002 E3.42864
G0 F3600 X118.049 Y114.568
;TYPE:WALL-OUTER
G1 F600 X118.457 Y114.338 E3.4372
G1 X118.557 Y113.88 E3.44578
G1 X118.295 Y113.525 E3.45385
G1 X118.067 Y113.446 E3.45826
G1 X117.642 Y113.557 E3.4663
G1 X117.431 Y113.976 E3.47488
G1 X117.606 Y114.412 E3.48348
G1 X118.049 Y114.568 E3.49207
G0 F3600 X118.223 Y114.47
G0 X118.438 Y114.854
;;retract;;
G1 F6000 E-4.50793
G0 F3600 X119.8 Y115.8
G1 F6000 E3.49207
G1 F1500 X100.2 Y115.8 E3.85061
G1 X100.2 Y104.2 E4.06281
G1 X119.8 Y104.2 E4.42136
G1 X119.8 Y115.8 E4.63356
G0 F3600 X119.6 Y115.8
G0 X119.36 Y115.36
G0 X118.302 Y115.16
;TYPE:SKIN
G1 F600 X118.554 Y115.16 E4.63816
G1 X118.463 Y115.069 E4.64052
G1 X118.824 Y114.864 E4.64811
G1 X119.119 Y115.16 E4.65576
G1 X119.159 Y115.16 E4.65649
G1 X119.159 Y114.634 E4.66611
G1 X119.066 Y114.54 E4.66853
G1 X119.159 Y114.117 E4.67645
;;retract;;
G1 F6000 E-3.32355
G0 F3600 X120.67 Y114.117
G0 X120.666 Y116.159
G0 X120.159 Y116.666
G0 X115.006 Y116.67
G0 X115.006 Y115.159
G1 F6000 E4.67645
G1 F600 X115.159 Y115.159 E4.67925
G1 X115.078 Y115.078 E4.68135
G1 X115.343 Y114.777 E4.68868
G1 X115.725 Y115.159 E4.69857
G1 X116.29 Y115.159 E4.7089
G1 X115.481 Y114.349 E4.72984
G1 X115.569 Y113.931 E4.73766
G1 X115.543 Y113.846 E4.73928
G1 X116.856 Y115.159 E4.77325
G1 X117.422 Y115.159 E4.78361
G1 X117.216 Y114.953 E4.78894
G1 X117.8 Y115.16 E4.80027
G0 F3600 X117.119 Y114.918
G1 F600 X117.078 Y114.815 E4.8023
G1 X114.597 Y112.334 E4.86648
G1 X114.795 Y111.966 E4.87413
G1 X116.744 Y113.916 E4.92456
G1 X116.934 Y113.54 E4.93227
G1 X114.964 Y111.57 E4.98323
G1 X115.108 Y111.148 E4.99139
G1 X117.123 Y113.163 E5.04352
G1 X117.199 Y113.01 E5.04664
G1 X117.465 Y112.94 E5.05167
G1 X115.19 Y110.665 E5.11053
G1 X115.227 Y110.441 E5.11468
G1 X115.226 Y110.135 E5.12028
G1 X117.914 Y112.823 E5.18982
G1 X118.091 Y112.777 E5.19316
G1 X118.615 Y112.958 E5.20331
G1 X115.19 Y109.533 E5.29191
G1 X115.112 Y109.057 E5.30074
G1 X115.023 Y108.801 E5.30569
G1 X119.159 Y112.936 E5.41268
G1 X119.159 Y112.371 E5.42302
G1 F1500 X114.494 Y107.706 E5.5437
G1 F600 X114.127 Y107.232 E5.55467
G1 X113.938 Y107.058 E5.55937
G1 X113.938 Y106.585 E5.56802
G1 F1500 X119.159 Y111.805 E5.70307
G1 F600 X119.159 Y111.239 E5.71343
G1 X116.279 Y108.359 E5.78793
G1 X116.796 Y108.541 E5.79796
G1 X117.026 Y108.541 E5.80217
G1 X119.159 Y110.674 E5.85735
G1 X119.159 Y110.108 E5.8677
G1 X117.491 Y108.44 E5.91086
G1 X117.878 Y108.303 E5.91837
G1 X117.898 Y108.281 E5.91891
G1 X119.159 Y109.542 E5.95153
G1 X119.159 Y108.977 E5.96187
G1 X118.163 Y107.981 E5.98763
G1 X118.406 Y107.707 E5.99433
