;FLAVOR:Marlin
;TIME:1127
;Filament used:0.185288m
;Layer height: 0.1
;MINX:99.33
;MINY:103.33
;MINZ:0.1
;MAXX:120.67
;MAXY:116.67
;MAXZ:2.5
                                 
;Creality Print GCode Generated by CXEngine:NO_MAGE_VERSION_GIT_HEAD_BRANCH
;CXEngine Release Time:2022-09-30 09:53:04
;Gcode Generated Time:2023-01-14 05:47:03
;----------Machine Config--------------
;Machine Name:Creality Ender-3
;Machine Height:250
;Machine Width:220
;Machine Depth:220
;Material name:PLA
;Number of Extruders:1
;ExtruderParams[0] Nozzle Diameter1000
;----------Profile Config---------------
;Engine Version:275f99b
;Engine Release Time:2022-09-30 09:42:18
;Layer Height:0.1
;Wall Thickness:0.8
;Top/Bottom Thickness:0.5
;Out Wall Line Width:0.4
;Inner Wall Line Width:0.4
;Inital Layer Height:100
;Wall Line Count:2
;Infill Line Distance:4
;Infill Pattern:grid
;Infill Sparse Density:20
;Infill Wipe Distance:0
;Print Temperature:200
;Bed Temperature:60
;Support Enable:true
;Support Density:0
;Support Angle:60
;Adhesion Type:none
;machine is belt:false
;machine belt offset:10
;machine belt offset Y:0
;Raft Base Line Spacing:1.6
;Wait Heatup Sync:true
;----------Shell Config----------------
;Outer Wall Wipe Distance:200
;Outer Inset First:false
;Infill Before Walls:false
;Infill Overlap:0.16
;Fill Gaps Between Walls:everywhere
;Minimum Infill Area:1
;Top Surface Skin Layer:0
;Top Layers:4
;Z Seam Alignment:sharpest_corner
;Seam Corner Preference:z_seam_corner_inner
;Z Seam X:110
;Z Seam Y:110
;Horizontal Expansion:0
;Top/Bottom Pattern:zigzag
;Ironing Pattern:zigzag
;Vase Model:false
;----------Support Config----------------
;Support Type:everywhere
;Support Pattern:zigzag
;Support Infill Layer Thickness:0.1
;Minimum Support Area:5
;Enable Support Roof:true
;Support Roof Thickness:0.8
;Support Roof Pattern:lines
;Connect Support Lines:0
;Connect Support ZigZags:0
;Minimum Support X/Y Distance:0.2
;Support Line Distance:0
; ---------PrintSpeed & Travel----------
;Enable Print Cool:true
;Avoid Printed Parts Traveling:true
;Enable Retraction:true
;Retraction Distance:8
;Retraction Speed:100
;Retraction Prime Speed:100
;Maximum Retraction Count:100
;Minimum Extrusion Distance Window:1
;Z Hop When Retracted:false
;Z Hop Height:0.2
;Retract Before Outer Wall:true
;Print Speed:50
;Infill Speed:50

;Prime Tower Speed:50
;Travel Speed:120
;Initial Layer Speed:25
;Skirt/Brim Speed:25
;Combing Mode:infill
; --------SpecialModel&Mesh Fixes--------
;Union Overlapping Volum:true
;Remove All Holes:false
;Maximum Travel Resolution:0.6
;Maximum Deviation:0.05
;Maximum Model Angle:0.872665
;IS Mold Print:false
;Make Overhang Printable:false
;Enable Coasting:false
;Coasting Volumes:0.06
;Coasting Speed:0.9
;Raft AirGap:0.25
;Layer0 ZOverLap:0.13
;---------------------End of Head--------------------------
M140 S60
M105
M104 S200
M105
M109 S200
M105
M190 S60
M82 ;absolute extrusion mode
M220 S100 ;Reset Feedrate
M221 S100 ;Reset Flowrate

G28 ;Home

G92 E0 ;Reset Extruder
G1 Z2.0 F3000 ;Move Z Axis up
G1 X10.1 Y20 Z0.28 F5000.0 ;Move to start position
G1 X10.1 Y145.0 Z0.28 F1500.0 E15 ;Draw the first line
G1 X10.4 Y145.0 Z0.28 F5000.0 ;Move to side a little
G1 X10.4 Y20 Z0.28 F1500.0 E30 ;Draw the second line
G92 E0  ;Reset Extruder
G1 E-1.0000 F1800 ;Retract a bit
G1 Z2.0 F3000 ;Move Z Axis up
G1 E0.0000 F1800 

G92 E0
G92 E0
G1 F6000 E-8

;LAYER_COUNT:25

;LAYER:0
M107
;MESH:
G0 F3600 X105.102 Y104.953 Z0.1
;;retract;;
G0 X106.04 Y105.812
G0 X113.24 Y114.712
G0 X112.201 Y113.95
;TYPE:WALL-INNER
G1 F6000 E0
G1 F1500 X111.96 Y114.439 E0.00997
G1 X111.894 Y114.977 E0.01989
G1 X111.933 Y115.151 E0.02315
G1 X111.986 Y115.393 E0.02768
G1 X111.739 Y115.393 E0.03044
G1 X111.738 Y115.393 E0.03046
G1 X106.397 Y115.389 E0.12816
G1 X106.116 Y115.389 E0.1333
G1 X105.865 Y115.388 E0.13789
G1 X106.116 Y115.245 E0.13926
G1 X106.301 Y115.034 E0.1429
G1 X106.474 Y114.837 E0.14769
G1 X106.675 Y114.329 E0.15769
G1 X106.694 Y113.786 E0.16763
G1 X106.532 Y113.269 E0.17754
G1 X106.207 Y112.832 E0.1875
G1 X105.753 Y112.531 E0.19746
G1 X105.227 Y112.398 E0.20739
G1 X104.687 Y112.446 E0.21731
G1 X104.193 Y112.673 E0.22725
G1 X103.995 Y112.864 E0.23228
G1 X103.965 Y112.814
G1 X103.565 Y112.164 E0.24625
G1 X102.747 Y112.024 E0.26143
G1 X102.099 Y112.545 E0.27664
G1 X102.064 Y113.377 E0.29187
G1 X102.601 Y113.891 E0.30547
G1 X103.081 Y113.972 E0.31437
G1 X103.31 Y113.868 E0.31897
G1 X103.384 Y113.835 E0.32046
G1 X103.532 Y113.768 E0.32343
G1 X103.494 Y114.077 E0.32656
G1 X103.511 Y114.157 E0.32786
G1 X103.611 Y114.607 E0.33629
G1 X103.859 Y115.008 E0.34492
G1 X103.897 Y115.07 E0.34625
G1 X104.296 Y115.387 E0.35557
G1 X103.897 Y115.387 E0.35814
G1 X103.824 Y115.387 E0.35936
G1 X100.6 Y115.383 E0.41833
G1 X100.6 Y104.6 E0.61559
G1 X104.989 Y104.6 E0.69588
G1 X105.393 Y104.6 E0.70327
G1 X105.552 Y104.6 E0.70618
G1 X105.393 Y104.673 E0.70665
G1 X105.102 Y104.953 E0.71123
G1 X105.001 Y105.05 E0.7138
G1 X104.76 Y105.539 E0.72377
G1 X104.694 Y106.077 E0.73368
G1 X104.811 Y106.607 E0.74361
G1 X105.097 Y107.07 E0.75357
G1 X105.524 Y107.409 E0.76354
G1 X106.012 Y107.577 E0.77298
G1 X106.327 Y107.604 E0.77877
G1 X106.844 Y107.514 E0.78837
G1 X107.316 Y107.245 E0.7983
G1 X107.674 Y106.837 E0.80823
G1 X107.875 Y106.329 E0.81823
G1 X107.894 Y105.786 E0.82817
G1 X107.732 Y105.269 E0.83808
G1 X107.506 Y104.965 E0.84501
G1 X107.407 Y104.832 E0.84804
G1 X107.057 Y104.6 E0.85572
G1 X107.407 Y104.6 E0.85734
G1 X107.573 Y104.6 E0.85981
G1 X110.489 Y104.6 E0.91316
G1 X110.893 Y104.6 E0.92055
G1 X111.052 Y104.6 E0.92345
G1 X110.893 Y104.673 E0.92393
G1 X110.602 Y104.953 E0.92851
G1 X110.501 Y105.05 E0.93108
G1 X110.26 Y105.539 E0.94105
G1 X110.194 Y106.077 E0.95096
G1 X110.302 Y106.565 E0.96011
G1 X110.311 Y106.607 E0.96089
G1 X110.339 Y106.652 E0.96186
G1 X110.597 Y107.07 E0.97085
G1 X111.024 Y107.409 E0.98082
G1 X111.035 Y107.412 E0.98103
G1 X111.512 Y107.577 E0.99026
G1 X111.827 Y107.604 E0.99605
G1 X112.344 Y107.514 E1.00565
G1 X112.531 Y107.407 E1.00959
G1 X112.816 Y107.245 E1.01558
G1 X113.032 Y106.999 E1.02157
G1 X113.174 Y106.837 E1.02551
G1 X113.375 Y106.329 E1.03551
G1 X113.394 Y105.786 E1.04545
G1 X113.232 Y105.269 E1.05536
G1 X113.006 Y104.965 E1.06229
G1 X112.907 Y104.832 E1.06532
G1 X112.557 Y104.6 E1.073
G1 X112.907 Y104.6 E1.07462
G1 X113.073 Y104.6 E1.07709
G1 X119.4 Y104.6 E1.19283
G1 X119.4 Y115.201 E1.38676
G1 X119.4 Y115.4 E1.3904
G1 X119.201 Y115.4 E1.39275
G1 X115.194 Y115.397 E1.46605
G1 X115.075 Y115.397 E1.46823
G1 X115.009 Y115.396 E1.46944
G1 X115.075 Y115.229 E1.47119
G1 X115.079 Y115.11 E1.47291
G1 X115.094 Y114.686 E1.48067
G1 X114.932 Y114.169 E1.49059
G1 X114.607 Y113.732 E1.50055
G1 X114.274 Y113.511 E1.50786
G1 X114.153 Y113.431 E1.51051
G1 X114.135 Y113.427 E1.51085
G1 X113.627 Y113.298 E1.52044
G1 X113.601 Y113.3 E1.52091
G1 X113.087 Y113.346 E1.53036
G1 X112.593 Y113.573 E1.5403
G1 X112.201 Y113.95 E1.55025
;;retract;;
G1 F6000 E-6.44975
G0 F3600 X113.24 Y114.712
G0 X106.04 Y105.812
G0 X105.329 Y105.29
;TYPE:WALL-OUTER
G1 F6000 E1.55025
G1 F600 X105.149 Y105.655 E1.55769
G1 X105.099 Y106.058 E1.56512
G1 X105.187 Y106.454 E1.57254
G1 X105.401 Y106.8 E1.57999
G1 X105.719 Y107.053 E1.58742
G1 X106.095 Y107.183 E1.5947
G1 X106.309 Y107.201 E1.59863
G1 X106.707 Y107.132 E1.60601
G1 X107.06 Y106.931 E1.61345
G1 X107.328 Y106.625 E1.62089
G1 X107.478 Y106.246 E1.62834
G1 X107.492 Y105.84 E1.63577
G1 X107.371 Y105.453 E1.64319
G1 X107.128 Y105.127 E1.65063
G1 X106.789 Y104.902 E1.65807
G1 X106.395 Y104.802 E1.66551
G1 X105.991 Y104.838 E1.67293
G1 X105.622 Y105.008 E1.68036
G1 X105.329 Y105.29 E1.6878
G0 F3600 X105.241 Y105.469
G0 X104.846 Y105.273
G0 X102.099 Y106.545
;TYPE:WALL-INNER
G1 F600 X102.064 Y107.377 E1.70303
G1 X102.601 Y107.891 E1.71663
G1 X103.081 Y107.972 E1.72554
G1 X103.758 Y107.666 E1.73913
G1 X104 Y106.872 E1.75431
G1 X103.565 Y106.164 E1.76951
G1 X102.747 Y106.024 E1.78469
G1 X102.099 Y106.545 E1.7999
G0 F3600 X102.491 Y106.743
;TYPE:WALL-OUTER
G1 F600 X102.471 Y107.213 E1.80851
G1 X102.789 Y107.517 E1.81656
G1 X103.027 Y107.557 E1.82097
G1 X103.428 Y107.376 E1.82902
G1 X103.565 Y106.928 E1.83759
G1 X103.319 Y106.528 E1.84618
G1 X102.857 Y106.449 E1.85475
G1 X102.491 Y106.743 E1.86334
G0 F3600 X102.483 Y106.943
G0 X102.043 Y106.925
;;retract;;
G1 F6000 E-6.13666
G0 F3600 X99.33 Y106.925
G0 X104.84 Y113.812
G0 X102.491 Y112.743
G1 F6000 E1.86334
G1 F600 X102.471 Y113.213 E1.87195
G1 X102.789 Y113.517 E1.87999
G1 X103.027 Y113.557 E1.88441
G1 X103.428 Y113.376 E1.89246
G1 X103.565 Y112.928 E1.90103
G1 X103.319 Y112.528 E1.90962
G1 X102.857 Y112.449 E1.91819
G1 X102.491 Y112.743 E1.92678
G0 F3600 X102.483 Y112.943
G0 X102.043 Y112.925
;;retract;;
G1 F6000 E-6.07322
G0 F3600 X104.129 Y113.29
G1 F6000 E1.92678
G1 F600 X103.949 Y113.655 E1.93422
G1 X103.899 Y114.058 E1.94165
G1 X103.987 Y114.454 E1.94907
G1 X104.201 Y114.8 E1.95652
G1 X104.519 Y115.053 E1.96395
G1 X104.895 Y115.183 E1.97123
G1 X105.109 Y115.201 E1.97516
G1 X105.507 Y115.132 E1.98255
G1 X105.86 Y114.931 E1.98998
G1 X106.128 Y114.625 E1.99742
G1 X106.278 Y114.246 E2.00487
G1 X106.292 Y113.84 E2.0123
G1 X106.171 Y113.453 E2.01972
G1 X105.928 Y113.127 E2.02716
G1 X105.589 Y112.902 E2.0346
G1 X105.195 Y112.802 E2.04204
G1 X104.791 Y112.838 E2.04946
G1 X104.422 Y113.008 E2.05689
G1 X104.129 Y113.29 E2.06433
G0 F3600 X104.041 Y113.469
;;retract;;
G1 F6000 E-5.93567
G0 F3600 X104.84 Y113.812
G0 X109.785 Y112.23
G0 X109.777 Y110.931
;TYPE:WALL-INNER
G1 F6000 E2.06433
G1 F600 X109.222 Y111.055 E2.07473
G1 X108.834 Y111.324 E2.08337
G1 X108.565 Y111.695 E2.09175
G1 X108.435 Y112.133 E2.10011
G1 X108.457 Y112.591 E2.1085
G1 X108.632 Y113.017 E2.11692
G1 X108.937 Y113.36 E2.12532
G1 X109.341 Y113.581 E2.13374
G1 X109.786 Y113.654 E2.14199
G1 X110.244 Y113.573 E2.1505
G1 X110.646 Y113.346 E2.15895
G1 X110.945 Y112.998 E2.16734
G1 X111.113 Y112.57 E2.17575
G1 X111.129 Y112.11 E2.18417
G1 X110.989 Y111.674 E2.19255
G1 X110.715 Y111.307 E2.20093
G1 X110.323 Y111.047 E2.20953
G1 X109.777 Y110.931 E2.21974
G0 F3600 X109.779 Y111.34
;TYPE:WALL-OUTER
G1 F600 X109.386 Y111.428 E2.22711
G1 X109.118 Y111.614 E2.23308
G1 X108.929 Y111.874 E2.23896
G1 X108.838 Y112.182 E2.24483
G1 X108.853 Y112.503 E2.25071
G1 X108.976 Y112.802 E2.25662
G1 X109.19 Y113.042 E2.26251
G1 X109.473 Y113.197 E2.26841
G1 X109.784 Y113.248 E2.27417
G1 X110.107 Y113.191 E2.28017
G1 X110.388 Y113.032 E2.28608
G1 X110.598 Y112.788 E2.29197
G1 X110.716 Y112.488 E2.29787
G1 X110.727 Y112.166 E2.30376
G1 X110.629 Y111.86 E2.30964
G1 X110.436 Y111.602 E2.31553
G1 X110.165 Y111.422 E2.32148
G1 X109.779 Y111.34 E2.3287
G0 F3600 X109.584 Y111.383
G0 X109.488 Y110.953
;;retract;;
G1 F6000 E-5.6713
G0 F3600 X109.766 Y112.234
G0 X111.504 Y106.121
G0 X109.159 Y106.802
;TYPE:WALL-INNER
G1 F6000 E2.3287
G1 F600 X108.63 Y107.162 E2.34041
G1 X108.341 Y107.731 E2.35208
G1 X108.368 Y108.372 E2.36382
G1 X108.704 Y108.916 E2.37551
G1 X109.263 Y109.229 E2.38723
G1 X109.902 Y109.229 E2.39892
G1 X110.461 Y108.916 E2.41064
G1 X110.797 Y108.372 E2.42234
G1 X110.824 Y107.745 E2.43382
G1 X110.824 Y107.733 E2.43404
G1 X110.735 Y107.556 E2.43766
G1 X110.536 Y107.162 E2.44172
G1 X110.125 Y106.883 E2.44666
G1 X110.049 Y106.832 E2.4481
G1 X110.008 Y106.822 E2.44888
G1 X109.741 Y106.753 E2.45392
G1 X109.159 Y106.802 E2.46461
G0 F3600 X109.297 Y107.192
;TYPE:WALL-OUTER
G1 F600 X108.94 Y107.435 E2.47251
G1 X108.745 Y107.819 E2.48038
G1 X108.763 Y108.251 E2.48829
G1 X108.99 Y108.618 E2.49619
G1 X109.367 Y108.829 E2.50409
G1 X109.798 Y108.829 E2.51198
G1 X110.175 Y108.618 E2.51988
G1 X110.402 Y108.251 E2.52777
G1 X110.42 Y107.82 E2.53566
G1 X110.226 Y107.435 E2.54355
G1 X109.882 Y107.202 E2.55115
G1 X109.707 Y107.157 E2.55446
G1 X109.297 Y107.192 E2.56198
G0 F3600 X109.132 Y107.304
G0 X108.885 Y106.94
;;retract;;
G1 F6000 E-5.43802
G0 F3600 X110.829 Y105.29
G1 F6000 E2.56198
G1 F600 X110.649 Y105.655 E2.56943
G1 X110.599 Y106.058 E2.57686
G1 X110.687 Y106.454 E2.58428
G1 X110.901 Y106.8 E2.59172
G1 X111.219 Y107.053 E2.59915
G1 X111.595 Y107.183 E2.60643
G1 X111.809 Y107.201 E2.61036
G1 X112.207 Y107.132 E2.61775
G1 X112.56 Y106.931 E2.62518
G1 X112.828 Y106.625 E2.63262
G1 X112.978 Y106.246 E2.64008
G1 X112.992 Y105.84 E2.64751
G1 X112.871 Y105.453 E2.65493
G1 X112.628 Y105.127 E2.66236
G1 X112.289 Y104.902 E2.66981
G1 X111.895 Y104.802 E2.67724
G1 X111.491 Y104.838 E2.68466
G1 X111.122 Y105.008 E2.69209
G1 X110.829 Y105.29 E2.69953
G0 F3600 X110.741 Y105.469
G0 X110.346 Y105.273
;;retract;;
G1 F6000 E-5.30047
G0 F3600 X111.54 Y105.812
G0 X115.318 Y108.098
G0 X116.09 Y106.741
;TYPE:WALL-INNER
G1 F6000 E2.69953
G1 F1500 X116.089 Y106.742 E2.69956
G1 X116.08 Y106.99 E2.7041
G1 X115.84 Y106.926 E2.70687
G1 X115.53 Y106.842 E2.71274
G1 X114.989 Y106.799 E2.72267
G1 X114.447 Y106.846 E2.73262
G1 X113.923 Y106.986 E2.74254
G1 X113.43 Y107.21 E2.75245
G1 X113.265 Y107.322 E2.7561
G1 X112.994 Y107.506 E2.76146
G1 X112.981 Y107.515 E2.76175
G1 X112.745 Y107.744 E2.76715
G1 X112.59 Y107.893 E2.77108
G1 X112.269 Y108.33 E2.781
G1 X112.024 Y108.817 E2.79097
G1 X111.868 Y109.336 E2.80088
G1 X111.8 Y109.875 E2.81082
G1 X111.826 Y110.418 E2.82077
G1 X111.941 Y110.947 E2.83067
G1 X112.146 Y111.452 E2.84064
G1 X112.433 Y111.913 E2.85057
G1 X112.793 Y112.319 E2.8605
G1 X113.216 Y112.658 E2.87042
G1 X113.668 Y112.908 E2.87987
G1 X113.691 Y112.921 E2.88035
G1 X113.752 Y112.942 E2.8815
G1 X114.216 Y113.106 E2.88946
G1 X114.359 Y113.124 E2.89187
G1 X115.004 Y113.205 E2.90376
G1 X115.796 Y113.103 E2.91837
G1 X115.947 Y113.05 E2.9213
G1 X116.08 Y113.002 E2.92389
G1 X116.076 Y113.114 E2.92436
G1 X116.064 Y113.377 E2.92784
G1 X116.601 Y113.891 E2.94144
G1 X117.081 Y113.972 E2.95035
G1 X117.758 Y113.666 E2.96394
G1 X118 Y112.872 E2.97912
G1 X117.565 Y112.164 E2.99432
G1 X117.535 Y112.159 E2.99488
G1 X117.373 Y112.131 E2.99789
G1 X117.44 Y112.055 E2.99798
G1 X117.58 Y111.895 E3.00024
G1 X117.864 Y111.432 E3.01018
G1 X118.064 Y110.926 E3.02013
G1 X118.176 Y110.396 E3.03004
G1 X118.199 Y109.854 E3.03996
G1 X118.127 Y109.315 E3.04991
G1 X117.967 Y108.797 E3.05983
G1 X117.721 Y108.312 E3.06978
G1 X117.514 Y108.044 E3.07597
G1 X117.362 Y107.845 E3.08055
G1 X117.59 Y107.743 E3.08332
G1 X117.591 Y107.742 E3.08335
G1 X117.758 Y107.666 E3.0867
G1 X118 Y106.872 E3.10189
G1 X117.565 Y106.164 E3.11709
G1 X116.747 Y106.024 E3.13227
G1 X116.099 Y106.545 E3.14748
G1 X116.09 Y106.741 E3.15107
G0 F3600 X116.491 Y106.743
;TYPE:WALL-OUTER
G1 F600 X116.472 Y107.18 E3.15907
G1 X116.471 Y107.213 E3.15968
G1 X116.579 Y107.316 E3.16241
G1 X116.789 Y107.517 E3.16772
G1 X116.801 Y107.519 E3.16795
G1 X117.027 Y107.557 E3.17214
G1 X117.042 Y107.55 E3.17244
G1 X117.428 Y107.376 E3.18019
G1 X117.565 Y106.928 E3.18876
G1 X117.319 Y106.528 E3.19735
G1 X116.857 Y106.449 E3.20592
G1 X116.491 Y106.743 E3.21451
G0 F3600 X116.483 Y106.943
G0 X116.043 Y106.925
;;retract;;
G1 F6000 E-4.78549
G0 F3600 X115.633 Y108.18
G0 X115.901 Y111.699
G0 X116.491 Y112.743
G1 F6000 E3.21451
G1 F600 X116.491 Y112.756 E3.21475
G1 X116.471 Y113.213 E3.22311
G1 X116.789 Y113.517 E3.23116
G1 X117.027 Y113.557 E3.23558
G1 X117.428 Y113.376 E3.24362
G1 X117.565 Y112.928 E3.25219
G1 X117.319 Y112.528 E3.26078
G1 X116.984 Y112.47 E3.267
G1 X116.857 Y112.449 E3.26936
G1 X116.753 Y112.533 E3.2718
G1 X116.491 Y112.743 E3.27795
G0 F3600 X116.491 Y112.756
G0 X116.483 Y112.943
;;retract;;
G1 F6000 E-4.72205
G0 F3600 X115.004 Y112.802
G1 F6000 E3.27795
G1 F698.2 X115.702 Y112.712 E3.29082
G1 X116.15 Y112.552 E3.29952
G1 X116.162 Y112.548 E3.29975
G1 X116.327 Y112.455 E3.30322
G1 X116.576 Y112.314 E3.30712
G1 X116.678 Y112.231 E3.30881
G1 X116.778 Y112.15 E3.31084
G1 X116.944 Y112.014 E3.31477
G1 X117.257 Y111.657 E3.32346
G1 X117.505 Y111.253 E3.33213
G1 X117.68 Y110.81 E3.34084
G1 X117.778 Y110.346 E3.34952
G1 X117.798 Y109.872 E3.35819
G1 X117.735 Y109.401 E3.36689
G1 X117.595 Y108.948 E3.37556
G1 X117.38 Y108.524 E3.38426
G1 X117.096 Y108.143 E3.39295
G1 X116.78 Y107.841 E3.40095
G1 X116.768 Y107.83
G1 X116.752 Y107.815 E3.40098
