;FLAVOR:Marlin
;TIME:363
;Filament used:0.0329959m
;Layer height: 0.1
;MINX:106.463
;MINY:105.343
;MINZ:0.1
;MAXX:113.245
;MAXY:114.196
;MAXZ:6
                              
;Creality Print GCode Generated by CXEngine:NO_MAGE_VERSION_GIT_HEAD_BRANCH
;CXEngine Release Time:2022-09-30 09:53:04
;Gcode Generated Time:2023-01-17 02:28:58
;----------Machine Config--------------
;Machine Name:Creality Ender-3
;Machine Height:250
;Machine Width:220
;Machine Depth:220
;Material name:PLA
;Number of Extruders:1
;ExtruderParams[0] Nozzle Diameter1000
;----------Profile Config---------------
;Engine Version:275f99b
;Engine Release Time:2022-09-30 09:42:18
;Layer Height:0.1
;Wall Thickness:0.8
;Top/Bottom Thickness:0.5
;Out Wall Line Width:0.4
;Inner Wall Line Width:0.4
;Inital Layer Height:100
;Wall Line Count:2
;Infill Line Distance:4
;Infill Pattern:grid
;Infill Sparse Density:20
;Infill Wipe Distance:0
;Print Temperature:200
;Bed Temperature:60
;Support Enable:true
;Support Density:0
;Support Angle:60
;Adhesion Type:none
;machine is belt:false
;machine belt offset:10
;machine belt offset Y:0
;Raft Base Line Spacing:1.6
;Wait Heatup Sync:true
;----------Shell Config----------------
;Outer Wall Wipe Distance:200
;Outer Inset First:false
;Infill Before Walls:false
;Infill Overlap:0.16
;Fill Gaps Between Walls:everywhere
;Minimum Infill Area:1
;Top Surface Skin Layer:0
;Top Layers:4
;Z Seam Alignment:sharpest_corner
;Seam Corner Preference:z_seam_corner_inner
;Z Seam X:110
;Z Seam Y:110
;Horizontal Expansion:0
;Top/Bottom Pattern:zigzag
;Ironing Pattern:zigzag
;Vase Model:false
;----------Support Config----------------
;Support Type:everywhere
;Support Pattern:zigzag
;Support Infill Layer Thickness:0.1
;Minimum Support Area:5
;Enable Support Roof:true
;Support Roof Thickness:0.8
;Support Roof Pattern:lines
;Connect Support Lines:0
;Connect Support ZigZags:0
;Minimum Support X/Y Distance:0.2
;Support Line Distance:0
; ---------PrintSpeed & Travel----------
;Enable Print Cool:true
;Avoid Printed Parts Traveling:true
;Enable Retraction:true
;Retraction Distance:8
;Retraction Speed:100
;Retraction Prime Speed:100
;Maximum Retraction Count:100
;Minimum Extrusion Distance Window:1
;Z Hop When Retracted:false
;Z Hop Height:0.2
;Retract Before Outer Wall:true
;Print Speed:50
;Infill Speed:50

;Prime Tower Speed:50
;Travel Speed:120
;Initial Layer Speed:25
;Skirt/Brim Speed:25
;Combing Mode:infill
; --------SpecialModel&Mesh Fixes--------
;Union Overlapping Volum:true
;Remove All Holes:false
;Maximum Travel Resolution:0.6
;Maximum Deviation:0.05
;Maximum Model Angle:0.872665
;IS Mold Print:false
;Make Overhang Printable:false
;Enable Coasting:false
;Coasting Volumes:0.06
;Coasting Speed:0.9
;Raft AirGap:0.25
;Layer0 ZOverLap:0.13
;---------------------End of Head--------------------------
M140 S60
M105
M104 S200
M105
M109 S200
M105
M190 S60
M82 ;absolute extrusion mode
M220 S100 ;Reset Feedrate
M221 S100 ;Reset Flowrate

G28 ;Home

G92 E0 ;Reset Extruder
G1 Z2.0 F3000 ;Move Z Axis up
G1 X10.1 Y20 Z0.28 F5000.0 ;Move to start position
G1 X10.1 Y145.0 Z0.28 F1500.0 E15 ;Draw the first line
G1 X10.4 Y145.0 Z0.28 F5000.0 ;Move to side a little
G1 X10.4 Y20 Z0.28 F1500.0 E30 ;Draw the second line
G92 E0  ;Reset Extruder
G1 E-1.0000 F1800 ;Retract a bit
G1 Z2.0 F3000 ;Move Z Axis up
G1 E0.0000 F1800 

G92 E0
G92 E0
G1 F6000 E-8

;LAYER_COUNT:60

;LAYER:0
M107
G0 F3600 X108.027 Y106.902 Z0.1
;TYPE:SUPPORT
G1 F6000 E0
G1 F1500 X108.454 Y106.591 E0.00773
G1 X108.983 Y106.591 E0.01547
G1 X109.642 Y107.011 E0.02691
G1 X110.495 Y106.533 E0.04122
G1 X111.031 Y106.533 E0.04906
G1 X111.458 Y106.844 E0.05679
G1 X111.621 Y107.342 E0.06446
G1 X111.462 Y107.828 E0.07194
G1 X110.926 Y108.128 E0.08093
G1 X111.194 Y107.697 E0.08836
G1 X110.503 Y106.666 E0.10652
G1 X109.207 Y107.212 E0.12711
G1 X109.064 Y108.093 E0.14017
G1 X108.439 Y108.198 E0.14944
G1 X108.027 Y107.898 E0.1569
G1 X107.864 Y107.4 E0.16457
G1 X108.027 Y106.902 E0.17224
;;retract;;
G1 F6000 E-7.82776
G0 F3600 X107.199 Y106.633
G0 X106.951 Y107.4
G0 X107.289 Y108.434
G0 X107.907 Y108.867
G0 X108.56 Y110.922
G0 X108.56 Y111.792
G1 F6000 E0.17224
G1 F1500 X109.059 Y111.792 E0.17954
G1 X109.781 Y112.601 E0.19541
G1 X109.059 Y113.41 E0.21128
G1 X108.56 Y113.41 E0.21858
G1 X108.133 Y113.099 E0.22631
G1 X107.97 Y112.601 E0.23398
G1 X108.133 Y112.103 E0.24165
G1 X108.56 Y111.792 E0.24938
G0 F3600 X110.512 Y111.791
G1 F1500 X111.032 Y111.791 E0.25699
G1 X111.764 Y112.128 E0.26878
G1 X111.92 Y112.604 E0.27611
G1 X111.757 Y113.102 E0.28378
G1 X111.331 Y113.413 E0.2915
G1 X110.512 Y113.409 E0.30348
G1 X109.79 Y112.6 E0.31935
G1 X110.512 Y111.791 E0.33522
;;retract;;
G1 F6000 E-7.66478
G0 F3600 X110.512 Y110.921
G0 X110.731 Y109.058
G0 X110.161 Y108.432
;TYPE:SUPPORT-INTERFACE
G1 F6000 E0.33522
G1 F1500 X109.733 Y108.479 E0.34152
G1 X109.448 Y108.288 E0.34654
G1 X109.365 Y107.918 E0.35209
G1 X109.55 Y107.48 E0.35905
G1 X109.951 Y107.168 E0.36649
G1 X110.379 Y107.121 E0.37279
G1 X110.664 Y107.312 E0.37781
G1 X110.747 Y107.682 E0.38336
G1 X110.562 Y108.12 E0.39032
G1 X110.161 Y108.432 E0.39775
G0 F3600 X109.95 Y108.253
G1 F1500 X109.59 Y107.893 E0.4052
;;retract;;
G1 F6000 E-7.5948
;MESH:
G0 F3600 X109.087 Y109.059
G0 X110.69 Y109.041
G0 X111.8 Y109.03
G0 X111.8 Y110.1
;TYPE:WALL-OUTER
G1 F6000 E0.4052
G1 F600 X108.2 Y110.1 E0.47106
G1 X108.2 Y109.9 E0.47472
G1 X111.8 Y109.9 E0.50764
G1 X111.8 Y110.1 E0.5113
G0 F3600 X111.6 Y110.1
;;retract;;
G1 F6000 E-7.4887
;MESH:NONMESH
G0 F600 X111.6 Y110.1 Z0.2
G0 F3600 X111.6 Y109.03
G0 X112.181 Y108.418
G0 X112.534 Y107.342
G0 X112.196 Y106.308
G0 X111.314 Y105.665
G0 X110.268 Y105.665
G0 X110.299 Y106.593
;TIME_ELAPSED:10.424327

;LAYER:1
M140 S60
M106 S127.5
;TYPE:SUPPORT
G1 F6000 E0.5113
G1 F2250 X111.116 Y106.528 E0.52221
G1 X111.531 Y106.83 E0.52903
G1 X111.692 Y107.323 E0.53593
G1 X111.536 Y107.802 E0.54264
G1 X110.904 Y108.145 E0.5522
G1 X111.068 Y107.214 E0.56478
G1 X109.897 Y107.028 E0.58055
G1 X110.299 Y106.593 E0.58843
G0 F5400 X109.096 Y107.974
G1 F2250 X108.354 Y108.181 E0.59868
G1 X107.958 Y107.893 E0.6052
G1 X107.797 Y107.4 E0.6121
G1 X107.958 Y106.907 E0.619
G1 X108.38 Y106.6 E0.62594
G1 X108.876 Y106.6 E0.63254
G1 X109.583 Y107.366 E0.64641
G1 X109.096 Y107.974 E0.65677
;;retract;;
G1 F6000 E-7.34323
G0 F5400 X108.679 Y108.98
G0 X108.964 Y110.931
G0 X108.964 Y111.801
G1 F6000 E0.65677
G1 F2250 X109.574 Y112.601 E0.67015
G1 X108.964 Y113.401 E0.68354
G1 X108.479 Y113.401 E0.68999
G1 X108.057 Y113.094 E0.69693
G1 X107.896 Y112.601 E0.70383
G1 X108.057 Y112.108 E0.71073
G1 X108.479 Y111.801 E0.71768
G1 X108.964 Y111.801 E0.72413
G0 F5400 X111.072 Y111.8
G1 F2250 X111.841 Y112.134 E0.73528
G1 X111.994 Y112.604 E0.74186
G1 X111.833 Y113.097 E0.74876
G1 X111.412 Y113.404 E0.75569
G1 X110.562 Y113.4 E0.767
G1 X109.952 Y112.6 E0.78038
G1 X110.562 Y111.8 E0.79377
G1 X111.072 Y111.8 E0.80055
;;retract;;
G1 F6000 E-7.19945
G0 F5400 X111.072 Y110.93
G0 X110.84 Y109.058
G0 X110.153 Y108.767
;TYPE:SUPPORT-INTERFACE
G1 F6000 E0.80055
G1 F1749.9 X110.764 Y108.155 E0.81206
G0 F5400 X109.995 Y107.227
G1 F1749.9 X109.335 Y107.887 E0.82448
;;retract;;
G1 F6000 E-7.17552
;MESH:
G0 F5400 X108.679 Y108.98
G0 X111.8 Y110.97
G0 X111.8 Y110.1
;TYPE:WALL-OUTER
G1 F6000 E0.82448
G1 F600 X108.2 Y110.1 E0.88434
G1 X108.2 Y109.9 E0.88767
G1 X111.8 Y109.9 E0.9176
G1 X111.8 Y110.1 E0.92093
G0 F5400 X111.6 Y110.1
;;retract;;
G1 F6000 E-7.07907
;MESH:NONMESH
G0 F600 X111.6 Y110.1 Z0.3
G0 F5400 X111.6 Y109.03
G0 X112.252 Y108.399
G0 X112.605 Y107.323
G0 X112.269 Y106.294
G0 X111.367 Y105.639
G0 X108.317 Y105.73
G0 X108.317 Y106.643
;TIME_ELAPSED:15.974745

;LAYER:2
M106 S255
;TYPE:SUPPORT
G1 F6000 E0.92093
G1 F3000 X109.247 Y106.947 E0.93395
G1 X109.4 Y107.414 E0.94048
G1 X109.61 Y107.453 E0.94333
G1 X109.23 Y107.884 E0.95097
G1 X108.319 Y108.16 E0.96364
G1 X107.767 Y107.4 E0.97613
G1 X108.317 Y106.643 E0.98858
;;retract;;
G1 F6000 E-7.01142
G0 F7200 X108.586 Y105.816
G0 X111.566 Y105.614
G0 X112.792 Y107.303
G0 X111.595 Y108.954
G0 X110.842 Y108.97
G0 X111.148 Y108.097
G1 F6000 E0.98858
G1 F3000 X110.854 Y108.102 E0.99249
G1 X111.082 Y107.189 E1.00501
G1 X109.927 Y107.093 E1.02043
G1 X110.324 Y106.599 E1.02886
G1 X111.157 Y106.521 E1.03999
G1 X111.725 Y107.303 E1.05285
G1 X111.148 Y108.097 E1.06591
;;retract;;
G1 F6000 E-6.93409
G0 F7200 X111.164 Y108.966
G0 X112.159 Y109.034
G0 X112.666 Y109.541
G0 X112.666 Y110.459
G0 X112.159 Y110.966
G0 X111.003 Y110.967
G0 X111.141 Y111.821
G1 F6000 E1.06591
G1 F3000 X111.879 Y112.127 E1.07654
G1 X111.879 Y113.072 E1.08911
G1 X110.921 Y113.384 E1.10252
G1 X110.183 Y113.078 E1.11314
G1 X110.183 Y112.133 E1.12572
G1 X111.141 Y111.821 E1.13912
G0 F7200 X108.9 Y111.844
G1 F3000 X109.45 Y112.601 E1.15157
G1 X108.9 Y113.358 E1.16402
G1 X108.011 Y113.068 E1.17646
G1 X108.011 Y112.134 E1.18889
G1 X108.9 Y111.844 E1.20133
;;retract;;
G1 F6000 E-6.79867
G0 F7200 X109.603 Y111.332
G0 X110.811 Y110.966
G0 X112.159 Y110.966
G0 X112.666 Y110.459
G0 X112.666 Y109.541
G0 X112.159 Y109.034
G0 X110.701 Y109.057
G0 X110.271 Y108.574
;TYPE:SUPPORT-INTERFACE
G1 F6000 E1.20133
G1 F1999.8 X109.485 Y107.788 E1.21611
G0 F7200 X110.668 Y107.274
G1 F1999.8 X110.836 Y107.442 E1.21928
;;retract;;
G1 F6000 E-6.78072
;MESH:
G0 F7200 X111.8 Y110.1
;TYPE:WALL-OUTER
G1 F6000 E1.21928
G1 F600 X108.2 Y110.1 E1.27914
G1 X108.2 Y109.9 E1.28247
G1 X111.8 Y109.9 E1.3124
G1 X111.8 Y110.1 E1.31573
G0 F7200 X111.6 Y110.1
;;retract;;
G1 F6000 E-6.68427
;MESH:NONMESH
G0 F600 X111.6 Y110.1 Z0.4
G0 F7200 X111.6 Y109.03
G0 X108.672 Y108.946
G0 X108.732 Y108.149
;TIME_ELAPSED:22.505973

;LAYER:3
;TYPE:SUPPORT
G1 F6000 E1.31573
G1 F3000 X107.851 Y107.862 E1.32806
G1 X107.851 Y106.938 E1.34035
G1 X108.732 Y106.651 E1.35268
G1 X109.282 Y107.397 E1.36501
G1 X108.732 Y108.149 E1.3774
G0 F7200 X111.218 Y108.083
G1 F3000 X110.86 Y108.131 E1.38221
G1 X111.101 Y107.356 E1.39301
G1 X110.007 Y107.365 E1.40756
G1 X109.776 Y107.562 E1.4116
G1 X109.729 Y107.417 E1.41363
G1 X110.332 Y106.593 E1.42721
G1 X111.234 Y106.511 E1.43926
G1 X111.797 Y107.286 E1.45201
G1 X111.218 Y108.083 E1.46511
;;retract;;
G1 F6000 E-6.53489
G0 F7200 X111.333 Y108.944
G0 X112.159 Y109.034
G0 X112.666 Y109.541
G0 X112.666 Y110.459
G0 X112.159 Y110.966
G0 X111.5 Y111.019
G0 X111.182 Y111.828
G1 F6000 E1.46511
G1 F3000 X111.955 Y112.134 E1.47617
G1 X111.955 Y113.067 E1.48858
G1 X111.005 Y113.377 E1.50188
G1 X110.232 Y113.071 E1.51294
G1 X110.232 Y112.138 E1.52535
G1 X111.182 Y111.828 E1.53865
G0 F7200 X108.814 Y111.852
G1 F3000 X109.358 Y112.601 E1.55096
G1 X108.814 Y113.35 E1.56328
G1 X107.935 Y113.063 E1.57558
G1 X107.935 Y112.139 E1.58787
G1 X108.814 Y111.852 E1.60018
;;retract;;
G1 F6000 E-6.39982
G0 F7200 X109.517 Y111.34
G0 X110.782 Y110.966
G0 X112.159 Y110.966
G0 X112.666 Y110.459
G0 X112.666 Y109.541
G0 X112.159 Y109.034
G0 X110.803 Y109.057
G0 X110.173 Y108.746
;TYPE:SUPPORT-INTERFACE
G1 F6000 E1.60018
G1 F1999.8 X110.613 Y108.306 E1.60845
;;retract;;
G1 F6000 E-6.39155
;MESH:
G0 F7200 X111.8 Y110.1
;TYPE:WALL-OUTER
G1 F6000 E1.60845
G1 F600 X108.2 Y110.1 E1.66832
G1 X108.2 Y109.9 E1.67165
G1 X111.8 Y109.9 E1.70158
G1 X111.8 Y110.1 E1.70491
G0 F7200 X111.6 Y110.1
;;retract;;
G1 F6000 E-6.29509
;MESH:NONMESH
G0 F600 X111.6 Y110.1 Z0.5
G0 F7200 X111.6 Y109.03
G0 X112.864 Y107.286
G0 X111.645 Y105.606
G0 X109.056 Y105.638
G0 X106.989 Y106.313
G0 X106.989 Y108.487
G0 X108.66 Y109.031
G0 X108.654 Y108.14
;TIME_ELAPSED:28.433743

;LAYER:4
;TYPE:SUPPORT
G1 F6000 E1.70491
G1 F3000 X107.784 Y107.857 E1.71708
G1 X107.784 Y106.943 E1.72924
G1 X108.654 Y106.66 E1.74141
G1 X109.192 Y107.4 E1.75358
G1 X108.654 Y108.14 E1.76576
G0 F7200 X109.903 Y107.549
G1 F3000 X109.903 Y106.843 E1.77515
G1 X110.784 Y106.528 E1.7876
G1 X111.311 Y106.511 E1.79461
G1 X111.872 Y107.283 E1.80731
G1 X111.307 Y108.06 E1.82009
G1 X110.836 Y108.072 E1.82636
G1 X111.141 Y107.308 E1.8373
G1 X110.09 Y107.435 E1.85138
G1 X109.903 Y107.549 E1.8543
;;retract;;
G1 F6000 E-6.1457
G0 F7200 X110.839 Y108.939
G0 X112.159 Y109.034
G0 X112.666 Y109.541
G0 X112.666 Y110.459
G0 X112.159 Y110.966
G0 X111.182 Y110.967
G0 X111.225 Y111.837
G1 F6000 E1.8543
G1 F3000 X112.031 Y112.142 E1.86576
G1 X112.031 Y113.063 E1.87802
G1 X111.089 Y113.369 E1.89119
G1 X110.283 Y113.064 E1.90266
G1 X110.283 Y112.143 E1.91491
G1 X111.225 Y111.837 E1.92809
G0 F7200 X108.729 Y111.861
G1 F3000 X109.267 Y112.601 E1.94026
G1 X108.729 Y113.341 E1.95243
G1 X107.859 Y113.058 E1.9646
G1 X107.859 Y112.144 E1.97676
G1 X108.729 Y111.861 E1.98894
;;retract;;
G1 F6000 E-6.01106
G0 F7200 X109.432 Y111.35
G0 X110.731 Y110.966
G0 X112.159 Y110.966
G0 X112.666 Y110.459
G0 X112.666 Y109.541
G0 X112.159 Y109.034
G0 X110.671 Y109.056
G0 X110.257 Y108.56
;TYPE:SUPPORT-INTERFACE
G1 F6000 E1.98894
G1 F1999.8 X109.714 Y108.017 E1.99915
;;retract;;
G1 F6000 E-6.00085
;MESH:
G0 F7200 X110.664 Y109.096
G0 X111.8 Y109.03
G0 X111.8 Y110.1
;TYPE:WALL-OUTER
G1 F6000 E1.99915
G1 F600 X108.2 Y110.1 E2.05902
G1 X108.2 Y109.9 E2.06235
G1 X111.8 Y109.9 E2.09228
G1 X111.8 Y110.1 E2.09561
G0 F7200 X111.6 Y110.1
;;retract;;
G1 F6000 E-5.90439
;MESH:NONMESH
G0 F600 X111.6 Y110.1 Z0.6
G0 F7200 X111.6 Y109.03
G0 X112.939 Y107.283
G0 X111.741 Y105.633
G0 X108.983 Y105.646
G0 X106.922 Y106.317
G0 X106.922 Y108.483
G0 X108.658 Y109.046
G0 X108.579 Y108.132
;TIME_ELAPSED:34.518818

;LAYER:5
;TYPE:SUPPORT
G1 F6000 E2.09561
G1 F3000 X107.719 Y107.852 E2.10764
G1 X107.719 Y106.948 E2.11967
G1 X108.579 Y106.668 E2.1317
G1 X109.111 Y107.4 E2.14374
G1 X108.579 Y108.132 E2.15578
G0 F7200 X110.982 Y108.009
G1 F3000 X110.739 Y107.369 E2.16488
G1 X110.099 Y107.793 E2.1751
G1 X109.742 Y107.231 E2.18396
G1 X110.305 Y106.456 E2.1967
G1 X110.796 Y106.456 E2.20323
G1 X111.799 Y106.832 E2.21748
G1 X111.799 Y107.743 E2.2296
G1 X110.982 Y108.009 E2.24103
;;retract;;
G1 F6000 E-5.75897
G0 F7200 X111.251 Y108.836
G0 X112.159 Y109.034
G0 X112.666 Y109.541
G0 X112.666 Y110.459
G0 X112.159 Y110.966
G0 X111.226 Y110.966
G0 X111.27 Y111.844
G1 F6000 E2.24103
G1 F3000 X112.107 Y112.149 E2.25289
G1 X112.107 Y113.058 E2.26498
G1 X111.174 Y113.362 E2.27803
G1 X110.337 Y113.057 E2.28989
G1 X110.337 Y112.148 E2.30198
G1 X111.27 Y111.844 E2.31503
G0 F7200 X108.643 Y111.869
G1 F3000 X109.175 Y112.601 E2.32707
G1 X108.643 Y113.333 E2.33911
G1 X107.783 Y113.053 E2.35114
G1 X107.783 Y112.149 E2.36317
G1 X108.643 Y111.869 E2.3752
;;retract;;
G1 F6000 E-5.6248
G0 F7200 X109.346 Y111.357
G0 X110.703 Y110.966
G0 X112.159 Y110.966
G0 X112.666 Y110.459
G0 X112.666 Y109.541
G0 X112.159 Y109.034
G0 X110.773 Y109.056
G0 X110.361 Y108.558
;TYPE:SUPPORT-INTERFACE
G1 F6000 E2.3752
G1 F1999.8 X110.443 Y108.477 E2.37674
;;retract;;
G1 F6000 E-5.62326
;MESH:
G0 F7200 X111.8 Y110.1
;TYPE:WALL-OUTER
G1 F6000 E2.37674
G1 F600 X108.2 Y110.1 E2.43661
G1 X108.2 Y109.9 E2.43993
G1 X111.8 Y109.9 E2.46987
G1 X111.8 Y110.1 E2.47319
G0 F7200 X111.6 Y110.1
;;retract;;
G1 F6000 E-5.52681
;MESH:NONMESH
G0 F600 X111.6 Y110.1 Z0.7
G0 F7200 X111.6 Y109.03
G0 X108.693 Y109.072
G0 X108.503 Y108.124
;TIME_ELAPSED:40.005962

;LAYER:6
;TYPE:SUPPORT
G1 F6000 E2.47319
G1 F3000 X107.653 Y107.847 E2.48509
G1 X107.653 Y106.953 E2.49698
G1 X108.503 Y106.676 E2.50887
G1 X109.029 Y107.4 E2.52078
G1 X108.503 Y108.124 E2.53268
G0 F7200 X111.016 Y108.034
G1 F3000 X110.925 Y107.921 E2.53461
G1 X110.856 Y107.338 E2.54242
G1 X110.218 Y107.815 E2.55302
G1 X109.734 Y107.145 E2.56402
G1 X110.286 Y106.385 E2.57652
G1 X110.767 Y106.385 E2.58292
G1 X111.873 Y106.848 E2.59887
G1 X111.873 Y107.755 E2.61093
G1 X111.016 Y108.034 E2.62292
;;retract;;
G1 F6000 E-5.37708
G0 F7200 X111.285 Y108.86
G0 X112.159 Y109.034
G0 X112.666 Y109.541
G0 X112.666 Y110.459
G0 X112.159 Y110.966
G0 X111.777 Y111.845
G1 F6000 E2.62292
G1 F3000 X112.326 Y112.6 E2.63534
G1 X111.772 Y113.363 E2.64789
G1 X110.796 Y113.399 E2.66088
G1 X110.247 Y112.644 E2.6733
G1 X110.801 Y111.881 E2.68585
G1 X111.777 Y111.845 E2.69884
G0 F7200 X109.083 Y112.6
G1 F3000 X108.557 Y113.324 E2.71074
G1 X107.707 Y113.047 E2.72264
G1 X107.707 Y112.153 E2.73453
