;FLAVOR:Marlin
;TIME:3395
;Filament used:0.612287m
;Layer height: 0.1
;MINX:99.33
;MINY:103.33
;MINZ:0.1
;MAXX:120.67
;MAXY:116.67
;MAXZ:9.5
                                 
;Creality Print GCode Generated by CXEngine:NO_MAGE_VERSION_GIT_HEAD_BRANCH
;CXEngine Release Time:2022-09-30 09:53:04
;Gcode Generated Time:2023-01-14 05:52:01
;----------Machine Config--------------
;Machine Name:Creality Ender-3
;Machine Height:250
;Machine Width:220
;Machine Depth:220
;Material name:PLA
;Number of Extruders:1
;ExtruderParams[0] Nozzle Diameter1000
;----------Profile Config---------------
;Engine Version:275f99b
;Engine Release Time:2022-09-30 09:42:18
;Layer Height:0.1
;Wall Thickness:0.8
;Top/Bottom Thickness:0.5
;Out Wall Line Width:0.4
;Inner Wall Line Width:0.4
;Inital Layer Height:100
;Wall Line Count:2
;Infill Line Distance:4
;Infill Pattern:grid
;Infill Sparse Density:20
;Infill Wipe Distance:0
;Print Temperature:200
;Bed Temperature:60
;Support Enable:true
;Support Density:0
;Support Angle:60
;Adhesion Type:none
;machine is belt:false
;machine belt offset:10
;machine belt offset Y:0
;Raft Base Line Spacing:1.6
;Wait Heatup Sync:true
;----------Shell Config----------------
;Outer Wall Wipe Distance:200
;Outer Inset First:false
;Infill Before Walls:false
;Infill Overlap:0.16
;Fill Gaps Between Walls:everywhere
;Minimum Infill Area:1
;Top Surface Skin Layer:0
;Top Layers:4
;Z Seam Alignment:sharpest_corner
;Seam Corner Preference:z_seam_corner_inner
;Z Seam X:110
;Z Seam Y:110
;Horizontal Expansion:0
;Top/Bottom Pattern:zigzag
;Ironing Pattern:zigzag
;Vase Model:false
;----------Support Config----------------
;Support Type:everywhere
;Support Pattern:zigzag
;Support Infill Layer Thickness:0.1
;Minimum Support Area:5
;Enable Support Roof:true
;Support Roof Thickness:0.8
;Support Roof Pattern:lines
;Connect Support Lines:0
;Connect Support ZigZags:0
;Minimum Support X/Y Distance:0.2
;Support Line Distance:0
; ---------PrintSpeed & Travel----------
;Enable Print Cool:true
;Avoid Printed Parts Traveling:true
;Enable Retraction:true
;Retraction Distance:8
;Retraction Speed:100
;Retraction Prime Speed:100
;Maximum Retraction Count:100
;Minimum Extrusion Distance Window:1
;Z Hop When Retracted:false
;Z Hop Height:0.2
;Retract Before Outer Wall:true
;Print Speed:50
;Infill Speed:50

;Prime Tower Speed:50
;Travel Speed:120
;Initial Layer Speed:25
;Skirt/Brim Speed:25
;Combing Mode:infill
; --------SpecialModel&Mesh Fixes--------
;Union Overlapping Volum:true
;Remove All Holes:false
;Maximum Travel Resolution:0.6
;Maximum Deviation:0.05
;Maximum Model Angle:0.872665
;IS Mold Print:false
;Make Overhang Printable:false
;Enable Coasting:false
;Coasting Volumes:0.06
;Coasting Speed:0.9
;Raft AirGap:0.25
;Layer0 ZOverLap:0.13
;---------------------End of Head--------------------------
M140 S60
M105
M104 S200
M105
M109 S200
M105
M190 S60
M82 ;absolute extrusion mode
M220 S100 ;Reset Feedrate
M221 S100 ;Reset Flowrate

G28 ;Home

G92 E0 ;Reset Extruder
G1 Z2.0 F3000 ;Move Z Axis up
G1 X10.1 Y20 Z0.28 F5000.0 ;Move to start position
G1 X10.1 Y145.0 Z0.28 F1500.0 E15 ;Draw the first line
G1 X10.4 Y145.0 Z0.28 F5000.0 ;Move to side a little
G1 X10.4 Y20 Z0.28 F1500.0 E30 ;Draw the second line
G92 E0  ;Reset Extruder
G1 E-1.0000 F1800 ;Retract a bit
G1 Z2.0 F3000 ;Move Z Axis up
G1 E0.0000 F1800 

G92 E0
G92 E0
G1 F6000 E-8

;LAYER_COUNT:95

;LAYER:0
M107
;MESH:
G0 F3600 X117 Y105.679 Z0.1
;TYPE:WALL-INNER
G1 F6000 E0
G1 F600 X116.356 Y105.848 E0.01218
G1 X115.876 Y106.308 E0.02434
G1 X115.682 Y106.943 E0.03649
G1 X115.821 Y107.594 E0.04866
G1 X116.261 Y108.094 E0.06085
G1 X116.839 Y108.297 E0.07206
G1 X117.161 Y108.297 E0.07795
G1 X117.739 Y108.094 E0.08915
G1 X118.179 Y107.594 E0.10134
G1 X118.318 Y106.943 E0.11351
G1 X118.124 Y106.308 E0.12566
G1 X117.644 Y105.848 E0.13782
G1 X117 Y105.679 E0.15
G0 F3600 X117 Y106.093
;TYPE:WALL-OUTER
G1 F600 X116.558 Y106.209 E0.15836
G1 X116.228 Y106.525 E0.16672
G1 X116.095 Y106.961 E0.17506
G1 X116.19 Y107.408 E0.18342
G1 X116.492 Y107.751 E0.19178
G1 X116.907 Y107.897 E0.19982
G1 X117.093 Y107.897 E0.20323
G1 X117.508 Y107.751 E0.21127
G1 X117.81 Y107.408 E0.21963
G1 X117.905 Y106.961 E0.22799
G1 X117.772 Y106.525 E0.23633
G1 X117.442 Y106.209 E0.24469
G1 X117 Y106.093 E0.25305
G0 F3600 X116.807 Y106.143
G0 X116.697 Y105.717
;;retract;;
G1 F6000 E-7.74695
G0 F3600 X116.995 Y106.991
G0 X117 Y112.99
G0 X117.087 Y111.006
;TYPE:WALL-INNER
G1 F6000 E0.25305
G1 F600 X117.81 Y110.598 E0.26824
G1 X117.986 Y109.788 E0.2834
G1 X117.543 Y109.188 E0.29704
G1 X117.083 Y109.028 E0.30595
G1 X116.366 Y109.216 E0.31951
G1 X115.993 Y109.957 E0.33469
G1 X116.302 Y110.729 E0.3499
G1 X117.087 Y111.006 E0.36513
G0 F3600 X117.049 Y110.568
;TYPE:WALL-OUTER
G1 F600 X117.457 Y110.338 E0.37369
G1 X117.557 Y109.88 E0.38227
G1 X117.295 Y109.525 E0.39034
G1 X117.067 Y109.446 E0.39476
G1 X116.642 Y109.557 E0.40279
G1 X116.431 Y109.976 E0.41137
G1 X116.606 Y110.412 E0.41997
G1 X117.049 Y110.568 E0.42856
G0 F3600 X117.223 Y110.47
G0 X117.438 Y110.854
G0 X117 Y111.679
;TYPE:WALL-INNER
G1 F600 X116.356 Y111.848 E0.44074
G1 X115.876 Y112.308 E0.4529
G1 X115.682 Y112.943 E0.46505
G1 X115.821 Y113.594 E0.47722
G1 X116.261 Y114.094 E0.48941
G1 X116.839 Y114.297 E0.50061
G1 X117.161 Y114.297 E0.5065
G1 X117.739 Y114.094 E0.51771
G1 X118.179 Y113.594 E0.52989
G1 X118.318 Y112.943 E0.54207
G1 X118.124 Y112.308 E0.55422
G1 X117.644 Y111.848 E0.56638
G1 X117 Y111.679 E0.57856
G0 F3600 X117 Y112.093
;TYPE:WALL-OUTER
G1 F600 X116.558 Y112.209 E0.58692
G1 X116.228 Y112.525 E0.59528
G1 X116.095 Y112.961 E0.60362
G1 X116.19 Y113.408 E0.61197
G1 X116.492 Y113.751 E0.62033
G1 X116.907 Y113.897 E0.62838
G1 X117.093 Y113.897 E0.63178
G1 X117.508 Y113.751 E0.63983
G1 X117.81 Y113.408 E0.64819
G1 X117.905 Y112.961 E0.65655
G1 X117.772 Y112.525 E0.66489
G1 X117.442 Y112.209 E0.67325
G1 X117 Y112.093 E0.68161
G0 F3600 X116.807 Y112.143
G0 X116.697 Y111.717
G0 X114.087 Y114.006
;TYPE:WALL-INNER
G1 F600 X114.81 Y113.598 E0.69679
G1 X114.986 Y112.788 E0.71196
G1 X114.543 Y112.188 E0.7256
G1 X114.083 Y112.028 E0.73451
G1 X113.366 Y112.216 E0.74807
G1 X112.993 Y112.957 E0.76325
G1 X113.302 Y113.729 E0.77846
G1 X114.087 Y114.006 E0.79369
G0 F3600 X114.049 Y113.568
;TYPE:WALL-OUTER
G1 F600 X114.457 Y113.338 E0.80225
G1 X114.557 Y112.88 E0.81083
G1 X114.295 Y112.525 E0.8189
G1 X114.067 Y112.446 E0.82331
G1 X113.642 Y112.557 E0.83135
G1 X113.431 Y112.976 E0.83993
G1 X113.606 Y113.412 E0.84853
G1 X114.049 Y113.568 E0.85712
G0 F3600 X114.223 Y113.47
G0 X114.438 Y113.854
;;retract;;
G1 F6000 E-7.14288
G0 F3600 X116.992 Y113.006
G0 X109.674 Y109.859
G0 X106.558 Y110.542
G0 X106.492 Y108.491
G0 X103 Y106.99
G0 X103 Y105.679
;TYPE:WALL-INNER
G1 F6000 E0.85712
G1 F600 X102.356 Y105.848 E0.8693
G1 X101.876 Y106.308 E0.88146
G1 X101.682 Y106.943 E0.8936
G1 X101.821 Y107.594 E0.90578
G1 X102.261 Y108.094 E0.91797
G1 X102.839 Y108.297 E0.92917
G1 X103.161 Y108.297 E0.93506
G1 X103.739 Y108.094 E0.94627
G1 X104.179 Y107.594 E0.95845
G1 X104.318 Y106.943 E0.97063
G1 X104.124 Y106.308 E0.98278
G1 X103.644 Y105.848 E0.99494
G1 X103 Y105.679 E1.00712
G0 F3600 X103 Y106.093
;TYPE:WALL-OUTER
G1 F600 X102.558 Y106.209 E1.01548
G1 X102.228 Y106.525 E1.02383
G1 X102.095 Y106.961 E1.03217
G1 X102.19 Y107.408 E1.04053
G1 X102.492 Y107.751 E1.04889
G1 X102.907 Y107.897 E1.05694
G1 X103.093 Y107.897 E1.06034
G1 X103.508 Y107.751 E1.06839
G1 X103.81 Y107.408 E1.07675
G1 X103.905 Y106.961 E1.08511
G1 X103.772 Y106.525 E1.09345
G1 X103.442 Y106.209 E1.10181
G1 X103 Y106.093 E1.11017
G0 F3600 X102.807 Y106.143
G0 X102.697 Y105.717
;;retract;;
G1 F6000 E-6.88983
G0 F3600 X102.995 Y106.991
G0 X103 Y112.99
G0 X103.087 Y111.006
;TYPE:WALL-INNER
G1 F6000 E1.11017
G1 F600 X103.81 Y110.598 E1.12535
G1 X103.986 Y109.788 E1.14052
G1 X103.543 Y109.188 E1.15416
G1 X103.083 Y109.028 E1.16307
G1 X102.366 Y109.216 E1.17663
G1 X101.993 Y109.957 E1.1918
G1 X102.302 Y110.729 E1.20702
G1 X103.087 Y111.006 E1.22224
G0 F3600 X103.049 Y110.568
;TYPE:WALL-OUTER
G1 F600 X103.457 Y110.338 E1.23081
G1 X103.557 Y109.88 E1.23939
G1 X103.295 Y109.525 E1.24746
G1 X103.067 Y109.446 E1.25187
G1 X102.642 Y109.557 E1.25991
G1 X102.431 Y109.976 E1.26849
G1 X102.606 Y110.412 E1.27708
G1 X103.049 Y110.568 E1.28568
G0 F3600 X103.223 Y110.47
G0 X103.438 Y110.854
G0 X103 Y111.679
;TYPE:WALL-INNER
G1 F600 X102.356 Y111.848 E1.29785
G1 X101.876 Y112.308 E1.31002
G1 X101.682 Y112.943 E1.32216
G1 X101.821 Y113.594 E1.33434
G1 X102.261 Y114.094 E1.34652
G1 X102.839 Y114.297 E1.35773
G1 X103.161 Y114.297 E1.36362
G1 X103.739 Y114.094 E1.37483
G1 X104.179 Y113.594 E1.38701
G1 X104.318 Y112.943 E1.39919
G1 X104.124 Y112.308 E1.41133
G1 X103.644 Y111.848 E1.4235
G1 X103 Y111.679 E1.43568
G0 F3600 X103 Y112.093
;TYPE:WALL-OUTER
G1 F600 X102.558 Y112.209 E1.44404
G1 X102.228 Y112.525 E1.45239
G1 X102.095 Y112.961 E1.46073
G1 X102.19 Y113.408 E1.46909
G1 X102.492 Y113.751 E1.47745
G1 X102.907 Y113.897 E1.4855
G1 X103.093 Y113.897 E1.4889
G1 X103.508 Y113.751 E1.49695
G1 X103.81 Y113.408 E1.50531
G1 X103.905 Y112.961 E1.51367
G1 X103.772 Y112.525 E1.52201
G1 X103.442 Y112.209 E1.53037
G1 X103 Y112.093 E1.53873
G0 F3600 X102.807 Y112.143
G0 X102.697 Y111.717
;;retract;;
G1 F6000 E-6.46127
G0 F3600 X103 Y112.99
G0 X107.085 Y116.658
G0 X107.087 Y114.006
;TYPE:WALL-INNER
G1 F6000 E1.53873
G1 F600 X107.81 Y113.598 E1.55391
G1 X107.986 Y112.788 E1.56907
G1 X107.548 Y112.196 E1.58255
G1 X107.543 Y112.188 E1.58272
G1 X107.083 Y112.028 E1.59163
G1 X106.442 Y112.196 E1.60375
G1 X106.366 Y112.216 E1.60519
G1 X105.993 Y112.957 E1.62036
G1 X106.302 Y113.729 E1.63557
G1 X107.087 Y114.006 E1.6508
G0 F3600 X107.049 Y113.568
;TYPE:WALL-OUTER
G1 F600 X107.457 Y113.338 E1.65937
G1 X107.557 Y112.88 E1.66795
G1 X107.295 Y112.525 E1.67602
G1 X107.067 Y112.446 E1.68043
G1 X106.642 Y112.557 E1.68847
G1 X106.431 Y112.976 E1.69705
G1 X106.606 Y113.412 E1.70564
G1 X107.049 Y113.568 E1.71423
G0 F3600 X107.223 Y113.47
G0 X107.438 Y113.854
G0 X105.3 Y111.8
;TYPE:WALL-INNER
G1 F1500 X106.42 Y111.8 E1.73472
G1 X107.083 Y111.8 E1.74428
G1 X107.543 Y111.8 E1.75074
G1 X107.553 Y111.8 E1.75092
G1 X110.698 Y111.8 E1.80846
G1 X110.701 Y110.668 E1.82916
G1 X111.182 Y110.473 E1.83866
G1 X111.629 Y110.197 E1.84827
G1 X112.024 Y109.85 E1.85789
G1 X112.354 Y109.439 E1.86753
G1 X112.61 Y108.98 E1.87714
G1 X112.784 Y108.485 E1.88674
G1 X112.874 Y107.966 E1.89638
G1 X112.874 Y107.439 E1.90602
G1 X112.783 Y106.919 E1.91567
G1 X112.609 Y106.424 E1.92527
G1 X112.35 Y105.965 E1.93491
G1 X112.019 Y105.556 E1.94454
G1 X111.624 Y105.21 E1.95414
G1 X111.285 Y105.001 E1.96143
G1 X111.176 Y104.934 E1.96377
G1 X110.7 Y104.741 E1.97317
G1 X110.7 Y104.608 E1.9756
G1 X111.176 Y104.608 E1.98053
G1 X111.305 Y104.608 E1.98269
G1 X119.4 Y104.615 E2.13077
G1 X119.4 Y115.201 E2.32442
G1 X119.4 Y115.4 E2.32806
G1 X119.201 Y115.4 E2.33042
G1 X100.6 Y115.381 E2.67069
G1 X100.6 Y104.799 E2.86426
G1 X100.6 Y104.6 E2.8679
G1 X100.799 Y104.6 E2.87026
G1 X105.3 Y104.604 E2.9526
G1 X105.3 Y111.8 E3.08423
G0 F3600 X105.7 Y111.4
;TYPE:WALL-OUTER
G1 F1500 X110.299 Y111.4 E3.16836
G1 X110.302 Y110.345 E3.18766
G1 X110.577 Y110.286 E3.19281
G1 X111.001 Y110.115 E3.20117
G1 X111.39 Y109.874 E3.20954
G1 X111.734 Y109.572 E3.21791
G1 X112.021 Y109.215 E3.22629
G1 X112.244 Y108.815 E3.23467
G1 X112.396 Y108.384 E3.24303
G1 X112.474 Y107.932 E3.25142
G1 X112.474 Y107.474 E3.2598
G1 X112.395 Y107.021 E3.26821
G1 X112.243 Y106.59 E3.27657
G1 X112.018 Y106.19 E3.28497
G1 X111.73 Y105.834 E3.29335
G1 X111.386 Y105.533 E3.30171
G1 X110.995 Y105.292 E3.31011
G1 X110.571 Y105.121 E3.31847
G1 X110.3 Y105.063 E3.32354
G1 X110.3 Y104.408 E3.33552
G1 X110.3 Y104.208 E3.33918
G1 X110.5 Y104.208 E3.34155
G1 X119.8 Y104.215 E3.51168
G1 X119.8 Y115.6 E3.71994
G1 X119.8 Y115.8 E3.7236
G1 X119.6 Y115.8 E3.72597
G1 X100.2 Y115.781 E4.08086
G1 X100.2 Y104.4 E4.28905
G1 X100.2 Y104.2 E4.29271
G1 X100.4 Y104.2 E4.29508
G1 X105.7 Y104.204 E4.39203
G1 X105.7 Y111.4 E4.52367
G0 F3600 X105.9 Y111.4
G0 X105.9 Y111.84
;;retract;;
G1 F6000 E-3.47633
G0 F3600 X106.558 Y110.542
G0 X106.566 Y103.845
G0 X106.059 Y103.338
G0 X99.841 Y103.334
G0 X99.334 Y103.841
G0 X99.334 Y116.14
G0 X99.841 Y116.647
G0 X100.838 Y116.652
G0 X100.839 Y115.14
;TYPE:SKIN
G1 F6000 E4.52367
G1 F600 X100.998 Y115.14 E4.52658
G1 X101.564 Y115.141 E4.53693
G1 X100.839 Y114.416 E4.55569
G1 X100.839 Y113.85 E4.56604
G1 X102.13 Y115.141 E4.59944
G1 X102.696 Y115.141 E4.60979
G1 X100.839 Y113.284 E4.65783
G1 X100.839 Y112.719 E4.66817
G1 X101.538 Y113.417 E4.68624
G1 X101.435 Y112.931 E4.69533
G1 X101.478 Y112.792 E4.69799
G1 X100.839 Y112.153 E4.71452
G1 X100.839 Y111.587 E4.72487
G1 X101.61 Y112.358 E4.74482
G1 X101.664 Y112.176 E4.74829
G1 X101.833 Y112.015 E4.75256
G1 X100.839 Y111.022 E4.77827
G1 X100.839 Y110.456 E4.78862
G1 X102.121 Y111.738 E4.82179
G1 X102.234 Y111.63 E4.82464
G1 X102.507 Y111.558 E4.82981
G1 X100.839 Y109.89 E4.87296
G1 X100.839 Y109.325 E4.8833
G1 X101.911 Y110.396 E4.91102
G1 X101.73 Y109.945 E4.91991
G1 X101.829 Y109.748 E4.92394
G1 X100.839 Y108.759 E4.94954
G1 X100.839 Y108.193 E4.95989
G1 X102.018 Y109.372 E4.99039
G1 X102.199 Y109.01 E4.9978
G1 X102.217 Y109.005 E4.99814
G1 X100.839 Y107.628 E5.03378
G1 X100.839 Y107.062 E5.04413
G1 X102.665 Y108.888 E5.09137
G1 X103.092 Y108.776 E5.09944
G1 X103.133 Y108.79 E5.10024
G1 X102.879 Y108.536 E5.10681
G1 X103.202 Y108.536 E5.11272
G1 X103.382 Y108.473 E5.1162
G1 X105.059 Y110.15 E5.15959
G1 X105.059 Y109.585 E5.16992
G1 X103.8 Y108.325 E5.20251
G1 X103.877 Y108.298 E5.204
G1 X104.093 Y108.052 E5.20999
G1 X105.059 Y109.019 E5.23499
G1 X105.059 Y108.453 E5.24535
G1 X104.358 Y107.752 E5.26348
G1 X104.401 Y107.705 E5.26465
G1 X104.484 Y107.312 E5.272
G1 X105.059 Y107.888 E5.28688
G1 X105.059 Y107.322 E5.29724
G1 X104.518 Y106.781 E5.31123
G1 X104.335 Y106.177 E5.32278
G1 X103.765 Y105.631 E5.33722
G0 F3600 X103 Y105.429
G1 F600 X103.226 Y105.489 E5.3415
G1 X102.578 Y104.841 E5.35826
G1 X103.144 Y104.842 E5.36861
G1 X105.059 Y106.756 E5.41814
G1 X105.059 Y106.191 E5.42848
G1 X103.711 Y104.842 E5.46336
G1 X104.277 Y104.843 E5.47372
G1 X105.059 Y105.625 E5.49395
G1 X105.059 Y105.059 E5.5043
G1 X104.844 Y104.844 E5.50986
G1 X105.059 Y104.844 E5.5138
G0 F3600 X103 Y105.429
G1 F600 X102.683 Y105.512 E5.51979
G1 X102.012 Y104.84 E5.53716
G1 X101.446 Y104.84 E5.54752
G1 X102.237 Y105.631 E5.56798
G0 F3600 X102.234 Y105.631
G1 F600 X101.947 Y105.906 E5.57525
G1 X100.88 Y104.839 E5.60286
G1 X100.839 Y104.839 E5.60361
G1 X100.839 Y105.365 E5.61323
G1 X101.662 Y106.187 E5.63451
G1 X101.529 Y106.621 E5.64281
G1 X100.839 Y105.93 E5.66067
G1 X100.839 Y106.496 E5.67103
G1 X101.478 Y107.135 E5.68756
G1 X101.598 Y107.705 E5.69821
G1 X102.122 Y108.298 E5.71269
G1 X102.797 Y108.536 E5.72578
G0 F3600 X103.692 Y108.984
G1 F600 X104.243 Y109.732 E5.74278
G1 X104.213 Y109.87 E5.74536
G1 X105.059 Y110.716 E5.76725
G1 X105.059 Y111.282 E5.7776
G1 X104.112 Y110.334 E5.80211
G1 X104.021 Y110.752 E5.80994
G1 X103.985 Y110.773 E5.8107
G1 X105.059 Y111.848 E5.8385
G1 X105.059 Y112.038 E5.84197
G0 F3600 X105.817 Y112.039
G1 F600 X105.251 Y112.039 E5.85233
G1 X105.872 Y112.661 E5.86841
G1 X105.73 Y112.945 E5.87422
G1 X105.823 Y113.177 E5.87879
G1 X106.12 Y113.918 E5.89339
G0 F3600 X106.807 Y114.161
G1 F600 X107.793 Y115.147 E5.9189
G1 X108.359 Y115.148 E5.92925
G1 X107.346 Y114.134 E5.95547
G1 X107.707 Y113.93 E5.96306
G1 X108.926 Y115.148 E5.99458
G1 X109.492 Y115.149 E6.00493
G1 X108.033 Y113.69 E6.04268
G1 X108.135 Y113.226 E6.05137
G1 X110.059 Y115.15 E6.10114
G1 X110.624 Y115.15 E6.11148
G1 X108.236 Y112.762 E6.17326
G1 X108.243 Y112.732 E6.17382
G1 X107.732 Y112.038 E6.18959
G1 X108.079 Y112.038 E6.19594
G1 X111.191 Y115.15 E6.27644
G1 X111.757 Y115.151 E6.2868
G1 X108.644 Y112.038 E6.36733
G1 X109.21 Y112.038 E6.37769
G1 X112.323 Y115.152 E6.45823
G1 X112.89 Y115.153 E6.46861
G1 X109.776 Y112.038 E6.54918
G1 X110.341 Y112.038 E6.55951
G1 X113.456 Y115.153 E6.6401
G1 X114.023 Y115.154 E6.65047
