;FLAVOR:Marlin
;TIME:618
;Filament used:0.131882m
;Layer height: 0.1
;MINX:99.33
;MINY:103.33
;MINZ:0.1
;MAXX:120.67
;MAXY:116.67
;MAXZ:2
                                    
;Creality Print GCode Generated by CXEngine:NO_MAGE_VERSION_GIT_HEAD_BRANCH
;CXEngine Release Time:2022-09-30 09:53:04
;Gcode Generated Time:2023-01-17 02:30:05
;----------Machine Config--------------
;Machine Name:Creality Ender-3
;Machine Height:250
;Machine Width:220
;Machine Depth:220
;Material name:PLA
;Number of Extruders:1
;ExtruderParams[0] Nozzle Diameter1000
;----------Profile Config---------------
;Engine Version:275f99b
;Engine Release Time:2022-09-30 09:42:18
;Layer Height:0.1
;Wall Thickness:0.8
;Top/Bottom Thickness:0.5
;Out Wall Line Width:0.4
;Inner Wall Line Width:0.4
;Inital Layer Height:100
;Wall Line Count:2
;Infill Line Distance:4
;Infill Pattern:grid
;Infill Sparse Density:20
;Infill Wipe Distance:0
;Print Temperature:200
;Bed Temperature:60
;Support Enable:true
;Support Density:0
;Support Angle:60
;Adhesion Type:none
;machine is belt:false
;machine belt offset:10
;machine belt offset Y:0
;Raft Base Line Spacing:1.6
;Wait Heatup Sync:true
;----------Shell Config----------------
;Outer Wall Wipe Distance:200
;Outer Inset First:false
;Infill Before Walls:false
;Infill Overlap:0.16
;Fill Gaps Between Walls:everywhere
;Minimum Infill Area:1
;Top Surface Skin Layer:0
;Top Layers:4
;Z Seam Alignment:sharpest_corner
;Seam Corner Preference:z_seam_corner_inner
;Z Seam X:110
;Z Seam Y:110
;Horizontal Expansion:0
;Top/Bottom Pattern:zigzag
;Ironing Pattern:zigzag
;Vase Model:false
;----------Support Config----------------
;Support Type:everywhere
;Support Pattern:zigzag
;Support Infill Layer Thickness:0.1
;Minimum Support Area:5
;Enable Support Roof:true
;Support Roof Thickness:0.8
;Support Roof Pattern:lines
;Connect Support Lines:0
;Connect Support ZigZags:0
;Minimum Support X/Y Distance:0.2
;Support Line Distance:0
; ---------PrintSpeed & Travel----------
;Enable Print Cool:true
;Avoid Printed Parts Traveling:true
;Enable Retraction:true
;Retraction Distance:8
;Retraction Speed:100
;Retraction Prime Speed:100
;Maximum Retraction Count:100
;Minimum Extrusion Distance Window:1
;Z Hop When Retracted:false
;Z Hop Height:0.2
;Retract Before Outer Wall:true
;Print Speed:50
;Infill Speed:50

;Prime Tower Speed:50
;Travel Speed:120
;Initial Layer Speed:25
;Skirt/Brim Speed:25
;Combing Mode:infill
; --------SpecialModel&Mesh Fixes--------
;Union Overlapping Volum:true
;Remove All Holes:false
;Maximum Travel Resolution:0.6
;Maximum Deviation:0.05
;Maximum Model Angle:0.872665
;IS Mold Print:false
;Make Overhang Printable:false
;Enable Coasting:false
;Coasting Volumes:0.06
;Coasting Speed:0.9
;Raft AirGap:0.25
;Layer0 ZOverLap:0.13
;---------------------End of Head--------------------------
M140 S60
M105
M104 S200
M105
M109 S200
M105
M190 S60
M82 ;absolute extrusion mode
M220 S100 ;Reset Feedrate
M221 S100 ;Reset Flowrate

G28 ;Home

G92 E0 ;Reset Extruder
G1 Z2.0 F3000 ;Move Z Axis up
G1 X10.1 Y20 Z0.28 F5000.0 ;Move to start position
G1 X10.1 Y145.0 Z0.28 F1500.0 E15 ;Draw the first line
G1 X10.4 Y145.0 Z0.28 F5000.0 ;Move to side a little
G1 X10.4 Y20 Z0.28 F1500.0 E30 ;Draw the second line
G92 E0  ;Reset Extruder
G1 E-1.0000 F1800 ;Retract a bit
G1 Z2.0 F3000 ;Move Z Axis up
G1 E0.0000 F1800 

G92 E0
G92 E0
G1 F6000 E-8

;LAYER_COUNT:20

;LAYER:0
M107
;MESH:
G0 F3600 X102.679 Y113.906 Z0.1
;TYPE:WALL-INNER
G1 F6000 E0
G1 F1500 X102.239 Y113.406 E0.01218
G1 X101.611 Y113.185 E0.02436
G1 X100.98 Y113.293 E0.03607
G1 X100.957 Y113.297 E0.0365
G1 X100.6 Y113.585 E0.04489
G1 X100.6 Y113.297 E0.04674
G1 X100.6 Y113.273 E0.04716
G1 X100.6 Y106.832 E0.16498
G1 X100.6 Y106.492 E0.1712
G1 X100.6 Y105.832 E0.18328
G1 X100.6 Y105.215 E0.19456
G1 X100.6 Y105.153 E0.1957
G1 X100.6 Y104.6 E0.20582
G1 X101.172 Y104.6 E0.21628
G1 X101.457 Y104.6 E0.22149
G1 X102.111 Y104.6 E0.23346
G1 X102.739 Y104.6 E0.24494
G1 X102.841 Y104.6 E0.24681
G1 X117.172 Y104.6 E0.50897
G1 X117.457 Y104.6 E0.51418
G1 X118.111 Y104.6 E0.52615
G1 X118.739 Y104.6 E0.53763
G1 X118.841 Y104.6 E0.5395
G1 X119.4 Y104.6 E0.54972
G1 X119.4 Y105.171 E0.56017
G1 X119.4 Y105.406 E0.56447
G1 X119.4 Y106.057 E0.57638
G1 X119.4 Y106.692 E0.58799
G1 X119.4 Y106.836 E0.59063
G1 X119.4 Y113.171 E0.70651
G1 X119.4 Y113.406 E0.71081
G1 X119.4 Y114.057 E0.72272
G1 X119.4 Y114.692 E0.73434
G1 X119.4 Y114.836 E0.73697
G1 X119.4 Y115.4 E0.74729
G1 X118.831 Y115.4 E0.7577
G1 X118.644 Y115.4 E0.76112
G1 X118.051 Y115.4 E0.77197
G1 X117.729 Y115.4 E0.77786
G1 X117.171 Y115.4 E0.78807
G1 X117.145 Y115.4 E0.78854
G1 X102.753 Y115.4 E1.05181
G1 X102.624 Y115.4 E1.05417
G1 X102.407 Y115.4 E1.05814
G1 X102.624 Y115.192 E1.06038
G1 X102.661 Y115.069 E1.06228
G1 X102.818 Y114.557 E1.07208
G1 X102.679 Y113.906 E1.08425
G0 F3600 X102.31 Y114.092
;TYPE:WALL-OUTER
G1 F600 X102.008 Y113.749 E1.09261
G1 X101.576 Y113.597 E1.10099
G1 X101.127 Y113.674 E1.10933
G1 X100.771 Y113.961 E1.11769
G1 X100.601 Y114.385 E1.12605
G1 X100.658 Y114.838 E1.1344
G1 X100.93 Y115.206 E1.14277
G1 X101.331 Y115.386 E1.15081
G1 X101.494 Y115.401 E1.15381
G1 X101.517 Y115.402 E1.15423
G1 X101.523 Y115.401 E1.15434
G1 X101.942 Y115.291 E1.16226
G1 X102.272 Y114.975 E1.17062
G1 X102.405 Y114.539 E1.17896
G1 X102.31 Y114.092 E1.18732
G0 F3600 X102.178 Y113.942
G0 X102.509 Y113.653
;;retract;;
G1 F6000 E-6.81268
G0 F3600 X101.5 Y114.486
G0 X102.008 Y105.994
G0 X103.179 Y105.406
;TYPE:WALL-INNER
G1 F6000 E1.18732
G1 F600 X102.806 Y104.982 E1.19765
G1 X102.739 Y104.906 E1.1993
G1 X102.111 Y104.685 E1.20553
G1 X101.457 Y104.797 E1.2099
G1 X101.235 Y104.976 E1.21387
G1 X100.987 Y105.177 E1.21971
G1 X100.939 Y105.215 E1.22076
G1 X100.691 Y105.832 E1.22761
G1 X100.774 Y106.492 E1.2317
G1 X100.976 Y106.765 E1.23624
G1 X101.171 Y107.028 E1.24223
G1 X101.729 Y107.279 E1.25343
G1 X102.051 Y107.306 E1.25934
G1 X102.644 Y107.152 E1.27054
G1 X103.124 Y106.692 E1.28271
G1 X103.318 Y106.057 E1.29485
G1 X103.179 Y105.406 E1.30703
G0 F3600 X102.81 Y105.592
;TYPE:WALL-OUTER
G1 F600 X102.508 Y105.249 E1.31539
G1 X102.076 Y105.097 E1.32377
G1 X101.627 Y105.174 E1.3321
G1 X101.271 Y105.461 E1.34047
G1 X101.101 Y105.885 E1.34882
G1 X101.158 Y106.338 E1.35717
G1 X101.43 Y106.706 E1.36555
G1 X101.831 Y106.886 E1.37359
G1 X102.017 Y106.902 E1.377
G1 X102.442 Y106.791 E1.38504
G1 X102.772 Y106.475 E1.39339
G1 X102.905 Y106.039 E1.40173
G1 X102.81 Y105.592 E1.41009
G0 F3600 X102.678 Y105.442
G0 X103.009 Y105.153
;;retract;;
G1 F6000 E-6.58991
G0 F3600 X102.008 Y105.994
G0 X118.008 Y105.994
G0 X119.179 Y105.406
;TYPE:WALL-INNER
G1 F6000 E1.41009
G1 F600 X119.024 Y105.23 E1.41349
G1 X118.806 Y104.982 E1.41953
G1 X118.739 Y104.906 E1.42118
G1 X118.111 Y104.685 E1.42741
G1 X117.457 Y104.797 E1.43178
G1 X117.235 Y104.976 E1.43575
G1 X116.939 Y105.215 E1.44271
G1 X116.691 Y105.832 E1.45487
G1 X116.774 Y106.492 E1.46704
G1 X117.171 Y107.028 E1.47924
G1 X117.729 Y107.279 E1.49044
G1 X118.051 Y107.306 E1.49635
G1 X118.644 Y107.152 E1.50756
G1 X119.02 Y106.791 E1.51709
G1 X119.124 Y106.692 E1.51934
G1 X119.318 Y106.057 E1.525
G1 X119.179 Y105.406 E1.52975
G0 F3600 X118.81 Y105.592
;TYPE:WALL-OUTER
G1 F600 X118.508 Y105.249 E1.53811
G1 X118.076 Y105.097 E1.54649
G1 X117.627 Y105.174 E1.55482
G1 X117.271 Y105.461 E1.56318
G1 X117.101 Y105.885 E1.57154
G1 X117.158 Y106.338 E1.57989
G1 X117.43 Y106.706 E1.58826
G1 X117.831 Y106.886 E1.5963
G1 X118.017 Y106.902 E1.59972
G1 X118.442 Y106.791 E1.60775
G1 X118.772 Y106.475 E1.61611
G1 X118.905 Y106.039 E1.62445
G1 X118.81 Y105.592 E1.63281
G0 F3600 X118.678 Y105.442
G0 X119.009 Y105.153
;;retract;;
G1 F6000 E-6.36719
G0 F3600 X118.008 Y105.994
G0 X118.008 Y113.994
G0 X119.179 Y113.406
;TYPE:WALL-INNER
G1 F6000 E1.63281
G1 F600 X119.024 Y113.23 E1.6362
G1 X118.739 Y112.906 E1.6441
G1 X118.111 Y112.685 E1.65628
G1 X117.457 Y112.797 E1.66841
G1 X116.939 Y113.215 E1.68059
G1 X116.691 Y113.832 E1.69275
G1 X116.774 Y114.492 E1.70492
G1 X117.156 Y115.008 E1.71667
G1 X117.171 Y115.028 E1.71711
G1 X117.729 Y115.279 E1.7243
G1 X118.051 Y115.306 E1.72591
G1 X118.644 Y115.152 E1.73086
G1 X118.779 Y115.023 E1.73368
G1 X119.021 Y114.791 E1.73981
G1 X119.124 Y114.692 E1.74205
G1 X119.318 Y114.057 E1.74771
G1 X119.179 Y113.406 E1.75245
G0 F3600 X118.81 Y113.592
;TYPE:WALL-OUTER
G1 F600 X118.508 Y113.249 E1.76081
G1 X118.076 Y113.097 E1.76919
G1 X117.627 Y113.174 E1.77753
G1 X117.271 Y113.461 E1.78589
G1 X117.101 Y113.885 E1.79425
G1 X117.158 Y114.338 E1.8026
G1 X117.43 Y114.706 E1.81097
G1 X117.831 Y114.886 E1.81901
G1 X118.017 Y114.902 E1.82243
G1 X118.442 Y114.791 E1.83046
G1 X118.772 Y114.475 E1.83882
G1 X118.905 Y114.039 E1.84716
G1 X118.81 Y113.592 E1.85552
G0 F3600 X118.678 Y113.442
G0 X119.009 Y113.153
;;retract;;
G1 F6000 E-6.14448
G0 F3600 X119.8 Y115.8
G1 F6000 E1.85552
G1 F1500 X101.524 Y115.8 E2.18984
G1 X101.517 Y115.8 E2.18997
G1 X101.494 Y115.8 E2.19039
G1 X100.2 Y115.8 E2.21406
G1 X100.2 Y104.2 E2.42626
G1 X119.8 Y104.2 E2.7848
G1 X119.8 Y115.8 E2.997
G0 F3600 X119.6 Y115.8
G0 X119.36 Y115.36
;;retract;;
G1 F6000 E-5.003
G0 F3600 X120.67 Y115.36
G0 X117.993 Y105.995
G0 X116.853 Y104.974
;TYPE:SKIN
G1 F6000 E2.997
G1 F600 X116.719 Y104.84 E3.00047
G1 X116.154 Y104.84 E3.01081
G1 X116.637 Y105.323 E3.0233
G1 X116.474 Y105.726 E3.03125
G1 X115.588 Y104.84 E3.05418
G1 X115.022 Y104.84 E3.06453
G1 X116.511 Y106.329 E3.10305
G1 X116.543 Y106.584 E3.10775
G1 X117.014 Y107.22 E3.12223
G1 X117.666 Y107.514 E3.13531
G0 F3600 X119.011 Y107.132
G1 F600 X118.764 Y107.368 E3.14156
G1 X118.699 Y107.385 E3.14279
G1 X119.159 Y107.845 E3.15469
G1 X119.159 Y108.411 E3.16505
G1 X118.25 Y107.502 E3.18856
G1 X118.069 Y107.548 E3.19198
G1 X117.699 Y107.517 E3.19877
G1 X119.159 Y108.977 E3.23654
G1 X119.159 Y109.542 E3.24688
G1 F1500 X114.457 Y104.84 E3.36852
G1 F600 X113.891 Y104.84 E3.37887
G1 F1500 X119.159 Y110.108 E3.51516
G1 F600 X119.159 Y110.674 E3.52551
G1 F1500 X113.325 Y104.84 E3.67644
G1 F600 X112.76 Y104.84 E3.68677
G1 F1500 X119.159 Y111.239 E3.85232
G1 F600 X119.159 Y111.805 E3.86267
G1 F1500 X112.194 Y104.84 E4.04286
G1 F600 X111.628 Y104.84 E4.05321
G1 F1500 X119.159 Y112.371 E4.24804
G1 F600 X119.159 Y112.936 E4.25838
G1 F1500 X111.063 Y104.84 E4.46782
G1 F600 X110.497 Y104.84 E4.47818
G1 F1500 X118.099 Y112.442 E4.67484
G1 F600 X117.616 Y112.525 E4.68381
G1 F1500 X109.931 Y104.84 E4.88262
G1 F600 X109.366 Y104.84 E4.89296
G1 F1500 X117.211 Y112.685 E5.09591
G1 F600 X116.898 Y112.938 E5.10327
G1 F1500 X108.8 Y104.84 E5.31277
G1 F600 X108.234 Y104.84 E5.32312
G1 F1500 X116.659 Y113.265 E5.54108
G1 F600 X116.497 Y113.669 E5.54904
G1 F1500 X107.669 Y104.84 E5.77744
G1 F600 X107.103 Y104.84 E5.78779
G1 F1500 X116.499 Y114.236 E6.03087
G1 F600 X116.543 Y114.584 E6.03729
G1 X116.968 Y115.16 E6.05038
G1 X116.856 Y115.159 E6.05243
G1 F1500 X106.537 Y104.84 E6.31939
G1 F600 X105.971 Y104.84 E6.32974
G1 F1500 X116.29 Y115.159 E6.5967
G1 F600 X115.725 Y115.159 E6.60703
G1 F1500 X105.406 Y104.84 E6.87399
G1 F600 X104.84 Y104.84 E6.88434
G1 F1500 X115.159 Y115.159 E7.1513
G1 F600 X114.593 Y115.159 E7.16165
G1 F1500 X104.274 Y104.84 E7.42861
G1 F600 X103.709 Y104.84 E7.43894
G1 F1500 X114.028 Y115.159 E7.7059
G1 F600 X113.462 Y115.159 E7.71625
G1 F1500 X103.143 Y104.84 E7.98321
G1 F600 X103 Y104.839 E7.98582
G1 X103.4 Y105.293 E7.99689
G1 X103.5 Y105.763 E8.00568
G1 F1500 X112.896 Y115.159 E8.24876
G1 F600 X112.33 Y115.159 E8.25911
G1 F1500 X103.488 Y106.317 E8.48786
G1 F600 X103.356 Y106.75 E8.49614
G1 F1500 X111.765 Y115.159 E8.71368
G1 F600 X111.199 Y115.159 E8.72404
G1 F1500 X103.093 Y107.053 E8.93374
G1 F600 X102.804 Y107.33 E8.94107
G1 F1500 X110.633 Y115.159 E9.1436
G1 F600 X110.068 Y115.159 E9.15394
G1 F1500 X102.377 Y107.468 E9.35291
G1 F600 X102.071 Y107.547 E9.35869
G1 X101.874 Y107.531 E9.36231
G1 F1500 X109.502 Y115.159 E9.55964
G1 F600 X108.936 Y115.159 E9.57
G1 F1500 X100.839 Y107.062 E9.77947
G1 F600 X100.839 Y107.628 E9.78982
G1 F1500 X108.371 Y115.159 E9.98467
G1 F600 X107.805 Y115.159 E9.99502
G1 F1500 X100.839 Y108.193 E10.17523
G1 F600 X100.839 Y108.759 E10.18559
G1 F1500 X107.239 Y115.159 E10.35116
G1 F600 X106.674 Y115.159 E10.36149
G1 F1500 X100.839 Y109.325 E10.51243
G1 F600 X100.839 Y109.89 E10.52277
G1 F1500 X106.108 Y115.159 E10.65908
G1 F600 X105.542 Y115.159 E10.66943
G1 F1500 X100.839 Y110.456 E10.7911
G1 F600 X100.839 Y111.022 E10.80146
G1 X104.977 Y115.159 E10.90849
G1 X104.411 Y115.159 E10.91885
G1 X100.839 Y111.587 E11.01126
G1 X100.839 Y112.153 E11.02161
G1 X101.624 Y112.938 E11.04192
G1 X101.141 Y113.021 E11.05088
G1 X100.854 Y113.07 E11.05621
G1 X100.839 Y113.082 E11.05656
G0 F3600 X100.839 Y112.719
G1 F600 X101.141 Y113.021 E11.06437
G0 F3600 X101.631 Y112.937
G1 F600 X102.377 Y113.2 E11.07884
G1 X102.901 Y113.793 E11.09332
G1 X103.014 Y114.327 E11.1033
G1 X103.845 Y115.159 E11.12482
G1 X103.28 Y115.159 E11.13515
G1 X102.885 Y115.159 E11.14238
G0 F3600 X102.976 Y114.856
G1 F600 X103.28 Y115.159 E11.15023
;;retract;;
G1 F6000 E3.15023
G0 F3600 X103.28 Y116.67
G0 X99.841 Y116.666
G0 X99.334 Y116.159
G0 X99.334 Y103.841
G0 X99.841 Y103.334
G0 X116.719 Y103.33
G0 X116.719 Y104.84
G1 F6000 E11.15023
G1 F600 X117.021 Y104.84 E11.15575
;;retract;;
G1 F6000 E3.15575
G0 F3600 X117.997 Y105.991
G0 X119.159 Y106.99
G1 F6000 E11.15575
G1 F600 X119.011 Y107.132 E11.15951
G1 X119.159 Y107.28 E11.16333
G0 F3600 X119.184 Y107.021
;TYPE:SKIN
G1 F600 X119.112 Y107.232 E11.16601
G1 X118.795 Y107.199 E11.16984
G1 X119.28 Y106.834 E11.17714
G0 F3600 X119.344 Y106.898
G0 X119.34 Y105.198
G1 F600 X118.827 Y104.685 E11.18378
G0 F3600 X119.08 Y104.655
G1 F600 X119.344 Y104.919 E11.18719
G0 F3600 X117.263 Y104.818
G0 X117.181 Y104.736
G1 F600 X116.979 Y104.817 E11.19177
G1 X116.726 Y105.13 E11.20025
;;retract;;
G1 F6000 E3.20025
G0 F3600 X117.993 Y105.995
G0 X120.67 Y112.523
G0 X119.327 Y112.539
G1 F6000 E11.20025
G1 F600 X119.224 Y112.719 E11.20376
G0 F3600 X119.344 Y113.122
G1 F600 X118.9 Y112.677 E11.20951
G0 F3600 X118.694 Y112.755
G1 F600 X119.193 Y113.253 E11.21595
G0 F3600 X119.066 Y114.823
G0 X119.205 Y114.962
G1 F600 X119.112 Y115.152 E11.22225
G1 X118.898 Y115.222 E11.22896
G0 F3600 X119.021 Y115.344
G0 X117.187 Y115.207
G0 X116.988 Y115.008
G1 F600 X116.868 Y115.171 E11.23556
G1 X116.68 Y115.266 E11.24243
;;retract;;
G1 F6000 E3.24243
G0 F3600 X116.601 Y116.67
G0 X101.501 Y114.49
G0 X100.906 Y113.068
G1 F6000 E11.24243
G1 F600 X100.756 Y113.201 E11.24792
;;retract;;
G1 F6000 E3.24792
G0 F3600 X99.33 Y113.303
G0 X99.33 Y107.323
G0 X101.101 Y107.323
G1 F6000 E11.24792
G1 F600 X100.655 Y106.877 E11.25369
G0 F3600 X100.975 Y106.915
G1 F600 X100.683 Y107.188 E11.25887
G0 F3600 X100.655 Y107.16
G0 X100.918 Y105.16
G0 X100.786 Y105.028
G1 F600 X100.884 Y104.844 E11.26496
G1 X101.104 Y104.781 E11.27165
G0 F3600 X100.977 Y104.654
G0 X102.789 Y104.769
G1 F600 X103.22 Y105.2 E11.27723
G0 F3600 X103.308 Y105.005
G1 F600 X102.957 Y104.654 E11.28177
G0 F3600 X103.24 Y104.654
G1 F600 X103.396 Y104.81 E11.28379
;;retract;;
G1 F6000 E3.28379
;MESH:NONMESH
G0 F600 X103.396 Y104.81 Z0.2
G0 F3600 X102.008 Y105.994
G0 X99.33 Y113.584
G0 X100.6 Y113.584
;TIME_ELAPSED:49.572257

;LAYER:1
M140 S60
M106 S127.5
;TYPE:WALL-INNER
;MESH:
G1 F6000 E11.28379
G1 F1500 X100.6 Y113.442 E11.28615
G1 X100.6 Y113.225 E11.28976
G1 X100.6 Y106.855 E11.39569
G1 X100.6 Y106.475 E11.40201
G1 X100.6 Y105.884 E11.41184
G1 X100.6 Y105.393 E11.42
G1 X100.6 Y105.172 E11.42368
G1 X100.6 Y104.6 E11.43319
G1 X101.16 Y104.6 E11.4425
G1 X101.222 Y104.6 E11.44353
G1 X101.688 Y104.6 E11.45128
G1 X102.279 Y104.6 E11.46111
G1 X102.75 Y104.6 E11.46895
G1 X102.837 Y104.6 E11.47039
G1 X117.16 Y104.6 E11.70858
G1 X117.222 Y104.6 E11.70962
G1 X117.688 Y104.6 E11.71737
G1 X118.279 Y104.6 E11.72719
G1 X118.75 Y104.6 E11.73503
G1 X118.837 Y104.6 E11.73647
G1 X119.4 Y104.6 E11.74584
G1 X119.4 Y105.173 E11.75537
G1 X119.4 Y105.364 E11.75854
G1 X119.4 Y105.851 E11.76664
G1 X119.4 Y106.441 E11.77645
G1 X119.4 Y106.867 E11.78354
G1 X119.4 Y113.174 E11.88842
