;FLAVOR:Marlin
;TIME:282
;Filament used:0.0198781m
;Layer height: 0.1
;MINX:106.596
;MINY:105.87
;MINZ:0.1
;MAXX:112.817
;MAXY:113.742
;MAXZ:6
                               
;Creality Print GCode Generated by CXEngine:NO_MAGE_VERSION_GIT_HEAD_BRANCH
;CXEngine Release Time:2022-09-30 09:53:04
;Gcode Generated Time:2023-01-14 05:53:20
;----------Machine Config--------------
;Machine Name:Creality Ender-3
;Machine Height:250
;Machine Width:220
;Machine Depth:220
;Material name:PLA
;Number of Extruders:1
;ExtruderParams[0] Nozzle Diameter1000
;----------Profile Config---------------
;Engine Version:275f99b
;Engine Release Time:2022-09-30 09:42:18
;Layer Height:0.1
;Wall Thickness:0.8
;Top/Bottom Thickness:0.5
;Out Wall Line Width:0.4
;Inner Wall Line Width:0.4
;Inital Layer Height:100
;Wall Line Count:2
;Infill Line Distance:4
;Infill Pattern:grid
;Infill Sparse Density:20
;Infill Wipe Distance:0
;Print Temperature:200
;Bed Temperature:60
;Support Enable:true
;Support Density:0
;Support Angle:60
;Adhesion Type:none
;machine is belt:false
;machine belt offset:10
;machine belt offset Y:0
;Raft Base Line Spacing:1.6
;Wait Heatup Sync:true
;----------Shell Config----------------
;Outer Wall Wipe Distance:200
;Outer Inset First:false
;Infill Before Walls:false
;Infill Overlap:0.16
;Fill Gaps Between Walls:everywhere
;Minimum Infill Area:1
;Top Surface Skin Layer:0
;Top Layers:4
;Z Seam Alignment:sharpest_corner
;Seam Corner Preference:z_seam_corner_inner
;Z Seam X:110
;Z Seam Y:110
;Horizontal Expansion:0
;Top/Bottom Pattern:zigzag
;Ironing Pattern:zigzag
;Vase Model:false
;----------Support Config----------------
;Support Type:everywhere
;Support Pattern:zigzag
;Support Infill Layer Thickness:0.1
;Minimum Support Area:5
;Enable Support Roof:true
;Support Roof Thickness:0.8
;Support Roof Pattern:lines
;Connect Support Lines:0
;Connect Support ZigZags:0
;Minimum Support X/Y Distance:0.2
;Support Line Distance:0
; ---------PrintSpeed & Travel----------
;Enable Print Cool:true
;Avoid Printed Parts Traveling:true
;Enable Retraction:true
;Retraction Distance:8
;Retraction Speed:100
;Retraction Prime Speed:100
;Maximum Retraction Count:100
;Minimum Extrusion Distance Window:1
;Z Hop When Retracted:false
;Z Hop Height:0.2
;Retract Before Outer Wall:true
;Print Speed:50
;Infill Speed:50

;Prime Tower Speed:50
;Travel Speed:120
;Initial Layer Speed:25
;Skirt/Brim Speed:25
;Combing Mode:infill
; --------SpecialModel&Mesh Fixes--------
;Union Overlapping Volum:true
;Remove All Holes:false
;Maximum Travel Resolution:0.6
;Maximum Deviation:0.05
;Maximum Model Angle:0.872665
;IS Mold Print:false
;Make Overhang Printable:false
;Enable Coasting:false
;Coasting Volumes:0.06
;Coasting Speed:0.9
;Raft AirGap:0.25
;Layer0 ZOverLap:0.13
;---------------------End of Head--------------------------
M140 S60
M105
M104 S200
M105
M109 S200
M105
M190 S60
M82 ;absolute extrusion mode
M220 S100 ;Reset Feedrate
M221 S100 ;Reset Flowrate

G28 ;Home

G92 E0 ;Reset Extruder
G1 Z2.0 F3000 ;Move Z Axis up
G1 X10.1 Y20 Z0.28 F5000.0 ;Move to start position
G1 X10.1 Y145.0 Z0.28 F1500.0 E15 ;Draw the first line
G1 X10.4 Y145.0 Z0.28 F5000.0 ;Move to side a little
G1 X10.4 Y20 Z0.28 F1500.0 E30 ;Draw the second line
G92 E0  ;Reset Extruder
G1 E-1.0000 F1800 ;Retract a bit
G1 Z2.0 F3000 ;Move Z Axis up
G1 E0.0000 F1800 

G92 E0
G92 E0
G1 F6000 E-8

;LAYER_COUNT:60

;LAYER:0
M107
G0 F3600 X107.705 Y106.902 Z0.1
;TYPE:SUPPORT
G1 F6000 E0
G1 F1500 X108.132 Y106.591 E0.00773
G1 X108.654 Y106.591 E0.01537
G1 X109.081 Y106.902 E0.0231
G1 X109.244 Y107.4 E0.03077
G1 X109.081 Y107.898 E0.03844
G1 X108.654 Y108.209 E0.04617
G1 X108.132 Y108.209 E0.05381
G1 X107.705 Y107.898 E0.06154
G1 X107.542 Y107.4 E0.06921
G1 X107.705 Y106.902 E0.07687
;;retract;;
G1 F6000 E-7.92313
G0 F3600 X106.877 Y106.633
G0 X106.629 Y107.4
G0 X107.334 Y110.459
G0 X107.841 Y110.966
G0 X108.898 Y110.942
G0 X109.467 Y111.568
;TYPE:SUPPORT-INTERFACE
G1 F6000 E0.07687
G1 F1500 X109.895 Y111.521 E0.08318
G1 X110.18 Y111.712 E0.0882
G1 X110.263 Y112.082 E0.09375
G1 X110.078 Y112.52 E0.1007
G1 X109.677 Y112.832 E0.10814
G1 X109.249 Y112.879 E0.11444
G1 X108.964 Y112.688 E0.11946
G1 X108.881 Y112.318 E0.12501
G1 X109.066 Y111.88 E0.13197
G1 X109.467 Y111.568 E0.1394
G0 F3600 X109.132 Y112.526
G1 F1500 X109.233 Y112.627 E0.1415
;;retract;;
G1 F6000 E-7.8585
;MESH:
G0 F3600 X109.355 Y113.742
G0 X110.016 Y113.669
G0 X110.788 Y113.068
G0 X111.8 Y110.97
G0 X111.8 Y110.1
;TYPE:WALL-OUTER
G1 F6000 E0.1415
G1 F600 X108.2 Y110.1 E0.20735
G1 X108.2 Y109.9 E0.21101
G1 X111.8 Y109.9 E0.24394
G1 X111.8 Y110.1 E0.24759
G0 F3600 X111.6 Y110.1
;;retract;;
G1 F6000 E-7.75241
;MESH:NONMESH
G0 F600 X111.6 Y110.1 Z0.2
G0 F3600 X111.6 Y109.03
G0 X109.908 Y108.171
G0 X109.053 Y107.893
;TIME_ELAPSED:8.531323

;LAYER:1
M140 S60
M106 S127.5
;TYPE:SUPPORT
G1 F6000 E0.24759
G1 F2250 X108.631 Y108.2 E0.25454
G1 X108.113 Y108.2 E0.26143
G1 X107.691 Y107.893 E0.26837
G1 X107.53 Y107.4 E0.27527
G1 X107.691 Y106.907 E0.28217
G1 X108.113 Y106.6 E0.28911
G1 X108.631 Y106.6 E0.29601
G1 X109.053 Y106.907 E0.30295
G1 X109.214 Y107.4 E0.30985
G1 X109.053 Y107.893 E0.31675
;;retract;;
G1 F6000 E-7.68325
G0 F5400 X109.565 Y108.596
G0 X112.159 Y109.034
G0 X112.666 Y109.541
G0 X112.666 Y110.459
G0 X111.109 Y111.781
G0 X110.422 Y111.891
;TYPE:SUPPORT-INTERFACE
G1 F6000 E0.31675
G1 F1749.9 X109.518 Y112.795 E0.33376
;;retract;;
G1 F6000 E-7.66624
;MESH:
G0 F5400 X109.996 Y113.391
G0 X110.656 Y112.861
G0 X111.8 Y110.97
G0 X111.8 Y110.1
;TYPE:WALL-OUTER
G1 F6000 E0.33376
G1 F600 X108.2 Y110.1 E0.39363
G1 X108.2 Y109.9 E0.39695
G1 X111.8 Y109.9 E0.42689
G1 X111.8 Y110.1 E0.43021
G0 F5400 X111.6 Y110.1
;;retract;;
G1 F6000 E-7.56979
;MESH:NONMESH
G0 F600 X111.6 Y110.1 Z0.3
G0 F5400 X111.6 Y109.03
G0 X109.14 Y108.905
G0 X108.595 Y108.157
;TIME_ELAPSED:12.035622

;LAYER:2
M106 S255
;TYPE:SUPPORT
G1 F6000 E0.43021
G1 F3000 X107.706 Y107.867 E0.44265
G1 X107.706 Y106.933 E0.45508
G1 X108.595 Y106.643 E0.46752
G1 X109.145 Y107.4 E0.47997
G1 X108.595 Y108.157 E0.49242
;;retract;;
G1 F6000 E-7.50758
G0 F7200 X108.326 Y108.984
G0 X107.334 Y109.541
G0 X107.334 Y110.459
G0 X107.841 Y110.966
G0 X108.981 Y110.943
G0 X109.594 Y111.291
;TYPE:SUPPORT-INTERFACE
G1 F6000 E0.49242
G1 F1999.8 X110.306 Y112.003 E0.50581
G0 F7200 X109.377 Y112.771
G1 F1999.8 X108.815 Y112.21 E0.51638
;;retract;;
G1 F6000 E-7.48362
;MESH:
G0 F7200 X108.22 Y111.893
G0 X108.217 Y113.031
G0 X109.077 Y113.534
G0 X109.982 Y113.311
G0 X110.603 Y112.796
G0 X111.8 Y110.97
G0 X111.8 Y110.1
;TYPE:WALL-OUTER
G1 F6000 E0.51638
G1 F600 X108.2 Y110.1 E0.57624
G1 X108.2 Y109.9 E0.57957
G1 X111.8 Y109.9 E0.60951
G1 X111.8 Y110.1 E0.61283
G0 F7200 X111.6 Y110.1
;;retract;;
G1 F6000 E-7.38717
;MESH:NONMESH
G0 F600 X111.6 Y110.1 Z0.4
G0 F7200 X111.6 Y109.03
G0 X109.294 Y108.675
G0 X108.569 Y108.149
;TIME_ELAPSED:15.734559

;LAYER:3
;TYPE:SUPPORT
G1 F6000 E0.61283
G1 F3000 X107.69 Y107.862 E0.62513
G1 X107.69 Y106.938 E0.63743
G1 X108.569 Y106.651 E0.64973
G1 X109.113 Y107.4 E0.66204
G1 X108.569 Y108.149 E0.67436
;;retract;;
G1 F6000 E-7.32564
;MESH:
G0 F7200 X109.273 Y108.66
G0 X111.8 Y109.03
G0 X111.8 Y110.1
;TYPE:WALL-OUTER
G1 F6000 E0.67436
G1 F600 X108.2 Y110.1 E0.73423
G1 X108.2 Y109.9 E0.73755
G1 X111.8 Y109.9 E0.76749
G1 X111.8 Y110.1 E0.77081
G0 F7200 X111.6 Y110.1
;;retract;;
G1 F6000 E-7.22919
;MESH:NONMESH
G0 F600 X111.6 Y110.1 Z0.5
G0 F7200 X111.6 Y109.03
G0 X109.268 Y108.666
G0 X108.543 Y108.14
;TIME_ELAPSED:18.294145

;LAYER:4
;TYPE:SUPPORT
G1 F6000 E0.77081
G1 F3000 X107.673 Y107.857 E0.78298
G1 X107.673 Y106.943 E0.79514
G1 X108.543 Y106.66 E0.80732
G1 X109.081 Y107.4 E0.81949
G1 X108.543 Y108.14 E0.83166
;;retract;;
G1 F6000 E-7.16834
G0 F7200 X109.247 Y108.651
G0 X112.159 Y109.034
G0 X112.666 Y109.541
G0 X112.666 Y110.459
G0 X109.955 Y112.944
G0 X109.16 Y113.285
G0 X108.205 Y112.863
G0 X108.317 Y111.864
G0 X108.677 Y111.317
G0 X109.624 Y111.321
;TYPE:SUPPORT-INTERFACE
G1 F6000 E0.83166
G1 F1999.8 X110.138 Y111.836 E0.84134
G0 F7200 X109.162 Y112.556
G1 F1999.8 X108.934 Y112.328 E0.84563
;;retract;;
G1 F6000 E-7.15437
;MESH:
G0 F7200 X108.317 Y111.864
G0 X108.205 Y112.863
G0 X109.16 Y113.285
G0 X109.955 Y112.944
G0 X110.445 Y112.514
G0 X111.8 Y110.97
G0 X111.8 Y110.1
;TYPE:WALL-OUTER
G1 F6000 E0.84563
G1 F600 X108.2 Y110.1 E0.9055
G1 X108.2 Y109.9 E0.90882
G1 X111.8 Y109.9 E0.93876
G1 X111.8 Y110.1 E0.94208
G0 F7200 X111.6 Y110.1
;;retract;;
G1 F6000 E-7.05792
;MESH:NONMESH
G0 F600 X111.6 Y110.1 Z0.6
G0 F7200 X111.6 Y109.03
G0 X109.241 Y108.659
G0 X108.514 Y108.132
;TIME_ELAPSED:22.231783

;LAYER:5
;TYPE:SUPPORT
G1 F6000 E0.94208
G1 F3000 X107.654 Y107.852 E0.95412
G1 X107.654 Y106.948 E0.96614
G1 X108.514 Y106.668 E0.97818
G1 X109.046 Y107.4 E0.99022
G1 X108.514 Y108.132 E1.00225
;;retract;;
G1 F6000 E-6.99775
;MESH:
G0 F7200 X109.218 Y108.643
G0 X111.8 Y109.03
G0 X111.8 Y110.1
;TYPE:WALL-OUTER
G1 F6000 E1.00225
G1 F600 X108.2 Y110.1 E1.06212
G1 X108.2 Y109.9 E1.06545
G1 X111.8 Y109.9 E1.09538
G1 X111.8 Y110.1 E1.09871
G0 F7200 X111.6 Y110.1
;;retract;;
G1 F6000 E-6.90129
;MESH:NONMESH
G0 F600 X111.6 Y110.1 Z0.7
G0 F7200 X111.6 Y109.03
G0 X109.212 Y108.652
G0 X108.484 Y108.124
;TIME_ELAPSED:24.789610

;LAYER:6
;TYPE:SUPPORT
G1 F6000 E1.09871
G1 F3000 X107.634 Y107.847 E1.1106
G1 X107.634 Y106.953 E1.1225
G1 X108.484 Y106.676 E1.13439
G1 X109.01 Y107.4 E1.1463
G1 X108.484 Y108.124 E1.1582
;;retract;;
G1 F6000 E-6.8418
G0 F7200 X108.215 Y108.951
G0 X107.334 Y109.541
G0 X107.334 Y110.459
G0 X107.841 Y110.966
G0 X109.2 Y110.944
G0 X109.675 Y111.372
;TYPE:SUPPORT-INTERFACE
G1 F6000 E1.1582
G1 F1999.8 X109.946 Y111.643 E1.1633
;;retract;;
G1 F6000 E-6.8367
;MESH:
G0 F7200 X111.8 Y110.1
;TYPE:WALL-OUTER
G1 F6000 E1.1633
G1 F600 X108.2 Y110.1 E1.22317
G1 X108.2 Y109.9 E1.22649
G1 X111.8 Y109.9 E1.25643
G1 X111.8 Y110.1 E1.25976
G0 F7200 X111.6 Y110.1
;;retract;;
G1 F6000 E-6.74024
;MESH:NONMESH
G0 F600 X111.6 Y110.1 Z0.8
G0 F7200 X111.6 Y109.03
G0 X109.597 Y108.072
G0 X108.946 Y107.6
;TIME_ELAPSED:28.045251

;LAYER:7
;TYPE:SUPPORT
G1 F6000 E1.25976
G1 F3000 X108.426 Y108.316 E1.27153
G1 X107.585 Y108.042 E1.2833
G1 X107.585 Y107.158 E1.29506
G1 X108.426 Y106.884 E1.30682
G1 X108.946 Y107.6 E1.3186
;;retract;;
G1 F6000 E-6.6814
;MESH:
G0 F7200 X109.65 Y108.111
G0 X111.8 Y109.03
G0 X111.8 Y110.1
;TYPE:WALL-OUTER
G1 F6000 E1.3186
G1 F600 X108.2 Y110.1 E1.37846
G1 X108.2 Y109.9 E1.38179
G1 X111.8 Y109.9 E1.41172
G1 X111.8 Y110.1 E1.41505
G0 F7200 X111.6 Y110.1
;;retract;;
G1 F6000 E-6.58495
;MESH:NONMESH
G0 F600 X111.6 Y110.1 Z0.9
G0 F7200 X111.6 Y109.03
G0 X109.65 Y108.111
G0 X108.946 Y107.6
;TIME_ELAPSED:30.559439

;LAYER:8
;TYPE:SUPPORT
G1 F6000 E1.41505
G1 F3000 X108.426 Y108.316 E1.42682
G1 X107.585 Y108.042 E1.43859
G1 X107.585 Y107.158 E1.45035
G1 X108.426 Y106.884 E1.46212
G1 X108.946 Y107.6 E1.47389
;;retract;;
G1 F6000 E-6.52611
;MESH:
G0 F7200 X109.65 Y108.111
G0 X111.8 Y109.03
G0 X111.8 Y110.1
;TYPE:WALL-OUTER
G1 F6000 E1.47389
G1 F600 X108.2 Y110.1 E1.53376
G1 X108.2 Y109.9 E1.53709
G1 X111.8 Y109.9 E1.56702
G1 X111.8 Y110.1 E1.57035
G0 F7200 X111.6 Y110.1
;;retract;;
G1 F6000 E-6.42965
;MESH:NONMESH
G0 F600 X111.6 Y110.1 Z1
G0 F7200 X111.6 Y109.03
G0 X108.755 Y105.87
G0 X106.723 Y106.533
G0 X106.723 Y108.667
G0 X107.339 Y108.186
;TIME_ELAPSED:33.348962

;LAYER:9
;TYPE:SUPPORT-INTERFACE
G1 F6000 E1.57035
G1 F1999.8 X108.598 Y106.927 E1.59403
G0 F7200 X108.946 Y108.276
G1 F1999.8 X108.83 Y108.393 E1.59623
;;retract;;
G1 F6000 E-6.40377
;MESH:
G0 F7200 X109.233 Y108.929
G0 X111.8 Y109.03
G0 X111.8 Y110.1
;TYPE:WALL-OUTER
G1 F6000 E1.59623
G1 F600 X108.2 Y110.1 E1.65609
G1 X108.2 Y109.9 E1.65942
G1 X111.8 Y109.9 E1.68936
G1 X111.8 Y110.1 E1.69268
G0 F7200 X111.6 Y110.1
;;retract;;
G1 F6000 E-6.30732
;MESH:NONMESH
G0 F600 X111.6 Y110.1 Z1.1
G0 F7200 X111.6 Y109.03
G0 X109.569 Y106.793
G0 X108.73 Y106.203
G0 X107.71 Y106.257
G0 X106.897 Y106.867
G0 X107.473 Y107.473
;TIME_ELAPSED:35.968973

;LAYER:10
;TYPE:SUPPORT-INTERFACE
G1 F6000 E1.69268
G1 F1999.8 X108.515 Y108.515 E1.71229
G0 F7200 X109.006 Y107.309
G1 F1999.8 X108.702 Y107.005 E1.71801
;;retract;;
G1 F6000 E-6.28199
;MESH:
G0 F7200 X109.074 Y106.448
G0 X111.8 Y109.03
G0 X111.8 Y110.1
;TYPE:WALL-OUTER
G1 F6000 E1.71801
G1 F600 X110.1 Y110.1 E1.74628
G1 X110.1 Y111.05 E1.76208
G1 X109.9 Y111.05 E1.7654
G1 X109.9 Y110.1 E1.7733
G1 X108.2 Y110.1 E1.80157
G1 X108.2 Y109.9 E1.8049
G1 X109.9 Y109.9 E1.81903
G1 X109.9 Y108.95 E1.83483
G1 X110.1 Y108.95 E1.83816
G1 X110.1 Y109.9 E1.84606
G1 X111.8 Y109.9 E1.86019
G1 X111.8 Y110.1 E1.86352
G0 F7200 X111.6 Y110.1
;;retract;;
G1 F6000 E-6.13648
;MESH:NONMESH
G0 F600 X111.6 Y110.1 Z1.2
G0 F7200 X111.6 Y109.03
G0 X109.573 Y106.786
G0 X108.736 Y106.225
G0 X107.75 Y106.331
G0 X106.978 Y106.932
G0 X106.596 Y107.836
G0 X107.349 Y108.176
;TIME_ELAPSED:39.052834

;LAYER:11
;TYPE:SUPPORT-INTERFACE
G1 F6000 E1.86352
G1 F1999.8 X108.333 Y107.192 E1.88203
;;retract;;
G1 F6000 E-6.11797
;MESH:
G0 F7200 X108.218 Y106.533
G0 X109.418 Y106.876
G0 X111.8 Y109.03
G0 X111.8 Y110.1
;TYPE:WALL-OUTER
G1 F6000 E1.88203
G1 F600 X110.1 Y110.1 E1.9103
G1 X110.1 Y111.05 E1.9261
G1 X109.9 Y111.05 E1.92943
G1 X109.9 Y110.1 E1.93733
G1 X108.2 Y110.1 E1.9656
G1 X108.2 Y109.9 E1.96892
G1 X109.9 Y109.9 E1.98306
G1 X109.9 Y108.95 E1.99886
G1 X110.1 Y108.95 E2.00218
G1 X110.1 Y109.9 E2.01008
G1 X111.8 Y109.9 E2.02422
G1 X111.8 Y110.1 E2.02755
G0 F7200 X111.6 Y110.1
;;retract;;
G1 F6000 E-5.97245
;MESH:NONMESH
G0 F600 X111.6 Y110.1 Z1.3
G0 F7200 X111.6 Y109.03
G0 X109.579 Y106.978
G0 X108.737 Y106.444
G0 X107.791 Y106.609
G0 X107.204 Y107.078
G0 X107.724 Y107.724
;TIME_ELAPSED:41.992656

;LAYER:12
;TYPE:SUPPORT-INTERFACE
G1 F6000 E2.02755
G1 F1999.8 X108.539 Y108.539 E2.04288
;;retract;;
G1 F6000 E-5.95712
;MESH:
G0 F7200 X109.054 Y108.955
G0 X111.8 Y109.03
G0 X111.8 Y110.1
;TYPE:WALL-OUTER
G1 F6000 E2.04288
G1 F600 X110.1 Y110.1 E2.07115
G1 X110.1 Y111.05 E2.08695
G1 X109.9 Y111.05 E2.09028
G1 X109.9 Y110.1 E2.09817
G1 X108.2 Y110.1 E2.12645
G1 X108.2 Y109.9 E2.12977
G1 X109.9 Y109.9 E2.14391
G1 X109.9 Y108.95 E2.15971
G1 X110.1 Y108.95 E2.16303
G1 X110.1 Y109.9 E2.17093
G1 X111.8 Y109.9 E2.18507
G1 X111.8 Y110.1 E2.18839
G0 F7200 X111.6 Y110.1
;;retract;;
G1 F6000 E-5.81161
;MESH:NONMESH
G0 F600 X111.6 Y110.1 Z1.4
G0 F7200 X111.6 Y109.03
G0 X109.054 Y108.955
G0 X108.678 Y108.544
;TIME_ELAPSED:44.738724

;LAYER:13
;TYPE:SUPPORT-INTERFACE
G1 F6000 E2.18839
G1 F1999.8 X108.866 Y108.356 E2.19193
;;retract;;
G1 F6000 E-5.80807
;MESH:
G0 F7200 X109.054 Y109.076
G0 X111.8 Y110.97
G0 X111.8 Y110.1
;TYPE:WALL-OUTER
G1 F6000 E2.19193
G1 F600 X110.1 Y110.1 E2.2202
G1 X110.1 Y111.05 E2.236
G1 X109.9 Y111.05 E2.23933
G1 X109.9 Y110.1 E2.24722
G1 X108.2 Y110.1 E2.2755
G1 X108.2 Y109.9 E2.27882
G1 X109.9 Y109.9 E2.29296
G1 X109.9 Y108.95 E2.30876
G1 X110.1 Y108.95 E2.31208
G1 X110.1 Y109.9 E2.31998
G1 X111.8 Y109.9 E2.33412
G1 X111.8 Y110.1 E2.33744
G0 F7200 X111.6 Y110.1
;;retract;;
G1 F6000 E-5.66256
;MESH:NONMESH
G0 F600 X111.6 Y110.1 Z1.5
G0 F7200 X111.6 Y109.03
G0 X109.795 Y107.131
G0 X108.901 Y106.663
G0 X108.132 Y106.916
G0 X107.5 Y107.41
G0 X108.043 Y108.043
;TIME_ELAPSED:47.565906

;LAYER:14
;TYPE:SUPPORT-INTERFACE
G1 F6000 E2.33744
G1 F1999.8 X108.584 Y108.584 E2.34762
;;retract;;
G1 F6000 E-5.65238
;MESH:
G0 F7200 X109.054 Y109.034
G0 X111.8 Y109.03
G0 X111.8 Y110.1
;TYPE:WALL-OUTER
G1 F6000 E2.34762
G1 F600 X110.1 Y110.1 E2.37589
G1 X110.1 Y111.05 E2.39169
G1 X109.9 Y111.05 E2.39502
G1 X109.9 Y110.1 E2.40292
G1 X108.2 Y110.1 E2.43119
G1 X108.2 Y109.9 E2.43451
G1 X109.9 Y109.9 E2.44865
G1 X109.9 Y108.95 E2.46445
G1 X110.1 Y108.95 E2.46777
G1 X110.1 Y109.9 E2.47567
G1 X111.8 Y109.9 E2.48981
G1 X111.8 Y110.1 E2.49313
G0 F7200 X111.6 Y110.1
;;retract;;
G1 F6000 E-5.50687
;MESH:NONMESH
G0 F600 X111.6 Y110.1 Z1.6
G0 F7200 X111.6 Y109.03
G0 X109.054 Y109.034
G0 X108.863 Y108.359
;TIME_ELAPSED:50.316983

;LAYER:15
;TYPE:SUPPORT-INTERFACE
G1 F6000 E2.49313
G1 F1999.8 X108.338 Y108.884 E2.50301
;;retract;;
