;FLAVOR:Marlin
;TIME:329
;Filament used: 0.0787559m
;Layer height: 0.2
;MINX:136.029
;MINY:136.015
;MINZ:0.2
;MAXX:163.974
;MAXY:163.979
;MAXZ:9
;Generated with Creality Slicer 4.8.2-191
M140 S50
M105
M190 S50
M104 S200
M105
M109 S200
M82 ;absolute extrusion mode

G28 ;Home

G92 E0 ;Reset Extruder
G1 Z2.0 F3000 ;Move Z Axis up
G1 X10.1 Y20 Z0.28 F5000.0 ;Move to start position
G1 X10.1 Y200.0 Z0.28 F1500.0 E15 ;Draw the first line
G1 X10.4 Y200.0 Z0.28 F5000.0 ;Move to side a little
G1 X10.4 Y20 Z0.28 F1500.0 E30 ;Draw the second line
G92 E0 ;Reset Extruder
G1 Z2.0 F3000 ;Move Z Axis up

G92 E0
G92 E0
G1 F2700 E-5
;LAYER_COUNT:45
;LAYER:0
M107
G0 F6000 X140.266 Y139.959 Z0.2
;TYPE:SKIRT
G1 F2700 E0
G1 F1200 X140.463 Y139.773 E0.00901
G1 X141.411 Y138.974 E0.05025
G1 X141.784 Y138.694 E0.06576
G1 X142.917 Y137.948 E0.11088
G1 X143.224 Y137.772 E0.12265
G1 X144.434 Y137.174 E0.16754
G1 X144.741 Y137.045 E0.17862
G1 X145.62 Y136.719 E0.2098
G1 X146.075 Y136.583 E0.22559
G1 X146.459 Y136.477 E0.23884
G1 X147.399 Y136.261 E0.27092
G1 X147.497 Y136.243 E0.27423
G1 X147.873 Y136.181 E0.28691
G1 X148.177 Y136.136 E0.29713
G1 X149.11 Y136.038 E0.32833
G1 X149.714 Y136.017 E0.34843
G1 X150.01 Y136.015 E0.35828
G1 X151.224 Y136.074 E0.39871
G1 X151.675 Y136.121 E0.41379
G1 X152.603 Y136.258 E0.44499
G1 X153.196 Y136.389 E0.46519
G1 X153.553 Y136.478 E0.47742
G1 X154.781 Y136.861 E0.52021
G1 X155.08 Y136.974 E0.53084
G1 X156.283 Y137.514 E0.5747
G1 X156.62 Y137.69 E0.58734
G1 X157.769 Y138.382 E0.63195
G1 X158.097 Y138.608 E0.6452
G1 X159.191 Y139.469 E0.6915
G1 X159.524 Y139.767 E0.70637
G1 X160.46 Y140.712 E0.75061
G1 X160.524 Y140.785 E0.75384
G1 X160.862 Y141.189 E0.77136
G1 X161.037 Y141.409 E0.78071
G1 X161.726 Y142.379 E0.82028
G1 X161.879 Y142.621 E0.8298
G1 X162.457 Y143.654 E0.86917
G1 X162.639 Y144.025 E0.88292
G1 X163.139 Y145.217 E0.92591
G1 X163.239 Y145.501 E0.93592
G1 X163.464 Y146.22 E0.96098
G1 X163.526 Y146.444 E0.96871
G1 X163.765 Y147.511 E1.00508
G1 X163.806 Y147.749 E1.01311
G1 X163.943 Y148.907 E1.05189
G1 X163.962 Y149.201 E1.06169
G1 X163.974 Y150.391 E1.10128
G1 X163.954 Y150.848 E1.11649
G1 X163.825 Y152.116 E1.15888
G1 X163.806 Y152.234 E1.16286
G1 X163.729 Y152.659 E1.17722
G1 X163.679 Y152.907 E1.18564
G1 X163.407 Y153.976 E1.22232
G1 X163.299 Y154.326 E1.23451
G1 X162.984 Y155.21 E1.26572
G1 X162.767 Y155.711 E1.28388
G1 X162.658 Y155.946 E1.2925
G1 X162.071 Y157.044 E1.33391
G1 X161.818 Y157.459 E1.35007
G1 X161.058 Y158.551 E1.39432
G1 X160.81 Y158.865 E1.40763
G1 X159.956 Y159.825 E1.45037
G1 X159.856 Y159.925 E1.45507
G1 X159.497 Y160.268 E1.47158
G1 X159.335 Y160.416 E1.47888
G1 X158.394 Y161.185 E1.5193
G1 X158.125 Y161.381 E1.53037
G1 X157.111 Y162.038 E1.57056
G1 X156.814 Y162.208 E1.58194
G1 X155.622 Y162.798 E1.62618
G1 X155.164 Y162.991 E1.64271
G1 X154.285 Y163.318 E1.6739
G1 X153.549 Y163.528 E1.69936
G1 X153.312 Y163.587 E1.70748
G1 X152.211 Y163.802 E1.74479
G1 X151.791 Y163.862 E1.7589
G1 X150.429 Y163.971 E1.80435
G1 X149.976 Y163.979 E1.81942
G1 X148.755 Y163.933 E1.86006
G1 X148.691 Y163.927 E1.86219
G1 X148.14 Y163.861 E1.88065
G1 X147.864 Y163.821 E1.88993
G1 X146.782 Y163.608 E1.9266
G1 X146.457 Y163.527 E1.93775
G1 X145.247 Y163.151 E1.97989
G1 X144.949 Y163.039 E1.99048
G1 X144.209 Y162.73 E2.01715
G1 X144.014 Y162.64 E2.02429
G1 X143.109 Y162.17 E2.05821
G1 X142.876 Y162.035 E2.06717
G1 X141.992 Y161.464 E2.10217
G1 X141.704 Y161.258 E2.11395
G1 X140.965 Y160.68 E2.14515
G1 X140.607 Y160.362 E2.16108
G1 X140.433 Y160.2 E2.16898
G1 X140.187 Y159.964 E2.18032
G1 X140.08 Y159.858 E2.18533
G1 X139.459 Y159.189 E2.21569
G1 X139.277 Y158.976 E2.22501
G1 X138.495 Y157.943 E2.2681
G1 X138.235 Y157.554 E2.28366
G1 X137.668 Y156.607 E2.32037
G1 X137.618 Y156.513 E2.32392
G1 X137.276 Y155.81 E2.34992
G1 X137.189 Y155.614 E2.35705
G1 X136.866 Y154.799 E2.38621
G1 X136.763 Y154.506 E2.39654
G1 X136.495 Y153.631 E2.42698
G1 X136.433 Y153.393 E2.43516
G1 X136.232 Y152.455 E2.46706
G1 X136.21 Y152.325 E2.47145
G1 X136.091 Y151.37 E2.50346
G1 X136.054 Y150.909 E2.51884
G1 X136.029 Y149.55 E2.56405
G1 X136.044 Y149.206 E2.5755
G1 X136.189 Y147.844 E2.62106
G1 X136.263 Y147.408 E2.63576
G1 X136.565 Y146.112 E2.68002
G1 X136.601 Y145.991 E2.68422
G1 X136.741 Y145.555 E2.69945
G1 X136.82 Y145.325 E2.70754
G1 X137.177 Y144.416 E2.74002
G1 X137.264 Y144.221 E2.74713
G1 X137.547 Y143.636 E2.76874
G1 X137.67 Y143.399 E2.77762
G1 X138.259 Y142.396 E2.81631
G1 X138.347 Y142.263 E2.82161
G1 X138.889 Y141.515 E2.85233
G1 X139.186 Y141.139 E2.86827
G1 X139.798 Y140.428 E2.89947
G1 X140.266 Y139.959 E2.92151
G0 F6000 X140.541 Y140.25
G1 F1200 X140.738 Y140.064 E2.93052
G1 X141.651 Y139.294 E2.97025
G1 X142.024 Y139.014 E2.98576
G1 X143.116 Y138.295 E3.02924
G1 X143.423 Y138.119 E3.04101
G1 X144.589 Y137.543 E3.08427
G1 X144.896 Y137.414 E3.09535
G1 X146.181 Y136.968 E3.14059
G1 X146.565 Y136.862 E3.15383
G1 X147.471 Y136.654 E3.18475
G1 X147.932 Y136.576 E3.2003
G1 X148.236 Y136.531 E3.21052
G1 X149.152 Y136.436 E3.24115
G1 X149.716 Y136.417 E3.25992
G1 X150.012 Y136.415 E3.26977
G1 X151.183 Y136.472 E3.30876
G1 X151.634 Y136.519 E3.32384
G1 X152.544 Y136.654 E3.35444
G1 X153.099 Y136.777 E3.37335
G1 X153.456 Y136.866 E3.38559
G1 X154.639 Y137.235 E3.4268
G1 X154.938 Y137.348 E3.43743
G1 X156.098 Y137.868 E3.47972
G1 X156.435 Y138.044 E3.49236
G1 X157.542 Y138.711 E3.53535
G1 X157.87 Y138.937 E3.54859
G1 X158.925 Y139.767 E3.59324
G1 X159.258 Y140.065 E3.6081
G1 X160.16 Y140.976 E3.65074
G1 X160.224 Y141.049 E3.65397
G1 X160.549 Y141.438 E3.67083
G1 X160.724 Y141.658 E3.68018
G1 X161.388 Y142.592 E3.7183
G1 X161.541 Y142.834 E3.72782
G1 X162.098 Y143.83 E3.76578
G1 X162.28 Y144.201 E3.77952
G1 X162.761 Y145.349 E3.82092
G1 X162.861 Y145.633 E3.83093
G1 X163.079 Y146.326 E3.8551
G1 X163.141 Y146.55 E3.86283
G1 X163.371 Y147.578 E3.89786
G1 X163.412 Y147.816 E3.9059
G1 X163.544 Y148.932 E3.94327
G1 X163.563 Y149.226 E3.95307
G1 X163.575 Y150.373 E3.99122
G1 X163.555 Y150.83 E4.00644
G1 X163.43 Y152.052 E4.04729
G1 X163.411 Y152.17 E4.05127
G1 X163.337 Y152.58 E4.06513
G1 X163.287 Y152.828 E4.07354
G1 X163.025 Y153.858 E4.10889
G1 X162.917 Y154.208 E4.12107
G1 X162.607 Y155.076 E4.15173
G1 X162.404 Y155.543 E4.16866
G1 X162.295 Y155.778 E4.17728
G1 X161.73 Y156.836 E4.21717
G1 X161.477 Y157.251 E4.23334
G1 X160.744 Y158.303 E4.27598
G1 X160.496 Y158.617 E4.28929
G1 X159.673 Y159.542 E4.33047
G1 X159.573 Y159.642 E4.33518
G1 X159.228 Y159.973 E4.35108
G1 X159.066 Y160.121 E4.35838
G1 X158.158 Y160.862 E4.39736
G1 X157.889 Y161.058 E4.40843
G1 X156.913 Y161.691 E4.44712
G1 X156.616 Y161.861 E4.4585
G1 X155.466 Y162.429 E4.50116
G1 X155.008 Y162.622 E4.51769
G1 X154.145 Y162.942 E4.5483
G1 X153.453 Y163.14 E4.57224
G1 X153.216 Y163.199 E4.58037
G1 X152.154 Y163.406 E4.61635
G1 X151.734 Y163.466 E4.63046
G1 X150.422 Y163.571 E4.67424
G1 X149.969 Y163.579 E4.68931
G1 X148.793 Y163.535 E4.72845
G1 X148.729 Y163.529 E4.73059
G1 X148.198 Y163.465 E4.74838
G1 X147.922 Y163.425 E4.75765
G1 X146.879 Y163.22 E4.79301
G1 X146.554 Y163.139 E4.80415
G1 X145.388 Y162.776 E4.84477
G1 X145.09 Y162.664 E4.85535
G1 X144.377 Y162.366 E4.88106
G1 X144.182 Y162.276 E4.8882
G1 X143.31 Y161.824 E4.92087
G1 X143.077 Y161.689 E4.92982
G1 X142.224 Y161.139 E4.96358
G1 X141.936 Y160.933 E4.97536
G1 X140.88 Y160.069 E5.02074
G1 X140.706 Y159.907 E5.02865
G1 X140.469 Y159.679 E5.03958
G1 X140.362 Y159.573 E5.04459
G1 X139.763 Y158.929 E5.07385
G1 X139.581 Y158.716 E5.08316
G1 X138.827 Y157.72 E5.12471
G1 X138.567 Y157.331 E5.14028
G1 X138.022 Y156.419 E5.17561
G1 X137.972 Y156.325 E5.17915
G1 X137.642 Y155.647 E5.20423
G1 X137.555 Y155.451 E5.21137
G1 X137.243 Y154.666 E5.23946
G1 X137.14 Y154.373 E5.24979
G1 X136.882 Y153.53 E5.27911
G1 X136.82 Y153.292 E5.28729
G1 X136.627 Y152.389 E5.31801
G1 X136.605 Y152.259 E5.32239
G1 X136.49 Y151.338 E5.35326
G1 X136.453 Y150.877 E5.36864
G1 X136.429 Y149.567 E5.41222
G1 X136.444 Y149.223 E5.42367
G1 X136.583 Y147.911 E5.46756
G1 X136.657 Y147.475 E5.48226
G1 X136.948 Y146.226 E5.52492
G1 X136.984 Y146.105 E5.52912
G1 X137.119 Y145.685 E5.54379
G1 X137.198 Y145.455 E5.55188
G1 X137.543 Y144.579 E5.58319
G1 X137.63 Y144.384 E5.5903
G1 X137.902 Y143.82 E5.61112
G1 X138.025 Y143.583 E5.62
G1 X138.593 Y142.617 E5.65727
G1 X138.681 Y142.484 E5.66258
G1 X139.203 Y141.763 E5.69218
G1 X139.5 Y141.387 E5.70812
G1 X140.101 Y140.69 E5.73873
G1 X140.541 Y140.25 E5.75943
G0 F6000 X140.816 Y140.54
G1 F1200 X141.013 Y140.354 E5.76844
G1 X141.892 Y139.614 E5.80666
G1 X142.265 Y139.334 E5.82217
G1 X143.315 Y138.642 E5.86399
G1 X143.622 Y138.466 E5.87576
G1 X144.744 Y137.911 E5.9174
G1 X145.051 Y137.782 E5.92847
G1 X146.288 Y137.354 E5.97201
G1 X146.672 Y137.248 E5.98526
G1 X147.543 Y137.048 E6.01498
G1 X147.99 Y136.972 E6.03006
G1 X148.294 Y136.927 E6.04028
G1 X149.193 Y136.834 E6.07034
G1 X149.719 Y136.817 E6.08785
G1 X150.015 Y136.815 E6.09769
G1 X151.141 Y136.87 E6.13519
G1 X151.592 Y136.917 E6.15027
G1 X152.485 Y137.05 E6.1803
G1 X153.002 Y137.165 E6.19792
G1 X153.359 Y137.254 E6.21015
G1 X154.498 Y137.61 E6.24984
G1 X154.797 Y137.723 E6.26047
G1 X155.913 Y138.223 E6.30115
G1 X156.25 Y138.399 E6.31379
G1 X157.315 Y139.041 E6.35515
G1 X157.643 Y139.267 E6.3684
G1 X158.658 Y140.065 E6.41134
G1 X158.991 Y140.363 E6.42621
G1 X159.859 Y141.24 E6.46725
G1 X159.923 Y141.313 E6.47048
G1 X160.236 Y141.687 E6.4867
G1 X160.411 Y141.907 E6.49605
G1 X161.049 Y142.806 E6.53271
G1 X161.202 Y143.048 E6.54224
G1 X161.738 Y144.007 E6.57878
G1 X161.92 Y144.378 E6.59252
G1 X162.384 Y145.482 E6.63235
G1 X162.484 Y145.766 E6.64237
G1 X162.693 Y146.433 E6.66561
G1 X162.755 Y146.657 E6.67334
G1 X162.977 Y147.646 E6.70706
G1 X163.018 Y147.884 E6.71509
G1 X163.145 Y148.958 E6.75106
G1 X163.164 Y149.252 E6.76086
G1 X163.175 Y150.356 E6.79758
G1 X163.155 Y150.813 E6.81279
G1 X163.035 Y151.988 E6.85208
G1 X163.016 Y152.106 E6.85605
G1 X162.945 Y152.501 E6.8694
G1 X162.895 Y152.749 E6.87782
G1 X162.643 Y153.741 E6.91186
G1 X162.535 Y154.091 E6.92404
G1 X162.23 Y154.941 E6.95408
G1 X162.041 Y155.375 E6.96982
G1 X161.932 Y155.61 E6.97844
G1 X161.388 Y156.627 E7.0168
G1 X161.135 Y157.042 E7.03296
G1 X160.43 Y158.055 E7.07401
G1 X160.182 Y158.369 E7.08732
G1 X159.39 Y159.259 E7.12695
G1 X159.29 Y159.359 E7.13165
G1 X158.958 Y159.678 E7.14696
G1 X158.796 Y159.826 E7.15426
G1 X157.923 Y160.539 E7.19175
G1 X157.654 Y160.735 E7.20282
G1 X156.714 Y161.343 E7.24005
G1 X156.417 Y161.513 E7.25144
G1 X155.311 Y162.061 E7.29249
G1 X154.853 Y162.254 E7.30902
G1 X154.006 Y162.567 E7.33905
G1 X153.356 Y162.752 E7.36153
G1 X153.119 Y162.811 E7.36966
G1 X152.097 Y163.01 E7.40429
G1 X151.677 Y163.07 E7.4184
G1 X150.415 Y163.171 E7.4605
G1 X149.962 Y163.179 E7.47557
G1 X148.83 Y163.136 E7.51325
G1 X148.255 Y163.07 E7.5325
G1 X147.979 Y163.03 E7.54178
G1 X146.975 Y162.832 E7.57581
G1 X146.65 Y162.751 E7.58695
G1 X145.529 Y162.402 E7.626
G1 X145.231 Y162.29 E7.63659
G1 X144.545 Y162.003 E7.66133
G1 X144.35 Y161.913 E7.66847
G1 X143.51 Y161.478 E7.69993
G1 X143.277 Y161.343 E7.70889
G1 X142.457 Y160.813 E7.74136
G1 X142.169 Y160.607 E7.75314
G1 X141.153 Y159.776 E7.79679
G1 X140.979 Y159.614 E7.8047
G1 X140.75 Y159.395 E7.81524
G1 X140.643 Y159.289 E7.82025
G1 X140.067 Y158.669 E7.8484
G1 X139.885 Y158.456 E7.85772
G1 X139.16 Y157.498 E7.89767
G1 X138.9 Y157.109 E7.91324
G1 X138.375 Y156.231 E7.94726
G1 X138.325 Y156.137 E7.9508
G1 X138.007 Y155.485 E7.97493
G1 X137.92 Y155.289 E7.98206
G1 X137.62 Y154.534 E8.00908
G1 X137.517 Y154.241 E8.01941
G1 X137.269 Y153.429 E8.04765
G1 X137.207 Y153.191 E8.05583
G1 X137.021 Y152.322 E8.08539
G1 X136.999 Y152.192 E8.08978
G1 X136.889 Y151.306 E8.11947
G1 X136.852 Y150.845 E8.13485
G1 X136.829 Y149.585 E8.17677
G1 X136.844 Y149.241 E8.18822
G1 X136.978 Y147.978 E8.23046
G1 X137.052 Y147.542 E8.24517
G1 X137.332 Y146.34 E8.28622
G1 X137.368 Y146.219 E8.29042
G1 X137.497 Y145.815 E8.30452
G1 X137.576 Y145.585 E8.31261
G1 X137.908 Y144.742 E8.34275
G1 X137.995 Y144.547 E8.34985
G1 X138.257 Y144.004 E8.3699
G1 X138.38 Y143.767 E8.37878
G1 X138.926 Y142.838 E8.41462
G1 X139.014 Y142.705 E8.41993
G1 X139.517 Y142.011 E8.44844
G1 X139.814 Y141.635 E8.46437
G1 X140.404 Y140.951 E8.49442
G1 X140.816 Y140.54 E8.51377
G0 F6000 X147.954 Y148.089
G1 F1200 X148.221 Y147.84 E8.52591
G1 X148.515 Y147.629 E8.53795
G1 X148.835 Y147.454 E8.55008
G1 X149.11 Y147.345 E8.55992
G1 X149.463 Y147.254 E8.57205
G1 X149.543 Y147.241 E8.57474
G1 X149.814 Y147.206 E8.58383
G1 X150.164 Y147.206 E8.59547
G1 X150.516 Y147.249 E8.60726
G1 X150.567 Y147.26 E8.609
G1 X150.859 Y147.337 E8.61904
G1 X151.201 Y147.473 E8.63129
G1 X151.481 Y147.626 E8.6419
G1 X151.795 Y147.853 E8.65479
G1 X152.035 Y148.077 E8.6657
G1 X152.268 Y148.36 E8.6779
G1 X152.461 Y148.665 E8.6899
G1 X152.592 Y148.947 E8.70024
G1 X152.716 Y149.319 E8.71329
G1 X152.777 Y149.644 E8.72428
G1 X152.798 Y149.996 E8.73601
G1 X152.776 Y150.342 E8.74754
G1 X152.705 Y150.708 E8.75994
G1 X152.6 Y151.044 E8.77165
G1 X152.488 Y151.276 E8.78022
G1 X152.43 Y151.384 E8.7843
G1 X152.278 Y151.623 E8.79372
G1 X152.03 Y151.927 E8.80677
G1 X151.782 Y152.158 E8.81804
G1 X151.49 Y152.369 E8.83002
G1 X151.199 Y152.529 E8.84107
G1 X150.853 Y152.666 E8.85344
G1 X150.59 Y152.733 E8.86247
G1 X150.507 Y152.752 E8.8653
G1 X150.167 Y152.794 E8.8767
G1 X149.827 Y152.794 E8.88801
G1 X149.49 Y152.75 E8.89931
G1 X149.42 Y152.737 E8.90168
G1 X149.143 Y152.664 E8.91121
G1 X148.805 Y152.532 E8.92327
G1 X148.514 Y152.369 E8.93437
G1 X148.218 Y152.159 E8.94644
G1 X147.955 Y151.908 E8.95853
G1 X147.723 Y151.629 E8.9706
G1 X147.559 Y151.373 E8.98071
G1 X147.515 Y151.284 E8.98401
G1 X147.406 Y151.051 E8.99257
G1 X147.293 Y150.71 E9.00452
G1 X147.222 Y150.335 E9.01721
G1 X147.202 Y149.99 E9.02871
G1 X147.224 Y149.655 E9.03987
G1 X147.291 Y149.3 E9.05189
G1 X147.403 Y148.961 E9.06376
G1 X147.544 Y148.655 E9.07497
G1 X147.731 Y148.36 E9.08658
G1 X147.954 Y148.089 E9.09826
G1 F2700 E4.09826
;MESH:????????????.STL
G0 F6000 X149.605 Y149.317
G0 X149.626 Y150
G0 X149.794 Y150.291
G0 X150.288 Y150.5
;TYPE:WALL-INNER
G1 F2700 E9.09826
G1 F1200 X149.712 Y150.5 E9.11742
G1 X149.423 Y150 E9.13662
G1 X149.712 Y149.5 E9.15583
G1 X150.288 Y149.5 E9.17499
G1 X150.577 Y150 E9.1942
G1 X150.288 Y150.5 E9.21341
G0 F6000 X150.52 Y150.9
;TYPE:WALL-OUTER
G1 F1200 X149.48 Y150.9 E9.248
G1 X148.961 Y150 E9.28255
G1 X149.48 Y149.1 E9.31711
G1 X150.52 Y149.1 E9.3517
G1 X151.039 Y150 E9.38625
G1 X150.52 Y150.9 E9.42081
G0 F6000 X150.3 Y150.46
G0 X150.063 Y150.11
;TYPE:SKIN
G1 F1200 X149.937 Y150.11 E9.425
G1 X149.874 Y150 E9.42921
G1 X149.937 Y149.89 E9.43343
G1 X150.063 Y149.89 E9.43762
G1 X150.126 Y150 E9.44184
G1 X150.063 Y150.11 E9.44605
G0 F6000 X150.229 Y150.206
G1 F2700 E4.44605
;MESH:NONMESH
G0 F300 X150.229 Y150.206 Z0.4
G0 F6000 X150.303 Y150.252
G0 X150.374 Y150
G0 X150.223 Y149.739
G0 X149.605 Y149.317
G0 X147.955 Y148.087
;TIME_ELAPSED:20.375356
;LAYER:1
M106 S85
;TYPE:SUPPORT
G1 F2700 E9.44605
G1 F600 X148.22 Y147.84 E9.4581
G1 X148.52 Y147.625 E9.47038
G1 X148.83 Y147.455 E9.48214
G1 X149.109 Y147.346 E9.4921
G1 X149.464 Y147.253 E9.5043
G1 X149.545 Y147.24 E9.50703
G1 X149.812 Y147.206 E9.51599
G1 X150.167 Y147.206 E9.52779
G1 X150.505 Y147.248 E9.53912
G1 X150.566 Y147.26 E9.54119
G1 X150.861 Y147.338 E9.55134
G1 X151.204 Y147.474 E9.56361
G1 X151.479 Y147.625 E9.57404
G1 X151.792 Y147.85 E9.58687
G1 X152.035 Y148.078 E9.59795
G1 X152.269 Y148.362 E9.61019
G1 X152.459 Y148.663 E9.62203
G1 X152.594 Y148.951 E9.63261
G1 X152.712 Y149.308 E9.64511
G1 X152.777 Y149.65 E9.65669
G1 X152.798 Y149.996 E9.66822
G1 X152.776 Y150.34 E9.67968
G1 X152.704 Y150.713 E9.69232
G1 X152.6 Y151.045 E9.70389
G1 X152.488 Y151.276 E9.71243
G1 X152.43 Y151.385 E9.71654
G1 X152.278 Y151.624 E9.72596
G1 X152.031 Y151.926 E9.73893
G1 X151.785 Y152.156 E9.75013
G1 X151.493 Y152.366 E9.7621
G1 X151.196 Y152.529 E9.77336
G1 X150.852 Y152.666 E9.78568
G1 X150.502 Y152.753 E9.79768
G1 X150.169 Y152.794 E9.80883
G1 X149.829 Y152.794 E9.82014
