;FLAVOR:Marlin
;TIME:998
;Filament used: 0.345433m
;Layer height: 0.2
;MINX:132.3
;MINY:133
;MINZ:0.2
;MAXX:167.7
;MAXY:167
;MAXZ:15
;Generated with Creality Slicer 4.8.2-191
M140 S50
M105
M190 S50
M104 S200
M105
M109 S200
M82 ;absolute extrusion mode

G28 ;Home

G92 E0 ;Reset Extruder
G1 Z2.0 F3000 ;Move Z Axis up
G1 X10.1 Y20 Z0.28 F5000.0 ;Move to start position
G1 X10.1 Y200.0 Z0.28 F1500.0 E15 ;Draw the first line
G1 X10.4 Y200.0 Z0.28 F5000.0 ;Move to side a little
G1 X10.4 Y20 Z0.28 F1500.0 E30 ;Draw the second line
G92 E0 ;Reset Extruder
G1 Z2.0 F3000 ;Move Z Axis up

G92 E0
G92 E0
G1 F2700 E-5
;LAYER_COUNT:75
;LAYER:0
M107
G0 F6000 X135.498 Y136.264 Z0.2
;TYPE:SKIRT
G1 F2700 E0
G1 F1200 X136.186 Y135.627 E0.03119
G1 X136.926 Y135.051 E0.06237
G1 X137.712 Y134.539 E0.09357
G1 X138.539 Y134.097 E0.12476
G1 X139.401 Y133.727 E0.15596
G1 X140.291 Y133.431 E0.18716
G1 X141.203 Y133.213 E0.21835
G1 X142.13 Y133.072 E0.24953
G1 X143.001 Y133.013 E0.27857
G1 X143.322 Y133.004 E0.28925
G1 X143.63 Y133 E0.29949
G1 X155.993 Y133 E0.71069
G1 X156.849 Y133.011 E0.73916
G1 X157.785 Y133.065 E0.77035
G1 X158.713 Y133.197 E0.80152
G1 X159.627 Y133.409 E0.83273
G1 X160.519 Y133.698 E0.86391
G1 X161.384 Y134.061 E0.89512
G1 X162.214 Y134.497 E0.9263
G1 X163.005 Y135.002 E0.95751
G1 X163.749 Y135.573 E0.98871
G1 X164.442 Y136.205 E1.0199
G1 X165.079 Y136.893 E1.05109
G1 X165.654 Y137.634 E1.08228
G1 X166.165 Y138.42 E1.11346
G1 X166.607 Y139.248 E1.14468
G1 X166.976 Y140.11 E1.17587
G1 X167.271 Y141 E1.20705
G1 X167.489 Y141.912 E1.23824
G1 X167.629 Y142.84 E1.26945
G1 X167.687 Y143.701 E1.29816
G1 X167.696 Y144.021 E1.3088
G1 X167.7 Y144.33 E1.31908
G1 X167.699 Y155.4 E1.68727
G1 X167.69 Y156.127 E1.71145
G1 X167.639 Y157.064 E1.74266
G1 X167.507 Y157.992 E1.77384
G1 X167.298 Y158.906 E1.80502
G1 X167.011 Y159.799 E1.83622
G1 X166.649 Y160.665 E1.86744
G1 X166.215 Y161.496 E1.89862
G1 X165.711 Y162.287 E1.92982
G1 X165.142 Y163.032 E1.961
G1 X164.511 Y163.727 E1.99222
G1 X163.824 Y164.365 E2.0234
G1 X163.085 Y164.942 E2.05459
G1 X162.299 Y165.454 E2.08579
G1 X161.473 Y165.897 E2.11696
G1 X160.611 Y166.269 E2.14819
G1 X159.722 Y166.565 E2.17935
G1 X158.81 Y166.785 E2.21055
G1 X157.883 Y166.926 E2.24174
G1 X156.999 Y166.987 E2.27121
G1 X156.678 Y166.996 E2.28189
G1 X156.37 Y167 E2.29214
G1 X143.865 Y166.999 E2.70806
G1 X143.167 Y166.99 E2.73127
G1 X142.231 Y166.938 E2.76245
G1 X141.302 Y166.806 E2.79366
G1 X140.388 Y166.596 E2.82485
G1 X139.495 Y166.309 E2.85605
G1 X138.63 Y165.946 E2.88725
G1 X137.799 Y165.512 E2.91843
G1 X137.008 Y165.008 E2.94963
G1 X136.263 Y164.438 E2.98083
G1 X135.569 Y163.807 E3.01203
G1 X134.932 Y163.12 E3.04319
G1 X134.355 Y162.38 E3.0744
G1 X133.843 Y161.594 E3.1056
G1 X133.4 Y160.767 E3.1368
G1 X133.029 Y159.906 E3.16798
G1 X132.733 Y159.016 E3.19918
G1 X132.514 Y158.104 E3.23037
G1 X132.373 Y157.177 E3.26156
G1 X132.313 Y156.288 E3.2912
G1 X132.304 Y155.955 E3.30228
G1 X132.3 Y155.658 E3.31216
G1 X132.301 Y144.525 E3.68244
G1 X132.31 Y143.86 E3.70456
G1 X132.363 Y142.924 E3.73574
G1 X132.495 Y141.995 E3.76695
G1 X132.706 Y141.081 E3.79815
G1 X132.994 Y140.189 E3.82933
G1 X133.357 Y139.324 E3.86053
G1 X133.792 Y138.493 E3.89172
G1 X134.296 Y137.703 E3.92289
G1 X134.866 Y136.958 E3.95409
G1 X135.498 Y136.264 E3.98531
G0 F6000 X135.889 Y136.439
G1 F1200 X136.574 Y135.823 E4.01595
G1 X137.31 Y135.27 E4.04657
G1 X138.091 Y134.782 E4.0772
G1 X138.911 Y134.364 E4.10781
G1 X139.765 Y134.019 E4.13845
G1 X140.645 Y133.749 E4.16906
G1 X141.545 Y133.557 E4.19967
G1 X142.459 Y133.443 E4.23031
G1 X143.012 Y133.413 E4.24873
G1 X143.333 Y133.404 E4.25941
G1 X143.63 Y133.4 E4.26929
G1 X155.993 Y133.4 E4.68048
G1 X156.843 Y133.411 E4.70875
G1 X157.762 Y133.464 E4.73937
G1 X158.673 Y133.597 E4.76999
G1 X159.569 Y133.808 E4.80061
G1 X160.443 Y134.096 E4.83121
G1 X161.29 Y134.459 E4.86186
G1 X162.101 Y134.894 E4.89247
G1 X162.871 Y135.398 E4.92308
G1 X163.595 Y135.967 E4.95371
G1 X164.267 Y136.597 E4.98435
G1 X164.882 Y137.282 E5.01496
G1 X165.435 Y138.018 E5.04558
G1 X165.922 Y138.799 E5.0762
G1 X166.339 Y139.62 E5.10682
G1 X166.684 Y140.474 E5.13746
G1 X166.953 Y141.354 E5.16806
G1 X167.145 Y142.255 E5.1987
G1 X167.258 Y143.168 E5.2293
G1 X167.287 Y143.712 E5.24742
G1 X167.296 Y144.032 E5.25807
G1 X167.3 Y144.33 E5.26798
G1 X167.299 Y155.395 E5.636
G1 X167.29 Y156.122 E5.66019
G1 X167.239 Y157.041 E5.6908
G1 X167.108 Y157.953 E5.72144
G1 X166.898 Y158.849 E5.75205
G1 X166.612 Y159.724 E5.78267
G1 X166.251 Y160.571 E5.81329
G1 X165.817 Y161.383 E5.84392
G1 X165.315 Y162.155 E5.87454
G1 X164.747 Y162.88 E5.90518
G1 X164.119 Y163.553 E5.93579
G1 X163.435 Y164.169 E5.96641
G1 X162.7 Y164.723 E5.99702
G1 X161.92 Y165.212 E6.02764
G1 X161.1 Y165.631 E6.05827
G1 X160.247 Y165.977 E6.08888
G1 X159.367 Y166.248 E6.11951
G1 X158.467 Y166.441 E6.15012
G1 X157.553 Y166.556 E6.18076
G1 X156.988 Y166.587 E6.19958
G1 X156.667 Y166.596 E6.21027
G1 X156.37 Y166.6 E6.22014
G1 X143.87 Y166.599 E6.6359
G1 X143.172 Y166.59 E6.65911
G1 X142.253 Y166.538 E6.68973
G1 X141.342 Y166.407 E6.72034
G1 X140.446 Y166.197 E6.75095
G1 X139.571 Y165.91 E6.78158
G1 X138.724 Y165.548 E6.81221
G1 X137.912 Y165.114 E6.84284
G1 X137.141 Y164.612 E6.87344
G1 X136.416 Y164.044 E6.90407
G1 X135.743 Y163.415 E6.93471
G1 X135.128 Y162.731 E6.9653
G1 X134.574 Y161.996 E6.99591
G1 X134.086 Y161.215 E7.02654
G1 X133.667 Y160.395 E7.05717
G1 X133.321 Y159.542 E7.08779
G1 X133.051 Y158.662 E7.1184
G1 X132.858 Y157.761 E7.14905
G1 X132.744 Y156.848 E7.17965
G1 X132.713 Y156.277 E7.19867
G1 X132.704 Y155.944 E7.20975
G1 X132.7 Y155.658 E7.21927
G1 X132.701 Y144.531 E7.58935
G1 X132.71 Y143.866 E7.61147
G1 X132.762 Y142.946 E7.64212
G1 X132.894 Y142.035 E7.67274
G1 X133.105 Y141.139 E7.70335
G1 X133.392 Y140.264 E7.73398
G1 X133.755 Y139.418 E7.7646
G1 X134.189 Y138.606 E7.79522
G1 X134.692 Y137.835 E7.82584
G1 X135.261 Y137.111 E7.85647
G1 X135.889 Y136.439 E7.88706
G0 F6000 X136.281 Y136.617
G1 F1200 X136.962 Y136.024 E7.91709
G1 X137.694 Y135.494 E7.94715
G1 X138.469 Y135.031 E7.97718
G1 X139.282 Y134.638 E8.00721
G1 X140.127 Y134.318 E8.03726
G1 X140.996 Y134.075 E8.06728
G1 X141.884 Y133.909 E8.09732
G1 X143.023 Y133.813 E8.13534
G1 X143.344 Y133.804 E8.14602
G1 X143.63 Y133.8 E8.15553
G1 X155.993 Y133.8 E8.56673
G1 X156.837 Y133.811 E8.5948
G1 X157.739 Y133.864 E8.62485
G1 X158.632 Y133.996 E8.65488
G1 X159.51 Y134.207 E8.68491
G1 X160.366 Y134.495 E8.71495
G1 X161.193 Y134.857 E8.74498
G1 X161.985 Y135.292 E8.77503
G1 X162.736 Y135.794 E8.80508
G1 X163.439 Y136.361 E8.83512
G1 X164.089 Y136.988 E8.86515
G1 X164.681 Y137.67 E8.89519
G1 X165.211 Y138.401 E8.92522
G1 X165.673 Y139.177 E8.95526
G1 X166.066 Y139.99 E8.98529
G1 X166.384 Y140.835 E9.01532
G1 X166.627 Y141.705 E9.04537
G1 X166.792 Y142.593 E9.07541
G1 X166.887 Y143.723 E9.11312
G1 X166.896 Y144.043 E9.12377
G1 X166.9 Y144.33 E9.13332
G1 X166.899 Y155.39 E9.50117
G1 X166.89 Y156.117 E9.52536
G1 X166.839 Y157.019 E9.55541
G1 X166.708 Y157.913 E9.58546
G1 X166.499 Y158.791 E9.61548
G1 X166.213 Y159.648 E9.64552
G1 X165.852 Y160.476 E9.67557
G1 X165.42 Y161.268 E9.70557
G1 X164.919 Y162.02 E9.73563
G1 X164.353 Y162.724 E9.76567
G1 X163.728 Y163.375 E9.79569
G1 X163.047 Y163.969 E9.82574
G1 X162.316 Y164.5 E9.85579
G1 X161.542 Y164.964 E9.88581
G1 X160.729 Y165.358 E9.91586
G1 X159.885 Y165.678 E9.94588
G1 X159.015 Y165.923 E9.97594
G1 X158.128 Y166.089 E10.00596
G1 X156.977 Y166.187 E10.04438
G1 X156.656 Y166.196 E10.05506
G1 X156.37 Y166.2 E10.06457
G1 X143.875 Y166.199 E10.48016
G1 X143.177 Y166.19 E10.50337
G1 X142.276 Y166.139 E10.53339
G1 X141.382 Y166.007 E10.56345
G1 X140.504 Y165.798 E10.59346
G1 X139.647 Y165.511 E10.62352
G1 X138.82 Y165.15 E10.65354
G1 X138.027 Y164.717 E10.68359
G1 X137.276 Y164.216 E10.71361
G1 X136.572 Y163.65 E10.74366
G1 X135.921 Y163.024 E10.7737
G1 X135.328 Y162.343 E10.80373
G1 X134.798 Y161.612 E10.83376
G1 X134.334 Y160.837 E10.8638
G1 X133.94 Y160.024 E10.89385
G1 X133.62 Y159.18 E10.92387
G1 X133.376 Y158.31 E10.95393
G1 X133.21 Y157.422 E10.98397
G1 X133.113 Y156.267 E11.02253
G1 X133.104 Y155.934 E11.0336
G1 X133.1 Y155.658 E11.04279
G1 X133.101 Y144.536 E11.4127
G1 X133.11 Y143.871 E11.43482
G1 X133.162 Y142.969 E11.46488
G1 X133.294 Y142.076 E11.4949
G1 X133.504 Y141.198 E11.52493
G1 X133.791 Y140.341 E11.55499
G1 X134.153 Y139.514 E11.58501
G1 X134.586 Y138.722 E11.61503
G1 X135.088 Y137.971 E11.64508
G1 X135.655 Y137.267 E11.67514
G1 X136.281 Y136.617 E11.70516
G1 F2700 E6.70516
;MESH:???6v1.STL
G0 F6000 X142.888 Y143.589
G0 X143.714 Y144.414
G0 X155.918 Y144.782
G0 X155.894 Y149.093
G0 X154.208 Y146.543
G0 X151.027 Y145.78
G0 X148.24 Y147.488
G0 X147.813 Y149.391
G0 X147.754 Y150
G0 X147.804 Y150.616
G0 X147.947 Y151.218
G0 X148.184 Y151.789
G0 X148.508 Y152.316
G0 X148.919 Y152.796
G0 X149.379 Y153.188
G0 X149.907 Y153.512
G0 X151.696 Y154.102
;TYPE:WALL-INNER
G1 F2700 E11.70516
G1 F1200 X152.337 Y154.051 E11.72654
G1 X152.963 Y153.902 E11.74795
G1 X153.558 Y153.656 E11.76936
G1 X154.108 Y153.318 E11.79083
G1 X154.606 Y152.889 E11.8127
G1 X155.014 Y152.411 E11.8336
G1 X155.35 Y151.862 E11.85501
G1 X155.597 Y151.268 E11.8764
G1 X155.702 Y150.831 E11.89135
G1 X155.747 Y150.643 E11.89778
G1 X155.798 Y150 E11.91923
G1 X155.747 Y149.357 E11.94069
G1 X155.702 Y149.169 E11.94712
G1 X155.597 Y148.732 E11.96206
G1 X155.35 Y148.138 E11.98346
G1 X155.013 Y147.589 E12.00489
G1 X154.586 Y147.09 E12.02673
G1 X154.107 Y146.681 E12.04768
G1 X153.558 Y146.344 E12.06911
G1 X152.963 Y146.098 E12.09052
G1 X152.337 Y145.949 E12.11192
G1 X151.696 Y145.898 E12.13331
G1 X151.054 Y145.949 E12.15473
G1 X150.428 Y146.098 E12.17613
G1 X149.834 Y146.344 E12.19752
G1 X149.283 Y146.682 E12.21902
G1 X148.786 Y147.111 E12.24085
G1 X148.378 Y147.589 E12.26175
G1 X148.041 Y148.138 E12.28318
G1 X147.794 Y148.732 E12.30458
G1 X147.645 Y149.358 E12.32598
G1 X147.594 Y150 E12.3474
G1 X147.645 Y150.642 E12.36882
G1 X147.794 Y151.268 E12.39022
G1 X148.041 Y151.862 E12.41162
G1 X148.378 Y152.411 E12.43304
G1 X148.806 Y152.91 E12.45491
G1 X149.284 Y153.319 E12.47583
G1 X149.834 Y153.656 E12.49729
G1 X150.428 Y153.902 E12.51867
G1 X151.054 Y154.051 E12.54007
G1 X151.696 Y154.102 E12.56149
G0 F6000 X151.696 Y153.701
;TYPE:WALL-OUTER
G1 F1200 X152.274 Y153.655 E12.58078
G1 X152.839 Y153.52 E12.6001
G1 X153.376 Y153.298 E12.61943
G1 X153.871 Y152.994 E12.63875
G1 X154.322 Y152.606 E12.65854
G1 X154.689 Y152.175 E12.67736
G1 X154.993 Y151.68 E12.69668
G1 X155.215 Y151.144 E12.71598
G1 X155.351 Y150.58 E12.73528
G1 X155.397 Y150 E12.75463
G1 X155.351 Y149.42 E12.77398
G1 X155.215 Y148.856 E12.79328
G1 X154.993 Y148.32 E12.81257
G1 X154.689 Y147.825 E12.83189
G1 X154.303 Y147.374 E12.85164
G1 X153.871 Y147.006 E12.87051
G1 X153.376 Y146.702 E12.88983
G1 X152.839 Y146.48 E12.90916
G1 X152.274 Y146.345 E12.92848
G1 X151.696 Y146.299 E12.94777
G1 X151.117 Y146.345 E12.96708
G1 X150.552 Y146.48 E12.9864
G1 X150.016 Y146.702 E13.0057
G1 X149.52 Y147.006 E13.02505
G1 X149.07 Y147.394 E13.04481
G1 X148.702 Y147.825 E13.06366
G1 X148.398 Y148.32 E13.08298
G1 X148.176 Y148.856 E13.10228
G1 X148.041 Y149.421 E13.1216
G1 X147.995 Y150 E13.14092
G1 X148.041 Y150.579 E13.16024
G1 X148.176 Y151.144 E13.17956
G1 X148.398 Y151.68 E13.19885
G1 X148.702 Y152.175 E13.21817
G1 X149.089 Y152.626 E13.23794
G1 X149.52 Y152.994 E13.25679
G1 X150.016 Y153.298 E13.27614
G1 X150.552 Y153.52 E13.29543
G1 X151.117 Y153.655 E13.31476
G1 X151.696 Y153.701 E13.33407
G0 F6000 X151.696 Y154.141
G0 X154.209 Y153.456
G0 X155.894 Y150.907
G0 X156.1 Y155.4
;TYPE:WALL-INNER
G1 F1200 X143.9 Y155.4 E13.73985
G1 X143.9 Y144.6 E14.09906
G1 X156.1 Y144.6 E14.50483
G1 X156.1 Y149.163 E14.6566
G1 X156.1 Y149.357 E14.66268
G1 X156.1 Y150 E14.68023
G1 X156.1 Y150.643 E14.69778
G1 X156.1 Y150.837 E14.70387
G1 X156.1 Y155.4 E14.85563
G0 F6000 X156.5 Y155.8
;TYPE:WALL-OUTER
G1 F1200 X143.5 Y155.8 E15.28801
G1 X143.5 Y144.2 E15.67383
G1 X156.5 Y144.2 E16.10621
G1 X156.5 Y155.8 E16.49203
G0 F6000 X156.23 Y155.53
G0 X155.99 Y155.01
G0 X155.71 Y155.01
;TYPE:SKIN
G1 F1200 X144.29 Y155.01 E16.87186
G1 X144.29 Y144.99 E17.20513
G1 X155.71 Y144.99 E17.58496
G1 X155.71 Y147.987 E17.68464
G1 X155.699 Y147.96 E17.68561
G1 X155.329 Y147.359 E17.70908
G1 X154.863 Y146.813 E17.73296
G1 X154.337 Y146.365 E17.75594
G1 X153.736 Y145.995 E17.77941
G1 X153.084 Y145.726 E17.80287
G1 X152.398 Y145.563 E17.82632
G1 X151.696 Y145.506 E17.84975
G1 X150.993 Y145.563 E17.87321
G1 X150.307 Y145.726 E17.89666
G1 X149.656 Y145.995 E17.92009
G1 X149.052 Y146.366 E17.94366
G1 X148.509 Y146.836 E17.96755
G1 X148.062 Y147.359 E17.99043
G1 X147.692 Y147.96 E18.01391
G1 X147.422 Y148.611 E18.03735
G1 X147.259 Y149.297 E18.0608
G1 X147.202 Y150 E18.08426
G1 X147.259 Y150.703 E18.10772
G1 X147.422 Y151.389 E18.13117
G1 X147.692 Y152.04 E18.15461
G1 X148.062 Y152.641 E18.17808
G1 X148.529 Y153.187 E18.20198
G1 X149.054 Y153.635 E18.22493
G1 X149.656 Y154.005 E18.24843
G1 X150.307 Y154.274 E18.27186
G1 X150.993 Y154.437 E18.29531
G1 X151.696 Y154.494 E18.31877
G1 X152.398 Y154.437 E18.3422
G1 X153.084 Y154.274 E18.36565
G1 X153.736 Y154.005 E18.38911
G1 X154.338 Y153.634 E18.41263
G1 X154.883 Y153.165 E18.43654
G1 X155.33 Y152.641 E18.45945
G1 X155.699 Y152.04 E18.48291
G1 X155.71 Y152.013 E18.48388
G1 X155.71 Y155.01 E18.58356
G0 F6000 X155.99 Y155.01
G0 X155.99 Y145.367
G0 X155.549 Y145.367
G1 F1200 X155.332 Y145.15 E18.59377
G0 F6000 X154.767 Y145.15
G1 F1200 X155.549 Y145.932 E18.63055
G0 F6000 X155.549 Y146.498
G1 F1200 X154.201 Y145.15 E18.69395
G0 F6000 X153.635 Y145.15
G1 F1200 X155.549 Y147.064 E18.78398
G0 F6000 X155.99 Y147.064
G0 X155.894 Y149.093
G0 X154.817 Y147.551
G0 X153.577 Y146.231
G0 X153.745 Y145.825
G1 F1200 X153.07 Y145.15 E18.81573
G0 F6000 X152.862 Y145.508
G1 F1200 X152.504 Y145.15 E18.83257
G0 F6000 X152.172 Y145.383
G1 F1200 X151.938 Y145.15 E18.84355
G0 F6000 X151.576 Y145.354
G1 F1200 X151.373 Y145.15 E18.85313
G0 F6000 X151.054 Y145.397
G1 F1200 X150.807 Y145.15 E18.86474
G0 F6000 X150.586 Y145.494
G1 F1200 X150.241 Y145.15 E18.88095
G0 F6000 X150.144 Y145.618
G1 F1200 X149.675 Y145.149 E18.90301
G0 F6000 X149.109 Y145.149
G1 F1200 X149.744 Y145.784 E18.93288
G0 F6000 X149.373 Y145.979
G1 F1200 X148.544 Y145.149 E18.9719
G0 F6000 X147.978 Y145.149
G1 F1200 X149.023 Y146.195 E19.02107
G0 F6000 X148.71 Y146.448
G1 F1200 X147.412 Y145.149 E19.08215
G0 F6000 X146.846 Y145.149
G1 F1200 X148.407 Y146.71 E19.15557
G0 F6000 X148.145 Y147.014
G1 F1200 X146.281 Y145.149 E19.24327
G0 F6000 X145.715 Y145.149
G1 F1200 X147.893 Y147.327 E19.34572
G0 F6000 X147.677 Y147.677
G1 F1200 X145.149 Y145.149 E19.46463
G0 F6000 X144.584 Y145.149
G1 F1200 X147.481 Y148.047 E19.60092
G0 F6000 X147.315 Y148.447
G1 F1200 X144.45 Y145.581 E19.7357
G0 F6000 X144.45 Y146.147
G1 F1200 X147.191 Y148.888 E19.86463
G0 F6000 X147.093 Y149.356
G1 F1200 X144.45 Y146.713 E19.98895
G0 F6000 X144.45 Y147.279
G1 F1200 X147.051 Y149.879 E20.11127
G0 F6000 X147.08 Y150.474
G1 F1200 X144.45 Y147.844 E20.23498
G0 F6000 X144.45 Y148.41
G1 F1200 X147.204 Y151.164 E20.36452
G0 F6000 X147.522 Y152.047
G1 F1200 X144.45 Y148.976 E20.50899
G0 F6000 X144.45 Y149.541
G1 F1200 X149.758 Y154.849 E20.75866
G0 F6000 X150.323 Y154.849
G1 F1200 X149.649 Y154.174 E20.79039
G0 F6000 X149.192 Y154.849
G1 F1200 X144.45 Y150.107 E21.01344
G0 F6000 X144.45 Y150.673
G1 F1200 X148.626 Y154.849 E21.20987
G0 F6000 X148.061 Y154.849
G1 F1200 X144.45 Y151.238 E21.37972
G0 F6000 X144.45 Y151.804
G1 F1200 X147.495 Y154.849 E21.52294
G0 F6000 X146.929 Y154.849
G1 F1200 X144.45 Y152.37 E21.63955
G0 F6000 X144.45 Y152.935
G1 F1200 X146.364 Y154.849 E21.72958
G0 F6000 X145.798 Y154.849
G1 F1200 X144.45 Y153.501 E21.79298
G0 F6000 X144.45 Y154.067
G1 F1200 X145.232 Y154.849 E21.82977
G0 F6000 X144.666 Y154.849
G1 F1200 X144.45 Y154.632 E21.83995
G0 F6000 X144.01 Y154.632
G0 X144.082 Y155.218
G0 X155.918 Y155.218
G0 X155.894 Y150.907
G0 X154.209 Y153.456
G0 X152.406 Y153.888
G0 X150.633 Y154.064
G0 X150.531 Y154.491
