;FLAVOR:Marlin
;TIME:833
;Filament used: 0.503088m
;Layer height: 0.2
;MINX:127.3
;MINY:133
;MINZ:0.2
;MAXX:172.7
;MAXY:167
;MAXZ:9.4
;Generated with Creality Slicer 4.8.2-191
M140 S50
M105
M190 S50
M104 S200
M105
M109 S200
M82 ;absolute extrusion mode

G28 ;Home

G92 E0 ;Reset Extruder
G1 Z2.0 F3000 ;Move Z Axis up
G1 X10.1 Y20 Z0.28 F5000.0 ;Move to start position
G1 X10.1 Y200.0 Z0.28 F1500.0 E15 ;Draw the first line
G1 X10.4 Y200.0 Z0.28 F5000.0 ;Move to side a little
G1 X10.4 Y20 Z0.28 F1500.0 E30 ;Draw the second line
G92 E0 ;Reset Extruder
G1 Z2.0 F3000 ;Move Z Axis up

G92 E0
G92 E0
G1 F2700 E-5
;LAYER_COUNT:47
;LAYER:0
M107
G0 F6000 X130.498 Y136.264 Z0.2
;TYPE:SKIRT
G1 F2700 E0
G1 F1200 X131.186 Y135.627 E0.03119
G1 X131.926 Y135.051 E0.06237
G1 X132.712 Y134.539 E0.09357
G1 X133.539 Y134.097 E0.12476
G1 X134.401 Y133.727 E0.15596
G1 X135.291 Y133.431 E0.18716
G1 X136.203 Y133.213 E0.21835
G1 X137.13 Y133.072 E0.24953
G1 X138.001 Y133.013 E0.27857
G1 X138.322 Y133.004 E0.28925
G1 X138.63 Y133 E0.29949
G1 X160.993 Y133 E1.04329
G1 X161.849 Y133.011 E1.07176
G1 X162.785 Y133.065 E1.10295
G1 X163.713 Y133.197 E1.13412
G1 X164.627 Y133.409 E1.16533
G1 X165.519 Y133.698 E1.19652
G1 X166.384 Y134.061 E1.22772
G1 X167.214 Y134.497 E1.2589
G1 X168.005 Y135.002 E1.29011
G1 X168.749 Y135.573 E1.32131
G1 X169.442 Y136.205 E1.3525
G1 X170.079 Y136.893 E1.38369
G1 X170.654 Y137.634 E1.41488
G1 X171.165 Y138.42 E1.44606
G1 X171.607 Y139.248 E1.47728
G1 X171.976 Y140.11 E1.50847
G1 X172.271 Y141 E1.53965
G1 X172.489 Y141.912 E1.57084
G1 X172.629 Y142.84 E1.60206
G1 X172.687 Y143.701 E1.63076
G1 X172.696 Y144.021 E1.6414
G1 X172.7 Y144.33 E1.65168
G1 X172.699 Y155.4 E2.01987
G1 X172.69 Y156.127 E2.04405
G1 X172.639 Y157.064 E2.07527
G1 X172.507 Y157.992 E2.10644
G1 X172.298 Y158.906 E2.13763
G1 X172.011 Y159.799 E2.16882
G1 X171.649 Y160.665 E2.20004
G1 X171.215 Y161.496 E2.23122
G1 X170.711 Y162.287 E2.26242
G1 X170.142 Y163.032 E2.2936
G1 X169.511 Y163.727 E2.32482
G1 X168.824 Y164.365 E2.356
G1 X168.085 Y164.942 E2.38719
G1 X167.299 Y165.454 E2.41839
G1 X166.473 Y165.897 E2.44956
G1 X165.611 Y166.269 E2.48079
G1 X164.722 Y166.565 E2.51195
G1 X163.81 Y166.785 E2.54316
G1 X162.883 Y166.926 E2.57434
G1 X161.999 Y166.987 E2.60381
G1 X161.678 Y166.996 E2.61449
G1 X161.37 Y167 E2.62474
G1 X138.865 Y166.999 E3.37326
G1 X138.167 Y166.99 E3.39648
G1 X137.231 Y166.938 E3.42766
G1 X136.302 Y166.806 E3.45887
G1 X135.388 Y166.596 E3.49006
G1 X134.495 Y166.309 E3.52125
G1 X133.63 Y165.946 E3.55246
G1 X132.799 Y165.512 E3.58364
G1 X132.008 Y165.008 E3.61483
G1 X131.263 Y164.438 E3.64603
G1 X130.569 Y163.807 E3.67723
G1 X129.932 Y163.12 E3.70839
G1 X129.355 Y162.38 E3.7396
G1 X128.843 Y161.594 E3.7708
G1 X128.4 Y160.767 E3.802
G1 X128.029 Y159.906 E3.83319
G1 X127.733 Y159.016 E3.86438
G1 X127.514 Y158.104 E3.89558
G1 X127.373 Y157.177 E3.92676
G1 X127.313 Y156.288 E3.9564
G1 X127.304 Y155.955 E3.96748
G1 X127.3 Y155.658 E3.97736
G1 X127.301 Y144.525 E4.34764
G1 X127.31 Y143.86 E4.36976
G1 X127.363 Y142.924 E4.40094
G1 X127.495 Y141.995 E4.43215
G1 X127.706 Y141.081 E4.46335
G1 X127.994 Y140.189 E4.49453
G1 X128.357 Y139.324 E4.52573
G1 X128.792 Y138.493 E4.55693
G1 X129.296 Y137.703 E4.58809
G1 X129.866 Y136.958 E4.61929
G1 X130.498 Y136.264 E4.65051
G0 F6000 X130.889 Y136.439
G1 F1200 X131.574 Y135.823 E4.68115
G1 X132.31 Y135.27 E4.71177
G1 X133.091 Y134.782 E4.7424
G1 X133.911 Y134.364 E4.77302
G1 X134.765 Y134.019 E4.80365
G1 X135.645 Y133.749 E4.83427
G1 X136.545 Y133.557 E4.86487
G1 X137.459 Y133.443 E4.89551
G1 X138.012 Y133.413 E4.91393
G1 X138.333 Y133.404 E4.92461
G1 X138.63 Y133.4 E4.93449
G1 X160.993 Y133.4 E5.67828
G1 X161.843 Y133.411 E5.70656
G1 X162.762 Y133.464 E5.73717
G1 X163.673 Y133.597 E5.7678
G1 X164.569 Y133.808 E5.79841
G1 X165.443 Y134.096 E5.82902
G1 X166.29 Y134.459 E5.85967
G1 X167.101 Y134.894 E5.89028
G1 X167.871 Y135.398 E5.92089
G1 X168.595 Y135.967 E5.95151
G1 X169.267 Y136.597 E5.98215
G1 X169.882 Y137.282 E6.01277
G1 X170.435 Y138.018 E6.04339
G1 X170.922 Y138.799 E6.074
G1 X171.339 Y139.62 E6.10463
G1 X171.684 Y140.474 E6.13526
G1 X171.953 Y141.354 E6.16587
G1 X172.145 Y142.255 E6.19651
G1 X172.258 Y143.168 E6.22711
G1 X172.287 Y143.712 E6.24523
G1 X172.296 Y144.032 E6.25587
G1 X172.3 Y144.33 E6.26579
G1 X172.299 Y155.395 E6.63381
G1 X172.29 Y156.122 E6.65799
G1 X172.239 Y157.041 E6.6886
G1 X172.108 Y157.953 E6.71925
G1 X171.898 Y158.849 E6.74986
G1 X171.612 Y159.724 E6.78047
G1 X171.251 Y160.571 E6.8111
G1 X170.817 Y161.383 E6.84172
G1 X170.315 Y162.155 E6.87235
G1 X169.747 Y162.88 E6.90298
G1 X169.119 Y163.553 E6.9336
G1 X168.435 Y164.169 E6.96421
G1 X167.7 Y164.723 E6.99483
G1 X166.92 Y165.212 E7.02545
G1 X166.1 Y165.631 E7.05607
G1 X165.247 Y165.977 E7.08669
G1 X164.367 Y166.248 E7.11731
G1 X163.467 Y166.441 E7.14793
G1 X162.553 Y166.556 E7.17857
G1 X161.988 Y166.587 E7.19739
G1 X161.667 Y166.596 E7.20807
G1 X161.37 Y166.6 E7.21795
G1 X138.87 Y166.599 E7.9663
G1 X138.172 Y166.59 E7.98952
G1 X137.253 Y166.538 E8.02013
G1 X136.342 Y166.407 E8.05075
G1 X135.446 Y166.197 E8.08135
G1 X134.571 Y165.91 E8.11198
G1 X133.724 Y165.548 E8.14262
G1 X132.912 Y165.114 E8.17324
G1 X132.141 Y164.612 E8.20384
G1 X131.416 Y164.044 E8.23447
G1 X130.743 Y163.415 E8.26511
G1 X130.128 Y162.731 E8.29571
G1 X129.574 Y161.996 E8.32632
G1 X129.086 Y161.215 E8.35695
G1 X128.667 Y160.395 E8.38758
G1 X128.321 Y159.542 E8.41819
G1 X128.051 Y158.662 E8.44881
G1 X127.858 Y157.761 E8.47946
G1 X127.744 Y156.848 E8.51006
G1 X127.713 Y156.277 E8.52908
G1 X127.704 Y155.944 E8.54016
G1 X127.7 Y155.658 E8.54967
G1 X127.701 Y144.531 E8.91976
G1 X127.71 Y143.866 E8.94188
G1 X127.762 Y142.946 E8.97252
G1 X127.894 Y142.035 E9.00314
G1 X128.105 Y141.139 E9.03376
G1 X128.392 Y140.264 E9.06439
G1 X128.755 Y139.418 E9.095
G1 X129.189 Y138.606 E9.12563
G1 X129.692 Y137.835 E9.15625
G1 X130.261 Y137.111 E9.18687
G1 X130.889 Y136.439 E9.21746
G0 F6000 X131.281 Y136.617
G1 F1200 X131.962 Y136.024 E9.2475
G1 X132.694 Y135.494 E9.27756
G1 X133.469 Y135.031 E9.30758
G1 X134.282 Y134.638 E9.33762
G1 X135.127 Y134.318 E9.36767
G1 X135.996 Y134.075 E9.39768
G1 X136.884 Y133.909 E9.42773
G1 X138.023 Y133.813 E9.46574
G1 X138.344 Y133.804 E9.47643
G1 X138.63 Y133.8 E9.48594
G1 X160.993 Y133.8 E10.22974
G1 X161.837 Y133.811 E10.25781
G1 X162.739 Y133.864 E10.28786
G1 X163.632 Y133.996 E10.31789
G1 X164.51 Y134.207 E10.34792
G1 X165.366 Y134.495 E10.37796
G1 X166.193 Y134.857 E10.40798
G1 X166.985 Y135.292 E10.43804
G1 X167.736 Y135.794 E10.46808
G1 X168.439 Y136.361 E10.49812
G1 X169.089 Y136.988 E10.52816
G1 X169.681 Y137.67 E10.5582
G1 X170.211 Y138.401 E10.58823
G1 X170.673 Y139.177 E10.61827
G1 X171.066 Y139.99 E10.6483
G1 X171.384 Y140.835 E10.67833
G1 X171.627 Y141.705 E10.70837
G1 X171.792 Y142.593 E10.73841
G1 X171.887 Y143.723 E10.77613
G1 X171.896 Y144.043 E10.78678
G1 X171.9 Y144.33 E10.79632
G1 X171.899 Y155.39 E11.16418
G1 X171.89 Y156.117 E11.18836
G1 X171.839 Y157.019 E11.21841
G1 X171.708 Y157.913 E11.24846
G1 X171.499 Y158.791 E11.27848
G1 X171.213 Y159.648 E11.30853
G1 X170.852 Y160.476 E11.33857
G1 X170.42 Y161.268 E11.36858
G1 X169.919 Y162.02 E11.39863
G1 X169.353 Y162.724 E11.42868
G1 X168.728 Y163.375 E11.45869
G1 X168.047 Y163.969 E11.48875
G1 X167.316 Y164.5 E11.5188
G1 X166.542 Y164.964 E11.54882
G1 X165.729 Y165.358 E11.57886
G1 X164.885 Y165.678 E11.60889
G1 X164.015 Y165.923 E11.63895
G1 X163.128 Y166.089 E11.66896
G1 X161.977 Y166.187 E11.70738
G1 X161.656 Y166.196 E11.71806
G1 X161.37 Y166.2 E11.72758
G1 X138.875 Y166.199 E12.47576
G1 X138.177 Y166.19 E12.49898
G1 X137.276 Y166.139 E12.529
G1 X136.382 Y166.007 E12.55905
G1 X135.504 Y165.798 E12.58907
G1 X134.647 Y165.511 E12.61913
G1 X133.82 Y165.15 E12.64914
G1 X133.027 Y164.717 E12.6792
G1 X132.276 Y164.216 E12.70922
G1 X131.572 Y163.65 E12.73927
G1 X130.921 Y163.024 E12.7693
G1 X130.328 Y162.343 E12.79934
G1 X129.798 Y161.612 E12.82937
G1 X129.334 Y160.837 E12.85941
G1 X128.94 Y160.024 E12.88946
G1 X128.62 Y159.18 E12.91948
G1 X128.376 Y158.31 E12.94954
G1 X128.21 Y157.422 E12.97958
G1 X128.113 Y156.267 E13.01813
G1 X128.104 Y155.934 E13.02921
G1 X128.1 Y155.658 E13.03839
G1 X128.101 Y144.536 E13.40831
G1 X128.11 Y143.871 E13.43043
G1 X128.162 Y142.969 E13.46048
G1 X128.294 Y142.076 E13.49051
G1 X128.504 Y141.198 E13.52053
G1 X128.791 Y140.341 E13.55059
G1 X129.153 Y139.514 E13.58062
G1 X129.586 Y138.722 E13.61064
G1 X130.088 Y137.971 E13.64069
G1 X130.655 Y137.267 E13.67075
G1 X131.281 Y136.617 E13.70077
G1 F2700 E8.70077
;MESH:???4V1.STL
G0 F6000 X147.965 Y152.173
G0 X146.53 Y152.173
G0 X146.7 Y154.1
;TYPE:WALL-INNER
G1 F2700 E13.70077
G1 F1200 X155.3 Y154.1 E13.9868
G1 X155.3 Y145.9 E14.25954
G1 X146.7 Y145.9 E14.54557
G1 X146.7 Y154.1 E14.81831
G0 F6000 X147.1 Y153.7
;TYPE:WALL-OUTER
G1 F1200 X154.9 Y153.7 E15.07774
G1 X154.9 Y146.3 E15.32386
G1 X147.1 Y146.3 E15.58329
G1 X147.1 Y153.7 E15.82941
G1 F2700 E10.82941
G0 F6000 X146.8 Y153.7
G0 X155.496 Y154.296
G0 X155.496 Y155.19
G0 X161.1 Y155.4
;TYPE:WALL-INNER
G1 F2700 E15.82941
G1 F1200 X138.9 Y155.4 E16.56779
G1 X138.9 Y144.6 E16.927
G1 X161.1 Y144.6 E17.66537
G1 X161.1 Y155.4 E18.02458
G0 F6000 X161.5 Y155.8
;TYPE:WALL-OUTER
G1 F1200 X138.5 Y155.8 E18.78957
G1 X138.5 Y144.2 E19.17538
G1 X161.5 Y144.2 E19.94037
G1 X161.5 Y155.8 E20.32618
G0 F6000 X161.23 Y155.53
G0 X160.99 Y155.01
G0 X160.71 Y155.01
;TYPE:SKIN
G1 F1200 X139.29 Y155.01 E21.03862
G1 X139.29 Y144.99 E21.37188
G1 X160.71 Y144.99 E22.08432
G1 X160.71 Y155.01 E22.41758
G1 F2700 E17.41758
G0 F6000 X160.99 Y155.01
G0 X155.41 Y155.19
G0 X155.41 Y154.29
G0 X155.69 Y154.49
G1 F2700 E22.41758
G1 F1200 X155.69 Y145.51 E22.71626
G1 X146.31 Y145.51 E23.02824
G1 X146.31 Y154.49 E23.32691
G1 X155.69 Y154.49 E23.63889
G1 F2700 E18.63889
G0 F6000 X155.41 Y154.24
G0 X155.496 Y145.704
G0 X155.496 Y144.81
G0 X160.918 Y144.782
G0 X160.99 Y145.275
G0 X160.549 Y145.275
G1 F2700 E23.63889
G1 F1200 X160.423 Y145.149 E23.64482
G0 F6000 X159.857 Y145.149
G1 F1200 X160.549 Y145.841 E23.67737
G0 F6000 X160.549 Y146.407
G1 F1200 X159.292 Y145.149 E23.73652
G0 F6000 X158.726 Y145.149
G1 F1200 X160.549 Y146.972 E23.82227
G0 F6000 X160.549 Y147.538
G1 F1200 X158.16 Y145.149 E23.93464
G0 F6000 X157.595 Y145.149
G1 F1200 X160.549 Y148.104 E24.07361
G0 F6000 X160.549 Y148.669
G1 F1200 X157.029 Y145.149 E24.23918
G0 F6000 X156.463 Y145.149
G1 F1200 X160.549 Y149.235 E24.43137
G0 F6000 X160.549 Y149.801
G1 F1200 X155.897 Y145.149 E24.65019
G0 F6000 X155.532 Y145.35
G1 F1200 X155.332 Y145.149 E24.65962
G0 F6000 X154.966 Y145.35
G1 F1200 X154.766 Y145.149 E24.66905
G0 F6000 X154.401 Y145.35
G1 F1200 X154.2 Y145.149 E24.6785
G0 F6000 X153.835 Y145.35
G1 F1200 X153.635 Y145.149 E24.68794
G0 F6000 X153.269 Y145.35
G1 F1200 X153.069 Y145.149 E24.69737
G0 F6000 X152.703 Y145.35
G1 F1200 X152.503 Y145.149 E24.7068
G0 F6000 X152.138 Y145.35
G1 F1200 X151.938 Y145.149 E24.71623
G0 F6000 X151.572 Y145.35
G1 F1200 X151.372 Y145.149 E24.72566
G0 F6000 X151.006 Y145.35
G1 F1200 X150.806 Y145.149 E24.73509
G0 F6000 X150.441 Y145.35
G1 F1200 X150.241 Y145.149 E24.74452
G0 F6000 X149.875 Y145.35
G1 F1200 X149.675 Y145.149 E24.75395
G0 F6000 X149.309 Y145.35
G1 F1200 X149.109 Y145.149 E24.76338
G0 F6000 X148.744 Y145.35
G1 F1200 X148.544 Y145.149 E24.77281
G0 F6000 X148.178 Y145.35
G1 F1200 X147.978 Y145.149 E24.78224
G0 F6000 X147.612 Y145.35
G1 F1200 X147.412 Y145.149 E24.79168
G0 F6000 X147.047 Y145.35
G1 F1200 X146.846 Y145.149 E24.80113
G0 F6000 X146.481 Y145.35
G1 F1200 X146.281 Y145.149 E24.81056
G0 F6000 X146.149 Y145.584
G1 F1200 X145.715 Y145.149 E24.831
G0 F6000 X145.149 Y145.149
G1 F1200 X146.149 Y146.149 E24.87804
G0 F6000 X146.149 Y146.715
G1 F1200 X144.584 Y145.149 E24.95167
G0 F6000 X144.018 Y145.149
G1 F1200 X146.149 Y147.281 E25.05193
G0 F6000 X146.149 Y147.846
G1 F1200 X143.452 Y145.149 E25.17879
G0 F6000 X142.887 Y145.149
G1 F1200 X146.149 Y148.412 E25.33225
G0 F6000 X146.149 Y148.978
G1 F1200 X142.321 Y145.149 E25.51233
G0 F6000 X141.755 Y145.149
G1 F1200 X146.149 Y149.543 E25.71901
G0 F6000 X146.149 Y150.109
G1 F1200 X141.19 Y145.149 E25.95229
G0 F6000 X140.624 Y145.149
G1 F1200 X146.149 Y150.675 E26.21219
G0 F6000 X146.149 Y151.24
G1 F1200 X140.058 Y145.149 E26.49869
G0 F6000 X139.493 Y145.149
G1 F1200 X146.149 Y151.806 E26.81179
G0 F6000 X146.149 Y152.372
G1 F1200 X139.449 Y145.672 E27.12694
G0 F6000 X139.449 Y146.238
G1 F1200 X146.149 Y152.938 E27.44209
G0 F6000 X146.149 Y153.503
G1 F1200 X139.449 Y146.803 E27.75724
G0 F6000 X139.449 Y147.369
G1 F1200 X146.149 Y154.069 E28.07238
G0 F6000 X146.149 Y154.635
G1 F1200 X139.449 Y147.935 E28.38753
G0 F6000 X139.449 Y148.5
G1 F1200 X145.798 Y154.849 E28.68617
G0 F6000 X146.164 Y154.649
G1 F1200 X146.364 Y154.849 E28.69558
G0 F6000 X146.73 Y154.649
G1 F1200 X146.929 Y154.849 E28.70496
G0 F6000 X147.295 Y154.649
G1 F1200 X147.495 Y154.849 E28.71437
G0 F6000 X147.861 Y154.649
G1 F1200 X148.061 Y154.849 E28.72378
G0 F6000 X148.427 Y154.649
G1 F1200 X148.626 Y154.849 E28.73316
G0 F6000 X148.993 Y154.649
G1 F1200 X149.192 Y154.849 E28.74254
G0 F6000 X149.558 Y154.649
G1 F1200 X149.758 Y154.849 E28.75195
G0 F6000 X150.124 Y154.649
G1 F1200 X150.323 Y154.849 E28.76133
G0 F6000 X150.69 Y154.649
G1 F1200 X150.889 Y154.849 E28.77072
G0 F6000 X151.255 Y154.649
G1 F1200 X151.455 Y154.849 E28.78013
G0 F6000 X151.821 Y154.649
G1 F1200 X152.02 Y154.849 E28.78951
G0 F6000 X152.387 Y154.649
G1 F1200 X152.586 Y154.849 E28.79889
G0 F6000 X152.952 Y154.649
G1 F1200 X153.152 Y154.849 E28.8083
G0 F6000 X153.518 Y154.649
G1 F1200 X153.717 Y154.849 E28.81768
G0 F6000 X154.084 Y154.649
G1 F1200 X154.283 Y154.849 E28.82707
G0 F6000 X154.649 Y154.649
G1 F1200 X154.849 Y154.849 E28.83648
G0 F6000 X155.215 Y154.649
G1 F1200 X155.414 Y154.849 E28.84586
G0 F6000 X155.781 Y154.649
G1 F1200 X155.98 Y154.849 E28.85524
G0 F6000 X156.546 Y154.849
G1 F1200 X155.849 Y154.152 E28.88803
G0 F6000 X155.849 Y153.586
G1 F1200 X157.112 Y154.849 E28.94744
G0 F6000 X157.677 Y154.849
G1 F1200 X155.849 Y153.02 E29.03344
G0 F6000 X155.849 Y152.455
G1 F1200 X158.243 Y154.849 E29.14605
G0 F6000 X158.809 Y154.849
G1 F1200 X155.849 Y151.889 E29.28528
G0 F6000 X155.849 Y151.323
G1 F1200 X159.374 Y154.849 E29.45111
G0 F6000 X159.94 Y154.849
G1 F1200 X155.849 Y150.757 E29.64356
G0 F6000 X155.849 Y150.192
G1 F1200 X160.506 Y154.849 E29.86261
G0 F6000 X160.549 Y154.326
G1 F1200 X155.849 Y149.626 E30.08368
G0 F6000 X155.849 Y149.06
G1 F1200 X160.549 Y153.761 E30.30478
G0 F6000 X160.549 Y153.195
G1 F1200 X155.849 Y148.495 E30.52585
G0 F6000 X155.849 Y147.929
G1 F1200 X160.549 Y152.629 E30.74693
G0 F6000 X160.549 Y152.064
G1 F1200 X155.849 Y147.363 E30.96803
G0 F6000 X155.849 Y146.798
G1 F1200 X160.549 Y151.498 E31.1891
G0 F6000 X160.549 Y150.932
G1 F1200 X155.849 Y146.232 E31.41017
G0 F6000 X155.849 Y145.666
G1 F1200 X160.549 Y150.366 E31.63125
G0 F6000 X160.99 Y150.366
G0 X160.918 Y155.218
G0 X145.232 Y155.29
G0 X145.232 Y154.849
G1 F1200 X139.449 Y149.066 E31.90326
G0 F6000 X139.449 Y149.632
G1 F1200 X144.666 Y154.849 E32.14865
G0 F6000 X144.101 Y154.849
G1 F1200 X139.449 Y150.197 E32.36747
G0 F6000 X139.449 Y150.763
G1 F1200 X143.535 Y154.849 E32.55966
G0 F6000 X142.969 Y154.849
G1 F1200 X139.449 Y151.329 E32.72523
G0 F6000 X139.449 Y151.895
G1 F1200 X142.404 Y154.849 E32.8642
G0 F6000 X141.838 Y154.849
G1 F1200 X139.449 Y152.46 E32.97657
G0 F6000 X139.449 Y153.026
G1 F1200 X141.272 Y154.849 E33.06232
G0 F6000 X140.707 Y154.849
G1 F1200 X139.449 Y153.592 E33.12147
G0 F6000 X139.449 Y154.157
G1 F1200 X140.141 Y154.849 E33.15402
G0 F6000 X139.575 Y154.849
G1 F1200 X139.449 Y154.723 E33.15995
G0 F6000 X139.1 Y154.723
G1 F2700 E28.15995
;MESH:NONMESH
G0 F300 X139.1 Y154.723 Z0.4
G0 F6000 X139.01 Y154.723
G0 X139.082 Y155.218
G0 X146.7 Y155.19
G0 X146.7 Y154.29
G0 X146.7 Y154.1
;TIME_ELAPSED:65.342418
;LAYER:1
M106 S85
;TYPE:WALL-INNER
;MESH:???4V1.STL
G1 F2700 E33.15995
G1 F1350 X155.3 Y154.1 E33.44598
G1 X155.3 Y145.9 E33.71872
G1 X146.7 Y145.9 E34.00475
