;FLAVOR:Marlin
;TIME:4233
;Filament used:0.889006m
;Layer height: 0.1
;MINX:90.35
;MINY:94.21
;MINZ:0.24
;MAXX:129.8
;MAXY:125.799
;MAXZ:12.69
                               
;Creality Print GCode Generated by CXEngine:NO_MAGE_VERSION_GIT_HEAD_BRANCH
;CXEngine Release Time:2022-09-30 09:53:04
;Gcode Generated Time:2023-01-14 05:09:29
;----------Machine Config--------------
;Machine Name:Creality Ender-3
;Machine Height:250
;Machine Width:220
;Machine Depth:220
;Material name:cxsw
;Number of Extruders:1
;ExtruderParams[0] Nozzle Diameter1000
;----------Profile Config---------------
;Engine Version:275f99b
;Engine Release Time:2022-09-30 09:42:18
;Layer Height:0.1
;Wall Thickness:0.8
;Top/Bottom Thickness:0.5
;Out Wall Line Width:0.4
;Inner Wall Line Width:0.4
;Inital Layer Height:100
;Wall Line Count:2
;Infill Line Distance:2
;Infill Pattern:grid
;Infill Sparse Density:20
;Infill Wipe Distance:0
;Print Temperature:200
;Bed Temperature:60
;Support Enable:false
;Support Density:30
;Support Angle:60
;Adhesion Type:simpleraft
;machine is belt:false
;machine belt offset:10
;machine belt offset Y:0
;Raft Base Line Spacing:1.6
;Wait Heatup Sync:true
;----------Shell Config----------------
;Outer Wall Wipe Distance:200
;Outer Inset First:false
;Infill Before Walls:false
;Infill Overlap:0.16
;Fill Gaps Between Walls:everywhere
;Minimum Infill Area:1
;Top Surface Skin Layer:0
;Top Layers:4
;Z Seam Alignment:sharpest_corner
;Seam Corner Preference:z_seam_corner_inner
;Z Seam X:110
;Z Seam Y:110
;Horizontal Expansion:0
;Top/Bottom Pattern:zigzag
;Ironing Pattern:zigzag
;Vase Model:false
;----------Support Config----------------
;Support Type:everywhere
;Support Pattern:zigzag
;Support Infill Layer Thickness:0.1
;Minimum Support Area:5
;Enable Support Roof:false
;Support Roof Thickness:0.8
;Support Roof Pattern:lines
;Connect Support Lines:0
;Connect Support ZigZags:1
;Minimum Support X/Y Distance:0.2
;Support Line Distance:1.33
; ---------PrintSpeed & Travel----------
;Enable Print Cool:true
;Avoid Printed Parts Traveling:true
;Enable Retraction:true
;Retraction Distance:8
;Retraction Speed:100
;Retraction Prime Speed:100
;Maximum Retraction Count:100
;Minimum Extrusion Distance Window:1
;Z Hop When Retracted:false
;Z Hop Height:0.2
;Retract Before Outer Wall:true
;Print Speed:50
;Infill Speed:50

;Prime Tower Speed:50
;Travel Speed:120
;Initial Layer Speed:25
;Skirt/Brim Speed:25
;Combing Mode:infill
; --------SpecialModel&Mesh Fixes--------
;Union Overlapping Volum:true
;Remove All Holes:false
;Maximum Travel Resolution:0.6
;Maximum Deviation:0.05
;Maximum Model Angle:0.872665
;IS Mold Print:false
;Make Overhang Printable:false
;Enable Coasting:false
;Coasting Volumes:0.06
;Coasting Speed:0.9
;Raft AirGap:0.25
;Layer0 ZOverLap:0.13
;---------------------End of Head--------------------------
M140 S60
M105
M104 S200
M105
M109 S200
M105
M190 S60
M82 ;absolute extrusion mode
M220 S100 ;Reset Feedrate
M221 S100 ;Reset Flowrate

G28 ;Home

G92 E0 ;Reset Extruder
G1 Z2.0 F3000 ;Move Z Axis up
G1 X10.1 Y20 Z0.28 F5000.0 ;Move to start position
G1 X10.1 Y145.0 Z0.28 F1500.0 E15 ;Draw the first line
G1 X10.4 Y145.0 Z0.28 F5000.0 ;Move to side a little
G1 X10.4 Y20 Z0.28 F1500.0 E30 ;Draw the second line
G92 E0  ;Reset Extruder
G1 E-1.0000 F1800 ;Retract a bit
G1 Z2.0 F3000 ;Move Z Axis up
G1 E0.0000 F1800 

G92 E0
G92 E0
G1 F6000 E-8

;LAYER_COUNT:118

;LAYER:-4
M107
G0 F7200 X91.2 Y102.08 Z0.24
;TYPE:SUPPORT-INTERFACE
G1 F6000 E0
G1 F1200 X91.2 Y117.933 E1.392
G1 X91.167 Y117.809 E1.40327
G1 X91.03 Y117.021 E1.4735
G1 X90.95 Y115.838 E1.57761
G1 X90.953 Y104.093 E2.6089
G1 X90.998 Y103.252 E2.68285
G1 X91.122 Y102.409 E2.75767
G1 X91.31 Y101.618 E2.82906
G1 X91.567 Y100.849 E2.90025
G1 X91.896 Y100.1 E2.97209
G1 X92.307 Y99.351 E3.0471
G1 X92.769 Y98.668 E3.11951
G1 X92.8 Y98.629 E3.12388
G1 X92.8 Y121.364 E5.12017
G1 X92.909 Y121.517 E5.13666
G1 X93.447 Y122.144 E5.20921
G1 X94.052 Y122.732 E5.28329
G1 X94.4 Y123.013 E5.32256
G1 X94.4 Y96.98 E7.60844
G1 X94.486 Y96.907 E7.61834
G1 X95.146 Y96.437 E7.68949
G1 X95.835 Y96.031 E7.75971
G1 X96 Y95.953 E7.77573
G1 X96 Y124.049 E10.24275
G1 X96.096 Y124.102 E10.25238
G1 X96.841 Y124.429 E10.32382
G1 X97.6 Y124.683 E10.3941
G1 X97.6 Y95.324 E12.97202
G1 X98.187 Y95.168 E13.02535
G1 X98.964 Y95.031 E13.09463
G1 X99.2 Y95.014 E13.1154
G1 X99.2 Y124.994 E15.74785
G1 X99.245 Y125.001 E15.75185
G1 X100.103 Y125.047 E15.82729
G1 X100.8 Y125.047 E15.8885
G1 X100.8 Y94.951 E18.53113
G1 X102.4 Y94.952 E18.67162
G1 X102.4 Y125.047 E21.31416
G1 X104 Y125.048 E21.45465
G1 X104 Y94.953 E24.0972
G1 X105.6 Y94.953 E24.23769
G1 X105.6 Y125.049 E26.88032
G1 X107.2 Y125.049 E27.02081
G1 X107.2 Y95.03 E29.65668
G1 X107.336 Y95.037 E29.66864
G1 X108.053 Y95.003 E29.73167
G1 X108.8 Y94.887 E29.79805
G1 X108.8 Y125.125 E32.45315
G1 X109.081 Y125.151 E32.47793
G1 X109.953 Y125.197 E32.5546
G1 X110.4 Y125.197 E32.59385
G1 X110.4 Y94.802 E35.26274
G1 X112 Y94.806 E35.40323
G1 X112 Y125.196 E38.07168
G1 X113.6 Y125.195 E38.21217
G1 X113.6 Y94.809 E40.88026
G1 X115.2 Y94.813 E41.02075
G1 X115.2 Y125.194 E43.68841
G1 X116.8 Y125.193 E43.8289
G1 X116.8 Y94.816 E46.49621
G1 X118.4 Y94.82 E46.6367
G1 X118.4 Y125.192 E49.30357
G1 X120 Y125.191 E49.44406
G1 X120 Y94.823 E52.11057
G1 X120.059 Y94.823 E52.11575
G1 X120.936 Y94.873 E52.19288
G1 X121.6 Y94.972 E52.25183
G1 X121.6 Y125.044 E54.89236
G1 X121.966 Y124.98 E54.92498
G1 X122.754 Y124.769 E54.99661
G1 X123.2 Y124.606 E55.03831
G1 X123.2 Y95.404 E57.60244
G1 X123.32 Y95.444 E57.61355
G1 X124.098 Y95.789 E57.68828
G1 X124.798 Y96.175 E57.75847
G0 F7200 X124.8 Y96.177
G1 F1200 X124.8 Y123.826 E60.18624
G1 X124.999 Y123.709 E60.20651
G1 X125.807 Y123.118 E60.29441
G1 X126.292 Y122.693 E60.35103
G1 X126.865 Y122.104 E60.42318
G1 X127.375 Y121.477 E60.49415
G1 X127.824 Y120.808 E60.5649
G1 X128 Y120.491 E60.59673
G1 X128 Y99.503 E62.43962
G1 X127.719 Y99.023 E62.48846
G1 X127.235 Y98.346 E62.56154
G1 X126.692 Y97.714 E62.6347
G1 X126.4 Y97.43 E62.67047
G1 X126.4 Y122.582 E64.87898
G0 F600 X126.4 Y122.582 Z0.47
G0 F7200 X124.479 Y124.479
;TIME_ELAPSED:42.373233

;LAYER:-3
;TYPE:SUPPORT
G1 F1800 X125.217 Y124.045 E64.94448
G1 X125.355 Y123.941 E64.95769
G1 X96.64 Y95.226 E68.06423
G1 X97.254 Y95.002 E68.11422
G1 X97.709 Y94.881 E68.15024
G1 X126.164 Y123.336 E71.22864
G1 X126.567 Y122.984 E71.26958
G1 X126.892 Y122.649 E71.30528
G1 X98.882 Y94.639 E74.33554
G1 X98.915 Y94.634 E74.33809
G1 X100.144 Y94.55 E74.43233
G1 X100.207 Y94.55 E74.43715
G1 X127.55 Y121.893 E77.39525
G1 X127.699 Y121.711 E77.41324
G1 X128.134 Y121.063 E77.47295
G1 X101.622 Y94.551 E80.34115
G1 X103.037 Y94.552 E80.44939
G1 X128.634 Y120.148 E83.21855
G1 X128.932 Y119.473 E83.27499
G1 X129.042 Y119.143 E83.3016
G1 X104.451 Y94.552 E85.96198
G1 X105.866 Y94.552 E86.07022
G1 X129.354 Y118.04 E88.61127
G1 X129.41 Y117.809 E88.62946
G1 X129.536 Y116.956 E88.69542
G1 X129.543 Y116.815 E88.70622
G1 X107.363 Y94.635 E91.10576
G1 X108.013 Y94.604 E91.15554
G1 X108.647 Y94.505 E91.20463
G1 X129.584 Y115.442 E93.46969
G1 X129.586 Y114.03 E93.57771
G1 X109.961 Y94.405 E95.70084
G1 X110.022 Y94.401 E95.70552
G1 X111.374 Y94.404 E95.80894
G1 X129.587 Y112.617 E97.77931
G1 X129.59 Y111.205 E97.88733
G1 X112.792 Y94.407 E99.70462
G1 X114.209 Y94.41 E99.81302
G1 X129.592 Y109.793 E101.47723
G1 X129.594 Y108.381 E101.58524
G1 X115.626 Y94.413 E103.09637
G1 X117.044 Y94.417 E103.20485
G1 X129.596 Y106.968 E104.56273
G1 X129.597 Y105.556 E104.67075
G1 X118.461 Y94.419 E105.87555
G1 X119.879 Y94.423 E105.98402
G1 X129.599 Y104.144 E107.03563
G1 X129.6 Y104.031 E107.04428
G1 X129.518 Y102.805 E107.13828
G1 X129.376 Y101.984 E107.20201
G1 X129.152 Y101.135 E107.26918
G1 X128.996 Y100.711 E107.30374
G1 X123.3 Y95.016 E107.91991
G1 X122.67 Y94.803 E107.97079
G1 X121.831 Y94.601 E108.0368
G1 X121.408 Y94.538 E108.06952
G1 X129.484 Y102.614 E108.94322
G0 F7200 X124.478 Y124.478
G1 F1800 X95.666 Y95.666 E112.06024
G1 X95.648 Y95.676 E112.06182
G1 X94.929 Y96.1 E112.12567
G1 X94.786 Y96.201 E112.13907
G1 X123.504 Y124.918 E115.24587
G1 X122.886 Y125.147 E115.29628
G1 X122.436 Y125.265 E115.33187
G1 X93.982 Y96.811 E118.41017
G1 X93.574 Y97.162 E118.45134
G1 X93.25 Y97.493 E118.48677
G1 X121.263 Y125.505 E121.5173
G1 X121.202 Y125.518 E121.52207
G1 X120.388 Y125.59 E121.58459
G1 X119.932 Y125.589 E121.61947
G1 X92.592 Y98.248 E124.5773
G1 X92.451 Y98.424 E124.59455
G1 X92.007 Y99.078 E124.65502
G1 X118.518 Y125.589 E127.52311
G1 X117.106 Y125.591 E127.63113
G1 X91.505 Y99.991 E130.40072
G1 X91.195 Y100.701 E130.45998
G1 X91.095 Y100.995 E130.48374
G1 X115.692 Y125.592 E133.14476
G1 X114.279 Y125.592 E133.25285
G1 X90.784 Y102.097 E135.79466
G1 X90.728 Y102.336 E135.81344
G1 X90.6 Y103.205 E135.88063
G1 X90.593 Y103.321 E135.88952
G1 X112.866 Y125.594 E138.29913
G1 X111.452 Y125.594 E138.40729
G1 X90.552 Y104.694 E140.66836
G1 X90.552 Y106.108 E140.77653
G1 X110.039 Y125.595 E142.88473
G1 X109.951 Y125.597 E142.89146
G1 X109.048 Y125.549 E142.96064
G1 X108.529 Y125.5 E143.00052
G1 X90.551 Y107.521 E144.94552
G1 X90.551 Y108.936 E145.05377
G1 X107.063 Y125.448 E146.84012
G1 X105.648 Y125.447 E146.94836
G1 X90.55 Y110.349 E148.58174
G1 X90.55 Y111.763 E148.68991
G1 X104.234 Y125.447 E150.17031
G1 X102.819 Y125.447 E150.27855
G1 X90.549 Y113.177 E151.60598
G1 X90.549 Y114.591 E151.71415
G1 X101.404 Y125.446 E152.8885
G1 X100.101 Y125.447 E152.98818
G1 X99.984 Y125.44 E152.99714
G1 X90.56 Y116.016 E154.01668
G1 X90.632 Y117.07 E154.09749
G1 X90.778 Y117.905 E154.16234
G1 X91.001 Y118.742 E154.2286
G1 X91.294 Y119.542 E154.29378
G1 X91.326 Y119.61 E154.29953
G1 X96.377 Y124.662 E154.84602
G1 X96.695 Y124.802 E154.8726
G1 X97.507 Y125.074 E154.93811
G1 X98.336 Y125.272 E155.00331
G1 X98.411 Y125.281 E155.00909
G1 X90.723 Y117.593 E155.84082
G0 F600 X90.723 Y117.593 Z0.62
G0 F7200 X99.228 Y125.6
;TIME_ELAPSED:85.169504

;LAYER:-2
;TYPE:SUPPORT-INTERFACE
G1 F2400 X121.889 Y125.6 E156.4061
G1 X121.226 Y125.717 E156.42289
G1 X120.003 Y125.799 E156.45347
G1 X109.942 Y125.797 E156.70444
G1 X109.024 Y125.747 E156.72737
G1 X107.963 Y125.65 E156.75395
G1 X100.092 Y125.647 E156.95029
G1 X99.174 Y125.597 E156.97323
G1 X98.3 Y125.469 E156.99526
G1 X97.444 Y125.264 E157.01722
G1 X97.252 Y125.2 E157.02227
G1 X123.318 Y125.2 E157.67249
G1 X123.755 Y125.041 E157.68409
G1 X124.264 Y124.8 E157.69813
G1 X96.192 Y124.8 E158.39839
G1 X95.814 Y124.633 E158.4087
G1 X95.389 Y124.4 E158.42079
G1 X125.006 Y124.4 E159.15959
G1 X125.313 Y124.221 E159.16846
G1 X125.62 Y124 E159.17789
G1 X94.732 Y124 E159.9484
G1 X94.313 Y123.716 E159.96102
G1 X94.168 Y123.6 E159.96566
G1 X126.155 Y123.6 E160.76357
G1 X126.62 Y123.2 E160.77887
G1 X93.675 Y123.2 E161.60069
G1 X93.648 Y123.177 E161.60158
G1 X93.259 Y122.8 E161.61509
G1 X127.022 Y122.8 E162.45731
G1 X127.303 Y122.514 E162.46731
G1 X127.394 Y122.4 E162.47095
G1 X92.874 Y122.4 E163.33206
G1 X92.532 Y122 E163.34518
G1 X127.719 Y122 E164.22293
G1 X127.855 Y121.836 E164.22824
G1 X128.012 Y121.6 E164.23531
G1 X92.23 Y121.6 E165.1279
G1 X91.945 Y121.2 E165.14015
G1 X128.281 Y121.2 E166.04655
G1 X128.334 Y121.124 E166.04887
G1 X128.512 Y120.8 E166.05809
G1 X91.707 Y120.8 E166.97619
G1 X91.492 Y120.431 E166.98685
G1 X91.476 Y120.4 E166.98772
G1 X128.734 Y120.4 E167.91712
G1 X128.765 Y120.348 E167.91863
G1 X128.916 Y120 E167.92809
G1 X91.287 Y120 E168.86675
G1 X91.114 Y119.631 E168.87692
G1 X91.101 Y119.6 E168.87776
G1 X129.093 Y119.6 E169.82547
G1 X129.121 Y119.54 E169.82712
G1 X129.233 Y119.2 E169.83605
G1 X90.954 Y119.2 E170.79093
G1 X90.814 Y118.813 E170.80119
G1 X90.81 Y118.8 E170.80153
G1 X129.368 Y118.8 E171.76337
G1 X129.403 Y118.699 E171.76603
G1 X129.474 Y118.4 E171.7737
G1 X90.703 Y118.4 E172.74084
G1 X90.596 Y118 E172.75117
G1 X129.569 Y118 E173.72336
G1 X129.603 Y117.862 E173.7269
G1 X129.641 Y117.6 E173.73351
G1 X90.522 Y117.6 E174.70934
G1 X90.452 Y117.2 E174.71946
G1 X129.701 Y117.2 E175.69854
G1 X129.734 Y116.983 E175.70401
G1 X129.743 Y116.8 E175.70858
G1 X90.413 Y116.8 E176.68967
G1 X90.387 Y116.4 E176.69967
G1 X129.765 Y116.4 E177.68196
G1 X129.784 Y116.061 E177.69043
G1 X129.784 Y116 E177.69195
G1 X90.36 Y116 E178.67539
G1 X90.35 Y115.85 E178.67914
G1 X90.351 Y115.6 E178.68537
G1 X129.784 Y115.6 E179.66903
G1 X129.785 Y115.2 E179.67901
G1 X90.351 Y115.2 E180.6627
G1 X90.351 Y114.8 E180.67267
G1 X129.785 Y114.8 E181.65636
G1 X129.786 Y114.4 E181.66634
G1 X90.351 Y114.4 E182.65005
G1 X90.351 Y114 E182.66003
G1 X129.786 Y114 E183.64374
G1 X129.787 Y113.6 E183.65371
G1 X90.351 Y113.6 E184.63745
G1 X90.351 Y113.2 E184.64743
G1 X129.787 Y113.2 E185.63116
G1 X129.788 Y112.8 E185.64114
G1 X90.351 Y112.8 E186.6249
G1 X90.351 Y112.4 E186.63488
G1 X129.788 Y112.4 E187.61864
G1 X129.789 Y112 E187.62862
G1 X90.351 Y112 E188.6124
G1 X90.352 Y111.6 E188.62238
G1 X129.789 Y111.6 E189.60614
G1 X129.79 Y111.2 E189.61612
G1 X90.352 Y111.2 E190.5999
G1 X90.352 Y110.8 E190.60988
G1 X129.79 Y110.8 E191.59367
G1 X129.791 Y110.4 E191.60364
G1 X90.352 Y110.4 E192.58745
G1 X90.352 Y110 E192.59743
G1 X129.792 Y110 E193.58127
G1 X129.792 Y109.6 E193.59124
G1 X90.352 Y109.6 E194.57508
G1 X90.352 Y109.2 E194.58506
G1 X129.793 Y109.2 E195.56892
G1 X129.793 Y108.8 E195.57889
G1 X90.352 Y108.8 E196.56275
G1 X90.352 Y108.4 E196.57273
G1 X129.794 Y108.4 E197.55662
G1 X129.794 Y108 E197.5666
G1 X90.353 Y108 E198.55046
G1 X90.353 Y107.6 E198.56043
G1 X129.795 Y107.6 E199.54432
G1 X129.795 Y107.2 E199.5543
G1 X90.353 Y107.2 E200.53818
G1 X90.353 Y106.8 E200.54816
G1 X129.796 Y106.8 E201.53207
G1 X129.796 Y106.4 E201.54205
G1 X90.353 Y106.4 E202.52596
G1 X90.353 Y106 E202.53593
G1 X129.797 Y106 E203.51987
G1 X129.797 Y105.6 E203.52985
G1 X90.353 Y105.6 E204.51378
G1 X90.353 Y105.2 E204.52376
G1 X129.798 Y105.2 E205.50772
G1 X129.798 Y104.8 E205.5177
G1 X90.353 Y104.8 E206.50166
G1 X90.353 Y104.4 E206.51163
G1 X129.799 Y104.4 E207.49562
G1 X129.8 Y104.031 E207.50482
G1 X129.798 Y104 E207.5056
G1 X90.358 Y104 E208.48943
G1 X90.38 Y103.6 E208.49943
G1 X129.772 Y103.6 E209.48206
G1 X129.745 Y103.2 E209.49206
G1 X90.401 Y103.2 E210.47351
G1 X90.402 Y103.178 E210.47405
G1 X90.458 Y102.8 E210.48359
G1 X129.718 Y102.8 E211.46293
G1 X129.717 Y102.787 E211.46326
G1 X129.651 Y102.4 E211.47305
G1 X90.516 Y102.4 E212.44928
G1 X90.529 Y102.309 E212.45157
G1 X90.603 Y102 E212.4595
G1 X129.582 Y102 E213.43183
G1 X129.569 Y101.93 E213.43361
G1 X129.482 Y101.6 E213.44212
G1 X90.699 Y101.6 E214.40957
G1 X90.736 Y101.444 E214.41356
G1 X90.818 Y101.2 E214.41999
G1 X129.376 Y101.2 E215.38182
G1 X129.339 Y101.064 E215.38534
G1 X129.243 Y100.8 E215.39234
G1 X90.953 Y100.8 E216.34749
G1 X91.015 Y100.613 E216.3524
G1 X91.109 Y100.4 E216.35821
G1 X129.096 Y100.4 E217.3058
G1 X129.038 Y100.244 E217.30995
G1 X128.924 Y100 E217.31667
G1 X91.286 Y100 E218.25556
G1 X91.367 Y99.814 E218.26062
G1 X91.485 Y99.6 E218.26671
G1 X128.736 Y99.6 E219.19594
G1 X128.663 Y99.446 E219.20019
G1 X128.52 Y99.2 E219.20729
G1 X91.704 Y99.2 E220.12567
G1 X91.783 Y99.056 E220.12977
G1 X91.956 Y98.8 E220.13748
G1 X128.285 Y98.8 E221.04371
G1 X128.23 Y98.708 E221.04638
G1 X128.012 Y98.4 E221.05579
G1 X92.226 Y98.4 E221.94848
G1 X92.283 Y98.314 E221.95105
G1 X92.538 Y98 E221.96114
G1 X127.727 Y98 E222.83894
G1 X127.712 Y97.981 E222.83954
G1 X127.387 Y97.6 E222.85203
G1 X92.87 Y97.6 E223.71306
G1 X93.259 Y97.2 E223.72698
G1 X127.024 Y97.2 E224.56925
G1 X126.614 Y96.8 E224.58354
G1 X93.689 Y96.8 E225.40486
G1 X94.107 Y96.441 E225.4186
G1 X94.165 Y96.4 E225.42037
G1 X126.142 Y96.4 E226.21804
G1 X125.843 Y96.158 E226.22764
G1 X125.611 Y96 E226.23464
G1 X94.725 Y96 E227.00509
G1 X94.824 Y95.929 E227.00813
G1 X95.385 Y95.6 E227.02436
G1 X125 Y95.6 E227.76311
G1 X124.348 Y95.242 E227.78166
G1 X124.256 Y95.2 E227.78418
G1 X96.187 Y95.2 E228.48437
G1 X96.369 Y95.114 E228.48939
G1 X97.187 Y94.814 E228.51112
G1 X97.24 Y94.8 E228.51249
G1 X123.289 Y94.8 E229.16229
G1 X122.734 Y94.614 E229.17689
G1 X121.884 Y94.408 E229.1987
G1 X121.838 Y94.4 E229.19987
G1 X108.021 Y94.4 E229.54454
