;FLAVOR:Marlin
;TIME:911
;Filament used: 0.40263m
;Layer height: 0.2
;MINX:130.02
;MINY:130.019
;MINZ:0.2
;MAXX:169.988
;MAXY:169.964
;MAXZ:11
;Generated with Creality Slicer 4.8.2-191
M140 S50
M105
M190 S50
M104 S200
M105
M109 S200
M82 ;absolute extrusion mode

G28 ;Home

G92 E0 ;Reset Extruder
G1 Z2.0 F3000 ;Move Z Axis up
G1 X10.1 Y20 Z0.28 F5000.0 ;Move to start position
G1 X10.1 Y200.0 Z0.28 F1500.0 E15 ;Draw the first line
G1 X10.4 Y200.0 Z0.28 F5000.0 ;Move to side a little
G1 X10.4 Y20 Z0.28 F1500.0 E30 ;Draw the second line
G92 E0 ;Reset Extruder
G1 Z2.0 F3000 ;Move Z Axis up

G92 E0
G92 E0
G1 F2700 E-5
;LAYER_COUNT:55
;LAYER:0
M107
G0 F6000 X135.817 Y135.912 Z0.2
;TYPE:SKIRT
G1 F2700 E0
G1 F1200 X135.855 Y135.878 E0.0017
G1 X136.04 Y135.697 E0.0103
G1 X136.332 Y135.421 E0.02367
G1 X136.774 Y135.019 E0.04354
G1 X137.245 Y134.615 E0.06418
G1 X137.494 Y134.413 E0.07484
G1 X137.879 Y134.114 E0.09106
G1 X138.418 Y133.715 E0.11336
G1 X138.861 Y133.403 E0.13138
G1 X139.267 Y133.142 E0.14744
G1 X139.579 Y132.95 E0.15962
G1 X139.845 Y132.791 E0.16993
G1 X140.285 Y132.537 E0.18683
G1 X140.865 Y132.225 E0.20873
G1 X141.174 Y132.072 E0.2202
G1 X141.36 Y131.983 E0.22706
G1 X141.645 Y131.852 E0.23749
G1 X142.215 Y131.599 E0.25823
G1 X142.765 Y131.373 E0.27801
G1 X143.169 Y131.222 E0.29235
G1 X143.37 Y131.151 E0.29944
G1 X143.693 Y131.043 E0.31077
G1 X144.289 Y130.853 E0.33158
G1 X144.819 Y130.698 E0.34994
G1 X145.256 Y130.589 E0.36492
G1 X145.561 Y130.519 E0.37533
G1 X145.791 Y130.469 E0.38316
G1 X146.356 Y130.352 E0.40235
G1 X147.135 Y130.219 E0.42864
G1 X147.458 Y130.176 E0.43947
G1 X147.879 Y130.128 E0.45357
G1 X148.41 Y130.078 E0.47131
G1 X149.248 Y130.032 E0.49922
G1 X149.931 Y130.02 E0.52194
G1 X150.272 Y130.019 E0.53328
G1 X150.644 Y130.024 E0.54566
G1 X151.494 Y130.068 E0.57396
G1 X152.032 Y130.117 E0.59193
G1 X152.361 Y130.152 E0.60294
G1 X152.723 Y130.196 E0.61507
G1 X153.676 Y130.355 E0.6472
G1 X154.299 Y130.487 E0.66838
G1 X154.626 Y130.561 E0.67953
G1 X155.04 Y130.662 E0.69371
G1 X155.604 Y130.816 E0.71315
G1 X155.893 Y130.903 E0.72319
G1 X156.407 Y131.072 E0.74119
G1 X156.992 Y131.28 E0.76184
G1 X157.559 Y131.499 E0.78205
G1 X157.726 Y131.569 E0.78808
G1 X158.007 Y131.691 E0.79826
G1 X158.425 Y131.883 E0.81356
G1 X158.972 Y132.145 E0.83374
G1 X159.494 Y132.413 E0.85325
G1 X159.894 Y132.633 E0.86844
G1 X160.271 Y132.855 E0.88299
G1 X160.774 Y133.164 E0.90262
G1 X161.558 Y133.694 E0.9341
G1 X161.973 Y134.001 E0.95127
G1 X162.246 Y134.21 E0.9627
G1 X162.64 Y134.521 E0.9794
G1 X163.06 Y134.869 E0.99754
G1 X163.362 Y135.138 E1.01099
G1 X163.665 Y135.418 E1.02471
G1 X163.889 Y135.631 E1.03499
G1 X164.247 Y135.981 E1.05164
G1 X164.889 Y136.665 E1.08285
G1 X165.195 Y137.02 E1.09843
G1 X165.371 Y137.23 E1.10755
G1 X165.675 Y137.601 E1.1235
G1 X166.075 Y138.119 E1.14527
G1 X166.146 Y138.217 E1.14929
G1 X166.427 Y138.625 E1.16577
G1 X166.604 Y138.894 E1.17648
G1 X166.905 Y139.378 E1.19544
G1 X167.589 Y140.545 E1.24043
G1 X168.05 Y141.419 E1.27329
G1 X168.156 Y141.644 E1.28157
G1 X168.347 Y142.072 E1.29715
G1 X168.46 Y142.341 E1.30686
G1 X168.587 Y142.658 E1.31822
G1 X168.769 Y143.132 E1.3351
G1 X169.054 Y143.974 E1.36467
G1 X169.183 Y144.413 E1.37989
G1 X169.262 Y144.697 E1.38969
G1 X169.4 Y145.218 E1.40762
G1 X169.507 Y145.66 E1.42274
G1 X169.53 Y145.764 E1.42629
G1 X169.617 Y146.196 E1.44094
G1 X169.678 Y146.536 E1.45243
G1 X169.727 Y146.835 E1.46251
G1 X169.813 Y147.404 E1.48165
G1 X169.89 Y148.027 E1.50253
G1 X169.923 Y148.431 E1.51601
G1 X169.956 Y148.964 E1.53377
G1 X169.98 Y149.543 E1.55305
G1 X169.988 Y150.166 E1.57377
G1 X169.979 Y150.521 E1.58558
G1 X169.957 Y151.051 E1.60322
G1 X169.93 Y151.48 E1.61752
G1 X169.907 Y151.765 E1.62703
G1 X169.833 Y152.434 E1.64942
G1 X169.723 Y153.205 E1.67532
G1 X169.663 Y153.578 E1.68789
G1 X169.634 Y153.741 E1.69339
G1 X169.419 Y154.699 E1.72605
G1 X169.198 Y155.512 E1.75407
G1 X169.09 Y155.885 E1.76699
G1 X169.019 Y156.114 E1.77496
G1 X168.803 Y156.741 E1.79702
G1 X168.515 Y157.504 E1.82414
G1 X168.241 Y158.164 E1.84791
G1 X168.138 Y158.391 E1.8562
G1 X167.895 Y158.893 E1.87475
G1 X167.721 Y159.23 E1.88737
G1 X167.6 Y159.458 E1.89595
G1 X167.347 Y159.921 E1.9135
G1 X167.065 Y160.406 E1.93216
G1 X166.998 Y160.515 E1.93641
G1 X166.792 Y160.839 E1.94918
G1 X166.636 Y161.074 E1.95857
G1 X166.479 Y161.303 E1.9678
G1 X166.151 Y161.771 E1.98681
G1 X165.693 Y162.379 E2.01213
G1 X165.472 Y162.652 E2.02381
G1 X165.219 Y162.953 E2.03689
G1 X164.809 Y163.424 E2.05766
G1 X164.352 Y163.918 E2.08004
G1 X164.11 Y164.159 E2.0914
G1 X163.874 Y164.388 E2.10234
G1 X163.655 Y164.596 E2.11238
G1 X163.275 Y164.945 E2.12954
G1 X162.8 Y165.357 E2.15046
G1 X162.498 Y165.6 E2.16335
G1 X162.244 Y165.798 E2.17406
G1 X162.019 Y165.968 E2.18344
G1 X161.582 Y166.291 E2.20151
G1 X160.98 Y166.706 E2.22583
G1 X160.707 Y166.881 E2.23662
G1 X160.318 Y167.119 E2.25179
G1 X159.818 Y167.411 E2.27104
G1 X159.02 Y167.834 E2.30108
G1 X158.506 Y168.08 E2.32004
G1 X158.193 Y168.224 E2.3315
G1 X157.721 Y168.432 E2.34865
G1 X157.153 Y168.663 E2.36905
G1 X156.956 Y168.737 E2.37604
G1 X156.601 Y168.864 E2.38858
G1 X156.358 Y168.945 E2.3971
G1 X155.764 Y169.135 E2.41785
G1 X155.178 Y169.305 E2.43814
G1 X154.767 Y169.408 E2.45223
G1 X154.313 Y169.512 E2.46772
G1 X153.703 Y169.64 E2.48846
G1 X152.742 Y169.797 E2.52084
G1 X152.296 Y169.85 E2.53578
G1 X152.008 Y169.881 E2.54541
G1 X151.661 Y169.913 E2.557
G1 X150.694 Y169.959 E2.5892
G1 X149.407 Y169.964 E2.63201
G1 X148.497 Y169.93 E2.6623
G1 X148.282 Y169.913 E2.66947
G1 X147.754 Y169.858 E2.68713
G1 X147.183 Y169.785 E2.70627
G1 X146.632 Y169.7 E2.72482
G1 X146.223 Y169.622 E2.73867
G1 X145.843 Y169.542 E2.75158
G1 X145.561 Y169.479 E2.76119
G1 X144.952 Y169.334 E2.78201
G1 X144.263 Y169.146 E2.80577
G1 X143.961 Y169.053 E2.81628
G1 X143.535 Y168.912 E2.8312
G1 X143.048 Y168.74 E2.84838
G1 X142.184 Y168.393 E2.87935
G1 X141.668 Y168.16 E2.89818
G1 X141.395 Y168.033 E2.90819
G1 X140.964 Y167.824 E2.92412
G1 X140.373 Y167.514 E2.94632
G1 X140.124 Y167.374 E2.95582
G1 X139.729 Y167.141 E2.97108
G1 X139.168 Y166.794 E2.99302
G1 X138.442 Y166.305 E3.02213
G1 X138.088 Y166.045 E3.03674
G1 X137.821 Y165.842 E3.04789
G1 X137.407 Y165.518 E3.06538
G1 X136.907 Y165.102 E3.08701
G1 X136.577 Y164.809 E3.10169
G1 X136.263 Y164.516 E3.11597
G1 X135.868 Y164.135 E3.13423
G1 X135.206 Y163.437 E3.16622
G1 X134.805 Y162.976 E3.18655
G1 X134.593 Y162.726 E3.19745
G1 X134.34 Y162.417 E3.21073
G1 X133.9 Y161.842 E3.23481
G1 X133.72 Y161.59 E3.24511
G1 X133.486 Y161.249 E3.25887
G1 X133.113 Y160.683 E3.28141
G1 X132.681 Y159.97 E3.30914
G1 X132.47 Y159.59 E3.3236
G1 X132.288 Y159.249 E3.33645
G1 X132.037 Y158.757 E3.35482
G1 X131.769 Y158.192 E3.37562
G1 X131.594 Y157.787 E3.3903
G1 X131.497 Y157.552 E3.39875
G1 X131.39 Y157.282 E3.40841
G1 X131.184 Y156.743 E3.4276
G1 X130.895 Y155.882 E3.45781
G1 X130.765 Y155.434 E3.47333
G1 X130.675 Y155.105 E3.48467
G1 X130.563 Y154.669 E3.49964
G1 X130.425 Y154.063 E3.52031
G1 X130.348 Y153.656 E3.53409
G1 X130.31 Y153.437 E3.54148
G1 X130.263 Y153.145 E3.55132
G1 X130.176 Y152.549 E3.57135
G1 X130.081 Y151.627 E3.60218
G1 X130.05 Y151.117 E3.61918
G1 X130.02 Y150.413 E3.64261
G1 X130.02 Y149.541 E3.67162
G1 X130.036 Y149.135 E3.68513
G1 X130.053 Y148.81 E3.69595
G1 X130.09 Y148.274 E3.71382
G1 X130.157 Y147.607 E3.73612
G1 X130.211 Y147.207 E3.74955
G1 X130.282 Y146.759 E3.76463
G1 X130.385 Y146.167 E3.78462
G1 X130.587 Y145.242 E3.81611
G1 X130.725 Y144.72 E3.83407
G1 X130.815 Y144.4 E3.84512
G1 X130.921 Y144.043 E3.85751
G1 X131.073 Y143.572 E3.87397
G1 X131.134 Y143.396 E3.88017
G1 X131.261 Y143.047 E3.89252
G1 X131.358 Y142.795 E3.9015
G1 X131.478 Y142.496 E3.91221
G1 X131.7 Y141.966 E3.93133
G1 X132.126 Y141.066 E3.96444
G1 X132.206 Y140.915 E3.97013
G1 X132.423 Y140.524 E3.985
G1 X133.051 Y139.447 E4.02647
G1 X133.349 Y138.966 E4.04529
G1 X133.559 Y138.645 E4.05805
G1 X133.843 Y138.232 E4.07472
G1 X134.158 Y137.81 E4.09223
G1 X134.312 Y137.614 E4.10052
G1 X134.562 Y137.306 E4.11372
G1 X134.731 Y137.106 E4.12242
G1 X135.173 Y136.595 E4.1449
G1 X135.817 Y135.912 E4.17612
G0 F6000 X136.108 Y136.187
G1 F1200 X136.136 Y136.162 E4.17737
G1 X136.319 Y135.983 E4.18588
G1 X136.601 Y135.717 E4.19878
G1 X137.043 Y135.315 E4.21865
G1 X137.497 Y134.925 E4.23855
G1 X137.746 Y134.723 E4.24922
G1 X138.117 Y134.435 E4.26484
G1 X138.656 Y134.036 E4.28714
G1 X139.083 Y133.736 E4.3045
G1 X139.477 Y133.482 E4.32009
G1 X139.789 Y133.29 E4.33228
G1 X140.045 Y133.138 E4.34218
G1 X140.485 Y132.884 E4.35908
G1 X141.044 Y132.583 E4.38019
G1 X141.347 Y132.433 E4.39144
G1 X141.533 Y132.344 E4.3983
G1 X141.808 Y132.217 E4.40837
G1 X142.378 Y131.964 E4.42911
G1 X142.907 Y131.746 E4.44814
G1 X143.303 Y131.599 E4.46219
G1 X143.504 Y131.528 E4.46928
G1 X143.814 Y131.424 E4.48016
G1 X144.41 Y131.234 E4.50096
G1 X144.921 Y131.085 E4.51867
G1 X145.346 Y130.979 E4.53324
G1 X145.873 Y130.86 E4.55121
G1 X146.438 Y130.743 E4.5704
G1 X147.188 Y130.616 E4.5957
G1 X147.511 Y130.573 E4.60653
G1 X147.916 Y130.527 E4.62009
G1 X148.447 Y130.477 E4.63783
G1 X149.255 Y130.432 E4.66475
G1 X149.938 Y130.42 E4.68747
G1 X150.266 Y130.419 E4.69838
G1 X150.638 Y130.424 E4.71075
G1 X151.457 Y130.467 E4.73803
G1 X151.995 Y130.516 E4.756
G1 X152.313 Y130.549 E4.76663
G1 X152.675 Y130.593 E4.77876
G1 X153.593 Y130.746 E4.80971
G1 X154.216 Y130.878 E4.83089
G1 X154.531 Y130.95 E4.84164
G1 X154.945 Y131.051 E4.85581
G1 X155.489 Y131.199 E4.87456
G1 X155.778 Y131.286 E4.8846
G1 X156.273 Y131.449 E4.90194
G1 X156.858 Y131.657 E4.92259
G1 X157.405 Y131.868 E4.94209
G1 X157.572 Y131.938 E4.94811
G1 X157.842 Y132.056 E4.95791
G1 X158.252 Y132.244 E4.97291
G1 X158.799 Y132.506 E4.99308
G1 X159.302 Y132.764 E5.01189
G1 X159.695 Y132.981 E5.02682
G1 X160.061 Y133.196 E5.04094
G1 X160.564 Y133.505 E5.06057
G1 X161.32 Y134.015 E5.0909
G1 X161.735 Y134.322 E5.10807
G1 X161.999 Y134.524 E5.11913
G1 X162.393 Y134.835 E5.13582
G1 X162.797 Y135.171 E5.1533
G1 X163.09 Y135.432 E5.16635
G1 X163.393 Y135.712 E5.18007
G1 X163.609 Y135.917 E5.18998
G1 X163.967 Y136.267 E5.20663
G1 X164.586 Y136.926 E5.2367
G1 X164.892 Y137.281 E5.25229
G1 X165.062 Y137.484 E5.2611
G1 X165.366 Y137.855 E5.27705
G1 X165.751 Y138.354 E5.29801
G1 X165.822 Y138.452 E5.30204
G1 X166.093 Y138.844 E5.31789
G1 X166.27 Y139.113 E5.3286
G1 X166.56 Y139.58 E5.34688
G1 X167.244 Y140.747 E5.39187
G1 X167.688 Y141.589 E5.42353
G1 X167.794 Y141.814 E5.4318
G1 X167.978 Y142.227 E5.44684
G1 X168.091 Y142.496 E5.45655
G1 X168.214 Y142.801 E5.46748
G1 X168.396 Y143.275 E5.48437
G1 X168.67 Y144.087 E5.51287
G1 X168.799 Y144.526 E5.52809
G1 X168.876 Y144.8 E5.53756
G1 X169.014 Y145.321 E5.55549
G1 X169.117 Y145.746 E5.57003
G1 X169.14 Y145.85 E5.57357
G1 X169.223 Y146.267 E5.58771
G1 X169.284 Y146.607 E5.5992
G1 X169.332 Y146.895 E5.60891
G1 X169.418 Y147.464 E5.62805
G1 X169.491 Y148.064 E5.64816
G1 X169.524 Y148.458 E5.66131
G1 X169.541 Y148.712 E5.66977
G1 X169.556 Y148.981 E5.67874
G1 X169.58 Y149.56 E5.69801
G1 X169.588 Y150.16 E5.71797
G1 X169.579 Y150.505 E5.72945
G1 X169.557 Y151.035 E5.74709
G1 X169.532 Y151.448 E5.76085
G1 X169.509 Y151.733 E5.77036
G1 X169.437 Y152.377 E5.79191
G1 X169.327 Y153.148 E5.81782
G1 X169.269 Y153.508 E5.82995
G1 X169.24 Y153.671 E5.83545
G1 X169.033 Y154.595 E5.86695
G1 X168.812 Y155.408 E5.89497
G1 X168.708 Y155.766 E5.90737
G1 X168.637 Y155.995 E5.91534
G1 X168.429 Y156.599 E5.93659
G1 X168.141 Y157.362 E5.96371
G1 X167.877 Y157.999 E5.98665
G1 X167.774 Y158.226 E5.99494
G1 X167.54 Y158.709 E6.01279
G1 X167.366 Y159.046 E6.0254
G1 X167.249 Y159.266 E6.03369
G1 X166.996 Y159.729 E6.05124
G1 X166.724 Y160.197 E6.06924
G1 X166.657 Y160.306 E6.0735
G1 X166.458 Y160.617 E6.08578
G1 X166.302 Y160.852 E6.09516
G1 X166.151 Y161.074 E6.10409
G1 X165.823 Y161.542 E6.1231
G1 X165.382 Y162.128 E6.14749
G1 X165.161 Y162.401 E6.15917
G1 X164.917 Y162.691 E6.17178
G1 X164.507 Y163.162 E6.19255
G1 X164.067 Y163.637 E6.21408
G1 X163.832 Y163.872 E6.22514
G1 X163.596 Y164.101 E6.23607
G1 X163.384 Y164.301 E6.24577
G1 X163.004 Y164.65 E6.26293
G1 X162.546 Y165.047 E6.28309
G1 X162.252 Y165.284 E6.29565
G1 X161.998 Y165.482 E6.30636
G1 X161.782 Y165.646 E6.31538
G1 X161.345 Y165.969 E6.33345
G1 X160.764 Y166.369 E6.35692
G1 X160.491 Y166.544 E6.3677
G1 X160.117 Y166.773 E6.38229
G1 X159.617 Y167.065 E6.40154
G1 X158.847 Y167.473 E6.43053
G1 X158.333 Y167.719 E6.44948
G1 X158.032 Y167.858 E6.46051
G1 X157.56 Y168.066 E6.47766
G1 X157.012 Y168.289 E6.49734
G1 X156.815 Y168.363 E6.50434
G1 X156.47 Y168.486 E6.51652
G1 X156.236 Y168.564 E6.52473
G1 X155.642 Y168.754 E6.54547
G1 X155.078 Y168.918 E6.56501
G1 X154.676 Y169.019 E6.57879
G1 X154.231 Y169.12 E6.59397
G1 X153.621 Y169.248 E6.6147
G1 X152.695 Y169.4 E6.64591
G1 X152.249 Y169.453 E6.66085
G1 X151.971 Y169.482 E6.67015
G1 X151.624 Y169.514 E6.68174
G1 X150.692 Y169.559 E6.71277
G1 X149.405 Y169.564 E6.75558
G1 X148.528 Y169.531 E6.78477
G1 X148.313 Y169.514 E6.79194
G1 X147.805 Y169.461 E6.80893
G1 X147.234 Y169.388 E6.82807
G1 X146.702 Y169.307 E6.84597
G1 X146.305 Y169.231 E6.85942
G1 X145.925 Y169.151 E6.87233
G1 X145.654 Y169.09 E6.88157
G1 X145.045 Y168.945 E6.90239
G1 X144.38 Y168.764 E6.92531
G1 X144.078 Y168.671 E6.93582
G1 X143.668 Y168.535 E6.95019
G1 X143.181 Y168.363 E6.96737
G1 X142.349 Y168.029 E6.99719
G1 X141.833 Y167.796 E7.01602
G1 X141.57 Y167.673 E7.02568
G1 X141.139 Y167.464 E7.04161
G1 X140.569 Y167.166 E7.063
G1 X140.32 Y167.026 E7.0725
G1 X139.939 Y166.801 E7.08722
G1 X139.378 Y166.454 E7.10916
G1 X138.679 Y165.982 E7.13721
G1 X138.325 Y165.722 E7.15182
G1 X138.067 Y165.527 E7.16258
G1 X137.653 Y165.203 E7.18006
G1 X137.171 Y164.802 E7.20092
G1 X136.848 Y164.514 E7.21531
G1 X136.541 Y164.228 E7.22926
G1 X136.146 Y163.847 E7.24752
G1 X135.507 Y163.175 E7.27836
G1 X135.106 Y162.714 E7.29868
G1 X134.902 Y162.472 E7.30921
G1 X134.649 Y162.163 E7.32249
G1 X134.225 Y161.609 E7.3457
G1 X134.045 Y161.357 E7.356
G1 X133.82 Y161.029 E7.36923
G1 X133.447 Y160.463 E7.39177
G1 X133.031 Y159.776 E7.41848
G1 X132.82 Y159.396 E7.43294
G1 X132.645 Y159.067 E7.44533
G1 X132.394 Y158.575 E7.4637
G1 X132.135 Y158.031 E7.48374
G1 X131.964 Y157.634 E7.49812
G1 X131.867 Y157.399 E7.50658
G1 X131.764 Y157.139 E7.51588
G1 X131.558 Y156.6 E7.53507
G1 X131.279 Y155.77 E7.56419
G1 X131.149 Y155.322 E7.57971
G1 X131.062 Y155.005 E7.59064
G1 X130.95 Y154.569 E7.60561
G1 X130.818 Y153.985 E7.62553
G1 X130.742 Y153.587 E7.63901
G1 X130.704 Y153.368 E7.6464
G1 X130.659 Y153.087 E7.65586
G1 X130.572 Y152.491 E7.6759
G1 X130.481 Y151.603 E7.70559
G1 X130.438 Y150.873 E7.72991
G1 X130.419 Y150.397 E7.74575
G1 X130.419 Y149.557 E7.77369
G1 X130.435 Y149.151 E7.78721
G1 X130.452 Y148.838 E7.79763
G1 X130.489 Y148.302 E7.8155
G1 X130.553 Y147.658 E7.83703
G1 X130.607 Y147.267 E7.85015
G1 X130.676 Y146.828 E7.86493
G1 X130.779 Y146.236 E7.88492
G1 X130.974 Y145.344 E7.91529
G1 X131.112 Y144.822 E7.93325
G1 X131.198 Y144.514 E7.94388
G1 X131.304 Y144.157 E7.95627
G1 X131.451 Y143.703 E7.97214
G1 X131.512 Y143.527 E7.97834
G1 X131.635 Y143.19 E7.99027
G1 X131.732 Y142.938 E7.99925
G1 X131.847 Y142.651 E8.00953
G1 X132.069 Y142.121 E8.02864
G1 X132.479 Y141.254 E8.06054
G1 X132.559 Y141.103 E8.06623
G1 X132.769 Y140.726 E8.08058
G1 X133.397 Y139.649 E8.12205
G1 X133.684 Y139.185 E8.14019
G1 X133.894 Y138.864 E8.15295
G1 X134.167 Y138.466 E8.169
G1 X134.473 Y138.057 E8.18599
G1 X134.782 Y137.669 E8.20249
G1 X135.034 Y137.368 E8.21555
G1 X135.476 Y136.857 E8.23802
G1 X136.108 Y136.187 E8.26865
G0 F6000 X136.399 Y136.462
G1 F1200 X136.87 Y136.013 E8.2903
G1 X137.312 Y135.611 E8.31017
G1 X137.749 Y135.236 E8.32932
G1 X137.998 Y135.034 E8.33998
G1 X138.355 Y134.757 E8.35501
G1 X138.894 Y134.358 E8.37732
G1 X139.305 Y134.069 E8.39403
G1 X139.686 Y133.823 E8.40911
G1 X139.998 Y133.631 E8.4213
G1 X140.245 Y133.484 E8.43086
G1 X140.685 Y133.23 E8.44776
G1 X141.222 Y132.941 E8.46804
G1 X141.519 Y132.794 E8.47906
G1 X141.705 Y132.705 E8.48592
G1 X141.97 Y132.583 E8.49562
