;FLAVOR:Marlin
;TIME:7000
;Filament used: 4.32428m
;Layer height: 0.2
;MINX:125.286
;MINY:125.281
;MINZ:0.2
;MAXX:174.714
;MAXY:174.719
;MAXZ:59
;Generated with Creality Slicer 4.8.2-191
M140 S50
M105
M190 S50
M104 S200
M105
M109 S200
M82 ;absolute extrusion mode

G28 ;Home

G92 E0 ;Reset Extruder
G1 Z2.0 F3000 ;Move Z Axis up
G1 X10.1 Y20 Z0.28 F5000.0 ;Move to start position
G1 X10.1 Y200.0 Z0.28 F1500.0 E15 ;Draw the first line
G1 X10.4 Y200.0 Z0.28 F5000.0 ;Move to side a little
G1 X10.4 Y20 Z0.28 F1500.0 E30 ;Draw the second line
G92 E0 ;Reset Extruder
G1 Z2.0 F3000 ;Move Z Axis up

G92 E0
G92 E0
G1 F2700 E-5
;LAYER_COUNT:295
;LAYER:0
M107
G0 F6000 X129.506 Y128.873 Z0.2
;TYPE:SKIRT
G1 F2700 E0
G1 F1200 X130.223 Y128.268 E0.0312
G1 X130.993 Y127.724 E0.06256
G1 X131.44 Y127.436 E0.08025
G1 X132.228 Y126.974 E0.11063
G1 X132.459 Y126.851 E0.11933
G1 X133.59 Y126.328 E0.16078
G1 X133.78 Y126.253 E0.16757
G1 X135.086 Y125.83 E0.21323
G1 X135.355 Y125.761 E0.22247
G1 X136.272 Y125.567 E0.25364
G1 X137.022 Y125.468 E0.2788
G1 X137.515 Y125.42 E0.29528
G1 X138.234 Y125.373 E0.31924
G1 X138.548 Y125.366 E0.32969
G1 X139.018 Y125.361 E0.34532
G1 X143.292 Y125.36 E0.48748
G1 X145.96 Y125.308 E0.57623
G1 X146.175 Y125.313 E0.58338
G1 X147.332 Y125.284 E0.62188
G1 X147.657 Y125.281 E0.63269
G1 X148.462 Y125.286 E0.65946
G1 X149.75 Y125.308 E0.70231
G1 X151.066 Y125.291 E0.74608
G1 X152.443 Y125.287 E0.79188
G1 X152.735 Y125.29 E0.80159
G1 X153.717 Y125.314 E0.83426
G1 X154.403 Y125.339 E0.8571
G1 X156.403 Y125.361 E0.92362
G1 X160.959 Y125.361 E1.07515
G1 X161.689 Y125.371 E1.09944
G1 X162.367 Y125.401 E1.12201
G1 X162.592 Y125.418 E1.12951
G1 X163.523 Y125.529 E1.1607
G1 X164.331 Y125.691 E1.18811
G1 X164.735 Y125.788 E1.20193
G1 X165.884 Y126.131 E1.24181
G1 X165.962 Y126.159 E1.24456
G1 X166.548 Y126.389 E1.2655
G1 X166.795 Y126.494 E1.27443
G1 X167.925 Y127.052 E1.31635
G1 X168.094 Y127.148 E1.32281
G1 X168.515 Y127.4 E1.33913
G1 X168.892 Y127.637 E1.35394
G1 X169.664 Y128.17 E1.38514
G1 X170.388 Y128.766 E1.41633
G1 X171.059 Y129.422 E1.44754
G1 X171.671 Y130.133 E1.47874
G1 X172.238 Y130.92 E1.51101
G1 X172.354 Y131.097 E1.51805
G1 X172.617 Y131.519 E1.53458
G1 X172.86 Y131.929 E1.55044
G1 X173.303 Y132.755 E1.58161
G1 X173.538 Y133.277 E1.60065
G1 X173.63 Y133.496 E1.60855
G1 X173.957 Y134.375 E1.63974
G1 X174.122 Y134.94 E1.65932
G1 X174.22 Y135.31 E1.67205
G1 X174.422 Y136.226 E1.70325
G1 X174.523 Y136.939 E1.7272
G1 X174.561 Y137.289 E1.73891
G1 X174.623 Y138.289 E1.77223
G1 X174.639 Y139.295 E1.8057
G1 X174.64 Y143.422 E1.94296
G1 X174.708 Y147.011 E2.06236
G1 X174.714 Y147.476 E2.07782
G1 X174.698 Y148.952 E2.12692
G1 X174.709 Y151.703 E2.21842
G1 X174.713 Y152.271 E2.23731
G1 X174.711 Y152.571 E2.24729
G1 X174.688 Y153.631 E2.28255
G1 X174.66 Y154.401 E2.30818
G1 X174.639 Y156.338 E2.37261
G1 X174.639 Y160.914 E2.52481
G1 X174.629 Y161.648 E2.54922
G1 X174.62 Y161.964 E2.55973
G1 X174.58 Y162.599 E2.5809
G1 X174.56 Y162.815 E2.58811
G1 X174.386 Y163.995 E2.62778
G1 X174.363 Y164.108 E2.63162
G1 X174.246 Y164.622 E2.64915
G1 X174.182 Y164.874 E2.6578
G1 X173.912 Y165.772 E2.68899
G1 X173.7 Y166.334 E2.70897
G1 X173.587 Y166.61 E2.71889
G1 X173.027 Y167.776 E2.76191
G1 X172.92 Y167.969 E2.76925
G1 X172.563 Y168.568 E2.79244
G1 X172.31 Y168.963 E2.80804
G1 X171.771 Y169.73 E2.83922
G1 X171.168 Y170.449 E2.87043
G1 X170.507 Y171.114 E2.90162
G1 X169.791 Y171.72 E2.93282
G1 X169.035 Y172.258 E2.96368
G1 X168.679 Y172.489 E2.97779
G1 X168.38 Y172.676 E2.98952
G1 X168.145 Y172.818 E2.99865
G1 X167.322 Y173.268 E3.02985
G1 X166.693 Y173.554 E3.05283
G1 X166.451 Y173.655 E3.06156
G1 X165.571 Y173.979 E3.09275
G1 X165.05 Y174.132 E3.11081
G1 X164.679 Y174.231 E3.12358
G1 X163.763 Y174.434 E3.15478
G1 X162.767 Y174.564 E3.18819
G1 X162.601 Y174.578 E3.19373
G1 X161.885 Y174.615 E3.21758
G1 X160.724 Y174.637 E3.2562
G1 X160.519 Y174.639 E3.26302
G1 X156.702 Y174.64 E3.38997
G1 X154.037 Y174.691 E3.47863
G1 X153.844 Y174.686 E3.48505
G1 X152.668 Y174.716 E3.52417
G1 X152.342 Y174.719 E3.53502
G1 X151.539 Y174.714 E3.56173
G1 X150.251 Y174.692 E3.60457
G1 X148.935 Y174.709 E3.64835
G1 X147.558 Y174.713 E3.69415
G1 X147.266 Y174.71 E3.70386
G1 X146.284 Y174.686 E3.73653
G1 X145.597 Y174.661 E3.75939
G1 X143.597 Y174.639 E3.82592
G1 X139.054 Y174.639 E3.97702
G1 X138.324 Y174.629 E4.0013
G1 X137.793 Y174.609 E4.01897
G1 X137.411 Y174.581 E4.03171
G1 X137.179 Y174.56 E4.03946
G1 X136.25 Y174.436 E4.07063
G1 X135.503 Y174.277 E4.09604
G1 X135.191 Y174.199 E4.10673
G1 X133.914 Y173.795 E4.15128
G1 X133.724 Y173.722 E4.15805
G1 X133.392 Y173.588 E4.16996
G1 X133.238 Y173.523 E4.17552
G1 X132.39 Y173.122 E4.20672
G1 X131.786 Y172.779 E4.22982
G1 X131.468 Y172.585 E4.24221
G1 X131.239 Y172.442 E4.25119
G1 X131 Y172.288 E4.26065
G1 X130.234 Y171.747 E4.29184
G1 X129.517 Y171.142 E4.32304
G1 X128.854 Y170.479 E4.35422
G1 X128.25 Y169.761 E4.38543
G1 X127.701 Y168.984 E4.41707
G1 X127.493 Y168.66 E4.42988
G1 X127.329 Y168.395 E4.44025
G1 X127.194 Y168.171 E4.44894
G1 X126.581 Y167 E4.49291
G1 X126.528 Y166.882 E4.49721
G1 X126.345 Y166.452 E4.51275
G1 X126.26 Y166.239 E4.52038
G1 X125.95 Y165.354 E4.55157
G1 X125.77 Y164.685 E4.57461
G1 X125.688 Y164.337 E4.5865
G1 X125.512 Y163.416 E4.61769
G1 X125.425 Y162.62 E4.64432
G1 X125.402 Y162.307 E4.65476
G1 X125.378 Y161.858 E4.66971
G1 X125.368 Y161.55 E4.67996
G1 X125.362 Y161.198 E4.69167
G1 X125.36 Y156.527 E4.84703
G1 X125.314 Y153.991 E4.93139
G1 X125.318 Y153.835 E4.93658
G1 X125.291 Y152.588 E4.97807
G1 X125.288 Y152.284 E4.98818
G1 X125.297 Y150.976 E5.03169
G1 X125.305 Y150.572 E5.04513
G1 X125.287 Y149.227 E5.08986
G1 X125.294 Y148.981 E5.09805
G1 X125.286 Y147.589 E5.14435
G1 X125.288 Y147.299 E5.15399
G1 X125.306 Y146.473 E5.18147
G1 X125.345 Y145.33 E5.21951
G1 X125.361 Y143.617 E5.27649
G1 X125.361 Y139.047 E5.42849
G1 X125.371 Y138.337 E5.4521
G1 X125.407 Y137.595 E5.47681
G1 X125.425 Y137.375 E5.48415
G1 X125.541 Y136.444 E5.51536
G1 X125.65 Y135.883 E5.53437
G1 X125.751 Y135.429 E5.54984
G1 X125.994 Y134.523 E5.58104
G1 X126.216 Y133.886 E5.60347
G1 X126.296 Y133.677 E5.61091
G1 X126.461 Y133.269 E5.62555
G1 X126.862 Y132.422 E5.65672
G1 X127.166 Y131.881 E5.67736
G1 X127.366 Y131.548 E5.69028
G1 X127.544 Y131.262 E5.70149
G1 X127.699 Y131.021 E5.71102
G1 X128.24 Y130.254 E5.74223
G1 X128.844 Y129.537 E5.77342
G1 X129.506 Y128.873 E5.8046
G0 F6000 X129.814 Y129.133
G1 F1200 X130.521 Y128.544 E5.83521
G1 X131.21 Y128.06 E5.86321
G1 X131.657 Y127.772 E5.8809
G1 X132.416 Y127.327 E5.91016
G1 X132.647 Y127.204 E5.91887
G1 X133.737 Y126.7 E5.95881
G1 X133.927 Y126.625 E5.9656
G1 X135.185 Y126.217 E6.00959
G1 X135.454 Y126.148 E6.01882
G1 X136.355 Y125.959 E6.04944
G1 X137.061 Y125.866 E6.07313
G1 X137.554 Y125.818 E6.0896
G1 X138.246 Y125.773 E6.11267
G1 X138.553 Y125.766 E6.12288
G1 X139.019 Y125.761 E6.13838
G1 X143.299 Y125.76 E6.28074
G1 X145.967 Y125.708 E6.36949
G1 X146.182 Y125.713 E6.37664
G1 X147.342 Y125.684 E6.41524
G1 X147.656 Y125.681 E6.42568
G1 X148.456 Y125.686 E6.45229
G1 X149.749 Y125.708 E6.4953
G1 X151.067 Y125.691 E6.53914
G1 X152.444 Y125.687 E6.58494
G1 X152.726 Y125.69 E6.59432
G1 X153.703 Y125.714 E6.62683
G1 X154.385 Y125.739 E6.64952
G1 X156.398 Y125.761 E6.71648
G1 X160.953 Y125.761 E6.86798
G1 X161.683 Y125.771 E6.89226
G1 X162.337 Y125.8 E6.91404
G1 X162.562 Y125.817 E6.92154
G1 X163.476 Y125.926 E6.95216
G1 X164.238 Y126.08 E6.97801
G1 X164.642 Y126.177 E6.99183
G1 X165.748 Y126.507 E7.03022
G1 X165.826 Y126.535 E7.03298
G1 X166.392 Y126.757 E7.0532
G1 X166.639 Y126.862 E7.06213
G1 X167.728 Y127.4 E7.10252
G1 X167.897 Y127.496 E7.10899
G1 X168.303 Y127.739 E7.12473
G1 X168.68 Y127.976 E7.13954
G1 X169.437 Y128.499 E7.17014
G1 X170.146 Y129.086 E7.20075
G1 X170.802 Y129.733 E7.2314
G1 X171.399 Y130.434 E7.26202
G1 X171.904 Y131.14 E7.2909
G1 X172.02 Y131.317 E7.29793
G1 X172.273 Y131.722 E7.31382
G1 X172.516 Y132.132 E7.32967
G1 X172.95 Y132.944 E7.36029
G1 X173.17 Y133.432 E7.3781
G1 X173.262 Y133.651 E7.386
G1 X173.581 Y134.514 E7.4166
G1 X173.736 Y135.042 E7.4349
G1 X173.834 Y135.412 E7.44763
G1 X174.031 Y136.311 E7.47824
G1 X174.125 Y136.982 E7.50078
G1 X174.163 Y137.332 E7.51249
G1 X174.223 Y138.295 E7.54458
G1 X174.239 Y139.295 E7.57784
G1 X174.24 Y143.429 E7.71534
G1 X174.306 Y146.921 E7.8315
G1 X174.314 Y147.472 E7.84983
G1 X174.298 Y148.952 E7.89906
G1 X174.309 Y151.705 E7.99063
G1 X174.313 Y152.273 E8.00952
G1 X174.311 Y152.563 E8.01916
G1 X174.288 Y153.616 E8.0542
G1 X174.26 Y154.381 E8.07966
G1 X174.239 Y156.338 E8.14475
G1 X174.239 Y160.908 E8.29675
G1 X174.229 Y161.642 E8.32116
G1 X174.221 Y161.95 E8.33141
G1 X174.182 Y162.562 E8.35181
G1 X174.162 Y162.778 E8.35902
G1 X173.994 Y163.915 E8.39725
G1 X173.971 Y164.028 E8.40109
G1 X173.858 Y164.523 E8.41797
G1 X173.794 Y164.775 E8.42662
G1 X173.529 Y165.657 E8.45725
G1 X173.33 Y166.182 E8.47593
G1 X173.217 Y166.458 E8.48585
G1 X172.678 Y167.582 E8.52731
G1 X172.571 Y167.775 E8.53465
G1 X172.226 Y168.352 E8.55701
G1 X171.973 Y168.747 E8.57261
G1 X171.443 Y169.5 E8.60323
G1 X170.85 Y170.204 E8.63385
G1 X170.198 Y170.854 E8.66447
G1 X169.492 Y171.445 E8.69509
G1 X168.817 Y171.922 E8.72258
G1 X168.461 Y172.153 E8.7367
G1 X168.173 Y172.333 E8.74799
G1 X167.938 Y172.475 E8.75713
G1 X167.13 Y172.917 E8.78776
G1 X166.539 Y173.185 E8.80934
G1 X166.297 Y173.286 E8.81806
G1 X165.432 Y173.604 E8.84872
G1 X164.947 Y173.746 E8.86553
G1 X164.576 Y173.845 E8.8783
G1 X163.677 Y174.043 E8.90891
G1 X162.734 Y174.166 E8.94054
G1 X162.568 Y174.18 E8.94608
G1 X161.878 Y174.215 E8.96906
G1 X160.717 Y174.237 E9.00769
G1 X160.519 Y174.239 E9.01427
G1 X156.694 Y174.24 E9.14149
G1 X154.029 Y174.291 E9.23015
G1 X153.837 Y174.286 E9.23653
G1 X152.658 Y174.316 E9.27576
G1 X152.344 Y174.319 E9.2862
G1 X151.545 Y174.314 E9.31278
G1 X150.252 Y174.292 E9.35579
G1 X148.934 Y174.309 E9.39963
G1 X147.557 Y174.313 E9.44543
G1 X147.275 Y174.31 E9.45481
G1 X146.299 Y174.286 E9.48728
G1 X145.617 Y174.261 E9.50998
G1 X143.602 Y174.239 E9.57701
G1 X139.06 Y174.239 E9.72807
G1 X138.33 Y174.229 E9.75235
G1 X137.815 Y174.21 E9.7695
G1 X137.447 Y174.183 E9.78177
G1 X137.215 Y174.162 E9.78952
G1 X136.303 Y174.039 E9.82012
G1 X135.6 Y173.889 E9.84403
G1 X135.288 Y173.811 E9.85473
G1 X134.057 Y173.422 E9.89767
G1 X133.867 Y173.349 E9.90444
G1 X133.547 Y173.22 E9.91591
G1 X133.393 Y173.155 E9.92147
G1 X132.561 Y172.76 E9.95211
G1 X131.995 Y172.438 E9.97376
G1 X131.677 Y172.244 E9.98615
G1 X131.456 Y172.105 E9.99484
G1 X131.217 Y171.951 E10.00429
G1 X130.465 Y171.42 E10.03491
G1 X129.762 Y170.825 E10.06554
G1 X129.114 Y170.171 E10.09617
G1 X128.525 Y169.463 E10.1268
G1 X128.038 Y168.767 E10.15505
G1 X127.83 Y168.443 E10.16786
G1 X127.671 Y168.189 E10.17782
G1 X127.536 Y167.965 E10.18652
G1 X126.946 Y166.836 E10.22889
G1 X126.893 Y166.718 E10.23319
G1 X126.717 Y166.304 E10.24816
G1 X126.632 Y166.091 E10.25578
G1 X126.328 Y165.222 E10.2864
G1 X126.16 Y164.593 E10.30806
G1 X126.078 Y164.245 E10.31995
G1 X125.906 Y163.341 E10.35056
G1 X125.824 Y162.591 E10.37565
G1 X125.801 Y162.278 E10.38609
G1 X125.778 Y161.845 E10.40051
G1 X125.768 Y161.537 E10.41076
G1 X125.762 Y161.197 E10.42207
G1 X125.76 Y156.519 E10.57766
G1 X125.714 Y153.983 E10.66202
G1 X125.717 Y153.849 E10.66648
G1 X125.69 Y152.579 E10.70873
G1 X125.688 Y152.286 E10.71848
G1 X125.697 Y150.984 E10.76178
G1 X125.705 Y150.574 E10.77542
G1 X125.687 Y149.221 E10.82043
G1 X125.694 Y148.98 E10.82844
G1 X125.686 Y147.586 E10.87481
G1 X125.688 Y147.307 E10.88409
G1 X125.706 Y146.487 E10.91137
G1 X125.743 Y145.389 E10.94791
G1 X125.761 Y143.513 E11.01031
G1 X125.761 Y139.053 E11.15865
G1 X125.771 Y138.343 E11.18227
G1 X125.805 Y137.628 E11.20607
G1 X125.823 Y137.408 E11.21342
G1 X125.938 Y136.494 E11.24405
G1 X126.041 Y135.97 E11.26182
G1 X126.142 Y135.516 E11.27729
G1 X126.381 Y134.627 E11.3079
G1 X126.589 Y134.029 E11.32896
G1 X126.669 Y133.82 E11.33641
G1 X126.83 Y133.425 E11.35059
G1 X127.224 Y132.593 E11.38121
G1 X127.509 Y132.087 E11.40053
G1 X127.709 Y131.754 E11.41345
G1 X127.881 Y131.478 E11.42426
G1 X128.036 Y131.237 E11.43379
G1 X128.567 Y130.485 E11.46441
G1 X129.161 Y129.782 E11.49502
G1 X129.814 Y129.133 E11.52564
G0 F6000 X130.122 Y129.394
G1 F1200 X130.819 Y128.82 E11.55568
G1 X131.427 Y128.397 E11.58031
G1 X131.874 Y128.109 E11.598
G1 X132.604 Y127.68 E11.62616
G1 X132.835 Y127.557 E11.63486
G1 X133.884 Y127.072 E11.6733
G1 X134.074 Y126.997 E11.6801
G1 X135.285 Y126.605 E11.72243
G1 X135.554 Y126.536 E11.73167
G1 X136.438 Y126.35 E11.76171
G1 X137.1 Y126.264 E11.78392
G1 X137.593 Y126.216 E11.80039
G1 X138.259 Y126.173 E11.82259
G1 X138.558 Y126.166 E11.83254
G1 X139.019 Y126.161 E11.84787
G1 X143.307 Y126.16 E11.99049
G1 X145.975 Y126.108 E12.07924
G1 X146.189 Y126.113 E12.08636
G1 X147.352 Y126.084 E12.12506
G1 X147.654 Y126.081 E12.1351
G1 X148.449 Y126.085 E12.16155
G1 X149.781 Y126.108 E12.20585
G1 X151.068 Y126.091 E12.24866
G1 X152.445 Y126.087 E12.29446
G1 X152.716 Y126.09 E12.30348
G1 X153.688 Y126.114 E12.33582
G1 X154.365 Y126.138 E12.35835
G1 X156.394 Y126.161 E12.42584
G1 X160.948 Y126.161 E12.5773
G1 X161.678 Y126.171 E12.60159
G1 X162.306 Y126.199 E12.62249
G1 X162.531 Y126.216 E12.63
G1 X163.428 Y126.324 E12.66005
G1 X164.144 Y126.469 E12.68435
G1 X164.548 Y126.566 E12.69816
G1 X165.613 Y126.884 E12.73513
G1 X165.691 Y126.912 E12.73789
G1 X166.235 Y127.125 E12.75732
G1 X166.482 Y127.23 E12.76625
G1 X167.53 Y127.748 E12.80513
G1 X167.699 Y127.844 E12.81159
G1 X168.09 Y128.078 E12.82675
G1 X168.467 Y128.315 E12.84156
G1 X169.209 Y128.829 E12.87158
G1 X169.903 Y129.406 E12.9016
G1 X170.544 Y130.043 E12.93166
G1 X171.125 Y130.734 E12.96168
G1 X171.569 Y131.359 E12.98718
G1 X171.685 Y131.536 E12.99422
G1 X171.929 Y131.926 E13.00952
G1 X172.172 Y132.336 E13.02537
G1 X172.597 Y133.133 E13.05542
G1 X172.801 Y133.586 E13.07194
G1 X172.893 Y133.805 E13.07984
G1 X173.205 Y134.653 E13.10989
G1 X173.349 Y135.144 E13.12691
G1 X173.447 Y135.514 E13.13964
G1 X173.639 Y136.397 E13.1697
G1 X173.727 Y137.025 E13.19079
G1 X173.765 Y137.375 E13.2025
G1 X173.824 Y138.302 E13.23339
G1 X173.838 Y139.124 E13.26074
G1 X173.84 Y143.437 E13.40419
G1 X173.906 Y146.938 E13.52065
G1 X173.914 Y147.468 E13.53828
G1 X173.898 Y148.952 E13.58764
G1 X173.909 Y151.708 E13.67931
G1 X173.913 Y152.276 E13.6982
G1 X173.911 Y152.555 E13.70748
G1 X173.893 Y153.442 E13.73699
G1 X173.861 Y154.363 E13.76764
G1 X173.839 Y156.338 E13.83333
G1 X173.839 Y160.903 E13.98516
G1 X173.829 Y161.637 E14.00958
G1 X173.821 Y161.937 E14.01956
G1 X173.784 Y162.525 E14.03916
G1 X173.764 Y162.741 E14.04637
G1 X173.602 Y163.835 E14.08316
G1 X173.579 Y163.948 E14.08699
G1 X173.47 Y164.425 E14.10327
G1 X173.406 Y164.677 E14.11191
G1 X173.145 Y165.541 E14.14193
G1 X172.959 Y166.031 E14.15936
G1 X172.846 Y166.307 E14.16928
G1 X172.328 Y167.388 E14.20915
G1 X172.221 Y167.581 E14.21649
G1 X171.889 Y168.136 E14.238
G1 X171.636 Y168.531 E14.2536
G1 X171.116 Y169.27 E14.28366
G1 X170.532 Y169.959 E14.3137
G1 X169.89 Y170.594 E14.34373
G1 X169.194 Y171.169 E14.37376
G1 X168.599 Y171.587 E14.39794
G1 X168.243 Y171.818 E14.41206
G1 X167.966 Y171.991 E14.42292
G1 X167.731 Y172.133 E14.43205
G1 X166.938 Y172.565 E14.46209
G1 X166.385 Y172.816 E14.48229
G1 X166.143 Y172.917 E14.49101
G1 X165.295 Y173.228 E14.52105
G1 X164.844 Y173.359 E14.53667
G1 X164.473 Y173.458 E14.54944
G1 X163.591 Y173.652 E14.57948
G1 X162.7 Y173.767 E14.60936
G1 X162.534 Y173.781 E14.6149
G1 X161.87 Y173.815 E14.63701
G1 X160.519 Y173.839 E14.68196
G1 X156.686 Y173.84 E14.80944
G1 X154.021 Y173.891 E14.8981
G1 X153.834 Y173.886 E14.90432
G1 X152.648 Y173.916 E14.94378
G1 X152.346 Y173.919 E14.95382
G1 X151.552 Y173.915 E14.98023
G1 X150.22 Y173.892 E15.02454
G1 X148.933 Y173.909 E15.06735
G1 X147.556 Y173.913 E15.11315
G1 X147.285 Y173.91 E15.12216
G1 X146.313 Y173.886 E15.1545
G1 X145.635 Y173.862 E15.17707
G1 X143.606 Y173.839 E15.24456
G1 X139.065 Y173.839 E15.39559
G1 X138.335 Y173.829 E15.41987
G1 X137.837 Y173.81 E15.43645
