;FLAVOR:Marlin
;TIME:4894
;Filament used: 2.29044m
;Layer height: 0.2
;MINX:127.012
;MINY:127.017
;MINZ:0.2
;MAXX:172.98
;MAXY:172.984
;MAXZ:25
;Generated with Creality Slicer 4.8.2-191
M140 S50
M105
M190 S50
M104 S200
M105
M109 S200
M82 ;absolute extrusion mode

G28 ;Home

G92 E0 ;Reset Extruder
G1 Z2.0 F3000 ;Move Z Axis up
G1 X10.1 Y20 Z0.28 F5000.0 ;Move to start position
G1 X10.1 Y200.0 Z0.28 F1500.0 E15 ;Draw the first line
G1 X10.4 Y200.0 Z0.28 F5000.0 ;Move to side a little
G1 X10.4 Y20 Z0.28 F1500.0 E30 ;Draw the second line
G92 E0 ;Reset Extruder
G1 Z2.0 F3000 ;Move Z Axis up

G92 E0
G92 E0
G1 F2700 E-5
;LAYER_COUNT:125
;LAYER:0
M107
G0 F6000 X133.893 Y133.611 Z0.2
;TYPE:SKIRT
G1 F2700 E0
G1 F1200 X134.124 Y133.386 E0.01073
G1 X134.598 Y132.939 E0.0324
G1 X135.305 Y132.327 E0.0635
G1 X135.839 Y131.903 E0.08618
G1 X136.079 Y131.718 E0.09625
G1 X136.619 Y131.313 E0.1187
G1 X137.394 Y130.782 E0.14995
G1 X138.014 Y130.395 E0.17426
G1 X138.288 Y130.229 E0.18492
G1 X138.844 Y129.904 E0.20634
G1 X139.686 Y129.46 E0.238
G1 X140.332 Y129.154 E0.26177
G1 X140.6 Y129.031 E0.27158
G1 X141.205 Y128.764 E0.29357
G1 X142.115 Y128.41 E0.32605
G1 X142.767 Y128.189 E0.34895
G1 X143.046 Y128.099 E0.3587
G1 X143.689 Y127.9 E0.38108
G1 X144.591 Y127.662 E0.41211
G1 X145.309 Y127.505 E0.43656
G1 X145.622 Y127.441 E0.44718
G1 X146.243 Y127.324 E0.4682
G1 X147.188 Y127.188 E0.49995
G1 X147.91 Y127.116 E0.52409
G1 X148.221 Y127.09 E0.53447
G1 X148.867 Y127.044 E0.55601
G1 X149.798 Y127.017 E0.58699
G1 X150.531 Y127.027 E0.61137
G1 X150.853 Y127.036 E0.62208
G1 X151.482 Y127.063 E0.64302
G1 X152.412 Y127.143 E0.67407
G1 X153.128 Y127.235 E0.69808
G1 X153.435 Y127.279 E0.70839
G1 X154.09 Y127.382 E0.73045
G1 X155.038 Y127.574 E0.76262
G1 X155.729 Y127.746 E0.7863
G1 X156.007 Y127.819 E0.79586
G1 X156.621 Y127.989 E0.81705
G1 X157.531 Y128.284 E0.84887
G1 X158.193 Y128.531 E0.87237
G1 X158.493 Y128.648 E0.88308
G1 X159.115 Y128.901 E0.90541
G1 X159.957 Y129.285 E0.93619
G1 X160.594 Y129.609 E0.95996
G1 X160.883 Y129.762 E0.97084
G1 X161.463 Y130.079 E0.99282
G1 X162.257 Y130.557 E1.02365
G1 X162.86 Y130.956 E1.0477
G1 X163.126 Y131.138 E1.05842
G1 X163.644 Y131.503 E1.07949
G1 X164.385 Y132.074 E1.11061
G1 X164.93 Y132.532 E1.13428
G1 X165.171 Y132.74 E1.14487
G1 X165.676 Y133.19 E1.16737
G1 X166.357 Y133.852 E1.19896
G1 X166.813 Y134.335 E1.22105
G1 X167.025 Y134.566 E1.23148
G1 X167.485 Y135.082 E1.25447
G1 X168.072 Y135.8 E1.28532
G1 X168.505 Y136.377 E1.30931
G1 X168.689 Y136.629 E1.31969
G1 X169.063 Y137.158 E1.34124
G1 X169.584 Y137.968 E1.37327
G1 X169.939 Y138.577 E1.39672
G1 X170.083 Y138.831 E1.40643
G1 X170.397 Y139.404 E1.42816
G1 X170.818 Y140.259 E1.45986
G1 X171.101 Y140.902 E1.48322
G1 X171.217 Y141.176 E1.49312
G1 X171.475 Y141.808 E1.51582
G1 X171.798 Y142.71 E1.54769
G1 X172.004 Y143.375 E1.57084
G1 X172.098 Y143.695 E1.58194
G1 X172.276 Y144.338 E1.60413
G1 X172.483 Y145.226 E1.63445
G1 X172.612 Y145.907 E1.65751
G1 X172.665 Y146.212 E1.6678
G1 X172.772 Y146.879 E1.69027
G1 X172.883 Y147.833 E1.72222
G1 X172.934 Y148.543 E1.74589
G1 X172.952 Y148.865 E1.75662
G1 X172.98 Y149.525 E1.77859
G1 X172.98 Y150.452 E1.80942
G1 X172.951 Y151.144 E1.83246
G1 X172.934 Y151.46 E1.84298
G1 X172.887 Y152.124 E1.86512
G1 X172.78 Y153.058 E1.89639
G1 X172.672 Y153.744 E1.91949
G1 X172.619 Y154.051 E1.92985
G1 X172.491 Y154.737 E1.95306
G1 X172.276 Y155.666 E1.98478
G1 X172.093 Y156.324 E2.00749
G1 X172 Y156.638 E2.01838
G1 X171.801 Y157.279 E2.04071
G1 X171.496 Y158.135 E2.07093
G1 X171.228 Y158.799 E2.09475
G1 X171.098 Y159.108 E2.1059
G1 X170.84 Y159.695 E2.12722
G1 X170.432 Y160.528 E2.15807
G1 X170.088 Y161.16 E2.18201
G1 X169.928 Y161.444 E2.19285
G1 X169.592 Y162.02 E2.21503
G1 X169.089 Y162.803 E2.24598
G1 X168.696 Y163.362 E2.26871
G1 X168.499 Y163.633 E2.27985
G1 X168.086 Y164.184 E2.30275
G1 X167.498 Y164.903 E2.33365
G1 X167.042 Y165.415 E2.35645
G1 X166.824 Y165.653 E2.36719
G1 X166.363 Y166.141 E2.38951
G1 X165.697 Y166.789 E2.42042
G1 X165.142 Y167.285 E2.44518
G1 X164.892 Y167.502 E2.45619
G1 X164.408 Y167.909 E2.47722
G1 X163.668 Y168.479 E2.50829
G1 X163.115 Y168.869 E2.5308
G1 X162.844 Y169.054 E2.54171
G1 X162.262 Y169.439 E2.56492
G1 X161.481 Y169.911 E2.59527
G1 X160.859 Y170.252 E2.61886
G1 X160.558 Y170.411 E2.63018
G1 X159.976 Y170.707 E2.6519
G1 X159.141 Y171.088 E2.68243
G1 X158.508 Y171.346 E2.70516
G1 X158.194 Y171.469 E2.71638
G1 X157.536 Y171.714 E2.73973
G1 X156.648 Y172.002 E2.77078
G1 X155.987 Y172.186 E2.7936
G1 X155.667 Y172.27 E2.80461
G1 X155.001 Y172.434 E2.82742
G1 X154.086 Y172.619 E2.85847
G1 X153.446 Y172.72 E2.88002
G1 X153.151 Y172.762 E2.88993
G1 X152.452 Y172.853 E2.91337
G1 X151.511 Y172.935 E2.94479
G1 X150.8 Y172.966 E2.96846
G1 X150.47 Y172.975 E2.97944
G1 X149.805 Y172.984 E3.00156
G1 X148.882 Y172.958 E3.03227
G1 X148.216 Y172.911 E3.05448
G1 X147.875 Y172.881 E3.06586
G1 X147.178 Y172.81 E3.08917
G1 X146.28 Y172.681 E3.11934
G1 X145.614 Y172.557 E3.14187
G1 X145.268 Y172.487 E3.15361
G1 X144.603 Y172.341 E3.17626
G1 X143.721 Y172.109 E3.20659
G1 X143.04 Y171.899 E3.23029
G1 X142.749 Y171.804 E3.24048
G1 X142.112 Y171.588 E3.26285
G1 X141.203 Y171.235 E3.29528
G1 X140.573 Y170.957 E3.31818
G1 X140.317 Y170.84 E3.32755
G1 X139.722 Y170.559 E3.34943
G1 X138.874 Y170.112 E3.38131
G1 X138.247 Y169.746 E3.40546
G1 X137.973 Y169.581 E3.4161
G1 X137.418 Y169.235 E3.43785
G1 X136.647 Y168.708 E3.46891
G1 X136.107 Y168.304 E3.49135
G1 X135.848 Y168.104 E3.50223
G1 X135.295 Y167.664 E3.52573
G1 X134.6 Y167.062 E3.55632
G1 X134.115 Y166.605 E3.57848
G1 X133.889 Y166.385 E3.58897
G1 X133.398 Y165.895 E3.61204
G1 X132.745 Y165.183 E3.64417
G1 X132.294 Y164.646 E3.6675
G1 X132.108 Y164.42 E3.67723
G1 X131.692 Y163.897 E3.69946
G1 X131.128 Y163.12 E3.73139
G1 X130.723 Y162.508 E3.7558
G1 X130.555 Y162.246 E3.76615
G1 X130.226 Y161.717 E3.78687
G1 X129.772 Y160.914 E3.81755
G1 X129.45 Y160.284 E3.84109
G1 X129.293 Y159.965 E3.85291
G1 X129.001 Y159.345 E3.87571
G1 X128.646 Y158.502 E3.90613
G1 X128.398 Y157.837 E3.92974
G1 X128.294 Y157.546 E3.94001
G1 X128.093 Y156.957 E3.96071
G1 X127.828 Y156.054 E3.99201
G1 X127.65 Y155.337 E4.01658
G1 X127.577 Y155.022 E4.02734
G1 X127.438 Y154.382 E4.04912
G1 X127.278 Y153.459 E4.08028
G1 X127.186 Y152.748 E4.10412
G1 X127.147 Y152.406 E4.11557
G1 X127.081 Y151.731 E4.13813
G1 X127.039 Y151.129 E4.1582
G1 X127.025 Y150.8 E4.16915
G1 X127.016 Y150.493 E4.17937
G1 X127.012 Y150.219 E4.18848
G1 X127.012 Y149.912 E4.19869
G1 X127.018 Y149.461 E4.2137
G1 X127.03 Y149.079 E4.22641
G1 X127.045 Y148.767 E4.2368
G1 X127.088 Y148.189 E4.25607
G1 X127.155 Y147.526 E4.27824
G1 X127.19 Y147.223 E4.28838
G1 X127.276 Y146.557 E4.31072
G1 X127.435 Y145.635 E4.34184
G1 X127.587 Y144.934 E4.36569
G1 X127.662 Y144.609 E4.37679
G1 X127.82 Y143.974 E4.39855
G1 X128.08 Y143.09 E4.4292
G1 X128.321 Y142.381 E4.45411
G1 X128.439 Y142.053 E4.4657
G1 X128.664 Y141.454 E4.48698
G1 X129.016 Y140.622 E4.51703
G1 X129.301 Y140.019 E4.53921
G1 X129.451 Y139.714 E4.55052
G1 X129.754 Y139.121 E4.57267
G1 X130.204 Y138.323 E4.60314
G1 X130.617 Y137.658 E4.62917
G1 X130.809 Y137.359 E4.64099
G1 X131.147 Y136.852 E4.66126
G1 X131.683 Y136.117 E4.69151
G1 X132.117 Y135.57 E4.71474
G1 X132.314 Y135.329 E4.72509
G1 X132.741 Y134.821 E4.74716
G1 X133.383 Y134.121 E4.77875
G1 X133.893 Y133.611 E4.80274
G0 F6000 X134.176 Y133.894
G1 F1200 X134.399 Y133.677 E4.81309
G1 X134.873 Y133.23 E4.83476
G1 X135.554 Y132.641 E4.86471
G1 X136.088 Y132.217 E4.88739
G1 X136.319 Y132.038 E4.89711
G1 X136.859 Y131.633 E4.91956
G1 X137.606 Y131.121 E4.94968
G1 X138.226 Y130.734 E4.97399
G1 X138.49 Y130.575 E4.98424
G1 X139.046 Y130.25 E5.00566
G1 X139.857 Y129.821 E5.03617
G1 X140.503 Y129.515 E5.05995
G1 X140.761 Y129.397 E5.06938
G1 X141.366 Y129.13 E5.09138
G1 X142.243 Y128.789 E5.12268
G1 X142.895 Y128.568 E5.14557
G1 X143.164 Y128.481 E5.15498
G1 X143.807 Y128.282 E5.17736
G1 X144.677 Y128.053 E5.20729
G1 X145.395 Y127.896 E5.23173
G1 X145.696 Y127.834 E5.24195
G1 X146.317 Y127.717 E5.26297
G1 X147.228 Y127.586 E5.29358
G1 X147.95 Y127.514 E5.31771
G1 X148.249 Y127.489 E5.32769
G1 X148.895 Y127.443 E5.34923
G1 X149.793 Y127.417 E5.37911
G1 X150.526 Y127.427 E5.4035
G1 X150.836 Y127.436 E5.41381
G1 X151.465 Y127.463 E5.43475
G1 X152.361 Y127.539 E5.46466
G1 X153.077 Y127.631 E5.48867
G1 X153.373 Y127.674 E5.49862
G1 X154.028 Y127.777 E5.52067
G1 X154.941 Y127.962 E5.55165
G1 X155.632 Y128.134 E5.57534
G1 X155.9 Y128.204 E5.58455
G1 X156.514 Y128.374 E5.60574
G1 X157.391 Y128.659 E5.63641
G1 X158.053 Y128.906 E5.65991
G1 X158.342 Y129.018 E5.67022
G1 X158.964 Y129.271 E5.69256
G1 X159.776 Y129.642 E5.72225
G1 X160.413 Y129.966 E5.74602
G1 X160.691 Y130.113 E5.75648
G1 X161.271 Y130.43 E5.77846
G1 X162.036 Y130.891 E5.80817
G1 X162.639 Y131.29 E5.83222
G1 X162.896 Y131.465 E5.84256
G1 X163.414 Y131.83 E5.86364
G1 X164.128 Y132.38 E5.89361
G1 X164.673 Y132.838 E5.91729
G1 X164.905 Y133.039 E5.9275
G1 X165.41 Y133.489 E5.95
G1 X166.066 Y134.126 E5.98041
G1 X166.522 Y134.609 E6.0025
G1 X166.726 Y134.832 E6.01255
G1 X167.186 Y135.348 E6.03555
G1 X167.752 Y136.04 E6.06528
G1 X168.185 Y136.617 E6.08927
G1 X168.362 Y136.86 E6.09927
G1 X168.736 Y137.389 E6.12082
G1 X169.239 Y138.17 E6.15172
G1 X169.594 Y138.779 E6.17516
G1 X169.732 Y139.023 E6.18449
G1 X170.046 Y139.596 E6.20622
G1 X170.452 Y140.42 E6.23677
G1 X170.735 Y141.063 E6.26014
G1 X170.847 Y141.327 E6.26968
G1 X171.105 Y141.959 E6.29238
G1 X171.416 Y142.828 E6.32308
G1 X171.622 Y143.493 E6.34623
G1 X171.713 Y143.802 E6.35695
G1 X171.891 Y144.445 E6.37914
G1 X172.09 Y145.3 E6.40834
G1 X172.219 Y145.981 E6.43139
G1 X172.27 Y146.275 E6.44131
G1 X172.377 Y146.942 E6.46378
G1 X172.484 Y147.862 E6.49459
G1 X172.535 Y148.572 E6.51826
G1 X172.552 Y148.882 E6.52859
G1 X172.58 Y149.542 E6.55056
G1 X172.581 Y150.435 E6.58026
G1 X172.552 Y151.127 E6.6033
G1 X172.535 Y151.431 E6.61342
G1 X172.488 Y152.095 E6.63556
G1 X172.385 Y152.996 E6.66573
G1 X172.277 Y153.682 E6.68882
G1 X172.226 Y153.977 E6.69878
G1 X172.098 Y154.663 E6.72199
G1 X171.89 Y155.559 E6.75259
G1 X171.707 Y156.217 E6.7753
G1 X171.618 Y156.52 E6.7858
G1 X171.419 Y157.161 E6.80813
G1 X171.126 Y157.985 E6.83722
G1 X170.858 Y158.649 E6.86103
G1 X170.732 Y158.947 E6.87179
G1 X170.474 Y159.534 E6.89312
G1 X170.08 Y160.337 E6.92287
G1 X169.736 Y160.969 E6.9468
G1 X169.582 Y161.242 E6.95723
G1 X169.246 Y161.818 E6.9794
G1 X168.761 Y162.573 E7.00925
G1 X168.368 Y163.132 E7.03198
G1 X168.179 Y163.394 E7.04272
G1 X167.766 Y163.945 E7.06563
G1 X167.2 Y164.637 E7.09536
G1 X166.744 Y165.149 E7.11816
G1 X166.533 Y165.378 E7.12852
G1 X166.072 Y165.866 E7.15085
G1 X165.43 Y166.491 E7.18065
G1 X164.875 Y166.987 E7.20541
G1 X164.634 Y167.196 E7.21602
G1 X164.15 Y167.603 E7.23705
G1 X163.437 Y168.152 E7.26698
G1 X162.884 Y168.542 E7.28949
G1 X162.623 Y168.721 E7.30001
G1 X162.041 Y169.106 E7.32322
G1 X161.289 Y169.56 E7.35244
G1 X160.667 Y169.901 E7.37603
G1 X160.376 Y170.054 E7.38697
G1 X159.794 Y170.35 E7.40868
G1 X158.99 Y170.718 E7.43809
G1 X158.357 Y170.976 E7.46083
G1 X158.055 Y171.094 E7.47161
G1 X157.397 Y171.339 E7.49497
G1 X156.541 Y171.617 E7.5249
G1 X155.88 Y171.801 E7.54772
G1 X155.571 Y171.882 E7.55835
G1 X154.905 Y172.046 E7.58116
G1 X154.023 Y172.223 E7.61108
G1 X153.383 Y172.324 E7.63263
G1 X153.099 Y172.365 E7.64217
G1 X152.4 Y172.456 E7.66562
G1 X151.494 Y172.535 E7.69587
G1 X150.783 Y172.566 E7.71954
G1 X150.464 Y172.575 E7.73015
G1 X149.799 Y172.584 E7.75227
G1 X148.91 Y172.559 E7.78185
G1 X148.244 Y172.512 E7.80406
G1 X147.916 Y172.483 E7.81501
G1 X147.219 Y172.412 E7.83831
G1 X146.353 Y172.288 E7.86741
G1 X145.687 Y172.164 E7.88994
G1 X145.354 Y172.096 E7.90124
G1 X144.689 Y171.95 E7.92389
G1 X143.838 Y171.726 E7.95316
G1 X143.157 Y171.516 E7.97686
G1 X142.877 Y171.426 E7.98664
G1 X142.24 Y171.21 E8.00901
G1 X141.365 Y170.869 E8.04025
G1 X140.735 Y170.591 E8.06315
G1 X140.487 Y170.478 E8.07222
G1 X139.892 Y170.197 E8.0941
G1 X139.075 Y169.766 E8.12482
G1 X138.448 Y169.4 E8.14897
G1 X138.184 Y169.241 E8.15922
G1 X137.629 Y168.895 E8.18097
G1 X136.887 Y168.388 E8.21086
G1 X136.347 Y167.984 E8.23329
G1 X136.097 Y167.791 E8.2438
G1 X135.544 Y167.351 E8.2673
G1 X134.875 Y166.771 E8.29675
G1 X134.39 Y166.314 E8.31892
G1 X134.171 Y166.102 E8.32905
G1 X133.68 Y165.612 E8.35213
G1 X133.051 Y164.926 E8.38308
G1 X132.6 Y164.389 E8.40641
G1 X132.421 Y164.171 E8.41579
G1 X132.005 Y163.648 E8.43801
G1 X131.461 Y162.899 E8.4688
G1 X131.056 Y162.287 E8.49321
G1 X130.895 Y162.035 E8.50316
G1 X130.566 Y161.506 E8.52388
G1 X130.128 Y160.732 E8.55346
G1 X129.806 Y160.102 E8.57699
G1 X129.655 Y159.794 E8.5884
G1 X129.363 Y159.174 E8.61119
G1 X129.021 Y158.362 E8.6405
G1 X128.773 Y157.697 E8.6641
G1 X128.673 Y157.416 E8.67402
G1 X128.472 Y156.827 E8.69472
G1 X128.216 Y155.958 E8.72485
G1 X128.038 Y155.241 E8.74943
G1 X127.967 Y154.937 E8.75981
G1 X127.828 Y154.297 E8.78159
G1 X127.675 Y153.407 E8.81163
G1 X127.583 Y152.696 E8.83547
G1 X127.545 Y152.368 E8.84646
G1 X127.479 Y151.693 E8.86901
G1 X127.439 Y151.112 E8.88838
G1 X127.425 Y150.783 E8.89934
G1 X127.416 Y150.487 E8.90918
G1 X127.412 Y150.213 E8.9183
G1 X127.412 Y149.917 E8.92814
G1 X127.418 Y149.466 E8.94315
G1 X127.429 Y149.098 E8.95539
G1 X127.444 Y148.786 E8.96578
G1 X127.486 Y148.229 E8.98436
G1 X127.553 Y147.566 E9.00652
G1 X127.586 Y147.275 E9.01626
G1 X127.672 Y146.609 E9.0386
G1 X127.826 Y145.72 E9.06861
G1 X127.978 Y145.019 E9.09246
G1 X128.051 Y144.706 E9.10315
G1 X128.209 Y144.071 E9.12492
G1 X128.459 Y143.219 E9.15445
G1 X128.7 Y142.51 E9.17936
G1 X128.813 Y142.194 E9.19052
G1 X129.038 Y141.595 E9.2118
G1 X129.377 Y140.792 E9.24079
G1 X129.662 Y140.189 E9.26297
G1 X129.807 Y139.896 E9.27385
G1 X130.11 Y139.303 E9.296
G1 X130.544 Y138.534 E9.32537
G1 X130.957 Y137.869 E9.3514
G1 X131.142 Y137.581 E9.36279
G1 X131.48 Y137.074 E9.38305
G1 X131.996 Y136.366 E9.41219
G1 X132.43 Y135.819 E9.43542
G1 X132.62 Y135.587 E9.44539
G1 X133.047 Y135.079 E9.46746
G1 X133.666 Y134.404 E9.49792
G1 X134.176 Y133.894 E9.52191
G0 F6000 X134.459 Y134.177
G1 F1200 X134.673 Y133.968 E9.53186
G1 X135.147 Y133.521 E9.55353
G1 X135.802 Y132.954 E9.58235
G1 X136.336 Y132.53 E9.60502
G1 X136.559 Y132.358 E9.61439
G1 X137.099 Y131.953 E9.63684
G1 X137.818 Y131.46 E9.66584
G1 X138.438 Y131.073 E9.69015
G1 X138.692 Y130.92 E9.70001
G1 X139.248 Y130.595 E9.72143
G1 X140.029 Y130.183 E9.7508
G1 X140.675 Y129.877 E9.77457
G1 X140.923 Y129.763 E9.78365
G1 X141.528 Y129.496 E9.80565
G1 X142.372 Y129.168 E9.83576
G1 X143.024 Y128.947 E9.85866
G1 X143.282 Y128.863 E9.86768
G1 X143.925 Y128.664 E9.89007
G1 X144.762 Y128.443 E9.91886
G1 X145.48 Y128.286 E9.94331
G1 X145.77 Y128.227 E9.95315
G1 X146.391 Y128.11 E9.97417
G1 X147.268 Y127.984 E10.00364
G1 X147.99 Y127.912 E10.02777
G1 X148.278 Y127.888 E10.03738
G1 X148.924 Y127.842 E10.05892
G1 X149.787 Y127.817 E10.08764
G1 X150.52 Y127.827 E10.11202
G1 X150.818 Y127.835 E10.12194
G1 X151.447 Y127.862 E10.14288
G1 X152.31 Y127.936 E10.17169
G1 X153.026 Y128.028 E10.1957
G1 X153.31 Y128.069 E10.20524
G1 X153.965 Y128.172 E10.22729
G1 X154.845 Y128.35 E10.25715
G1 X155.536 Y128.522 E10.28084
G1 X155.794 Y128.59 E10.28971
G1 X156.408 Y128.76 E10.3109
G1 X157.252 Y129.034 E10.34042
G1 X157.914 Y129.281 E10.36392
G1 X158.191 Y129.389 E10.37381
G1 X158.813 Y129.642 E10.39614
G1 X159.594 Y129.998 E10.42469
G1 X160.231 Y130.322 E10.44846
G1 X160.499 Y130.464 E10.45854
G1 X161.079 Y130.781 E10.48053
G1 X161.816 Y131.225 E10.50915
G1 X162.419 Y131.624 E10.53319
G1 X162.665 Y131.792 E10.5431
G1 X163.183 Y132.157 E10.56418
G1 X163.87 Y132.686 E10.59302
G1 X164.415 Y133.144 E10.6167
G1 X164.639 Y133.338 E10.62655
G1 X165.144 Y133.788 E10.64905
G1 X165.775 Y134.401 E10.67831
G1 X166.231 Y134.884 E10.7004
G1 X166.428 Y135.099 E10.7101
G1 X166.888 Y135.615 E10.73309
G1 X167.432 Y136.28 E10.76167
G1 X167.865 Y136.857 E10.78566
G1 X168.036 Y137.091 E10.7953
G1 X168.41 Y137.62 E10.81685
G1 X168.893 Y138.371 E10.84655
