; HEADER_BLOCK_START
; generated by OrcaSlicer 2.1.1 on 2024-11-16 at 16:34:02
; total layer number: 36
; filament_density: 1.24
; filament_diameter: 1.75
; max_z_height: 3.00
; HEADER_BLOCK_END

; THUMBNAIL_BLOCK_START

;
; THUMBNAIL_BLOCK_END







; external perimeters extrusion width = 0.40mm
; perimeters extrusion width = 0.45mm
; infill extrusion width = 0.45mm
; solid infill extrusion width = 0.45mm
; top infill extrusion width = 0.38mm
; first layer extrusion width = 0.42mm

; EXECUTABLE_BLOCK_START
EXCLUDE_OBJECT_DEFINE NAME=履带轮_轴片2.STL_id_0_copy_0 CENTER=117.5,115 POLYGON=[[104.5,115],[104.569,113.663],[104.775,112.341],[105.116,111.047],[105.588,109.794],[106.186,108.597],[106.905,107.468],[107.735,106.418],[108.669,105.459],[109.697,104.602],[110.808,103.855],[111.989,103.226],[113.229,102.722],[114.514,102.348],[115.831,102.108],[117.165,102.004],[118.503,102.039],[119.831,102.211],[121.133,102.518],[122.397,102.958],[123.61,103.525],[124.757,104.214],[125.828,105.018],[126.81,105.927],[127.694,106.932],[128.469,108.023],[129.128,109.188],[129.664,110.414],[130.071,111.689],[130.345,112.999],[130.483,114.331],[130.5,115],[130.483,115.669],[130.345,117.001],[130.071,118.311],[129.664,119.586],[129.128,120.812],[128.469,121.977],[127.694,123.068],[126.81,124.073],[125.828,124.982],[124.757,125.786],[123.61,126.475],[122.397,127.042],[121.133,127.482],[119.831,127.789],[118.503,127.961],[117.165,127.996],[115.831,127.892],[114.514,127.652],[113.229,127.278],[111.989,126.774],[110.808,126.145],[109.697,125.398],[108.669,124.541],[107.735,123.582],[106.905,122.532],[106.186,121.403],[105.588,120.206],[105.116,118.953],[104.775,117.659],[104.569,116.337],[104.5,115]]
M73 P0 R11
;TYPE:Custom
;ELEGOO NEPTUNE 4 PRO
M220 S100 ;Set the feed speed to 100%
M221 S100 ;Set the flow rate to 100%
M104 S140
M190 S60
G90
G28 ;home
G1 Z10 F300
G1 X67.5 Y0 F6000
G1 Z0 F300
M109 S210
G92 E0 ;Reset Extruder
G1 X67.5 Y0 Z0.4 F300 ;Move to start position
G1 X167.5 E30 F400 ;Draw the first line
G1 Z0.6 F120.0 ;Move to side a little
M73 P2 R11
G1 X162.5 F3000
G92 E0 ;Reset Extruder
G90
G21
M83 ; use relative distances for extrusion
; filament start gcode
M106 S0
;LAYER_CHANGE
;Z:0.2
;HEIGHT:0.2
;BEFORE_LAYER_CHANGE
G92 E0
;0.2


G1 E-.8 F3600
;AFTER_LAYER_CHANGE
;0.2
;_SET_FAN_SPEED_CHANGING_LAYER
SET_VELOCITY_LIMIT ACCEL=1000 ACCEL_TO_DECEL=500
SET_VELOCITY_LIMIT SQUARE_CORNER_VELOCITY=7
; printing object 履带轮 轴片2.STL id:0 copy 0
EXCLUDE_OBJECT_START NAME=履带轮_轴片2.STL_id_0_copy_0
G1 X114.759 Y126.615 F21000
G1 Z.4
G1 Z.2
G1 E.8 F2700
;TYPE:Inner wall
;WIDTH:0.419999
G1 F3000
G1 X113.579 Y126.272 E.03776
G1 X112.476 Y125.823 E.03659
G1 X111.355 Y125.231 E.03896
G1 X110.337 Y124.546 E.03771
G1 X109.393 Y123.758 E.03776
G1 X108.536 Y122.879 E.03776
G1 X107.773 Y121.915 E.03776
G1 X107.114 Y120.878 E.03775
G1 X106.564 Y119.779 E.03776
G1 X106.131 Y118.629 E.03776
G1 X105.818 Y117.441 E.03776
G1 X105.629 Y116.227 E.03776
G1 X105.566 Y115 E.03776
G1 X105.629 Y113.773 E.03776
G1 X105.818 Y112.559 E.03776
G1 X106.131 Y111.371 E.03776
G1 X106.564 Y110.221 E.03776
G1 X107.114 Y109.122 E.03776
G1 X107.773 Y108.085 E.03775
G1 X108.536 Y107.121 E.03776
G1 X109.393 Y106.242 E.03776
G1 X110.337 Y105.454 E.03776
G1 X111.356 Y104.768 E.03775
G1 X112.441 Y104.191 E.03776
G1 X113.579 Y103.728 E.03776
G1 X114.759 Y103.385 E.03776
G1 X115.968 Y103.164 E.03775
G1 X117.193 Y103.07 E.03776
M73 P3 R11
G1 X118.383 Y103.1 E.03659
G1 X119.641 Y103.259 E.03896
G1 X120.836 Y103.541 E.03771
G1 X121.996 Y103.945 E.03776
G1 X123.109 Y104.466 E.03775
G1 X124.162 Y105.098 E.03776
G1 X125.145 Y105.836 E.03776
G1 X126.047 Y106.67 E.03776
G1 X126.858 Y107.593 E.03775
G1 X127.57 Y108.595 E.03776
G1 X128.175 Y109.664 E.03776
G1 X128.667 Y110.79 E.03776
G1 X129.041 Y111.961 E.03776
G1 X129.292 Y113.163 E.03776
G1 X129.422 Y114.493 E.04105
G1 X129.434 Y115.069 E.0177
G1 X129.42 Y115.601 E.01635
G1 X129.292 Y116.837 E.03818
G1 X129.041 Y118.039 E.03776
G1 X128.667 Y119.21 E.03776
G1 X128.175 Y120.336 E.03776
G1 X127.57 Y121.405 E.03776
G1 X126.858 Y122.407 E.03776
G1 X126.047 Y123.33 E.03776
G1 X125.145 Y124.164 E.03776
G1 X124.162 Y124.902 E.03776
G1 X123.109 Y125.534 E.03776
G1 X121.996 Y126.055 E.03775
G1 X120.836 Y126.459 E.03776
G1 X119.64 Y126.741 E.03776
G1 X118.421 Y126.899 E.03776
G1 X117.193 Y126.93 E.03776
G1 X115.968 Y126.836 E.03776
G1 X114.798 Y126.623 E.03653
G1 X114.672 Y126.983 F21000
G1 F3000
G1 X113.455 Y126.629 E.03895
G1 X112.317 Y126.166 E.03776
G1 X111.161 Y125.555 E.04016
G1 X110.11 Y124.848 E.03892
G1 X109.137 Y124.036 E.03895
G1 X108.252 Y123.128 E.03895
G1 X107.465 Y122.134 E.03895
G1 X106.785 Y121.064 E.03895
G1 X106.218 Y119.93 E.03895
G1 X105.771 Y118.744 E.03895
G1 X105.448 Y117.518 E.03895
G1 X105.253 Y116.266 E.03895
G1 X105.188 Y115 E.03895
G1 X105.253 Y113.734 E.03895
G1 X105.448 Y112.482 E.03895
G1 X105.771 Y111.256 E.03895
G1 X106.218 Y110.07 E.03895
G1 X106.785 Y108.936 E.03895
G1 X107.465 Y107.866 E.03895
G1 X108.252 Y106.872 E.03895
G1 X109.137 Y105.964 E.03895
G1 X110.11 Y105.152 E.03895
G1 X111.162 Y104.445 E.03895
G1 X112.281 Y103.849 E.03895
G1 X113.455 Y103.371 E.03895
G1 X114.672 Y103.017 E.03895
G1 X115.919 Y102.79 E.03895
G1 X117.183 Y102.692 E.03895
G1 X118.412 Y102.724 E.03776
G1 X119.708 Y102.888 E.04016
G1 X120.941 Y103.179 E.03892
G1 X122.138 Y103.595 E.03895
G1 X123.286 Y104.132 E.03895
G1 X124.373 Y104.785 E.03895
G1 X125.387 Y105.546 E.03895
G1 X126.317 Y106.407 E.03895
G1 X127.154 Y107.359 E.03895
G1 X127.889 Y108.392 E.03895
G1 X128.513 Y109.495 E.03895
G1 X129.021 Y110.657 E.03895
G1 X129.406 Y111.864 E.03895
G1 X129.665 Y113.105 E.03895
G1 X129.799 Y114.483 E.04254
G1 X129.811 Y115.078 E.01829
G1 X129.797 Y115.625 E.0168
G1 X129.665 Y116.895 E.03922
G1 X129.406 Y118.136 E.03895
G1 X129.021 Y119.343 E.03895
G1 X128.513 Y120.505 E.03895
G1 X127.889 Y121.608 E.03895
G1 X127.154 Y122.641 E.03895
G1 X126.317 Y123.593 E.03895
G1 X125.387 Y124.454 E.03895
G1 X124.373 Y125.215 E.03895
G1 X123.286 Y125.868 E.03895
G1 X122.138 Y126.405 E.03895
G1 X120.941 Y126.821 E.03895
G1 X119.707 Y127.113 E.03895
G1 X118.45 Y127.275 E.03895
G1 X117.183 Y127.308 E.03895
G1 X115.919 Y127.21 E.03895
G1 X114.711 Y126.99 E.03772
G1 X114.585 Y127.35 F21000
;TYPE:Outer wall
G1 F3000
G1 X113.331 Y126.985 E.04014
G1 X112.157 Y126.508 E.03894
G1 X110.967 Y125.879 E.04135
G1 X109.884 Y125.15 E.04013
G1 X108.88 Y124.313 E.04015
G1 X107.968 Y123.377 E.04014
G1 X107.158 Y122.353 E.04015
G1 X106.456 Y121.25 E.04014
G1 X105.872 Y120.082 E.04015
G1 X105.411 Y118.859 E.04015
G1 X105.079 Y117.596 E.04014
G1 X104.878 Y116.305 E.04014
G1 X104.81 Y115 E.04014
G1 X104.878 Y113.695 E.04014
G1 X105.079 Y112.404 E.04014
G1 X105.411 Y111.141 E.04014
G1 X105.872 Y109.918 E.04015
G1 X106.456 Y108.75 E.04015
G1 X107.158 Y107.647 E.04014
G1 X107.968 Y106.623 E.04015
G1 X108.88 Y105.687 E.04014
G1 X109.884 Y104.85 E.04015
G1 X110.967 Y104.121 E.04014
G1 X112.121 Y103.507 E.04015
G1 X113.331 Y103.015 E.04014
G1 X114.585 Y102.65 E.04014
G1 X115.871 Y102.415 E.04014
G1 X117.173 Y102.315 E.04015
G1 X118.44 Y102.347 E.03894
G1 X119.775 Y102.516 E.04135
G1 X121.047 Y102.816 E.04014
G1 X122.281 Y103.245 E.04015
G1 X123.464 Y103.799 E.04014
G1 X124.584 Y104.472 E.04015
G1 X125.629 Y105.256 E.04015
G1 X126.588 Y106.143 E.04014
G1 X127.45 Y107.125 E.04014
G1 X128.207 Y108.19 E.04014
G1 X128.851 Y109.327 E.04015
G1 X129.374 Y110.524 E.04014
G1 X129.771 Y111.768 E.04014
G1 X130.038 Y113.047 E.04015
G1 X130.176 Y114.473 E.04403
G1 X130.188 Y115.088 E.01889
G1 X130.173 Y115.649 E.01725
G1 X130.038 Y116.953 E.04027
G1 X129.771 Y118.232 E.04015
G1 X129.374 Y119.476 E.04014
G1 X128.851 Y120.673 E.04014
G1 X128.207 Y121.81 E.04015
G1 X127.45 Y122.875 E.04014
G1 X126.588 Y123.857 E.04014
G1 X125.629 Y124.744 E.04014
G1 X124.584 Y125.528 E.04014
G1 X123.464 Y126.201 E.04015
G1 X122.281 Y126.755 E.04014
G1 X121.047 Y127.184 E.04015
G1 X119.775 Y127.484 E.04014
G1 X118.479 Y127.652 E.04014
G1 X117.173 Y127.685 E.04014
G1 X115.871 Y127.585 E.04015
G1 X114.625 Y127.357 E.03891
G1 E-.68 F3600
;WIPE_START
G1 F3000
G1 X113.664 Y127.081 E-.12
;WIPE_END
G1 X117.916 Y120.743 Z.6 F21000
G1 X125.53 Y109.393 Z.6
G1 Z.2
G1 E.8 F2700
;TYPE:Inner wall
G1 F3000
G1 X125.727 Y109.535 E.00744
G1 X125.946 Y109.763 E.00971
G1 X126.242 Y110.254 E.01763
G1 X126.362 Y110.691 E.01392
G1 X126.376 Y111.111 E.01293
G1 X126.281 Y111.629 E.01616
G1 X125.981 Y112.196 E.01973
G1 X125.586 Y112.587 E.01709
G1 X125.102 Y112.842 E.0168
G1 X124.847 Y112.912 E.00813
G1 X124.505 Y112.956 E.01061
G1 X124.167 Y112.938 E.01038
G1 X123.686 Y112.819 E.01525
G1 X123.124 Y112.468 E.02036
G1 X122.755 Y112.026 E.01769
G1 X122.532 Y111.487 E.01792
G1 X122.478 Y111.092 E.01225
G1 X122.511 Y110.579 E.01578
G1 X122.696 Y110.074 E.01653
G1 X123.02 Y109.64 E.01665
G1 X123.334 Y109.383 E.01246
G1 X123.707 Y109.173 E.01315
G1 X124.238 Y109.048 E.01676
G1 X124.744 Y109.062 E.01556
G1 X125.374 Y109.28 E.02049
G1 X125.498 Y109.369 E.00469
G1 X125.332 Y109.721 F21000
G1 F3000
G1 X125.62 Y109.955 E.0114
G1 X125.887 Y110.38 E.01543
G1 X126.01 Y110.96 E.0182
G1 X125.936 Y111.476 E.01602
G1 X125.699 Y111.947 E.0162
G1 X125.306 Y112.319 E.01662
G1 X124.799 Y112.538 E.01697
G1 X124.457 Y112.582 E.01061
G1 X123.928 Y112.501 E.01643
G1 X123.467 Y112.256 E.01606
G1 X123.099 Y111.857 E.01667
G1 X123.003 Y111.687 E.00601
G1 X122.855 Y111.173 E.01643
G1 X122.888 Y110.639 E.01643
G1 X123.096 Y110.146 E.01644
G1 X123.458 Y109.75 E.01647
G1 X123.927 Y109.499 E.01637
G1 X124.392 Y109.415 E.01451
G1 X124.723 Y109.445 E.01021
G1 X125.225 Y109.633 E.01646
G1 X125.301 Y109.695 E.00304
G1 X125.093 Y110.008 F21000
;TYPE:Outer wall
G1 F3000
G1 X125.322 Y110.187 E.00893
G1 X125.552 Y110.58 E.01399
G1 X125.634 Y110.929 E.01103
G1 X125.591 Y111.323 E.01219
G1 X125.411 Y111.703 E.01291
G1 X125.121 Y111.99 E.01255
G1 X124.751 Y112.164 E.01255
G1 X124.409 Y112.208 E.01061
G1 X123.94 Y112.104 E.01474
G1 X123.582 Y111.852 E.01347
G1 X123.358 Y111.561 E.01126
G1 X123.232 Y111.173 E.01255
G1 X123.243 Y110.764 E.01255
G1 X123.389 Y110.383 E.01255
G1 X123.655 Y110.072 E.01258
G1 X124.008 Y109.867 E.01253
G1 X124.38 Y109.792 E.01167
G1 X124.613 Y109.806 E.00716
G1 X125 Y109.936 E.01257
G1 X125.061 Y109.983 E.00237
G1 E-.68 F3600
;WIPE_START
G1 F3000
G1 X125.322 Y110.187 E-.03969
G1 X125.552 Y110.58 E-.05462
G1 X125.601 Y110.788 E-.0257
;WIPE_END
G1 X124.431 Y118.33 Z.6 F21000
G1 X124.032 Y120.903 Z.6
G1 Z.2
G1 E.8 F2700
;TYPE:Inner wall
G1 F3000
G1 X123.706 Y120.827 E.01029
G1 X123.27 Y120.578 E.01545
G1 X123.033 Y120.371 E.00965
G1 X122.702 Y119.938 E.01675
G1 X122.506 Y119.399 E.01764
G1 X122.478 Y118.827 E.01757
G1 X122.532 Y118.514 E.00978
G1 X122.72 Y118.029 E.01597
G1 X123.026 Y117.633 E.01537
G1 X123.276 Y117.419 E.01012
G1 X123.686 Y117.181 E.01455
G1 X124.173 Y117.059 E.01543
G1 X124.623 Y117.046 E.01383
G1 X125.161 Y117.185 E.01707
G1 X125.445 Y117.327 E.00976
G1 X125.909 Y117.713 E.01856
G1 X126.232 Y118.222 E.01852
G1 X126.388 Y118.86 E.02016
G1 X126.356 Y119.337 E.0147
G1 X126.276 Y119.646 E.0098
G1 X126.003 Y120.171 E.0182
G1 X125.699 Y120.492 E.01358
G1 X125.152 Y120.819 E.01957
G1 X124.84 Y120.913 E.01
G1 X124.245 Y120.953 E.01834
G1 X124.071 Y120.913 E.00547
G1 X124.122 Y120.539 F21000
G1 F3000
G1 X123.843 Y120.476 E.00879
G1 X123.374 Y120.185 E.01693
G1 X123.036 Y119.762 E.01665
G1 X122.862 Y119.257 E.01642
G1 X122.866 Y118.716 E.01661
G1 X123.032 Y118.244 E.01537
G1 X123.371 Y117.815 E.01681
G1 X123.83 Y117.529 E.01662
G1 X124.323 Y117.417 E.01554
G1 X124.723 Y117.445 E.01229
G1 X125.221 Y117.631 E.01635
G1 X125.612 Y117.945 E.01541
G1 X125.883 Y118.365 E.01536
G1 X126.011 Y118.881 E.01634
G1 X125.953 Y119.438 E.01722
G1 X125.712 Y119.932 E.01687
G1 X125.291 Y120.326 E.01772
G1 X124.799 Y120.538 E.01646
G1 X124.301 Y120.58 E.01537
G1 X124.161 Y120.548 E.00442
G1 X124.194 Y120.164 F21000
;TYPE:Outer wall
G1 F3000
G1 X123.916 Y120.089 E.00885
G1 X123.616 Y119.893 E.011
G1 X123.358 Y119.561 E.01291
G1 X123.232 Y119.173 E.01255
G1 X123.243 Y118.765 E.01255
G1 X123.373 Y118.408 E.01167
G1 X123.672 Y118.062 E.01406
G1 X124.015 Y117.866 E.01215
M73 P4 R11
G1 X124.38 Y117.792 E.01144
G1 X124.612 Y117.806 E.00715
G1 X124.997 Y117.935 E.01247
G1 X125.322 Y118.187 E.01264
G1 X125.542 Y118.531 E.01255
G1 X125.634 Y118.929 E.01253
G1 X125.589 Y119.335 E.01257
G1 X125.411 Y119.703 E.01254
G1 X125.103 Y119.999 E.01313
G1 X124.745 Y120.165 E.01214
G1 X124.345 Y120.205 E.01234
G1 X124.232 Y120.175 E.00359
G1 E-.68 F3600
;WIPE_START
G1 F3000
G1 X123.916 Y120.089 E-.03936
G1 X123.616 Y119.893 E-.04296
G1 X123.423 Y119.645 E-.03767
;WIPE_END
G1 X116.304 Y122.397 Z.6 F21000
G1 X115.576 Y122.679 Z.6
G1 Z.2
G1 E.8 F2700
;TYPE:Inner wall
G1 F3000
G1 X115.601 Y122.531 E.00461
G1 X115.83 Y121.968 E.01867
G1 X116.18 Y121.546 E.01685
G1 X116.625 Y121.249 E.01643
G1 X116.948 Y121.124 E.01066
G1 X117.453 Y121.038 E.01572
G1 X117.905 Y121.085 E.01398
G1 X118.407 Y121.258 E.01632
G1 X118.866 Y121.59 E.01739
G1 X119.205 Y122.04 E.01732
G1 X119.428 Y122.667 E.02044
G1 X119.457 Y122.99 E.00998
G1 X119.379 Y123.567 E.0179
G1 X119.126 Y124.103 E.0182
G1 X118.789 Y124.473 E.01538
G1 X118.533 Y124.663 E.0098
G1 X118.059 Y124.883 E.01607
G1 X117.481 Y124.963 E.01792
G1 X116.92 Y124.87 E.01746
G1 X116.627 Y124.752 E.00971
G1 X116.117 Y124.386 E.01928
G1 X115.75 Y123.889 E.01899
G1 X115.57 Y123.366 E.01698
G1 X115.549 Y122.841 E.01617
G1 X115.57 Y122.718 E.00381
G1 X115.971 Y122.682 F21000
G1 F3000
G1 X116.073 Y122.317 E.01163
G1 X116.241 Y122.055 E.00957
G1 X116.528 Y121.751 E.01284
G1 X116.998 Y121.499 E.01639
G1 X117.464 Y121.415 E.01454
G1 X117.795 Y121.445 E.01021
G1 X118.275 Y121.618 E.01567
G1 X118.694 Y121.959 E.01662
G1 X118.923 Y122.301 E.01263
G1 X119.077 Y122.824 E.01675
G1 X119.053 Y123.305 E.01479
G1 X118.862 Y123.805 E.01646
G1 X118.517 Y124.212 E.01641
G1 X118.054 Y124.482 E.01646
G1 X117.528 Y124.582 E.01644
G1 X117 Y124.501 E.01643
G1 X116.538 Y124.256 E.01606
G1 X116.171 Y123.857 E.01667
G1 X115.959 Y123.361 E.01656
G1 X115.926 Y122.84 E.01606
G1 X115.96 Y122.72 E.00381
G1 X116.312 Y122.83 F21000
;TYPE:Outer wall
G1 F3000
G1 X116.314 Y122.777 E.00165
G1 X116.461 Y122.383 E.01291
G1 X116.726 Y122.072 E.01255
G1 X117.109 Y121.861 E.01345
G1 X117.452 Y121.792 E.01074
G1 X117.684 Y121.806 E.00715
G1 X118.072 Y121.936 E.01257
G1 X118.394 Y122.187 E.01253
G1 X118.592 Y122.48 E.01087
G1 X118.706 Y122.927 E.01418
G1 X118.661 Y123.335 E.01261
G1 X118.483 Y123.703 E.01254
G1 X118.193 Y123.99 E.01253
G1 X117.823 Y124.164 E.01257
G1 X117.417 Y124.205 E.01255
G1 X117.021 Y124.109 E.01253
G1 X116.688 Y123.893 E.01219
G1 X116.43 Y123.561 E.01291
G1 X116.304 Y123.173 E.01253
G1 X116.311 Y122.87 E.00931
G1 E-.68 F3600
;WIPE_START
G1 F3000
G1 X116.314 Y122.777 E-.01123
G1 X116.461 Y122.383 E-.05043
G1 X116.726 Y122.072 E-.049
G1 X116.794 Y122.035 E-.00935
;WIPE_END
G1 X111.208 Y117.164 Z.6 F21000
G1 Z.2
G1 E.8 F2700
;TYPE:Inner wall
G1 F3000
G1 X111.469 Y117.252 E.00845
G1 X111.877 Y117.54 E.01537
G1 X112.106 Y117.789 E.01037
G1 X112.376 Y118.225 E.01576
G1 X112.524 Y118.787 E.01788
G1 X112.5 Y119.337 E.01692
G1 X112.42 Y119.646 E.00979
G1 X112.196 Y120.105 E.01571
G1 X111.762 Y120.563 E.01939
G1 X111.296 Y120.818 E.0163
G1 X110.991 Y120.912 E.00983
G1 X110.514 Y120.964 E.01474
G1 X109.992 Y120.87 E.01629
G1 X109.699 Y120.752 E.00971
G1 X109.209 Y120.409 E.01836
G1 X108.884 Y120.004 E.01596
G1 X108.676 Y119.487 E.01715
G1 X108.622 Y119.175 E.00971
G1 X108.656 Y118.584 E.01821
G1 X108.884 Y117.997 E.01934
G1 X109.244 Y117.552 E.01759
G1 X109.697 Y117.249 E.01673
G1 X109.99 Y117.131 E.00971
G1 X110.536 Y117.038 E.01702
G1 X110.978 Y117.085 E.01367
G1 X111.171 Y117.151 E.00625
G1 X111.075 Y117.517 F21000
G1 F3000
G1 X111.294 Y117.586 E.00706
G1 X111.731 Y117.916 E.01681
G1 X112.014 Y118.336 E.01556
G1 X112.151 Y118.838 E.01599
G1 X112.114 Y119.376 E.01659
G1 X111.897 Y119.873 E.01665
G1 X111.529 Y120.266 E.01654
G1 X111.004 Y120.527 E.01804
G1 X110.52 Y120.587 E.01498
