; HEADER_BLOCK_START
; generated by OrcaSlicer 2.1.1 on 2024-11-16 at 16:56:38
; total layer number: 143
; filament_density: 1.24
; filament_diameter: 1.75
; max_z_height: 11.56
; HEADER_BLOCK_END

; THUMBNAIL_BLOCK_START

;
; THUMBNAIL_BLOCK_END







; external perimeters extrusion width = 0.40mm
; perimeters extrusion width = 0.45mm
; infill extrusion width = 0.45mm
; solid infill extrusion width = 0.45mm
; top infill extrusion width = 0.38mm
; first layer extrusion width = 0.42mm

; EXECUTABLE_BLOCK_START
EXCLUDE_OBJECT_DEFINE NAME=履带轮_轴片1.STL_id_0_copy_0 CENTER=117.5,115 POLYGON=[[104.5,115],[104.574,113.618],[104.794,112.252],[105.158,110.917],[105.662,109.628],[106.3,108.4],[107.065,107.247],[107.948,106.182],[108.939,105.217],[110.028,104.362],[111.201,103.628],[112.445,103.023],[113.747,102.554],[115.091,102.225],[116.463,102.041],[117.846,102.005],[119.225,102.115],[120.585,102.371],[121.91,102.771],[123.185,103.309],[124.395,103.979],[125.528,104.775],[126.569,105.686],[127.508,106.703],[128.333,107.814],[129.036,109.006],[129.607,110.266],[130.042,111.58],[130.334,112.932],[130.482,114.308],[130.5,115],[130.482,115.692],[130.334,117.068],[130.042,118.42],[129.607,119.734],[129.036,120.994],[128.333,122.186],[127.508,123.297],[126.569,124.314],[125.528,125.225],[124.395,126.021],[123.185,126.691],[121.91,127.229],[120.585,127.629],[119.225,127.885],[117.846,127.995],[116.463,127.959],[115.091,127.775],[113.747,127.446],[112.445,126.977],[111.201,126.372],[110.028,125.638],[108.939,124.783],[107.948,123.818],[107.065,122.753],[106.3,121.6],[105.662,120.372],[105.158,119.083],[104.794,117.748],[104.574,116.382],[104.5,115]]
M73 P0 R26
;TYPE:Custom
;ELEGOO NEPTUNE 4 PRO
M220 S100 ;Set the feed speed to 100%
M221 S100 ;Set the flow rate to 100%
M104 S140
M190 S60
G90
G28 ;home
G1 Z10 F300
G1 X67.5 Y0 F6000
G1 Z0 F300
M109 S210
G92 E0 ;Reset Extruder
G1 X67.5 Y0 Z0.4 F300 ;Move to start position
G1 X167.5 E30 F400 ;Draw the first line
G1 Z0.6 F120.0 ;Move to side a little
M73 P1 R25
G1 X162.5 F3000
G92 E0 ;Reset Extruder
G90
G21
M83 ; use relative distances for extrusion
; filament start gcode
M106 S0
;LAYER_CHANGE
;Z:0.2
;HEIGHT:0.2
;BEFORE_LAYER_CHANGE
G92 E0
;0.2


G1 E-.8 F3600
;AFTER_LAYER_CHANGE
;0.2
;_SET_FAN_SPEED_CHANGING_LAYER
SET_VELOCITY_LIMIT ACCEL=1000 ACCEL_TO_DECEL=500
SET_VELOCITY_LIMIT SQUARE_CORNER_VELOCITY=7
; printing object 履带轮 轴片1.STL id:0 copy 0
EXCLUDE_OBJECT_START NAME=履带轮_轴片1.STL_id_0_copy_0
G1 X126.687 Y122.617 F21000
G1 Z.4
G1 Z.2
G1 E.8 F2700
;TYPE:Inner wall
;WIDTH:0.419999
G1 F3000
G1 X125.826 Y123.55 E.03903
G1 X124.87 Y124.387 E.03903
G1 X123.83 Y125.117 E.03903
G1 X122.719 Y125.733 E.03903
G1 X121.549 Y126.227 E.03903
G1 X120.332 Y126.593 E.03903
G1 X119.084 Y126.829 E.03903
G1 X117.818 Y126.93 E.03903
G1 X116.548 Y126.896 E.03904
G1 X115.289 Y126.728 E.03903
G1 X114.055 Y126.426 E.03903
G1 X112.86 Y125.995 E.03903
G1 X111.717 Y125.44 E.03903
G1 X110.64 Y124.766 E.03903
G1 X109.641 Y123.981 E.03903
G1 X108.731 Y123.095 E.03903
G1 X107.92 Y122.117 E.03903
G1 X107.218 Y121.059 E.03903
G1 X106.632 Y119.931 E.03903
G1 X106.17 Y118.748 E.03903
G1 X105.835 Y117.523 E.03903
G1 X105.633 Y116.269 E.03903
G1 X105.566 Y115 E.03903
G1 X105.633 Y113.731 E.03903
G1 X105.835 Y112.477 E.03903
G1 X106.17 Y111.252 E.03903
G1 X106.632 Y110.069 E.03903
G1 X107.204 Y108.969 E.03808
G1 X107.921 Y107.882 E.04001
G1 X108.731 Y106.905 E.039
G1 X109.641 Y106.019 E.03903
G1 X110.64 Y105.234 E.03903
G1 X111.717 Y104.56 E.03903
G1 X112.86 Y104.005 E.03903
G1 X114.055 Y103.574 E.03903
G1 X115.289 Y103.272 E.03903
G1 X116.548 Y103.104 E.03903
G1 X117.818 Y103.07 E.03904
G1 X119.084 Y103.171 E.03903
G1 X120.332 Y103.407 E.03903
G1 X121.549 Y103.773 E.03903
G1 X122.719 Y104.267 E.03903
G1 X123.83 Y104.883 E.03903
G1 X124.87 Y105.613 E.03903
G1 X125.826 Y106.45 E.03903
G1 X126.687 Y107.383 E.03903
G1 X127.445 Y108.403 E.03903
G1 X128.09 Y109.497 E.03903
G1 X128.615 Y110.654 E.03903
G1 X129.014 Y111.86 E.03903
G1 X129.282 Y113.102 E.03903
G1 X129.419 Y114.379 E.03947
G1 X129.419 Y115.621 E.03817
G1 X129.282 Y116.898 E.03947
G1 X129.014 Y118.14 E.03903
G1 X128.615 Y119.346 E.03903
G1 X128.09 Y120.503 E.03903
G1 X127.445 Y121.597 E.03903
G1 X126.711 Y122.585 E.0378
G1 X126.978 Y122.858 F21000
G1 F3000
G1 X126.089 Y123.821 E.04027
G1 X125.103 Y124.684 E.04027
G1 X124.031 Y125.437 E.04027
G1 X122.884 Y126.072 E.04027
G1 X121.677 Y126.582 E.04027
G1 X120.422 Y126.96 E.04027
G1 X119.134 Y127.203 E.04027
G1 X117.828 Y127.308 E.04027
G1 X116.518 Y127.273 E.04027
G1 X115.219 Y127.099 E.04027
G1 X113.946 Y126.788 E.04027
G1 X112.713 Y126.343 E.04027
G1 X111.534 Y125.77 E.04027
G1 X110.423 Y125.075 E.04027
G1 X109.392 Y124.266 E.04027
G1 X108.453 Y123.351 E.04027
G1 X107.617 Y122.342 E.04027
G1 X106.893 Y121.25 E.04027
G1 X106.288 Y120.087 E.04027
G1 X105.811 Y118.867 E.04027
G1 X105.466 Y117.603 E.04027
G1 X105.258 Y116.309 E.04027
G1 X105.188 Y115 E.04027
G1 X105.258 Y113.691 E.04027
G1 X105.466 Y112.397 E.04027
G1 X105.811 Y111.133 E.04027
G1 X106.288 Y109.913 E.04027
G1 X106.878 Y108.777 E.03931
G1 X107.618 Y107.657 E.04125
G1 X108.453 Y106.649 E.04025
G1 X109.392 Y105.734 E.04027
G1 X110.423 Y104.925 E.04027
G1 X111.534 Y104.23 E.04027
G1 X112.713 Y103.657 E.04027
G1 X113.946 Y103.212 E.04027
G1 X115.219 Y102.901 E.04027
G1 X116.518 Y102.727 E.04027
G1 X117.828 Y102.692 E.04027
G1 X119.134 Y102.797 E.04027
G1 X120.422 Y103.04 E.04027
G1 X121.677 Y103.418 E.04027
G1 X122.884 Y103.928 E.04027
G1 X124.031 Y104.563 E.04027
G1 X125.103 Y105.316 E.04027
G1 X126.089 Y106.179 E.04027
G1 X126.978 Y107.142 E.04027
G1 X127.76 Y108.194 E.04027
G1 X128.425 Y109.323 E.04027
G1 X128.967 Y110.516 E.04027
G1 X129.378 Y111.761 E.04027
G1 X129.655 Y113.042 E.04027
G1 X129.754 Y113.968 E.02863
G1 X129.806 Y114.742 E.02382
G1 X129.795 Y115.646 E.0278
G1 X129.655 Y116.958 E.04055
G1 X129.378 Y118.239 E.04027
G1 X128.967 Y119.484 E.04027
G1 X128.425 Y120.677 E.04027
G1 X127.76 Y121.806 E.04027
G1 X127.002 Y122.826 E.03904
G1 X127.269 Y123.099 F21000
;TYPE:Outer wall
G1 F3000
G1 X126.353 Y124.092 E.0415
G1 X125.336 Y124.981 E.0415
G1 X124.231 Y125.757 E.0415
G1 X123.049 Y126.412 E.0415
G1 X121.805 Y126.937 E.0415
G1 X120.512 Y127.327 E.0415
G1 X119.184 Y127.577 E.0415
G1 X117.838 Y127.685 E.0415
G1 X116.488 Y127.649 E.04151
G1 X115.149 Y127.47 E.0415
G1 X113.837 Y127.149 E.0415
G1 X112.566 Y126.691 E.0415
G1 X111.351 Y126.1 E.0415
G1 X110.206 Y125.384 E.0415
G1 X109.144 Y124.55 E.0415
G1 X108.176 Y123.607 E.0415
G1 X107.314 Y122.568 E.0415
G1 X106.567 Y121.442 E.0415
G1 X105.944 Y120.243 E.0415
G1 X105.453 Y118.986 E.0415
G1 X105.097 Y117.682 E.0415
G1 X104.882 Y116.349 E.0415
G1 X104.81 Y115 E.0415
G1 X104.882 Y113.651 E.0415
G1 X105.097 Y112.318 E.0415
G1 X105.453 Y111.014 E.0415
G1 X105.944 Y109.757 E.0415
G1 X106.553 Y108.586 E.04053
G1 X107.314 Y107.432 E.04248
G1 X108.176 Y106.393 E.0415
G1 X109.144 Y105.45 E.0415
G1 X110.206 Y104.616 E.0415
G1 X111.351 Y103.9 E.0415
G1 X112.566 Y103.309 E.0415
G1 X113.837 Y102.851 E.0415
G1 X115.149 Y102.53 E.0415
G1 X116.488 Y102.351 E.0415
G1 X117.838 Y102.315 E.04151
G1 X119.184 Y102.423 E.0415
G1 X120.512 Y102.673 E.0415
G1 X121.805 Y103.063 E.0415
G1 X123.049 Y103.588 E.0415
G1 X124.231 Y104.243 E.0415
G1 X125.336 Y105.019 E.0415
G1 X126.353 Y105.908 E.0415
G1 X127.269 Y106.901 E.0415
G1 X128.074 Y107.985 E.0415
G1 X128.76 Y109.149 E.0415
G1 X129.318 Y110.379 E.0415
G1 X129.742 Y111.661 E.0415
G1 X130.028 Y112.982 E.0415
G1 X130.129 Y113.928 E.02925
G1 X130.183 Y114.732 E.02475
G1 X130.172 Y115.671 E.02888
G1 X130.028 Y117.018 E.04163
G1 X129.742 Y118.339 E.0415
G1 X129.318 Y119.621 E.0415
G1 X128.76 Y120.851 E.0415
G1 X128.074 Y122.015 E.0415
G1 X127.293 Y123.067 E.04028
G1 E-.68 F3600
;WIPE_START
G1 F3000
G1 X126.617 Y123.804 E-.12
;WIPE_END
G1 X126.851 Y116.175 Z.6 F21000
G1 X127.098 Y108.125 Z.6
G1 Z.2
G1 E.8 F2700
;TYPE:Bottom surface
;WIDTH:0.424683
G1 F4800
G1 X125.604 Y106.631 E.06574
G1 X124.695 Y105.836 E.03758
G1 X123.68 Y105.123 E.03858
G1 X123.401 Y104.969 E.00991
G1 X127.52 Y109.088 E.18121
G1 X127.839 Y109.628 E.01951
G1 X128.103 Y110.21 E.01989
G1 X122.283 Y104.39 E.25603
G1 X121.367 Y104.014 E.03082
G1 X128.47 Y111.117 E.3125
G1 X128.737 Y111.924 E.02644
G1 X120.594 Y103.781 E.35825
G1 X120.265 Y103.682 E.01069
G1 X119.883 Y103.61 E.0121
G1 X128.888 Y112.614 E.39616
G1 X129.017 Y113.284 E.02122
G1 X119.218 Y103.484 E.43114
G1 X119.046 Y103.452 E.00542
G1 X118.61 Y103.417 E.0136
G1 X129.082 Y113.889 E.46069
G1 X129.139 Y114.485 E.01864
G1 X118.024 Y103.37 E.48901
G1 X117.81 Y103.353 E.00666
G1 X117.476 Y103.362 E.01041
G1 X129.152 Y115.038 E.51368
G1 X129.138 Y115.564 E.01637
G1 X116.95 Y103.376 E.5362
G1 X116.438 Y103.404 E.01595
G1 X129.088 Y116.054 E.55656
G1 X129.036 Y116.542 E.01526
G1 X115.962 Y103.468 E.57521
G1 X115.485 Y103.531 E.01494
G1 X128.968 Y117.014 E.59316
G1 X128.872 Y117.458 E.01413
G1 X115.039 Y103.625 E.60859
G1 X114.605 Y103.731 E.01389
G1 X128.776 Y117.902 E.62346
G1 X128.656 Y118.322 E.01358
G1 X114.171 Y103.837 E.63726
G1 X113.771 Y103.977 E.01318
G1 X128.522 Y118.727 E.64894
G1 X128.387 Y119.133 E.01329
G1 X113.374 Y104.12 E.6605
G1 X112.978 Y104.263 E.01312
M73 P2 R25
G1 X128.228 Y119.514 E.67095
G1 X128.06 Y119.885 E.01269
G1 X112.614 Y104.439 E.67954
G1 X112.25 Y104.615 E.01257
G1 X127.891 Y120.256 E.68811
G1 X127.701 Y120.606 E.01238
G1 X111.887 Y104.792 E.69572
G1 X111.552 Y104.997 E.01222
G1 X127.501 Y120.946 E.70165
G1 X127.301 Y121.285 E.01227
G1 X111.22 Y105.205 E.70745
G1 X110.888 Y105.413 E.01219
G1 X127.084 Y121.609 E.71254
G1 X126.854 Y121.919 E.012
G1 X110.578 Y105.643 E.71606
G1 X110.276 Y105.88 E.01196
G1 X126.624 Y122.228 E.71924
G1 X126.384 Y122.529 E.01195
G1 X109.973 Y106.117 E.722
G1 X109.686 Y106.37 E.0119
G1 X126.125 Y122.809 E.72324
G1 X125.866 Y123.09 E.01189
G1 X109.412 Y106.636 E.72388
G1 X109.139 Y106.903 E.01188
G1 X125.604 Y123.368 E.7244
G1 X125.316 Y123.62 E.0119
G1 X108.873 Y107.177 E.72343
G1 X108.628 Y107.472 E.01193
G1 X125.028 Y123.872 E.72153
G1 X124.741 Y124.124 E.0119
G1 X108.383 Y107.767 E.71962
G1 X108.14 Y108.064 E.01193
G1 X124.428 Y124.352 E.71659
G1 X124.111 Y124.574 E.01206
G1 X107.925 Y108.389 E.71208
G1 X107.711 Y108.714 E.01212
G1 X123.794 Y124.797 E.70757
G1 X123.457 Y125 E.01223
G1 X107.496 Y109.039 E.70221
G1 X107.305 Y109.388 E.01237
G1 X123.11 Y125.193 E.69534
G1 X122.762 Y125.385 E.01236
G1 X107.12 Y109.743 E.68818
G1 X106.935 Y110.098 E.01246
G1 X122.398 Y125.561 E.68028
G1 X122.018 Y125.721 E.01282
G1 X106.776 Y110.478 E.6706
G1 X106.624 Y110.867 E.01296
G1 X121.639 Y125.882 E.66058
G1 X121.241 Y126.024 E.01314
G1 X106.472 Y111.255 E.64976
G1 X106.348 Y111.671 E.01351
G1 X120.826 Y126.149 E.63696
G1 X120.412 Y126.274 E.01348
G1 X106.233 Y112.095 E.6238
G1 X106.117 Y112.519 E.01368
G1 X119.971 Y126.374 E.60951
G1 X119.517 Y126.459 E.01438
G1 X106.04 Y112.983 E.5929
G1 X105.965 Y113.448 E.01465
G1 X119.063 Y126.545 E.57621
G1 X118.565 Y126.587 E.01555
G1 X105.906 Y113.928 E.55691
G1 X105.879 Y114.441 E.01597
G1 X118.065 Y126.627 E.53612
G1 X117.81 Y126.647 E.00794
G1 X117.538 Y126.64 E.00847
G1 X105.851 Y114.953 E.51414
G1 X105.876 Y115.518 E.01759
G1 X116.983 Y126.625 E.48864
G1 X116.57 Y126.614 E.01285
G1 X116.411 Y126.593 E.005
G1 X105.907 Y116.089 E.46212
G1 X105.915 Y116.238 E.00467
G1 X105.991 Y116.713 E.01495
G1 X115.788 Y126.509 E.43099
G1 X115.341 Y126.449 E.01401
G1 X115.138 Y126.4 E.00649
G1 X106.095 Y117.356 E.39786
G1 X106.281 Y118.082 E.02332
G1 X114.424 Y126.225 E.35824
G1 X114.136 Y126.155 E.00921
G1 X113.632 Y125.973 E.01668
G1 X106.516 Y118.857 E.31308
G1 X106.862 Y119.743 E.02961
G1 X112.743 Y125.624 E.25871
G1 X111.854 Y125.192 E.03073
G1 X111.632 Y125.052 E.00818
G1 X107.427 Y120.848 E.18496
G1 X108.148 Y121.948 E.0409
G1 X108.924 Y122.885 E.03783
G1 X110.724 Y124.685 E.0792
; stop printing object 履带轮 轴片1.STL id:0 copy 0
M106 S255
;LAYER_CHANGE
;Z:0.28
;HEIGHT:0.08
;BEFORE_LAYER_CHANGE
G92 E0
;0.28


G1 E-.68 F3600
;WIPE_START
G1 F4800
G1 X110.017 Y123.978 E-.12
;WIPE_END
EXCLUDE_OBJECT_END NAME=履带轮_轴片1.STL_id_0_copy_0
;AFTER_LAYER_CHANGE
;0.28
;_SET_FAN_SPEED_CHANGING_LAYER
SET_VELOCITY_LIMIT ACCEL=5000 ACCEL_TO_DECEL=2500
SET_VELOCITY_LIMIT SQUARE_CORNER_VELOCITY=9
M104 S205 ; set nozzle temperature
M140 S60 ; set bed temperature
; printing object 履带轮 轴片1.STL id:0 copy 0
EXCLUDE_OBJECT_START NAME=履带轮_轴片1.STL_id_0_copy_0
G1 X117.625 Y123.364 Z.6 F21000
G1 X126.706 Y122.632 Z.6
G1 Z.28
G1 E.8 F2700
SET_VELOCITY_LIMIT ACCEL=3000 ACCEL_TO_DECEL=1500 SQUARE_CORNER_VELOCITY=7
;TYPE:Inner wall
;WIDTH:0.449999
G1 F9684
G1 X125.842 Y123.567 E.01796
G1 X124.884 Y124.405 E.01796
G1 X123.843 Y125.137 E.01796
G1 X122.729 Y125.754 E.01796
G1 X121.557 Y126.249 E.01796
G1 X120.338 Y126.616 E.01796
G1 X119.087 Y126.852 E.01796
G1 X117.818 Y126.954 E.01796
G1 X116.546 Y126.92 E.01796
G1 X115.284 Y126.751 E.01796
G1 X114.048 Y126.449 E.01796
G1 X112.851 Y126.017 E.01796
G1 X111.706 Y125.46 E.01796
G1 X110.627 Y124.785 E.01796
G1 X109.626 Y123.999 E.01796
G1 X108.714 Y123.111 E.01796
G1 X107.901 Y122.131 E.01796
G1 X107.198 Y121.071 E.01796
G1 X106.651 Y120.018 E.01674
G1 X106.146 Y118.752 E.01922
G1 X105.812 Y117.528 E.01791
G1 X105.61 Y116.271 E.01796
G1 X105.542 Y115 E.01796
G1 X105.61 Y113.729 E.01796
G1 X105.812 Y112.472 E.01796
G1 X106.147 Y111.244 E.01796
G1 X106.611 Y110.059 E.01796
G1 X107.158 Y109.006 E.01674
G1 X107.903 Y107.866 E.01922
G1 X108.714 Y106.889 E.01791
G1 X109.626 Y106.001 E.01796
G1 X110.627 Y105.215 E.01796
G1 X111.706 Y104.54 E.01796
G1 X112.851 Y103.983 E.01796
G1 X114.048 Y103.551 E.01796
G1 X115.284 Y103.249 E.01796
G1 X116.546 Y103.08 E.01796
G1 X117.818 Y103.046 E.01796
G1 X119.001 Y103.141 E.01674
G1 X120.341 Y103.385 E.01922
G1 X121.557 Y103.751 E.01791
G1 X122.729 Y104.246 E.01796
G1 X123.843 Y104.863 E.01796
G1 X124.884 Y105.595 E.01796
G1 X125.842 Y106.433 E.01796
G1 X126.706 Y107.368 E.01796
G1 X127.465 Y108.39 E.01796
G1 X128.111 Y109.486 E.01796
G1 X128.637 Y110.645 E.01796
G1 X129.037 Y111.854 E.01796
G1 X129.306 Y113.098 E.01796
G1 X129.442 Y114.377 E.01815
G1 X129.442 Y115.623 E.01757
G1 X129.306 Y116.902 E.01815
G1 X129.037 Y118.146 E.01796
G1 X128.637 Y119.355 E.01796
G1 X128.111 Y120.514 E.01796
G1 X127.465 Y121.61 E.01796
G1 X126.729 Y122.6 E.01739
SET_VELOCITY_LIMIT ACCEL=5000 ACCEL_TO_DECEL=2500 SQUARE_CORNER_VELOCITY=9
G1 X127.039 Y122.909 F21000
SET_VELOCITY_LIMIT ACCEL=3000 ACCEL_TO_DECEL=1500 SQUARE_CORNER_VELOCITY=7
M73 P3 R25
G1 F9684
G1 X126.145 Y123.878 E.01861
G1 X125.152 Y124.746 E.01861
G1 X124.073 Y125.505 E.01861
G1 X122.919 Y126.144 E.01861
G1 X121.704 Y126.656 E.01861
G1 X120.441 Y127.037 E.01861
G1 X119.145 Y127.282 E.01861
G1 X117.83 Y127.387 E.01861
G1 X116.511 Y127.352 E.01861
G1 X115.204 Y127.177 E.01861
G1 X113.923 Y126.864 E.01861
G1 X112.682 Y126.416 E.01861
G1 X111.496 Y125.839 E.01861
G1 X110.378 Y125.14 E.01861
G1 X109.34 Y124.325 E.01861
G1 X108.395 Y123.405 E.01861
G1 X107.553 Y122.39 E.01861
G1 X106.824 Y121.291 E.01861
G1 X106.257 Y120.198 E.01737
G1 X105.735 Y118.89 E.01987
G1 X105.389 Y117.619 E.01858
G1 X105.179 Y116.317 E.01861
G1 X105.109 Y115 E.01861
G1 X105.179 Y113.683 E.01861
G1 X105.389 Y112.381 E.01861
G1 X105.736 Y111.108 E.01861
G1 X106.216 Y109.88 E.01861
G1 X106.784 Y108.787 E.01737
G1 X107.555 Y107.609 E.01987
G1 X108.395 Y106.595 E.01858
G1 X109.34 Y105.675 E.01861
G1 X110.378 Y104.86 E.01861
G1 X111.496 Y104.161 E.01861
G1 X112.682 Y103.584 E.01861
G1 X113.923 Y103.136 E.01861
G1 X115.204 Y102.823 E.01861
G1 X116.511 Y102.648 E.01861
G1 X117.83 Y102.613 E.01861
G1 X119.057 Y102.711 E.01737
G1 X120.443 Y102.963 E.01987
G1 X121.704 Y103.343 E.01858
G1 X122.919 Y103.856 E.01861
G1 X124.073 Y104.495 E.01861
G1 X125.152 Y105.254 E.01861
G1 X126.145 Y106.122 E.01861
G1 X127.039 Y107.091 E.01861
G1 X127.826 Y108.15 E.01861
G1 X128.495 Y109.286 E.01861
G1 X129.04 Y110.488 E.01861
G1 X129.455 Y111.74 E.01861
G1 X129.734 Y113.029 E.01861
G1 X129.833 Y113.96 E.0132
