;FLAVOR:Marlin
;TIME:677
;Filament used:0.263888m
;Layer height: 0.1
;MINX:95.769
;MINY:95.769
;MINZ:0.24
;MAXX:124.23
;MAXY:124.229
;MAXZ:5.89
                              
;Creality Print GCode Generated by CXEngine:NO_MAGE_VERSION_GIT_HEAD_BRANCH
;CXEngine Release Time:2022-09-30 09:53:04
;Gcode Generated Time:2023-07-08 11:29:20
;----------Machine Config--------------
;Machine Name:Ender-3 V2
;Machine Height:250
;Machine Width:220
;Machine Depth:220
;Material name:PLA
;Number of Extruders:1
;ExtruderParams[0] Nozzle Diameter1000
;----------Profile Config---------------
;Engine Version:275f99b
;Engine Release Time:2022-09-30 09:42:18
;Layer Height:0.1
;Wall Thickness:0.8
;Top/Bottom Thickness:0.5
;Out Wall Line Width:0.4
;Inner Wall Line Width:0.4
;Inital Layer Height:100
;Wall Line Count:2
;Infill Line Distance:4
;Infill Pattern:grid
;Infill Sparse Density:20
;Infill Wipe Distance:0
;Print Temperature:200
;Bed Temperature:60
;Support Enable:true
;Support Density:0
;Support Angle:60
;Adhesion Type:simpleraft
;machine is belt:false
;machine belt offset:10
;machine belt offset Y:0
;Raft Base Line Spacing:1.6
;Wait Heatup Sync:true
;----------Shell Config----------------
;Outer Wall Wipe Distance:200
;Outer Inset First:false
;Infill Before Walls:false
;Infill Overlap:0.16
;Fill Gaps Between Walls:everywhere
;Minimum Infill Area:1
;Top Surface Skin Layer:0
;Top Layers:4
;Z Seam Alignment:sharpest_corner
;Seam Corner Preference:z_seam_corner_inner
;Z Seam X:110
;Z Seam Y:110
;Horizontal Expansion:0
;Top/Bottom Pattern:zigzag
;Ironing Pattern:zigzag
;Vase Model:false
;----------Support Config----------------
;Support Type:everywhere
;Support Pattern:zigzag
;Support Infill Layer Thickness:0.1
;Minimum Support Area:5
;Enable Support Roof:false
;Support Roof Thickness:0.8
;Support Roof Pattern:lines
;Connect Support Lines:0
;Connect Support ZigZags:1
;Minimum Support X/Y Distance:0.2
;Support Line Distance:0
; ---------PrintSpeed & Travel----------
;Enable Print Cool:true
;Avoid Printed Parts Traveling:true
;Enable Retraction:false
;Retraction Distance:8
;Retraction Speed:100
;Retraction Prime Speed:100
;Maximum Retraction Count:100
;Minimum Extrusion Distance Window:1
;Z Hop When Retracted:false
;Z Hop Height:0.2
;Retract Before Outer Wall:true
;Print Speed:50
;Infill Speed:50

;Prime Tower Speed:50
;Travel Speed:120
;Initial Layer Speed:25
;Skirt/Brim Speed:25
;Combing Mode:infill
; --------SpecialModel&Mesh Fixes--------
;Union Overlapping Volum:true
;Remove All Holes:false
;Maximum Travel Resolution:0.6
;Maximum Deviation:0.05
;Maximum Model Angle:0.872665
;IS Mold Print:false
;Make Overhang Printable:false
;Enable Coasting:false
;Coasting Volumes:0.06
;Coasting Speed:0.9
;Raft AirGap:0.25
;Layer0 ZOverLap:0.13
;---------------------End of Head--------------------------
M140 S60
M105
M104 S200
M105
M109 S200
M105
M190 S60
M82 ;absolute extrusion mode
M220 S100 ;Reset Feedrate
M221 S100 ;Reset Flowrate

G28 ;Home

G92 E0 ;Reset Extruder
G1 Z2.0 F3000 ;Move Z Axis up
G1 X10.1 Y20 Z0.28 F5000.0 ;Move to start position
G1 X10.1 Y145.0 Z0.28 F1500.0 E15 ;Draw the first line
G1 X10.4 Y145.0 Z0.28 F5000.0 ;Move to side a little
G1 X10.4 Y20 Z0.28 F1500.0 E30 ;Draw the second line
G92 E0  ;Reset Extruder
G1 E-1.0000 F1800 ;Retract a bit
G1 Z2.0 F3000 ;Move Z Axis up
G1 E0.0000 F1800 

G92 E0

;LAYER_COUNT:50

;LAYER:-4
M107
G0 F7200 X97.6 Y104.371 Z0.24
;TYPE:SUPPORT-INTERFACE
G1 F1200 X97.6 Y115.672 E0.90209
G1 X97.301 Y114.924 E0.9664
G1 X97.123 Y114.535 E1.00054
G1 X96.836 Y113.737 E1.06824
G1 X96.536 Y112.501 E1.16977
G1 X96.414 Y111.646 E1.23871
G1 X96.369 Y110.859 E1.30163
G1 X96.382 Y109.687 E1.39519
G1 X96.389 Y108.658 E1.47733
G1 X96.575 Y107.293 E1.5873
G1 X96.812 Y106.34 E1.66569
G1 X97.086 Y105.561 E1.73161
G1 X98.038 Y103.358 E1.92318
G1 X98.696 Y102.268 E2.02481
G1 X99.2 Y101.596 E2.09186
G1 X99.2 Y118.397 E3.43299
G1 X99.257 Y118.475 E3.4407
G1 X99.815 Y119.095 E3.50729
G1 X100.156 Y119.416 E3.54467
G1 X100.8 Y120.073 E3.61811
G1 X100.8 Y99.926 E5.22633
G1 X100.905 Y99.815 E5.23853
G1 X101.524 Y99.257 E5.30505
G1 X102.4 Y98.618 E5.3916
G1 X102.4 Y121.383 E7.2088
G1 X103.352 Y121.959 E7.29762
G1 X104 Y122.239 E7.35397
G1 X104 Y97.733 E9.31015
G1 X104.024 Y97.722 E9.31225
G1 X105.076 Y97.301 E9.4027
G1 X105.465 Y97.123 E9.43685
G1 X105.6 Y97.074 E9.44832
G1 X105.6 Y122.927 E11.51201
G1 X106.337 Y123.187 E11.5744
G1 X107.2 Y123.395 E11.64526
G1 X107.2 Y96.608 E13.78351
G1 X107.479 Y96.54 E13.80644
G1 X108.354 Y96.414 E13.877
G1 X108.8 Y96.388 E13.91267
G1 X108.8 Y123.611 E16.08572
G1 X109.687 Y123.618 E16.15653
G1 X110.4 Y123.625 E16.21345
G1 X110.4 Y96.383 E18.38802
G1 X111.344 Y96.389 E18.46338
G1 X112 Y96.474 E18.51618
G1 X112 Y123.536 E20.67639
G1 X112.521 Y123.46 E20.71841
G1 X113.6 Y123.197 E20.80707
G1 X113.6 Y96.798 E22.91435
G1 X113.664 Y96.813 E22.9196
G1 X114.439 Y97.086 E22.98519
G1 X115.2 Y97.415 E23.05137
G1 X115.2 Y122.582 E25.0603
G1 X115.328 Y122.525 E25.07149
G1 X115.986 Y122.273 E25.12773
G1 X116.711 Y121.927 E25.19186
G1 X116.8 Y121.875 E25.20009
G1 X116.8 Y98.134 E27.0952
G1 X117.732 Y98.696 E27.18207
G1 X118.4 Y99.198 E27.24877
G1 X118.4 Y120.798 E28.97298
G1 X118.475 Y120.743 E28.9804
G1 X119.095 Y120.185 E29.04699
G1 X119.416 Y119.844 E29.08437
G1 X120 Y119.273 E29.14957
G1 X120 Y100.731 E30.62967
G1 X120.185 Y100.905 E30.64994
G1 X120.743 Y101.525 E30.71653
G1 X121.476 Y102.527 E30.81563
G1 X121.6 Y102.737 E30.83509
G1 X121.6 Y117.244 E31.99311
G1 X121.96 Y116.646 E32.04882
G1 X122.914 Y114.438 E32.24082
G1 X123.188 Y113.659 E32.30674
G1 X123.456 Y112.543 E32.39836
G1 X123.611 Y111.339 E32.49526
G1 X123.618 Y110.313 E32.57716
G1 X123.631 Y109.137 E32.67104
G1 X123.586 Y108.354 E32.73365
G1 X123.458 Y107.462 E32.80558
G1 X123.2 Y106.411 E32.89196
G1 X123.2 Y113.61 E33.46662
G0 F600 X123.2 Y113.61 Z0.47
G0 F7200 X120.889 Y101.09
;TIME_ELAPSED:23.292257

;LAYER:-3
;TYPE:SUPPORT
G1 F1800 X118.907 Y99.108 E33.68104
G1 X119.336 Y99.493 E33.72514
G1 X120.124 Y100.298 E33.81131
G1 X120.474 Y100.628 E33.84811
G1 X121.054 Y101.272 E33.91441
G1 X121.81 Y102.306 E34.0124
G1 X122.276 Y103.092 E34.0823
G1 X122.644 Y103.862 E34.14758
G1 X122.908 Y104.523 E34.20203
G1 X115.488 Y97.104 E35.00471
G1 X114.587 Y96.714 E35.07981
G1 X113.773 Y96.428 E35.14582
G1 X113.279 Y96.309 E35.18469
G1 X123.685 Y106.715 E36.31046
G1 X123.852 Y107.392 E36.3638
G1 X123.984 Y108.309 E36.43467
G1 X123.99 Y108.434 E36.44425
G1 X111.571 Y96.015 E37.7878
G1 X111.373 Y95.989 E37.80307
G1 X110.317 Y95.982 E37.88386
G1 X110.122 Y95.98 E37.89877
G1 X124.022 Y109.88 E39.40255
G1 X124.018 Y110.317 E39.43598
G1 X124.01 Y111.283 E39.50988
G1 X108.721 Y95.993 E41.16397
G1 X108.309 Y96.016 E41.19554
G1 X107.452 Y96.138 E41.26176
G1 X123.859 Y112.545 E43.03675
G1 X123.851 Y112.613 E43.04198
G1 X123.591 Y113.692 E43.12689
G1 X106.312 Y96.413 E44.99622
G1 X106.146 Y96.453 E45.00928
G1 X105.318 Y96.75 E45.07657
G1 X105.261 Y96.776 E45.08136
G1 X123.22 Y114.735 E47.02426
G1 X122.794 Y115.722 E47.10649
G1 X104.265 Y97.194 E49.111
G1 X103.862 Y97.356 E49.14422
G1 X103.287 Y97.63 E49.19295
G1 X122.367 Y116.71 E51.25712
G1 X122.316 Y116.83 E51.26709
G1 X121.847 Y117.605 E51.33639
G1 X102.385 Y98.142 E53.44194
G1 X102.315 Y98.185 E53.44822
G1 X101.562 Y98.734 E53.51951
G1 X121.27 Y118.441 E55.65157
G1 X121.082 Y118.695 E55.67574
G1 X120.621 Y119.207 E55.72844
G1 X100.792 Y99.378 E57.87364
G1 X100.628 Y99.526 E57.89054
G1 X100.298 Y99.876 E57.92734
G1 X100.084 Y100.084 E57.95017
G1 X119.914 Y119.914 E60.09548
G1 X119.702 Y120.124 E60.11831
G1 X119.372 Y120.474 E60.1551
G1 X119.206 Y120.621 E60.17207
G1 X99.377 Y100.791 E62.31732
G1 X98.922 Y101.3 E62.36955
G1 X98.728 Y101.556 E62.39412
G1 X118.436 Y121.265 E64.52628
G1 X117.694 Y121.81 E64.59671
G1 X117.613 Y121.855 E64.6038
G1 X98.151 Y102.394 E66.70924
G1 X97.684 Y103.17 E66.77852
G1 X97.631 Y103.288 E66.78842
G1 X116.711 Y122.368 E68.85259
G1 X116.138 Y122.644 E68.90124
G1 X115.728 Y122.799 E68.93477
G1 X97.205 Y104.276 E70.93868
G1 X96.778 Y105.263 E71.02095
G1 X114.738 Y123.223 E72.96395
G1 X114.682 Y123.25 E72.96871
G1 X113.854 Y123.547 E73.036
G1 X113.686 Y123.586 E73.04919
G1 X96.407 Y106.307 E74.91852
G1 X96.182 Y107.215 E74.99008
G1 X96.148 Y107.461 E75.00908
G1 X112.546 Y123.86 E76.78315
G1 X111.691 Y123.984 E76.84924
G1 X111.278 Y124.006 E76.88088
G1 X95.988 Y108.716 E78.53503
G1 X95.982 Y109.683 E78.609
G1 X95.977 Y110.119 E78.64236
G1 X109.876 Y124.018 E80.14602
G1 X109.683 Y124.018 E80.16078
G1 X108.627 Y124.011 E80.24157
G1 X108.427 Y123.984 E80.25701
G1 X96.008 Y111.565 E81.60055
G1 X96.016 Y111.691 E81.61021
G1 X96.143 Y112.578 E81.67876
G1 X96.315 Y113.285 E81.73442
G1 X106.719 Y123.689 E82.85998
G1 X106.227 Y123.572 E82.89866
G1 X105.413 Y123.286 E82.96466
G1 X104.51 Y122.895 E83.03994
G1 X97.09 Y115.475 E83.84267
G1 X97.356 Y116.138 E83.89732
G1 X97.719 Y116.897 E83.96168
G1 X98.185 Y117.686 E84.03178
G1 X98.946 Y118.728 E84.13049
G1 X99.526 Y119.372 E84.19679
G1 X99.876 Y119.702 E84.23358
G1 X100.664 Y120.507 E84.31976
G1 X101.091 Y120.89 E84.36364
G1 X99.109 Y118.908 E84.57806
G0 F600 X99.109 Y118.908 Z0.62
G0 F7200 X105.7 Y123.6
;TIME_ELAPSED:47.640742

;LAYER:-2
;TYPE:SUPPORT-INTERFACE
G1 F2400 X114.296 Y123.6 E84.79249
G1 X113.901 Y123.741 E84.80295
G1 X112.837 Y124 E84.83027
G1 X107.148 Y124 E84.97218
G1 X106.172 Y123.765 E84.99722
G1 X105.348 Y123.476 E85.019
G1 X104.697 Y123.2 E85.03664
G1 X115.286 Y123.2 E85.30079
G1 X116.21 Y122.831 E85.32561
G1 X116.273 Y122.8 E85.32736
G1 X103.752 Y122.8 E85.6397
G1 X103.308 Y122.612 E85.65172
G1 X102.937 Y122.4 E85.66238
G1 X117.086 Y122.4 E86.01533
G1 X117.763 Y122 E86.03495
G1 X102.241 Y122 E86.42214
G1 X102.124 Y121.932 E86.42552
G1 X101.671 Y121.6 E86.43953
G1 X118.316 Y121.6 E86.85474
G1 X118.864 Y121.2 E86.87166
G1 X101.135 Y121.2 E87.31392
G1 X100.689 Y120.8 E87.32886
G1 X119.306 Y120.8 E87.79326
G1 X119.521 Y120.608 E87.80045
G1 X119.726 Y120.4 E87.80774
G1 X100.278 Y120.4 E88.29287
G1 X99.887 Y120 E88.30682
G1 X120.125 Y120 E88.81166
G1 X120.524 Y119.6 E88.82576
G1 X99.475 Y119.6 E89.35083
G1 X99.386 Y119.515 E89.3539
G1 X99.1 Y119.2 E89.36451
G1 X120.896 Y119.2 E89.90821
G1 X121.24 Y118.819 E89.92102
G1 X121.253 Y118.8 E89.92159
G1 X98.751 Y118.8 E90.48291
G1 X98.459 Y118.4 E90.49526
G1 X121.546 Y118.4 E91.07117
G1 X121.839 Y118 E91.08354
G1 X98.168 Y118 E91.67401
G1 X98.017 Y117.793 E91.6804
G1 X97.902 Y117.6 E91.68601
G1 X122.09 Y117.6 E92.28938
G1 X122.319 Y117.2 E92.30088
G1 X97.666 Y117.2 E92.91585
G1 X97.541 Y116.988 E92.92199
G1 X97.451 Y116.8 E92.92719
G1 X122.549 Y116.8 E93.55326
G1 X122.612 Y116.692 E93.55638
G1 X122.734 Y116.4 E93.56427
G1 X97.259 Y116.4 E94.19975
G1 X97.169 Y116.21 E94.20499
G1 X97.085 Y116 E94.21064
G1 X122.903 Y116 E94.85467
G1 X123.023 Y115.718 E94.86231
G1 X123.072 Y115.6 E94.8655
G1 X96.925 Y115.6 E95.51774
G1 X96.765 Y115.2 E95.52849
G1 X123.242 Y115.2 E96.18896
G1 X123.412 Y114.8 E96.1998
G1 X96.584 Y114.8 E96.86903
G1 X96.559 Y114.744 E96.87056
G1 X96.436 Y114.4 E96.87967
G1 X123.563 Y114.4 E97.55636
G1 X123.704 Y114 E97.56694
G1 X96.294 Y114 E98.25068
G1 X96.259 Y113.901 E98.2533
G1 X96.185 Y113.6 E98.26103
G1 X123.822 Y113.6 E98.95044
G1 X123.922 Y113.2 E98.96073
G1 X96.088 Y113.2 E99.65505
G1 X95.991 Y112.8 E99.66532
G1 X124.01 Y112.8 E100.36425
G1 X124.071 Y112.4 E100.37435
G1 X95.915 Y112.4 E101.0767
G1 X95.858 Y112 E101.08678
G1 X124.133 Y112 E101.7921
G1 X124.19 Y111.63 E101.80144
G1 X124.191 Y111.6 E101.80219
G1 X95.81 Y111.6 E102.51016
G1 X95.788 Y111.2 E102.52015
G1 X124.21 Y111.2 E103.22914
G1 X124.23 Y110.8 E103.23913
G1 X95.77 Y110.8 E103.94907
G1 X95.775 Y110.4 E103.95905
G1 X124.222 Y110.4 E104.66866
G1 X124.218 Y110.31 E104.67091
G1 X124.221 Y110 E104.67864
G1 X95.779 Y110 E105.38813
G1 X95.782 Y109.69 E105.39586
G1 X95.783 Y109.6 E105.39811
G1 X124.225 Y109.6 E106.10759
G1 X124.23 Y109.2 E106.11757
G1 X95.786 Y109.2 E106.82711
G1 X95.789 Y108.8 E106.83709
G1 X124.212 Y108.8 E107.54611
G1 X124.189 Y108.4 E107.5561
G1 X95.817 Y108.4 E108.26384
G1 X95.868 Y108 E108.2739
G1 X124.142 Y108 E108.9792
G1 X124.084 Y107.6 E108.98928
G1 X95.92 Y107.6 E109.69184
G1 X95.952 Y107.349 E109.69815
G1 X95.988 Y107.2 E109.70197
G1 X124.01 Y107.2 E110.40098
G1 X123.913 Y106.8 E110.41125
G1 X96.084 Y106.8 E111.10545
G1 X96.18 Y106.4 E111.11571
G1 X123.815 Y106.4 E111.80507
G1 X123.741 Y106.099 E111.8128
G1 X123.707 Y106 E111.81541
G1 X96.296 Y106 E112.49918
G1 X96.436 Y105.6 E112.50975
G1 X123.564 Y105.6 E113.18646
G1 X123.434 Y105.238 E113.19606
G1 X123.418 Y105.2 E113.19709
G1 X96.587 Y105.2 E113.86639
G1 X96.757 Y104.8 E113.87723
G1 X123.236 Y104.8 E114.53775
G1 X123.076 Y104.4 E114.5485
G1 X96.927 Y104.4 E115.20079
G1 X96.977 Y104.282 E115.20398
G1 X97.096 Y104 E115.21162
G1 X122.916 Y104 E115.8557
G1 X122.831 Y103.79 E115.86135
G1 X122.741 Y103.6 E115.8666
G1 X97.265 Y103.6 E116.5021
G1 X97.388 Y103.308 E116.51
G1 X97.45 Y103.2 E116.51311
G1 X122.55 Y103.2 E117.13923
G1 X122.455 Y103.004 E117.14466
G1 X122.335 Y102.8 E117.15057
G1 X97.68 Y102.8 E117.76559
G1 X97.91 Y102.4 E117.7771
G1 X122.098 Y102.4 E118.38047
G1 X121.983 Y102.207 E118.38608
G1 X121.833 Y102 E118.39245
G1 X98.16 Y102 E118.98298
G1 X98.453 Y101.6 E118.99535
G1 X121.541 Y101.6 E119.57128
G1 X121.25 Y101.2 E119.58362
G1 X98.747 Y101.2 E120.14496
G1 X98.76 Y101.181 E120.14553
G1 X99.103 Y100.8 E120.15832
G1 X120.9 Y100.8 E120.70205
G1 X120.608 Y100.479 E120.71287
G1 X120.525 Y100.4 E120.71573
G1 X99.477 Y100.4 E121.24078
G1 X99.887 Y100 E121.25506
G1 X120.113 Y100 E121.7596
G1 X119.722 Y99.6 E121.77356
G1 X100.284 Y99.6 E122.25844
G1 X100.479 Y99.392 E122.26555
G1 X100.692 Y99.2 E122.27271
G1 X119.31 Y99.2 E122.73713
G1 X118.864 Y98.8 E122.75208
G1 X101.134 Y98.8 E123.19436
G0 F7200 X101.135 Y98.799
G1 F2400 X101.682 Y98.4 E123.21124
G1 X118.329 Y98.4 E123.62651
G1 X117.87 Y98.064 E123.6407
G1 X117.759 Y98 E123.64389
G1 X102.236 Y98 E124.03111
G1 X102.913 Y97.6 E124.05073
G1 X117.062 Y97.6 E124.40368
G1 X116.692 Y97.388 E124.41432
G1 X116.247 Y97.2 E124.42637
G1 X103.726 Y97.2 E124.7387
G1 X103.79 Y97.169 E124.74048
G1 X104.713 Y96.8 E124.76527
G1 X115.302 Y96.8 E125.02942
G1 X114.652 Y96.524 E125.04703
G1 X113.828 Y96.235 E125.06881
G1 X112.851 Y96 E125.09388
G1 X107.162 Y96 E125.23579
G1 X106.099 Y96.259 E125.26309
G1 X105.703 Y96.4 E125.27357
G1 X114.299 Y96.4 E125.488
G0 F600 X114.299 Y96.4 Z0.77
G0 F7200 X98.799 Y118.865
;TIME_ELAPSED:94.476207

;LAYER:-1
;TYPE:SUPPORT-INTERFACE
G1 F2400 X98.799 Y101.135 E125.93028
G1 X98.76 Y101.181 E125.93178
G1 X98.399 Y101.67 E125.94694
G1 X98.399 Y118.317 E126.3622
G1 X98.017 Y117.793 E126.37838
G1 X97.999 Y117.763 E126.37925
G1 X97.999 Y102.24 E126.76648
G1 X97.599 Y102.937 E126.78652
G1 X97.599 Y117.086 E127.13947
G1 X97.541 Y116.988 E127.14231
G1 X97.199 Y116.273 E127.16208
G1 X97.199 Y103.752 E127.47442
G1 X96.977 Y104.282 E127.48875
G1 X96.799 Y104.697 E127.50002
G1 X96.799 Y115.286 E127.76416
G1 X96.751 Y115.165 E127.76741
G1 X96.559 Y114.744 E127.77895
G1 X96.399 Y114.296 E127.79082
G1 X96.399 Y105.7 E128.00525
G1 X96.232 Y106.181 E128.01795
G1 X95.952 Y107.349 E128.04791
G1 X95.79 Y108.604 E128.07947
G1 X95.782 Y109.69 E128.10657
G1 X95.769 Y110.858 E128.1357
G1 X95.817 Y111.712 E128.15704
G1 X95.946 Y112.612 E128.17972
G1 X95.999 Y112.833 E128.18539
G1 X95.999 Y107.147 E128.32723
G0 F7200 X99.599 Y100.278
G1 F2400 X99.599 Y119.715 E128.81209
G1 X99.386 Y119.515 E128.81937
G1 X99.199 Y119.308 E128.82633
G1 X99.199 Y100.689 E129.29079
G1 X99.349 Y100.525 E129.29633
G1 X99.999 Y99.887 E129.31905
G1 X99.999 Y120.112 E129.82356
G1 X100.399 Y120.522 E129.83785
G1 X100.399 Y99.475 E130.36287
G1 X100.479 Y99.392 E130.36575
G1 X100.799 Y99.1 E130.37655
G1 X100.799 Y120.897 E130.92028
G1 X101.174 Y121.234 E130.93286
G1 X101.199 Y121.252 E130.93363
G1 X101.199 Y98.75 E131.49494
G1 X101.599 Y98.458 E131.5073
G1 X101.599 Y121.545 E132.0832
G1 X101.999 Y121.839 E132.09559
G1 X101.999 Y98.166 E132.68611
G1 X102.203 Y98.019 E132.69238
