;FLAVOR:Marlin
;TIME:1310
;Filament used:0.385018m
;Layer height: 0.1
;MINX:95.721
;MINY:95.72
;MINZ:0.24
;MAXX:124.279
;MAXY:124.278
;MAXZ:12.39
                            
;Creality Print GCode Generated by CXEngine:NO_MAGE_VERSION_GIT_HEAD_BRANCH
;CXEngine Release Time:2022-09-30 09:53:04
;Gcode Generated Time:2023-05-17 12:21:42
;----------Machine Config--------------
;Machine Name:Ender-3 V2
;Machine Height:250
;Machine Width:220
;Machine Depth:220
;Material name:PLA
;Number of Extruders:1
;ExtruderParams[0] Nozzle Diameter1000
;----------Profile Config---------------
;Engine Version:275f99b
;Engine Release Time:2022-09-30 09:42:18
;Layer Height:0.1
;Wall Thickness:0.8
;Top/Bottom Thickness:0.5
;Out Wall Line Width:0.4
;Inner Wall Line Width:0.4
;Inital Layer Height:100
;Wall Line Count:2
;Infill Line Distance:4
;Infill Pattern:grid
;Infill Sparse Density:20
;Infill Wipe Distance:0
;Print Temperature:200
;Bed Temperature:60
;Support Enable:true
;Support Density:0
;Support Angle:60
;Adhesion Type:simpleraft
;machine is belt:false
;machine belt offset:10
;machine belt offset Y:0
;Raft Base Line Spacing:1.6
;Wait Heatup Sync:true
;----------Shell Config----------------
;Outer Wall Wipe Distance:200
;Outer Inset First:false
;Infill Before Walls:false
;Infill Overlap:0.16
;Fill Gaps Between Walls:everywhere
;Minimum Infill Area:1
;Top Surface Skin Layer:0
;Top Layers:4
;Z Seam Alignment:sharpest_corner
;Seam Corner Preference:z_seam_corner_inner
;Z Seam X:110
;Z Seam Y:110
;Horizontal Expansion:0
;Top/Bottom Pattern:zigzag
;Ironing Pattern:zigzag
;Vase Model:false
;----------Support Config----------------
;Support Type:everywhere
;Support Pattern:zigzag
;Support Infill Layer Thickness:0.1
;Minimum Support Area:5
;Enable Support Roof:false
;Support Roof Thickness:0.8
;Support Roof Pattern:lines
;Connect Support Lines:0
;Connect Support ZigZags:1
;Minimum Support X/Y Distance:0.2
;Support Line Distance:0
; ---------PrintSpeed & Travel----------
;Enable Print Cool:true
;Avoid Printed Parts Traveling:true
;Enable Retraction:true
;Retraction Distance:8
;Retraction Speed:100
;Retraction Prime Speed:100
;Maximum Retraction Count:100
;Minimum Extrusion Distance Window:1
;Z Hop When Retracted:false
;Z Hop Height:0.2
;Retract Before Outer Wall:true
;Print Speed:50
;Infill Speed:50

;Prime Tower Speed:50
;Travel Speed:120
;Initial Layer Speed:25
;Skirt/Brim Speed:25
;Combing Mode:infill
; --------SpecialModel&Mesh Fixes--------
;Union Overlapping Volum:true
;Remove All Holes:false
;Maximum Travel Resolution:0.6
;Maximum Deviation:0.05
;Maximum Model Angle:0.872665
;IS Mold Print:false
;Make Overhang Printable:false
;Enable Coasting:false
;Coasting Volumes:0.06
;Coasting Speed:0.9
;Raft AirGap:0.25
;Layer0 ZOverLap:0.13
;---------------------End of Head--------------------------
M140 S60
M105
M104 S200
M105
M109 S200
M105
M190 S60
M82 ;absolute extrusion mode
M220 S100 ;Reset Feedrate
M221 S100 ;Reset Flowrate

G28 ;Home

G92 E0 ;Reset Extruder
G1 Z2.0 F3000 ;Move Z Axis up
G1 X10.1 Y20 Z0.28 F5000.0 ;Move to start position
G1 X10.1 Y145.0 Z0.28 F1500.0 E15 ;Draw the first line
G1 X10.4 Y145.0 Z0.28 F5000.0 ;Move to side a little
G1 X10.4 Y20 Z0.28 F1500.0 E30 ;Draw the second line
G92 E0  ;Reset Extruder
G1 E-1.0000 F1800 ;Retract a bit
G1 Z2.0 F3000 ;Move Z Axis up
G1 E0.0000 F1800 

G92 E0
G92 E0
G1 F6000 E-8

;LAYER_COUNT:115

;LAYER:-4
M107
G0 F7200 X97.6 Y104.2 Z0.24
;TYPE:SUPPORT-INTERFACE
G1 F6000 E0
G1 F1200 X97.6 Y115.801 E0.92604
G1 X97.567 Y115.738 E0.93172
G1 X97.022 Y114.362 E1.04986
G1 X96.835 Y113.76 E1.10018
G1 X96.498 Y112.273 E1.22189
G1 X96.343 Y110.982 E1.32568
G1 X96.319 Y109.481 E1.44551
G1 X96.355 Y108.87 E1.49437
G1 X96.569 Y107.336 E1.61801
G1 X96.881 Y106.08 E1.72131
G1 X97.391 Y104.667 E1.84123
G1 X97.652 Y104.085 E1.89214
G1 X98.195 Y103.065 E1.98438
G1 X99.047 Y101.784 E2.10719
G1 X99.2 Y101.589 E2.12697
G1 X99.2 Y118.408 E3.46954
G1 X99.4 Y118.665 E3.49553
G1 X100.416 Y119.779 E3.61589
G1 X100.8 Y120.12 E3.65688
G1 X100.8 Y99.878 E5.27268
G1 X101.454 Y99.302 E5.34225
G1 X102.4 Y98.628 E5.43497
G1 X102.4 Y121.373 E7.25057
G1 X102.61 Y121.524 E7.27122
G1 X103.153 Y121.855 E7.32198
G1 X104 Y122.284 E7.39777
G1 X104 Y97.715 E9.35898
G1 X104.568 Y97.43 E9.4097
G1 X105.6 Y97.04 E9.49777
G1 X105.6 Y122.959 E11.56674
G1 X105.737 Y123.012 E11.57846
G1 X107.2 Y123.399 E11.69926
G1 X107.2 Y96.6 E13.83847
G1 X107.245 Y96.589 E13.84217
G1 X107.887 Y96.474 E13.89423
G1 X108.8 Y96.38 E13.9675
G1 X108.8 Y123.618 E16.14175
G1 X109.344 Y123.676 E16.18543
G1 X110.4 Y123.676 E16.26972
G1 X110.4 Y96.324 E18.45307
G1 X110.656 Y96.324 E18.47351
G1 X112 Y96.466 E18.58139
G1 X112 Y123.538 E20.74239
G1 X112.113 Y123.526 E20.75147
G1 X112.755 Y123.411 E20.80353
G1 X113.6 Y123.189 E20.87327
G1 X113.6 Y96.813 E22.97872
G1 X114.263 Y96.988 E23.03345
G1 X115.2 Y97.346 E23.11352
G1 X115.2 Y122.658 E25.13403
G1 X115.432 Y122.57 E25.15384
G1 X116.8 Y121.883 E25.27604
G1 X116.8 Y98.122 E27.17274
G1 X116.847 Y98.145 E27.17692
G1 X117.39 Y98.476 E27.22768
G1 X118.4 Y99.202 E27.32697
G1 X118.4 Y120.804 E29.05134
G1 X119.449 Y119.908 E29.16146
G1 X119.899 Y119.457 E29.21232
G1 X120 Y119.339 E29.22472
G1 X120 Y100.678 E30.71432
G1 X120.592 Y101.325 E30.78432
G1 X120.985 Y101.828 E30.83527
G1 X121.6 Y102.757 E30.92421
G1 X121.6 Y117.274 E32.08302
G1 X122.348 Y115.914 E32.20692
G1 X122.61 Y115.332 E32.25786
G1 X123.119 Y113.921 E32.3776
G1 X123.431 Y112.664 E32.48098
G1 X123.645 Y111.13 E32.60462
G1 X123.681 Y110.516 E32.65372
G1 X123.656 Y109.006 E32.77427
G1 X123.502 Y107.728 E32.87702
G1 X123.2 Y106.397 E32.98597
G1 X123.2 Y113.595 E33.56054
G0 F600 X123.2 Y113.595 Z0.47
G0 F7200 X121.006 Y101.207
;TIME_ELAPSED:26.373940

;LAYER:-3
;TYPE:SUPPORT
G1 F1800 X118.784 Y98.985 E33.80093
G1 X118.845 Y99.029 E33.80668
G1 X119.854 Y99.924 E33.90986
G1 X120.896 Y101.065 E34.02807
G1 X121.309 Y101.594 E34.07941
G1 X122.158 Y102.874 E34.1969
G1 X122.789 Y104.076 E34.30076
G1 X123.004 Y104.619 E34.34543
G1 X115.365 Y96.981 E35.1718
G1 X114.385 Y96.606 E35.25207
G1 X113.285 Y96.315 E35.33912
G1 X123.68 Y106.71 E36.4637
G1 X123.897 Y107.661 E36.53832
G1 X123.989 Y108.433 E36.59779
G1 X111.575 Y96.018 E37.94085
G1 X110.679 Y95.924 E38.00977
G1 X110.066 Y95.923 E38.05667
G1 X124.071 Y109.928 E39.5718
G1 X124.081 Y110.519 E39.61701
G1 X124.043 Y111.171 E39.66697
G1 X124.025 Y111.297 E39.67671
G1 X108.715 Y95.987 E41.33302
G1 X107.83 Y96.078 E41.40108
G1 X107.458 Y96.144 E41.42998
G1 X123.851 Y112.538 E43.20351
G1 X123.824 Y112.739 E43.21903
G1 X123.588 Y113.689 E43.29391
G1 X106.319 Y96.419 E45.16221
G1 X105.637 Y96.599 E45.21617
G1 X105.235 Y96.75 E45.24902
G1 X123.242 Y114.757 E47.1971
G1 X122.98 Y115.486 E47.25636
G1 X122.848 Y115.777 E47.28081
G1 X104.225 Y97.154 E49.29554
G1 X103.284 Y97.627 E49.3761
G1 X122.366 Y116.709 E51.44049
G1 X121.935 Y117.493 E51.50893
G1 X121.853 Y117.61 E51.51986
G1 X102.388 Y98.145 E53.62568
G1 X101.562 Y98.734 E53.70329
G1 X121.274 Y118.446 E55.83583
G1 X121.203 Y118.549 E55.8454
G1 X120.631 Y119.216 E55.91261
G1 X100.778 Y99.364 E58.06036
G1 X100.178 Y99.894 E58.1216
G1 X100.041 Y100.041 E58.13697
G1 X119.961 Y119.961 E60.29201
G1 X119.723 Y120.2 E60.31782
G1 X119.216 Y120.631 E60.36872
G1 X99.364 Y100.778 E62.51646
G1 X99.122 Y101.043 E62.54392
G1 X98.722 Y101.55 E62.59332
G1 X118.446 Y121.274 E64.72716
G1 X117.609 Y121.852 E64.80497
G1 X98.155 Y102.398 E66.9096
G1 X97.852 Y102.857 E66.95167
G1 X97.625 Y103.282 E66.98853
G1 X116.715 Y122.371 E69.05373
G1 X115.773 Y122.844 E69.13436
G1 X97.151 Y104.222 E71.14898
G1 X97.021 Y104.513 E71.17337
G1 X96.756 Y105.242 E71.2327
G1 X114.763 Y123.248 E73.18074
G1 X114.363 Y123.401 E73.2135
G1 X113.68 Y123.579 E73.26749
G1 X96.41 Y106.309 E75.13584
G1 X96.176 Y107.261 E75.21084
G1 X96.147 Y107.461 E75.2263
G1 X112.54 Y123.854 E76.99977
G1 X112.17 Y123.922 E77.02855
G1 X111.283 Y124.011 E77.09675
G1 X95.974 Y108.702 E78.75295
G1 X95.957 Y108.829 E78.76275
G1 X95.919 Y109.481 E78.81271
G1 X95.928 Y110.07 E78.85778
G1 X109.933 Y124.075 E80.37291
G1 X109.321 Y124.076 E80.41972
G1 X108.424 Y123.98 E80.48874
G1 X96.009 Y111.565 E81.83185
G1 X96.103 Y112.34 E81.89157
G1 X96.317 Y113.287 E81.96584
G1 X106.713 Y123.684 E83.09059
G1 X105.615 Y123.394 E83.17746
G1 X104.633 Y123.018 E83.2579
G1 X96.995 Y115.38 E84.08422
G1 X97.201 Y115.9 E84.12701
G1 X97.842 Y117.126 E84.23284
G1 X98.691 Y118.406 E84.35034
G1 X99.104 Y118.935 E84.40168
G1 X100.131 Y120.061 E84.51826
G1 X101.155 Y120.971 E84.62306
G1 X101.214 Y121.013 E84.6286
G1 X98.992 Y118.791 E84.86899
G0 F600 X98.992 Y118.791 Z0.62
G0 F7200 X105.643 Y123.6
;TIME_ELAPSED:50.824294

;LAYER:-2
;TYPE:SUPPORT-INTERFACE
G1 F2400 X114.38 Y123.6 E85.08693
G1 X113.919 Y123.743 E85.09897
G1 X112.786 Y124 E85.12795
G1 X107.137 Y124 E85.26887
G1 X105.897 Y123.691 E85.30074
G1 X104.535 Y123.2 E85.33686
G1 X115.427 Y123.2 E85.60856
G1 X116.006 Y122.971 E85.62409
G1 X116.334 Y122.8 E85.63332
G1 X103.656 Y122.8 E85.94957
G1 X102.904 Y122.4 E85.97082
G1 X117.103 Y122.4 E86.32502
G1 X117.672 Y122.057 E86.34159
G1 X117.75 Y122 E86.344
G1 X102.273 Y122 E86.73008
G1 X101.672 Y121.6 E86.74809
G1 X118.31 Y121.6 E87.16312
G1 X118.869 Y121.2 E87.18027
G1 X101.128 Y121.2 E87.62282
G1 X100.905 Y121.023 E87.62992
G1 X100.661 Y120.8 E87.63817
G1 X119.335 Y120.8 E88.10399
G1 X119.789 Y120.4 E88.11909
G1 X100.226 Y120.4 E88.60709
G1 X99.791 Y120 E88.62183
G1 X120.188 Y120 E89.13063
G1 X120.556 Y119.6 E89.14419
G1 X99.43 Y119.6 E89.67118
G1 X99.077 Y119.2 E89.68449
G1 X120.923 Y119.2 E90.22944
G1 X121.027 Y119.09 E90.23322
G1 X121.254 Y118.8 E90.2424
G1 X98.747 Y118.8 E90.80384
G1 X98.462 Y118.4 E90.81609
G1 X121.55 Y118.4 E91.39203
G1 X121.816 Y118 E91.40401
G1 X98.176 Y118 E91.99371
G1 X97.94 Y117.668 E92.00387
G1 X97.898 Y117.6 E92.00587
G1 X122.083 Y117.6 E92.60916
G1 X122.319 Y117.247 E92.61976
G1 X122.343 Y117.2 E92.62107
G1 X97.657 Y117.2 E93.23687
G1 X97.597 Y117.1 E93.23978
G1 X97.441 Y116.8 E93.24821
G1 X122.556 Y116.8 E93.87471
G1 X122.769 Y116.4 E93.88601
G1 X97.234 Y116.4 E94.52299
G1 X97.027 Y116 E94.53422
G1 X122.966 Y116 E95.18127
G1 X123.146 Y115.6 E95.19221
G1 X96.867 Y115.6 E95.84775
G1 X96.709 Y115.2 E95.85847
G1 X123.294 Y115.2 E96.52164
G1 X123.439 Y114.8 E96.53225
G1 X96.55 Y114.8 E97.203
G1 X96.454 Y114.556 E97.20954
G1 X96.405 Y114.4 E97.21362
G1 X123.583 Y114.4 E97.89158
G1 X123.692 Y114.1 E97.89954
G1 X123.716 Y114 E97.90211
G1 X96.281 Y114 E98.58648
G1 X96.257 Y113.92 E98.58856
G1 X96.184 Y113.6 E98.59675
G1 X123.816 Y113.6 E99.28603
G1 X123.915 Y113.2 E99.29631
G1 X96.093 Y113.2 E99.99033
G1 X96.002 Y112.8 E100.00056
G1 X124.015 Y112.8 E100.69935
G1 X124.018 Y112.789 E100.69964
G1 X124.072 Y112.4 E100.70943
G1 X95.911 Y112.4 E101.41191
G1 X95.906 Y112.375 E101.41255
G1 X95.861 Y112 E101.42197
G1 X124.128 Y112 E102.12709
G1 X124.184 Y111.6 E102.13717
G1 X95.813 Y111.6 E102.84489
G1 X95.765 Y111.2 E102.85493
G1 X124.24 Y111.2 E103.56525
G0 F7200 X124.241 Y111.196
G1 F2400 X124.264 Y110.8 E103.57514
G1 X95.741 Y110.8 E104.28665
G1 X95.734 Y110.4 E104.29663
G1 X124.279 Y110.4 E105.00869
G1 X124.273 Y110 E105.01867
G1 X95.727 Y110 E105.73075
G1 X95.721 Y109.6 E105.74073
G1 X124.266 Y109.6 E106.45279
G1 X124.259 Y109.2 E106.46277
G1 X95.736 Y109.2 E107.17428
G1 X95.759 Y108.804 E107.18417
G0 F7200 X95.76 Y108.8
G1 F2400 X124.235 Y108.8 E107.89448
G1 X124.187 Y108.4 E107.90453
G1 X95.816 Y108.4 E108.61225
G1 X95.872 Y108 E108.62233
G1 X124.139 Y108 E109.32745
G1 X124.093 Y107.618 E109.33705
G1 X124.09 Y107.6 E109.3375
G1 X95.928 Y107.6 E110.04001
G1 X95.982 Y107.211 E110.0498
G1 X95.985 Y107.2 E110.05009
G1 X123.999 Y107.2 E110.7489
G1 X123.907 Y106.8 E110.75914
G1 X96.085 Y106.8 E111.45316
G1 X96.184 Y106.4 E111.46344
G1 X123.816 Y106.4 E112.15272
G1 X123.743 Y106.081 E112.16089
G1 X123.719 Y106 E112.16299
G1 X96.284 Y106 E112.84736
G1 X96.309 Y105.897 E112.85001
G1 X96.417 Y105.6 E112.85789
G1 X123.595 Y105.6 E113.53585
G1 X123.544 Y105.438 E113.54008
G1 X123.45 Y105.2 E113.54647
G1 X96.561 Y105.2 E114.21722
G1 X96.705 Y104.8 E114.22782
G1 X123.292 Y104.8 E114.89104
G1 X123.133 Y104.4 E114.90177
G1 X96.853 Y104.4 E115.55733
G1 X97.033 Y104 E115.56827
G1 X122.974 Y104 E116.21537
G1 X122.971 Y103.994 E116.21554
G1 X122.767 Y103.6 E116.22661
G1 X97.231 Y103.6 E116.86361
G1 X97.444 Y103.2 E116.87491
G1 X122.56 Y103.2 E117.50143
G1 X122.4 Y102.894 E117.51005
G1 X122.344 Y102.8 E117.51278
G1 X97.656 Y102.8 E118.12862
G1 X97.681 Y102.753 E118.12995
G1 X97.917 Y102.4 E118.14054
G1 X122.102 Y102.4 E118.74384
G1 X122.057 Y102.328 E118.74596
G1 X121.824 Y102 E118.75599
G1 X98.183 Y102 E119.34572
G1 X98.45 Y101.6 E119.35772
G1 X121.538 Y101.6 E119.93365
G1 X121.253 Y101.2 E119.9459
G1 X98.745 Y101.2 E120.50736
G1 X98.973 Y100.91 E120.51657
G1 X99.075 Y100.8 E120.52031
G1 X120.923 Y100.8 E121.06531
G1 X120.57 Y100.4 E121.07862
G1 X99.442 Y100.4 E121.60566
G1 X99.81 Y100 E121.61922
G1 X120.209 Y100 E122.12807
G1 X119.774 Y99.6 E122.14281
G1 X100.209 Y99.6 E122.63086
G1 X100.663 Y99.2 E122.64596
G1 X119.339 Y99.2 E123.11183
G1 X119.09 Y98.973 E123.12024
G1 X118.872 Y98.8 E123.12718
G1 X101.127 Y98.8 E123.56983
G1 X101.688 Y98.4 E123.58702
G1 X118.327 Y98.4 E124.00208
G1 X117.726 Y98 E124.02009
G1 X102.249 Y98 E124.40616
G1 X102.328 Y97.943 E124.40859
G1 X102.896 Y97.6 E124.42514
G1 X117.095 Y97.6 E124.77934
G1 X116.343 Y97.2 E124.80059
G1 X103.665 Y97.2 E125.11684
G1 X103.994 Y97.029 E125.12609
G1 X104.572 Y96.8 E125.1416
G1 X115.465 Y96.8 E125.41333
G1 X114.103 Y96.309 E125.44944
G1 X112.862 Y96 E125.48134
G1 X107.212 Y96 E125.62228
G1 X106.081 Y96.257 E125.65122
G1 X105.619 Y96.4 E125.66328
G1 X114.356 Y96.4 E125.88123
G0 F600 X114.356 Y96.4 Z0.77
G0 F7200 X96.399 Y105.643
;TIME_ELAPSED:97.729469

;LAYER:-1
;TYPE:SUPPORT-INTERFACE
G1 F2400 X96.399 Y114.38 E126.09917
G1 X96.257 Y113.92 E126.11118
G1 X95.999 Y112.787 E126.14017
G1 X95.999 Y107.137 E126.28111
G1 X96.309 Y105.897 E126.31299
G1 X96.799 Y104.535 E126.3491
G1 X96.799 Y115.427 E126.6208
G1 X97.023 Y115.991 E126.63594
G1 X97.199 Y116.331 E126.64549
G1 X97.199 Y103.656 E126.96167
G1 X97.599 Y102.904 E126.98291
G1 X97.599 Y117.103 E127.33711
G1 X97.94 Y117.668 E127.35357
G1 X97.999 Y117.751 E127.35611
G1 X97.999 Y102.273 E127.74221
G1 X98.399 Y101.672 E127.76022
G1 X98.399 Y118.311 E128.17528
G1 X98.799 Y118.871 E128.19245
G1 X98.799 Y101.128 E128.63505
G1 X98.973 Y100.91 E128.64201
G1 X99.199 Y100.662 E128.65038
G1 X99.199 Y119.336 E129.1162
G1 X99.599 Y119.79 E129.1313
G1 X99.599 Y100.226 E129.61932
G1 X99.999 Y99.791 E129.63406
G1 X99.999 Y120.189 E130.14289
G1 X100.399 Y120.557 E130.15645
G1 X100.399 Y99.43 E130.68347
G1 X100.799 Y99.077 E130.69678
G1 X100.799 Y120.925 E131.24178
G1 X100.905 Y121.023 E131.24538
G1 X101.199 Y121.254 E131.2547
G1 X101.199 Y98.746 E131.81617
G1 X101.599 Y98.461 E131.82842
G1 X101.599 Y121.549 E132.40435
G1 X101.999 Y121.816 E132.41635
G1 X101.999 Y98.175 E133.00608
G1 X102.328 Y97.943 E133.01612
G1 X102.399 Y97.898 E133.01822
G1 X102.399 Y122.082 E133.62149
G1 X102.753 Y122.319 E133.63211
G1 X102.799 Y122.343 E133.63341
G1 X102.799 Y97.656 E134.24923
G1 X102.9 Y97.597 E134.25215
G1 X103.199 Y97.44 E134.26057
G1 X103.199 Y122.555 E134.88707
G1 X103.599 Y122.768 E134.89837
G1 X103.599 Y97.232 E135.53537
G1 X103.994 Y97.029 E135.54645
G1 X103.999 Y97.025 E135.54661
G1 X103.999 Y122.966 E136.19371
G1 X104.399 Y123.146 E136.20465
G1 X104.399 Y96.867 E136.86018
G1 X104.799 Y96.708 E136.87092
G1 X104.799 Y123.294 E137.53411
G1 X105.199 Y123.438 E137.54472
G1 X105.199 Y96.549 E138.21546
G1 X105.444 Y96.454 E138.22202
G1 X105.599 Y96.404 E138.22608
G1 X105.599 Y123.582 E138.90404
G1 X105.897 Y123.691 E138.91196
G1 X105.999 Y123.715 E138.91457
G1 X105.999 Y96.281 E139.59891
G1 X106.081 Y96.257 E139.60104
G1 X106.399 Y96.183 E139.60919
G1 X106.399 Y123.815 E140.29847
G1 X106.799 Y123.914 E140.30875
G1 X106.799 Y96.092 E141.00277
G1 X107.199 Y96.001 E141.01301
G1 X107.199 Y124.014 E141.71179
G1 X107.211 Y124.018 E141.71211
