;FLAVOR:Marlin
;TIME:3215
;Filament used:2.75438m
;Layer height: 0.2
;MINX:83.7
;MINY:72.7
;MINZ:0.24
;MAXX:136.3
;MAXY:147.3
;MAXZ:5.89
                                     
;Creality Print GCode Generated by CXEngine:NO_MAGE_VERSION_GIT_HEAD_BRANCH
;CXEngine Release Time:2022-09-30 09:53:04
;Gcode Generated Time:2023-05-18 13:55:23
;----------Machine Config--------------
;Machine Name:Ender-3 V2
;Machine Height:250
;Machine Width:220
;Machine Depth:220
;Material name:PLA
;Number of Extruders:1
;ExtruderParams[0] Nozzle Diameter1000
;----------Profile Config---------------
;Engine Version:275f99b
;Engine Release Time:2022-09-30 09:42:18
;Layer Height:0.2
;Wall Thickness:0.8
;Top/Bottom Thickness:1
;Out Wall Line Width:0.4
;Inner Wall Line Width:0.4
;Inital Layer Height:200
;Wall Line Count:2
;Infill Line Distance:4
;Infill Pattern:grid
;Infill Sparse Density:20
;Infill Wipe Distance:0
;Print Temperature:200
;Bed Temperature:60
;Support Enable:true
;Support Density:0
;Support Angle:60
;Adhesion Type:simpleraft
;machine is belt:false
;machine belt offset:10
;machine belt offset Y:0
;Raft Base Line Spacing:1.6
;Wait Heatup Sync:true
;----------Shell Config----------------
;Outer Wall Wipe Distance:200
;Outer Inset First:false
;Infill Before Walls:false
;Infill Overlap:0.16
;Fill Gaps Between Walls:everywhere
;Minimum Infill Area:1
;Top Surface Skin Layer:0
;Top Layers:3
;Z Seam Alignment:sharpest_corner
;Seam Corner Preference:z_seam_corner_inner
;Z Seam X:110
;Z Seam Y:110
;Horizontal Expansion:0
;Top/Bottom Pattern:zigzag
;Ironing Pattern:zigzag
;Vase Model:false
;----------Support Config----------------
;Support Type:everywhere
;Support Pattern:zigzag
;Support Infill Layer Thickness:0.2
;Minimum Support Area:5
;Enable Support Roof:false
;Support Roof Thickness:0.8
;Support Roof Pattern:lines
;Connect Support Lines:0
;Connect Support ZigZags:1
;Minimum Support X/Y Distance:0.2
;Support Line Distance:0
; ---------PrintSpeed & Travel----------
;Enable Print Cool:true
;Avoid Printed Parts Traveling:true
;Enable Retraction:true
;Retraction Distance:8
;Retraction Speed:100
;Retraction Prime Speed:100
;Maximum Retraction Count:100
;Minimum Extrusion Distance Window:1
;Z Hop When Retracted:false
;Z Hop Height:0.2
;Retract Before Outer Wall:true
;Print Speed:50
;Infill Speed:50

;Prime Tower Speed:50
;Travel Speed:120
;Initial Layer Speed:25
;Skirt/Brim Speed:25
;Combing Mode:infill
; --------SpecialModel&Mesh Fixes--------
;Union Overlapping Volum:true
;Remove All Holes:false
;Maximum Travel Resolution:0.6
;Maximum Deviation:0.05
;Maximum Model Angle:0.872665
;IS Mold Print:false
;Make Overhang Printable:false
;Enable Coasting:false
;Coasting Volumes:0.06
;Coasting Speed:0.9
;Raft AirGap:0.25
;Layer0 ZOverLap:0.13
;---------------------End of Head--------------------------
M140 S60
M105
M104 S200
M105
M109 S200
M105
M190 S60
M82 ;absolute extrusion mode
M220 S100 ;Reset Feedrate
M221 S100 ;Reset Flowrate

G28 ;Home

G92 E0 ;Reset Extruder
G1 Z2.0 F3000 ;Move Z Axis up
G1 X10.1 Y20 Z0.28 F5000.0 ;Move to start position
G1 X10.1 Y145.0 Z0.28 F1500.0 E15 ;Draw the first line
G1 X10.4 Y145.0 Z0.28 F5000.0 ;Move to side a little
G1 X10.4 Y20 Z0.28 F1500.0 E30 ;Draw the second line
G92 E0  ;Reset Extruder
G1 E-1.0000 F1800 ;Retract a bit
G1 Z2.0 F3000 ;Move Z Axis up
G1 E0.0000 F1800 

G92 E0
G92 E0
G1 F6000 E-8

;LAYER_COUNT:25

;LAYER:-4
M107
G0 F7200 X84.8 Y79.666 Z0.24
;TYPE:SUPPORT-INTERFACE
G1 F6000 E0
G1 F1200 X84.8 Y140.351 E5.32855
G1 X84.787 Y140.318 E5.33167
G1 X84.561 Y139.534 E5.40331
G1 X84.404 Y138.727 E5.4755
G1 X84.32 Y137.932 E5.54569
G1 X84.3 Y82.713 E10.3943
G1 X84.349 Y81.708 E10.48265
G1 X84.472 Y80.876 E10.5565
G1 X84.66 Y80.085 E10.62789
G1 X84.917 Y79.316 E10.69908
G1 X85.246 Y78.567 E10.77091
G1 X85.657 Y77.818 E10.84593
G1 X86.119 Y77.135 E10.91834
G1 X86.4 Y76.787 E10.95761
G1 X86.4 Y143.221 E16.79096
G1 X87.003 Y143.895 E16.87037
G1 X87.517 Y144.381 E16.93249
G1 X88 Y144.771 E16.987
G1 X88 Y75.23 E23.09317
G1 X88.462 Y74.886 E23.14374
G1 X89.155 Y74.46 E23.21517
G1 X89.6 Y74.238 E23.25884
G1 X89.6 Y145.768 E29.53966
G1 X90.308 Y146.079 E29.60756
G1 X91.081 Y146.338 E29.67914
G1 X91.2 Y146.366 E29.68987
G1 X91.2 Y73.637 E36.07597
G1 X91.46 Y73.562 E36.09973
G1 X92.273 Y73.404 E36.17245
G1 X92.8 Y73.348 E36.21899
G1 X92.8 Y146.655 E42.65584
G1 X93.57 Y146.697 E42.72355
G1 X94.4 Y146.697 E42.79643
G1 X94.4 Y73.301 E49.2411
G1 X96 Y73.301 E49.38159
G1 X96 Y146.697 E55.82625
G1 X97.6 Y146.697 E55.96674
G1 X97.6 Y73.301 E62.41141
G1 X99.2 Y73.301 E62.5519
G1 X99.2 Y146.697 E68.99656
G1 X100.8 Y146.697 E69.13705
G1 X100.8 Y73.301 E75.58172
G1 X102.4 Y73.301 E75.72221
G1 X102.4 Y146.697 E82.16688
G1 X104 Y146.697 E82.30737
G1 X104 Y73.301 E88.75203
G1 X105.6 Y73.302 E88.89252
G1 X105.6 Y146.698 E95.33719
G1 X107.2 Y146.698 E95.47768
G1 X107.2 Y73.302 E101.92234
G1 X108.8 Y73.302 E102.06283
G1 X108.8 Y146.698 E108.5075
G1 X110.4 Y146.698 E108.64799
G1 X110.4 Y73.302 E115.09266
G1 X112 Y73.302 E115.23315
G1 X112 Y146.698 E121.67781
G1 X113.6 Y146.698 E121.8183
G1 X113.6 Y73.302 E128.26297
G1 X115.2 Y73.302 E128.40346
G1 X115.2 Y146.698 E134.84812
G1 X116.8 Y146.699 E134.98861
G1 X116.8 Y73.303 E141.43328
G1 X118.4 Y73.303 E141.57377
G1 X118.4 Y146.699 E148.01844
G1 X120 Y146.699 E148.15893
G1 X120 Y73.303 E154.60359
G1 X121.6 Y73.303 E154.74408
G1 X121.6 Y146.699 E161.18875
G1 X123.2 Y146.699 E161.32924
G1 X123.2 Y73.303 E167.7739
G1 X124.8 Y73.303 E167.91439
G1 X124.8 Y146.699 E174.35906
G1 X126.332 Y146.7 E174.49358
G1 X126.4 Y146.698 E174.49955
G1 X126.4 Y73.303 E180.94413
G1 X126.43 Y73.303 E180.94676
G1 X127.288 Y73.349 E181.02221
G1 X128 Y73.454 E181.08541
G1 X128 Y146.543 E187.50311
G1 X128.54 Y146.438 E187.55142
G1 X129.322 Y146.212 E187.62289
G1 X129.6 Y146.105 E187.64905
G1 X129.6 Y73.89 E193.99001
G1 X129.687 Y73.919 E193.99807
G1 X130.433 Y74.246 E194.06959
G1 X131.182 Y74.657 E194.1446
G1 X131.2 Y74.67 E194.14655
G1 X131.2 Y145.322 E200.35028
G1 X131.537 Y145.114 E200.38505
G1 X132.194 Y144.624 E200.45702
G1 X132.89 Y144.002 E200.53898
G1 X133.381 Y143.483 E200.60171
G1 X133.881 Y142.865 E200.67151
G1 X134.343 Y142.182 E200.74392
G1 X134.4 Y142.079 E200.75425
G1 X134.4 Y77.928 E206.38714
G1 X134.114 Y77.462 E206.43515
G1 X133.628 Y76.81 E206.50656
G1 X133.003 Y76.111 E206.58889
G1 X132.8 Y75.919 E206.61343
G1 X132.8 Y144.083 E212.59869
;;retract;;
G1 F6000 E204.59869
G0 F600 X132.8 Y144.083 Z0.47
G0 F7200 X84.75 Y141.319
;TIME_ELAPSED:127.454292

;LAYER:-3
;TYPE:SUPPORT
G1 F6000 E212.59869
G1 F1800 X89.663 Y146.232 E213.1302
G1 X89.379 Y146.108 E213.15391
G1 X88.618 Y145.69 E213.22033
G1 X87.891 Y145.199 E213.28744
G1 X87.252 Y144.682 E213.35031
G1 X86.718 Y144.177 E213.40654
G1 X86.061 Y143.443 E213.4819
G1 X85.553 Y142.76 E213.54701
G1 X85.11 Y142.04 E213.61168
G1 X84.728 Y141.273 E213.67723
G1 X84.409 Y140.451 E213.74468
G1 X84.17 Y139.622 E213.81068
G1 X84.097 Y139.251 E213.83961
G1 X91.756 Y146.91 E214.66819
G1 X91.803 Y146.922 E214.6719
G1 X92.665 Y147.049 E214.73856
G1 X93.343 Y147.083 E214.79049
G1 X83.919 Y137.659 E215.81002
G1 X83.919 Y136.245 E215.91819
G1 X94.769 Y147.095 E217.092
G1 X96.184 Y147.095 E217.20024
G1 X83.918 Y134.83 E218.52719
G1 X83.918 Y133.415 E218.63543
G1 X97.598 Y147.095 E220.1154
G1 X99.012 Y147.095 E220.22357
G1 X83.917 Y132 E221.85662
G1 X83.917 Y130.586 E221.96479
G1 X100.427 Y147.096 E223.75092
G1 X101.841 Y147.096 E223.85909
G1 X83.916 Y129.171 E225.79831
G1 X83.915 Y127.756 E225.90655
G1 X103.255 Y147.096 E227.99885
G1 X104.67 Y147.096 E228.1071
G1 X83.915 Y126.341 E230.35247
G1 X83.915 Y124.927 E230.46064
G1 X106.084 Y147.096 E232.85899
G1 X107.499 Y147.097 E232.96724
G1 X83.914 Y123.512 E235.51878
G1 X83.913 Y122.097 E235.62703
G1 X108.913 Y147.097 E238.33165
G1 X110.327 Y147.097 E238.43982
G1 X83.913 Y120.682 E241.29747
G1 X83.913 Y119.268 E241.40564
G1 X111.741 Y147.097 E244.41626
G1 X113.156 Y147.097 E244.52451
G1 X83.912 Y117.853 E247.68827
G1 X83.911 Y116.438 E247.79651
G1 X114.571 Y147.098 E251.11347
G1 X115.985 Y147.098 E251.22163
G1 X83.91 Y115.023 E254.69167
G1 X83.91 Y113.609 E254.79983
G1 X117.399 Y147.098 E258.42284
G1 X118.813 Y147.098 E258.53101
G1 X83.91 Y112.194 E262.30704
G1 X83.909 Y110.779 E262.41529
G1 X120.228 Y147.098 E266.34446
G1 X121.642 Y147.098 E266.45263
G1 X83.908 Y109.364 E270.53488
G1 X83.908 Y107.95 E270.64304
G1 X123.057 Y147.098 E274.87832
G1 X124.471 Y147.098 E274.98649
G1 X83.908 Y106.535 E279.3748
G1 X83.907 Y105.12 E279.48304
G1 X125.885 Y147.098 E284.02443
G1 X126.346 Y147.1 E284.0597
G1 X126.966 Y147.079 E284.10715
G1 X127.249 Y147.048 E284.12893
G1 X83.907 Y103.706 E288.81788
G1 X83.906 Y102.291 E288.92613
G1 X128.473 Y146.858 E293.74761
G1 X128.628 Y146.829 E293.75967
G1 X129.455 Y146.59 E293.82552
G1 X129.572 Y146.542 E293.8352
G1 X83.905 Y100.876 E298.77563
G1 X83.905 Y99.461 E298.88387
G1 X130.567 Y146.124 E303.93205
G1 X131.046 Y145.887 E303.97293
G1 X131.477 Y145.619 E304.01176
G1 X83.905 Y98.047 E309.15833
G1 X83.904 Y96.632 E309.26658
G1 X132.308 Y145.036 E314.50316
G1 X132.447 Y144.935 E314.51631
G1 X133.066 Y144.38 E314.5799
G1 X83.903 Y95.217 E319.8986
G1 X83.903 Y93.802 E320.00685
G1 X133.756 Y143.655 E325.40019
G1 X134.199 Y143.109 E325.45398
G1 X134.37 Y142.855 E325.4774
G1 X83.903 Y92.388 E330.93717
G1 X83.902 Y90.973 E331.04542
G1 X134.91 Y141.981 E336.56371
G1 X135.11 Y141.617 E336.59549
G1 X135.369 Y141.026 E336.64485
G1 X83.901 Y89.558 E342.21291
G1 X83.901 Y88.143 E342.32115
G1 X135.736 Y139.978 E347.92892
G1 X135.922 Y139.195 E347.99049
G1 X135.979 Y138.807 E348.02049
G1 X83.901 Y86.729 E353.65454
G1 X83.9 Y85.314 E353.76279
G1 X136.094 Y137.508 E359.40939
G1 X136.097 Y137.432 E359.41521
G1 X136.098 Y136.098 E359.51726
G1 X83.899 Y83.899 E365.16441
G1 X83.9 Y82.693 E365.25666
G1 X83.908 Y82.494 E365.2719
G1 X136.098 Y134.684 E370.91807
G1 X136.098 Y133.269 E371.02632
G1 X84.019 Y81.191 E376.66043
G1 X84.078 Y80.803 E376.69045
G1 X84.263 Y80.02 E376.752
G1 X136.098 Y131.855 E382.35976
G1 X136.098 Y130.441 E382.46793
G1 X84.629 Y78.972 E388.0361
G1 X84.89 Y78.383 E388.08538
G1 X85.088 Y78.017 E388.11722
G1 X136.098 Y129.027 E393.63573
G1 X136.098 Y127.612 E393.74398
G1 X85.629 Y77.143 E399.20396
G1 X85.801 Y76.891 E399.2273
G1 X86.242 Y76.343 E399.28111
G1 X136.098 Y126.198 E404.67473
G1 X136.098 Y124.784 E404.7829
G1 X86.932 Y75.618 E410.10192
G1 X87.557 Y75.061 E410.16596
G1 X87.69 Y74.962 E410.17864
G1 X136.098 Y123.37 E415.41566
G1 X136.098 Y121.956 E415.52383
G1 X88.521 Y74.379 E420.67094
G1 X88.954 Y74.113 E420.70982
G1 X89.431 Y73.874 E420.75063
G1 X136.098 Y120.541 E425.7993
G1 X136.098 Y119.127 E425.90747
G1 X90.426 Y73.456 E430.84844
G1 X90.545 Y73.41 E430.8582
G1 X91.372 Y73.171 E430.92405
G1 X91.525 Y73.141 E430.93598
G1 X136.098 Y117.713 E435.75805
G1 X136.098 Y116.299 E435.86622
G1 X92.749 Y72.95 E440.55593
G1 X93.034 Y72.921 E440.57784
G1 X93.654 Y72.9 E440.6253
G1 X94.113 Y72.9 E440.66041
G1 X136.098 Y114.885 E445.20256
G1 X136.098 Y113.47 E445.3108
G1 X95.528 Y72.9 E449.69987
G1 X96.942 Y72.9 E449.80803
G1 X136.098 Y112.056 E454.04412
G1 X136.098 Y110.642 E454.15229
G1 X98.356 Y72.9 E458.23541
G1 X99.77 Y72.9 E458.34358
G1 X136.098 Y109.228 E462.27372
G1 X136.098 Y107.814 E462.38189
G1 X101.185 Y72.901 E466.15895
G1 X102.599 Y72.901 E466.26712
G1 X136.098 Y106.4 E469.89121
G1 X136.098 Y104.986 E469.99938
G1 X104.013 Y72.901 E473.47049
G1 X105.428 Y72.901 E473.57873
G1 X136.098 Y103.572 E476.89682
G1 X136.098 Y102.157 E477.00507
G1 X106.843 Y72.902 E480.17002
G1 X108.257 Y72.902 E480.27819
G1 X136.098 Y100.743 E483.29016
G1 X136.098 Y99.329 E483.39833
G1 X109.671 Y72.902 E486.25733
G1 X111.085 Y72.902 E486.3655
G1 X136.098 Y97.915 E489.07153
G1 X136.098 Y96.5 E489.17978
G1 X112.499 Y72.902 E491.73278
G1 X113.914 Y72.902 E491.84103
G1 X136.098 Y95.086 E494.241
G1 X136.098 Y93.672 E494.34917
G1 X115.329 Y72.902 E496.59612
G1 X116.743 Y72.902 E496.70429
G1 X136.098 Y92.258 E498.79826
G1 X136.098 Y90.844 E498.90643
G1 X118.157 Y72.902 E500.84743
G1 X119.571 Y72.902 E500.9556
G1 X136.098 Y89.429 E502.74357
G1 X136.098 Y88.015 E502.85174
G1 X120.986 Y72.903 E504.48663
G1 X122.4 Y72.903 E504.5948
G1 X136.098 Y86.601 E506.07672
G1 X136.098 Y85.187 E506.18488
G1 X123.815 Y72.903 E507.51377
G1 X125.229 Y72.903 E507.62194
G1 X136.098 Y83.773 E508.79786
G1 X136.1 Y82.647 E508.884
G1 X136.089 Y82.349 E508.90681
G1 X126.655 Y72.915 E509.92742
G1 X127.335 Y72.951 E509.97952
G1 X128.197 Y73.078 E510.04617
G1 X128.243 Y73.088 E510.04977
G1 X135.901 Y80.747 E510.87831
G1 X135.83 Y80.378 E510.90705
G1 X135.591 Y79.549 E510.97305
G1 X135.272 Y78.727 E511.0405
G1 X134.89 Y77.96 E511.10605
G1 X134.447 Y77.24 E511.17072
G1 X133.939 Y76.557 E511.23584
G1 X133.288 Y75.829 E511.31054
G1 X132.748 Y75.318 E511.36742
G1 X132.109 Y74.801 E511.4303
G1 X131.382 Y74.31 E511.49741
G1 X130.617 Y73.89 E511.56417
G1 X130.335 Y73.766 E511.58773
G1 X135.248 Y78.679 E512.11925
G0 F600 X135.248 Y78.679 Z0.62
G0 F7200 X129.433 Y73.2
;TIME_ELAPSED:263.391007

;LAYER:-2
;TYPE:SUPPORT-INTERFACE
G1 F2400 X90.553 Y73.2 E513.08911
G1 X91.325 Y72.977 E513.10916
G1 X92.172 Y72.812 E513.13068
G1 X92.285 Y72.8 E513.13352
G1 X127.687 Y72.8 E514.01662
G1 X128.233 Y72.881 E514.03039
G1 X129.089 Y73.086 E514.05235
G1 X129.913 Y73.362 E514.07403
G1 X130.456 Y73.6 E514.08882
G1 X89.535 Y73.6 E515.10959
G1 X88.862 Y73.936 E515.12836
G1 X88.758 Y74 E515.1314
G1 X131.237 Y74 E516.19105
G1 X131.477 Y74.133 E516.19789
G1 X131.875 Y74.4 E516.20985
G1 X88.11 Y74.4 E517.30157
G1 X87.573 Y74.8 E517.31827
G1 X132.427 Y74.8 E518.43716
G1 X132.891 Y75.177 E518.45207
G1 X132.917 Y75.2 E518.45294
G1 X87.102 Y75.2 E519.5958
G1 X86.681 Y75.577 E519.6099
G1 X86.66 Y75.6 E519.61067
G1 X133.339 Y75.6 E520.77509
G1 X133.423 Y75.681 E520.778
G1 X133.711 Y76 E520.78872
G1 X86.281 Y76 E521.97186
G1 X86.177 Y76.109 E521.97562
G1 X85.942 Y76.4 E521.98495
G1 X134.07 Y76.4 E523.18551
G1 X134.087 Y76.421 E523.18618
G1 X134.371 Y76.8 E523.198
G1 X85.621 Y76.8 E524.41407
G1 X85.351 Y77.2 E524.42611
G1 X134.658 Y77.2 E525.65608
G1 X134.904 Y77.6 E525.66779
G1 X85.091 Y77.6 E526.91038
G1 X84.872 Y78 E526.92176
G1 X135.134 Y78 E528.17555
G1 X135.334 Y78.4 E528.1867
G1 X84.665 Y78.4 E529.45065
G1 X84.489 Y78.8 E529.46155
G1 X135.515 Y78.8 E530.7344
G1 X135.671 Y79.2 E530.74511
G1 X84.325 Y79.2 E532.02594
G1 X84.191 Y79.6 E532.03646
G1 X135.815 Y79.6 E533.32423
G1 X135.93 Y80 E533.33461
G1 X84.065 Y80 E534.62839
G1 X83.969 Y80.4 E534.63865
G1 X136.038 Y80.4 E535.93752
G1 X136.116 Y80.8 E535.94768
G1 X83.876 Y80.8 E537.25081
G1 X83.818 Y81.2 E537.2609
G1 X136.192 Y81.2 E538.56737
G1 X136.234 Y81.6 E538.5774
G1 X83.759 Y81.6 E539.8864
G1 X83.752 Y81.645 E539.88754
G1 X83.733 Y82 E539.8964
G1 X136.277 Y82 E541.20712
G1 X136.279 Y82.022 E541.20767
G1 X136.292 Y82.4 E541.2171
G1 X83.712 Y82.4 E542.52872
G1 X83.703 Y82.559 E542.53269
G1 X83.703 Y82.8 E542.5387
G1 X136.299 Y82.8 E543.85072
G1 X136.299 Y83.2 E543.86069
G1 X83.703 Y83.2 E545.17271
G1 X83.703 Y83.6 E545.18268
G1 X136.299 Y83.6 E546.4947
G1 X136.299 Y84 E546.50467
G1 X83.703 Y84 E547.81669
G1 X83.703 Y84.4 E547.82667
G1 X136.299 Y84.4 E549.13868
G1 X136.299 Y84.8 E549.14866
G1 X83.703 Y84.8 E550.46067
G1 X83.703 Y85.2 E550.47065
G1 X136.299 Y85.2 E551.78266
G1 X136.299 Y85.6 E551.79264
G1 X83.703 Y85.6 E553.10465
G1 X83.703 Y86 E553.11463
G1 X136.299 Y86 E554.42664
G1 X136.299 Y86.4 E554.43662
G1 X83.703 Y86.4 E555.74863
G1 X83.703 Y86.8 E555.75861
G1 X136.299 Y86.8 E557.07062
G1 X136.299 Y87.2 E557.0806
G1 X83.703 Y87.2 E558.39261
G1 X83.703 Y87.6 E558.40259
G1 X136.299 Y87.6 E559.7146
G1 X136.299 Y88 E559.72458
G1 X83.703 Y88 E561.03659
G1 X83.703 Y88.4 E561.04657
G1 X136.299 Y88.4 E562.35858
G1 X136.299 Y88.8 E562.36856
G1 X83.703 Y88.8 E563.68057
G1 X83.703 Y89.2 E563.69055
G1 X136.299 Y89.2 E565.00257
G1 X136.299 Y89.6 E565.01254
G1 X83.703 Y89.6 E566.32456
G1 X83.703 Y90 E566.33453
G1 X136.299 Y90 E567.64655
G1 X136.299 Y90.4 E567.65652
G1 X83.703 Y90.4 E568.96854
