;FLAVOR:Marlin
;TIME:2542
;Filament used:1.66339m
;Layer height: 0.2
;MINX:86.2
;MINY:89.5
;MINZ:0.24
;MAXX:133.8
;MAXY:130.5
;MAXZ:10.89
                                    
;Creality Print GCode Generated by CXEngine:NO_MAGE_VERSION_GIT_HEAD_BRANCH
;CXEngine Release Time:2022-09-30 09:53:04
;Gcode Generated Time:2023-05-18 13:36:43
;----------Machine Config--------------
;Machine Name:Ender-3 V2
;Machine Height:250
;Machine Width:220
;Machine Depth:220
;Material name:PLA
;Number of Extruders:1
;ExtruderParams[0] Nozzle Diameter1000
;----------Profile Config---------------
;Engine Version:275f99b
;Engine Release Time:2022-09-30 09:42:18
;Layer Height:0.2
;Wall Thickness:0.8
;Top/Bottom Thickness:1
;Out Wall Line Width:0.4
;Inner Wall Line Width:0.4
;Inital Layer Height:200
;Wall Line Count:2
;Infill Line Distance:4
;Infill Pattern:grid
;Infill Sparse Density:20
;Infill Wipe Distance:0
;Print Temperature:200
;Bed Temperature:60
;Support Enable:true
;Support Density:0
;Support Angle:60
;Adhesion Type:simpleraft
;machine is belt:false
;machine belt offset:10
;machine belt offset Y:0
;Raft Base Line Spacing:1.6
;Wait Heatup Sync:true
;----------Shell Config----------------
;Outer Wall Wipe Distance:200
;Outer Inset First:false
;Infill Before Walls:false
;Infill Overlap:0.16
;Fill Gaps Between Walls:everywhere
;Minimum Infill Area:1
;Top Surface Skin Layer:0
;Top Layers:3
;Z Seam Alignment:sharpest_corner
;Seam Corner Preference:z_seam_corner_inner
;Z Seam X:110
;Z Seam Y:110
;Horizontal Expansion:0
;Top/Bottom Pattern:zigzag
;Ironing Pattern:zigzag
;Vase Model:false
;----------Support Config----------------
;Support Type:everywhere
;Support Pattern:zigzag
;Support Infill Layer Thickness:0.2
;Minimum Support Area:5
;Enable Support Roof:false
;Support Roof Thickness:0.8
;Support Roof Pattern:lines
;Connect Support Lines:0
;Connect Support ZigZags:1
;Minimum Support X/Y Distance:0.2
;Support Line Distance:0
; ---------PrintSpeed & Travel----------
;Enable Print Cool:true
;Avoid Printed Parts Traveling:true
;Enable Retraction:true
;Retraction Distance:8
;Retraction Speed:100
;Retraction Prime Speed:100
;Maximum Retraction Count:100
;Minimum Extrusion Distance Window:1
;Z Hop When Retracted:false
;Z Hop Height:0.2
;Retract Before Outer Wall:true
;Print Speed:50
;Infill Speed:50

;Prime Tower Speed:50
;Travel Speed:120
;Initial Layer Speed:25
;Skirt/Brim Speed:25
;Combing Mode:infill
; --------SpecialModel&Mesh Fixes--------
;Union Overlapping Volum:true
;Remove All Holes:false
;Maximum Travel Resolution:0.6
;Maximum Deviation:0.05
;Maximum Model Angle:0.872665
;IS Mold Print:false
;Make Overhang Printable:false
;Enable Coasting:false
;Coasting Volumes:0.06
;Coasting Speed:0.9
;Raft AirGap:0.25
;Layer0 ZOverLap:0.13
;---------------------End of Head--------------------------
M140 S60
M105
M104 S200
M105
M109 S200
M105
M190 S60
M82 ;absolute extrusion mode
M220 S100 ;Reset Feedrate
M221 S100 ;Reset Flowrate

G28 ;Home

G92 E0 ;Reset Extruder
G1 Z2.0 F3000 ;Move Z Axis up
G1 X10.1 Y20 Z0.28 F5000.0 ;Move to start position
G1 X10.1 Y145.0 Z0.28 F1500.0 E15 ;Draw the first line
G1 X10.4 Y145.0 Z0.28 F5000.0 ;Move to side a little
G1 X10.4 Y20 Z0.28 F1500.0 E30 ;Draw the second line
G92 E0  ;Reset Extruder
G1 E-1.0000 F1800 ;Retract a bit
G1 Z2.0 F3000 ;Move Z Axis up
G1 E0.0000 F1800 

G92 E0
G92 E0
G1 F6000 E-8

;LAYER_COUNT:50

;LAYER:-4
M107
G0 F7200 X88 Y94.904 Z0.24
;TYPE:SUPPORT-INTERFACE
G1 F6000 E0
G1 F1200 X88 Y125.109 E2.6522
G1 X87.957 Y125.039 E2.65942
G1 X87.596 Y124.315 E2.73045
G1 X87.287 Y123.518 E2.80551
G1 X87.061 Y122.734 E2.87715
G1 X86.904 Y121.927 E2.94934
G1 X86.82 Y121.132 E3.01954
G1 X86.8 Y99.513 E4.91783
G1 X86.849 Y98.508 E5.00618
G1 X86.972 Y97.676 E5.08003
G1 X87.16 Y96.885 E5.15142
G1 X87.417 Y96.116 E5.22262
G1 X87.746 Y95.367 E5.29445
G1 X88.157 Y94.618 E5.36947
G1 X88.619 Y93.935 E5.44187
G1 X89.119 Y93.317 E5.51167
G1 X89.6 Y92.808 E5.57316
G1 X89.6 Y127.186 E8.59179
G1 X90.017 Y127.581 E8.64222
G1 X90.635 Y128.081 E8.71202
G1 X91.2 Y128.463 E8.77191
G1 X91.2 Y91.539 E12.01408
G1 X91.655 Y91.26 E12.06095
G1 X92.385 Y90.896 E12.13257
G1 X92.8 Y90.734 E12.17169
G1 X92.8 Y129.275 E15.55585
G1 X92.808 Y129.279 E15.55664
G1 X93.581 Y129.538 E15.62822
G1 X94.376 Y129.728 E15.69999
G1 X94.4 Y129.731 E15.70212
G1 X94.4 Y90.276 E19.16653
G1 X94.773 Y90.204 E19.19989
G1 X95.561 Y90.121 E19.26946
G1 X96 Y90.105 E19.30804
G1 X96 Y129.893 E22.80169
G1 X96.07 Y129.897 E22.80785
G1 X97.6 Y129.897 E22.94219
G1 X97.6 Y90.101 E26.43655
G1 X99.2 Y90.101 E26.57704
G1 X99.2 Y129.897 E30.0714
G1 X100.8 Y129.897 E30.21189
G1 X100.8 Y90.101 E33.70625
G1 X102.4 Y90.101 E33.84674
G1 X102.4 Y129.897 E37.3411
G1 X104 Y129.897 E37.48159
G1 X104 Y90.101 E40.97595
G1 X105.6 Y90.102 E41.11644
G1 X105.6 Y129.898 E44.61079
G1 X107.2 Y129.898 E44.75128
G1 X107.2 Y90.102 E48.24564
G1 X108.8 Y90.102 E48.38613
G1 X108.8 Y129.898 E51.88049
G1 X110.4 Y129.898 E52.02098
G1 X110.4 Y90.102 E55.51534
G1 X112 Y90.102 E55.65583
G1 X112 Y129.898 E59.15019
G1 X113.6 Y129.898 E59.29068
G1 X113.6 Y90.102 E62.78504
G1 X115.2 Y90.103 E62.92553
G1 X115.2 Y129.899 E66.41989
G1 X116.8 Y129.899 E66.56038
G1 X116.8 Y90.103 E70.05473
G1 X118.4 Y90.103 E70.19523
G1 X118.4 Y129.899 E73.68958
G1 X120 Y129.899 E73.83007
G1 X120 Y90.103 E77.32443
G1 X121.6 Y90.103 E77.46492
G1 X121.6 Y129.899 E80.95928
G1 X123.2 Y129.899 E81.09977
G1 X123.2 Y90.103 E84.59413
G1 X123.93 Y90.103 E84.65823
G1 X124.788 Y90.149 E84.73368
G1 X124.8 Y90.151 E84.73474
G1 X124.8 Y129.841 E88.21979
G1 X125.227 Y129.796 E88.25749
G1 X126.04 Y129.638 E88.33022
G1 X126.4 Y129.534 E88.36312
G1 X126.4 Y90.458 E91.79426
G1 X126.419 Y90.462 E91.79596
G1 X127.187 Y90.719 E91.86707
G1 X127.933 Y91.046 E91.93859
G1 X128 Y91.083 E91.94531
G1 X128 Y128.913 E95.26704
G1 X128.345 Y128.74 E95.30093
G1 X129.037 Y128.314 E95.37229
G1 X129.6 Y127.895 E95.43391
G1 X129.6 Y92.11 E98.57607
G1 X129.983 Y92.419 E98.61928
G1 X130.503 Y92.911 E98.68214
G1 X131.128 Y93.61 E98.76448
G1 X131.2 Y93.707 E98.77508
G1 X131.2 Y126.289 E101.636
G1 X131.381 Y126.065 E101.66129
G1 X131.843 Y125.382 E101.73369
G1 X132.254 Y124.633 E101.80871
G1 X132.583 Y123.884 E101.88054
G1 X132.839 Y123.116 E101.95163
G1 X133.028 Y122.322 E102.02329
G1 X133.152 Y121.481 E102.09794
G1 X133.197 Y120.632 E102.17259
G1 X133.2 Y99.447 E104.03278
G1 X133.179 Y98.857 E104.08462
G1 X133.096 Y98.073 E104.15384
G1 X132.939 Y97.266 E104.22603
G1 X132.8 Y96.784 E104.27008
G1 X132.8 Y123.233 E106.59248
G0 F600 X132.8 Y123.233 Z0.47
G0 F7200 X126.958 Y129.787
;TIME_ELAPSED:66.406208

;LAYER:-3
;TYPE:SUPPORT
G1 F1800 X89.516 Y92.344 E110.64319
G1 X90.057 Y91.861 E110.69867
G1 X90.28 Y91.694 E110.71998
G1 X127.962 Y129.376 E114.79661
G1 X128.546 Y129.087 E114.84646
G1 X128.88 Y128.88 E114.87652
G1 X91.119 Y91.119 E118.96169
G1 X91.454 Y90.913 E118.99177
G1 X92.037 Y90.622 E119.04162
G1 X129.718 Y128.303 E123.11813
G1 X129.947 Y128.135 E123.13986
G1 X130.482 Y127.653 E123.19495
G1 X93.04 Y90.211 E127.24561
G1 X93.045 Y90.21 E127.246
G1 X93.872 Y89.971 E127.31185
G1 X94.158 Y89.915 E127.33415
G1 X131.185 Y126.943 E131.33996
G1 X131.699 Y126.309 E131.4024
G1 X131.806 Y126.149 E131.41713
G1 X95.393 Y89.736 E135.35646
G1 X95.534 Y89.721 E135.36731
G1 X96.154 Y89.7 E135.41477
G1 X96.771 Y89.7 E135.46197
G1 X132.354 Y125.283 E139.31151
G1 X132.61 Y124.817 E139.35218
G1 X132.821 Y124.336 E139.39236
G1 X98.186 Y89.7 E143.1394
G1 X99.6 Y89.7 E143.24757
G1 X133.199 Y123.299 E146.88248
G1 X133.226 Y123.219 E146.88894
G1 X133.422 Y122.395 E146.95373
G1 X133.458 Y122.144 E146.97313
G1 X101.014 Y89.7 E150.48308
G1 X102.428 Y89.7 E150.59125
G1 X133.585 Y120.857 E153.96197
G1 X133.597 Y120.632 E153.97921
G1 X133.597 Y119.455 E154.06924
G1 X103.843 Y89.701 E157.28818
G1 X105.257 Y89.701 E157.39635
G1 X133.597 Y118.04 E160.46225
G1 X133.597 Y116.626 E160.57042
G1 X106.672 Y89.701 E163.4833
G1 X108.086 Y89.701 E163.59147
G1 X133.597 Y115.213 E166.35143
G1 X133.597 Y113.798 E166.45968
G1 X109.5 Y89.701 E169.06661
G1 X110.915 Y89.702 E169.17485
G1 X133.597 Y112.384 E171.62871
G1 X133.597 Y110.97 E171.73687
G1 X112.329 Y89.702 E174.03775
G1 X113.743 Y89.702 E174.14592
G1 X133.598 Y109.557 E176.29393
G1 X133.598 Y108.142 E176.40218
G1 X115.157 Y89.702 E178.39716
G1 X116.572 Y89.702 E178.50541
G1 X133.598 Y106.728 E180.34736
G1 X133.598 Y105.314 E180.45553
G1 X117.987 Y89.702 E182.14446
G1 X119.401 Y89.702 E182.25263
G1 X133.599 Y103.9 E183.78864
G1 X133.599 Y102.486 E183.89681
G1 X120.815 Y89.702 E185.27985
G1 X122.229 Y89.702 E185.38801
G1 X133.599 Y101.072 E186.61808
G1 X133.599 Y99.658 E186.72625
G1 X123.643 Y89.702 E187.80334
G1 X123.932 Y89.703 E187.82544
G1 X124.835 Y89.751 E187.89462
G1 X125.153 Y89.798 E187.91921
G1 X133.506 Y98.15 E188.82282
G1 X133.492 Y98.013 E188.83336
G1 X133.33 Y97.178 E188.89843
G1 X133.091 Y96.349 E188.96443
G1 X132.772 Y95.527 E189.03188
G1 X132.39 Y94.76 E189.09743
G1 X131.947 Y94.04 E189.16209
G1 X131.439 Y93.357 E189.22721
G1 X130.788 Y92.629 E189.30192
G1 X130.248 Y92.118 E189.35879
G1 X129.609 Y91.601 E189.42167
G1 X128.882 Y91.11 E189.48878
G1 X128.117 Y90.69 E189.55554
G1 X127.332 Y90.346 E189.62111
G1 X127.006 Y90.236 E189.64743
G1 X133.072 Y96.302 E190.30368
;;retract;;
G1 F6000 E182.30368
G0 F7200 X126.955 Y129.79
G1 F6000 E190.30368
G1 F1800 X126.128 Y130.029 E190.36953
G1 X125.84 Y130.083 E190.39194
G1 X88.813 Y93.055 E194.39776
G1 X88.301 Y93.691 E194.46022
G1 X88.192 Y93.849 E194.47491
G1 X124.605 Y130.262 E198.41424
G1 X124.466 Y130.279 E198.42496
G1 X123.846 Y130.3 E198.47241
G1 X123.227 Y130.298 E198.51977
G1 X87.645 Y94.716 E202.3692
G1 X87.39 Y95.183 E202.40991
G1 X87.177 Y95.663 E202.45008
G1 X121.813 Y130.298 E206.19712
G1 X120.399 Y130.298 E206.30529
G1 X86.8 Y96.699 E209.94019
G1 X86.774 Y96.781 E209.94677
G1 X86.578 Y97.603 E210.01142
G1 X86.54 Y97.854 E210.03084
G1 X118.984 Y130.298 E213.54079
G1 X117.57 Y130.298 E213.64896
G1 X86.416 Y99.144 E217.01935
G1 X86.4 Y99.493 E217.04608
G1 X86.4 Y100.542 E217.12633
G1 X116.155 Y130.297 E220.34537
G1 X114.741 Y130.297 E220.45354
G1 X86.402 Y101.958 E223.51939
G1 X86.403 Y103.374 E223.62771
G1 X113.327 Y130.297 E226.54043
G1 X111.913 Y130.297 E226.6486
G1 X86.404 Y104.788 E229.40829
G1 X86.405 Y106.204 E229.51661
G1 X110.498 Y130.297 E232.12311
G1 X109.083 Y130.297 E232.23135
G1 X86.407 Y107.62 E234.68461
G1 X86.408 Y109.035 E234.79286
G1 X107.669 Y130.297 E237.09303
G1 X106.255 Y130.297 E237.2012
G1 X86.409 Y110.451 E239.34824
G1 X86.41 Y111.866 E239.45648
G1 X104.841 Y130.297 E241.45044
G1 X103.427 Y130.297 E241.55861
G1 X86.411 Y113.282 E243.39943
G1 X86.413 Y114.697 E243.50767
G1 X102.012 Y130.296 E245.19525
G1 X100.597 Y130.296 E245.3035
G1 X86.414 Y116.113 E246.83788
G1 X86.416 Y117.528 E246.94613
G1 X99.183 Y130.296 E248.32738
G1 X97.769 Y130.296 E248.43555
G1 X86.417 Y118.944 E249.66366
G1 X86.418 Y120.359 E249.77191
G1 X96.355 Y130.296 E250.84694
G1 X96.068 Y130.297 E250.8689
G1 X95.165 Y130.249 E250.93807
G1 X94.845 Y130.2 E250.96284
G1 X86.493 Y121.848 E251.8664
G1 X86.508 Y121.987 E251.87709
G1 X86.67 Y122.822 E251.94216
G1 X86.909 Y123.651 E252.00816
G1 X87.228 Y124.473 E252.07561
G1 X87.61 Y125.24 E252.14116
G1 X88.053 Y125.96 E252.20583
G1 X88.561 Y126.643 E252.27095
G1 X89.218 Y127.377 E252.3463
G1 X89.752 Y127.882 E252.40253
G1 X90.391 Y128.399 E252.46541
G1 X91.118 Y128.89 E252.53252
G1 X91.879 Y129.308 E252.59893
G1 X92.662 Y129.652 E252.66436
G1 X92.992 Y129.761 E252.69094
G1 X86.926 Y123.696 E253.34714
G0 F600 X86.926 Y123.696 Z0.62
G0 F7200 X93.07 Y130
;TIME_ELAPSED:134.867717

;LAYER:-2
;TYPE:SUPPORT-INTERFACE
G1 F2400 X126.912 Y130 E254.19133
G1 X126.175 Y130.223 E254.21054
G1 X125.328 Y130.388 E254.23207
G1 X125.205 Y130.4 E254.23515
G1 X94.819 Y130.4 E254.99313
G1 X94.267 Y130.319 E255.00705
G1 X93.411 Y130.114 E255.029
G1 X92.58 Y129.835 E255.05087
G1 X92.045 Y129.6 E255.06545
G1 X127.962 Y129.6 E255.9614
G1 X128.638 Y129.264 E255.98023
G1 X128.739 Y129.2 E255.98321
G1 X91.265 Y129.2 E256.91801
G1 X91.015 Y129.062 E256.92513
G1 X90.626 Y128.8 E256.93683
G1 X129.388 Y128.8 E257.90375
G1 X129.924 Y128.4 E257.92044
G1 X90.074 Y128.4 E258.9145
G1 X89.609 Y128.023 E258.92943
G1 X89.583 Y128 E258.9303
G1 X130.396 Y128 E259.94838
G1 X130.819 Y127.623 E259.96251
G1 X130.838 Y127.6 E259.96326
G1 X89.162 Y127.6 E261.00287
G1 X89.068 Y127.509 E261.00613
G1 X88.789 Y127.2 E261.01652
G1 X131.218 Y127.2 E262.07492
G1 X131.323 Y127.091 E262.07869
G1 X131.557 Y126.8 E262.08801
G1 X88.43 Y126.8 E263.16381
G1 X88.413 Y126.779 E263.16449
G1 X88.129 Y126.4 E263.1763
G1 X131.879 Y126.4 E264.26765
G1 X132.148 Y126 E264.27967
G1 X87.842 Y126 E265.38489
G1 X87.596 Y125.6 E265.39661
G1 X132.408 Y125.6 E266.51445
G1 X132.628 Y125.2 E266.52583
G1 X87.366 Y125.2 E267.6549
G1 X87.166 Y124.8 E267.66605
G1 X132.834 Y124.8 E268.80525
G1 X133.011 Y124.4 E268.81616
G1 X86.984 Y124.4 E269.96431
G1 X86.829 Y124 E269.97501
G1 X133.174 Y124 E271.13109
G1 X133.309 Y123.6 E271.14162
G1 X86.685 Y123.6 E272.30466
G1 X86.569 Y123.2 E272.31505
G1 X133.435 Y123.2 E273.48413
G1 X133.53 Y122.8 E273.49438
G1 X86.461 Y122.8 E274.66852
G1 X86.383 Y122.4 E274.67869
G1 X133.624 Y122.4 E275.85712
G1 X133.682 Y122 E275.8672
G1 X86.308 Y122 E277.04895
G1 X86.265 Y121.6 E277.05899
G1 X133.741 Y121.6 E278.24328
G1 X133.748 Y121.555 E278.24442
G1 X133.766 Y121.2 E278.25328
G1 X86.222 Y121.2 E279.43927
G1 X86.221 Y121.178 E279.43982
G1 X86.207 Y120.8 E279.44926
G1 X133.788 Y120.8 E280.63617
G1 X133.797 Y120.641 E280.64014
G1 X133.797 Y120.4 E280.64616
G1 X86.2 Y120.4 E281.83347
G1 X86.2 Y120 E281.84345
G1 X133.797 Y120 E283.03076
G1 X133.797 Y119.6 E283.04074
G1 X86.2 Y119.6 E284.22805
G1 X86.2 Y119.2 E284.23803
G1 X133.797 Y119.2 E285.42534
G1 X133.797 Y118.8 E285.43532
G1 X86.201 Y118.8 E286.6226
G1 X86.201 Y118.4 E286.63258
G1 X133.797 Y118.4 E287.81987
G1 X133.797 Y118 E287.82985
G1 X86.201 Y118 E289.01713
G1 X86.201 Y117.6 E289.02711
G1 X133.797 Y117.6 E290.2144
G1 X133.797 Y117.2 E290.22438
G1 X86.201 Y117.2 E291.41166
G1 X86.201 Y116.8 E291.42164
G1 X133.797 Y116.8 E292.60893
G1 X133.797 Y116.4 E292.61891
G1 X86.201 Y116.4 E293.80619
G1 X86.201 Y116 E293.81617
G1 X133.797 Y116 E295.00346
G1 X133.797 Y115.6 E295.01344
G1 X86.201 Y115.6 E296.20073
G1 X86.201 Y115.2 E296.2107
G1 X133.797 Y115.2 E297.39799
G1 X133.797 Y114.8 E297.40797
G1 X86.201 Y114.8 E298.59526
G1 X86.201 Y114.4 E298.60523
G1 X133.797 Y114.4 E299.79252
G1 X133.797 Y114 E299.8025
G1 X86.201 Y114 E300.98979
G1 X86.201 Y113.6 E300.99976
G1 X133.797 Y113.6 E302.18705
G1 X133.798 Y113.2 E302.19703
G1 X86.202 Y113.2 E303.38432
G1 X86.202 Y112.8 E303.39429
G1 X133.798 Y112.8 E304.58158
G1 X133.798 Y112.4 E304.59156
G1 X86.202 Y112.4 E305.77885
G1 X86.202 Y112 E305.78882
G1 X133.798 Y112 E306.97611
G1 X133.798 Y111.6 E306.98609
G1 X86.202 Y111.6 E308.17338
G1 X86.202 Y111.2 E308.18335
G1 X133.798 Y111.2 E309.37064
G1 X133.798 Y110.8 E309.38062
G1 X86.202 Y110.8 E310.56791
G1 X86.202 Y110.4 E310.57788
G1 X133.798 Y110.4 E311.76517
G1 X133.798 Y110 E311.77515
G1 X86.202 Y110 E312.96244
G1 X86.202 Y109.6 E312.97242
G1 X133.798 Y109.6 E314.1597
G1 X133.798 Y109.2 E314.16968
G1 X86.202 Y109.2 E315.35697
G1 X86.202 Y108.8 E315.36695
G1 X133.798 Y108.8 E316.55423
G1 X133.798 Y108.4 E316.56421
G1 X86.202 Y108.4 E317.7515
G1 X86.202 Y108 E317.76148
G1 X133.798 Y108 E318.94876
G1 X133.798 Y107.6 E318.95874
G1 X86.202 Y107.6 E320.14603
G1 X86.202 Y107.2 E320.15601
G1 X133.798 Y107.2 E321.34329
G1 X133.798 Y106.8 E321.35327
G1 X86.202 Y106.8 E322.54056
G1 X86.203 Y106.4 E322.55054
G1 X133.799 Y106.4 E323.73782
G1 X133.799 Y106 E323.7478
G1 X86.203 Y106 E324.93509
G1 X86.203 Y105.6 E324.94507
G1 X133.799 Y105.6 E326.13235
G1 X133.799 Y105.2 E326.14233
G1 X86.203 Y105.2 E327.32962
G1 X86.203 Y104.8 E327.3396
G1 X133.799 Y104.8 E328.52688
G1 X133.799 Y104.4 E328.53686
G1 X86.203 Y104.4 E329.72415
G1 X86.203 Y104 E329.73413
G1 X133.799 Y104 E330.92141
G1 X133.799 Y103.6 E330.93139
G1 X86.203 Y103.6 E332.11868
