;FLAVOR:Marlin
;TIME:5072
;Filament used:4.23081m
;Layer height: 0.2
;MINX:47.45
;MINY:84.45
;MINZ:0.24
;MAXX:172.55
;MAXY:135.55
;MAXZ:5.89
                                 
;Creality Print GCode Generated by CXEngine:NO_MAGE_VERSION_GIT_HEAD_BRANCH
;CXEngine Release Time:2022-09-30 09:53:04
;Gcode Generated Time:2023-05-18 13:57:15
;----------Machine Config--------------
;Machine Name:Ender-3 V2
;Machine Height:250
;Machine Width:220
;Machine Depth:220
;Material name:PLA
;Number of Extruders:1
;ExtruderParams[0] Nozzle Diameter1000
;----------Profile Config---------------
;Engine Version:275f99b
;Engine Release Time:2022-09-30 09:42:18
;Layer Height:0.2
;Wall Thickness:0.8
;Top/Bottom Thickness:1
;Out Wall Line Width:0.4
;Inner Wall Line Width:0.4
;Inital Layer Height:200
;Wall Line Count:2
;Infill Line Distance:4
;Infill Pattern:grid
;Infill Sparse Density:20
;Infill Wipe Distance:0
;Print Temperature:200
;Bed Temperature:60
;Support Enable:true
;Support Density:0
;Support Angle:60
;Adhesion Type:simpleraft
;machine is belt:false
;machine belt offset:10
;machine belt offset Y:0
;Raft Base Line Spacing:1.6
;Wait Heatup Sync:true
;----------Shell Config----------------
;Outer Wall Wipe Distance:200
;Outer Inset First:false
;Infill Before Walls:false
;Infill Overlap:0.16
;Fill Gaps Between Walls:everywhere
;Minimum Infill Area:1
;Top Surface Skin Layer:0
;Top Layers:3
;Z Seam Alignment:sharpest_corner
;Seam Corner Preference:z_seam_corner_inner
;Z Seam X:110
;Z Seam Y:110
;Horizontal Expansion:0
;Top/Bottom Pattern:zigzag
;Ironing Pattern:zigzag
;Vase Model:false
;----------Support Config----------------
;Support Type:everywhere
;Support Pattern:zigzag
;Support Infill Layer Thickness:0.2
;Minimum Support Area:5
;Enable Support Roof:false
;Support Roof Thickness:0.8
;Support Roof Pattern:lines
;Connect Support Lines:0
;Connect Support ZigZags:1
;Minimum Support X/Y Distance:0.2
;Support Line Distance:0
; ---------PrintSpeed & Travel----------
;Enable Print Cool:true
;Avoid Printed Parts Traveling:true
;Enable Retraction:true
;Retraction Distance:8
;Retraction Speed:100
;Retraction Prime Speed:100
;Maximum Retraction Count:100
;Minimum Extrusion Distance Window:1
;Z Hop When Retracted:false
;Z Hop Height:0.2
;Retract Before Outer Wall:true
;Print Speed:50
;Infill Speed:50

;Prime Tower Speed:50
;Travel Speed:120
;Initial Layer Speed:25
;Skirt/Brim Speed:25
;Combing Mode:infill
; --------SpecialModel&Mesh Fixes--------
;Union Overlapping Volum:true
;Remove All Holes:false
;Maximum Travel Resolution:0.6
;Maximum Deviation:0.05
;Maximum Model Angle:0.872665
;IS Mold Print:false
;Make Overhang Printable:false
;Enable Coasting:false
;Coasting Volumes:0.06
;Coasting Speed:0.9
;Raft AirGap:0.25
;Layer0 ZOverLap:0.13
;---------------------End of Head--------------------------
M140 S60
M105
M104 S200
M105
M109 S200
M105
M190 S60
M82 ;absolute extrusion mode
M220 S100 ;Reset Feedrate
M221 S100 ;Reset Flowrate

G28 ;Home

G92 E0 ;Reset Extruder
G1 Z2.0 F3000 ;Move Z Axis up
G1 X10.1 Y20 Z0.28 F5000.0 ;Move to start position
G1 X10.1 Y145.0 Z0.28 F1500.0 E15 ;Draw the first line
G1 X10.4 Y145.0 Z0.28 F5000.0 ;Move to side a little
G1 X10.4 Y20 Z0.28 F1500.0 E30 ;Draw the second line
G92 E0  ;Reset Extruder
G1 E-1.0000 F1800 ;Retract a bit
G1 Z2.0 F3000 ;Move Z Axis up
G1 E0.0000 F1800 

G92 E0
G92 E0
G1 F6000 E-8

;LAYER_COUNT:25

;LAYER:-4
M107
G0 F7200 X49.6 Y96.782 Z0.24
;TYPE:SUPPORT-INTERFACE
G1 F6000 E0
G1 F1200 X49.6 Y128.729 E2.80516
G1 X49.207 Y128.089 E2.87111
G1 X48.846 Y127.365 E2.94214
G1 X48.537 Y126.568 E3.0172
G1 X48.311 Y125.784 E3.08885
G1 X48.154 Y124.977 E3.16103
G1 X48.07 Y124.182 E3.23123
G1 X48.05 Y101.963 E5.18221
G1 X48.099 Y100.958 E5.27056
G1 X48.222 Y100.126 E5.34441
G1 X48.41 Y99.335 E5.4158
G1 X48.667 Y98.566 E5.48699
G1 X48.996 Y97.817 E5.55883
G1 X49.407 Y97.068 E5.63384
G1 X49.869 Y96.385 E5.70625
G1 X50.369 Y95.767 E5.77605
G1 X50.861 Y95.247 E5.83891
G1 X51.2 Y94.943 E5.87889
G1 X51.2 Y130.568 E9.007
G1 X51.267 Y130.632 E9.01514
G1 X51.889 Y131.135 E9.08538
G1 X52.571 Y131.594 E9.15756
G1 X52.8 Y131.719 E9.18047
G1 X52.8 Y93.774 E12.5123
G1 X52.905 Y93.71 E12.5231
G1 X53.635 Y93.346 E12.59472
G1 X54.4 Y93.048 E12.66681
G1 X54.4 Y132.443 E16.12596
G1 X54.831 Y132.588 E16.16589
G1 X55.626 Y132.778 E16.23766
G1 X56 Y132.833 E16.27085
G1 X56 Y92.658 E19.79849
G1 X56.023 Y92.654 E19.80054
G1 X56.808 Y92.571 E19.86985
G1 X57.6 Y92.569 E19.93939
G1 X57.6 Y132.947 E23.48485
G1 X59.2 Y132.947 E23.62535
G1 X59.2 Y92.566 E27.17107
G1 X60.8 Y92.562 E27.31156
G1 X60.8 Y132.948 E30.85773
G1 X62.4 Y132.949 E30.99822
G1 X62.4 Y92.559 E34.54473
G1 X64 Y92.556 E34.68522
G1 X64 Y132.949 E38.232
G1 X65.6 Y132.95 E38.37249
G1 X65.6 Y92.553 E41.91962
G1 X67.11 Y92.55 E42.05221
G1 X67.2 Y92.544 E42.06013
G1 X67.2 Y132.951 E45.60814
G1 X68.8 Y132.951 E45.74863
G1 X68.8 Y92.28 E49.31982
G1 X69.233 Y92.138 E49.35983
G1 X69.896 Y91.825 E49.42421
G1 X70.4 Y91.502 E49.47677
G1 X70.4 Y132.952 E53.11636
G1 X72 Y132.953 E53.25685
G1 X72 Y89.796 E57.04633
G1 X72.606 Y88.9 E57.14131
G1 X73.119 Y88.267 E57.21285
G1 X73.6 Y87.758 E57.27434
G1 X73.6 Y132.953 E61.24277
G1 X75.2 Y132.954 E61.38326
G1 X75.2 Y86.489 E65.4632
G1 X75.655 Y86.21 E65.51007
G1 X76.385 Y85.846 E65.58169
G1 X76.8 Y85.684 E65.62081
G1 X76.8 Y132.955 E69.77152
G1 X78.4 Y132.955 E69.91201
G1 X78.4 Y85.226 E74.10294
G1 X78.773 Y85.154 E74.1363
G1 X79.561 Y85.071 E74.20587
G1 X80 Y85.055 E74.24445
G1 X80 Y132.956 E78.45048
G1 X81.6 Y132.957 E78.59097
G1 X81.6 Y85.051 E82.79744
G1 X83.2 Y85.051 E82.93793
G1 X83.2 Y132.957 E87.1444
G1 X84.8 Y132.958 E87.28489
G1 X84.8 Y85.051 E91.49145
G1 X86.4 Y85.051 E91.63194
G1 X86.4 Y132.959 E95.83859
G1 X88 Y132.959 E95.97908
G1 X88 Y85.051 E100.18572
G1 X89.6 Y85.051 E100.32621
G1 X89.6 Y132.96 E104.53295
G1 X91.2 Y132.96 E104.67344
G1 X91.2 Y85.051 E108.88017
G1 X92.8 Y85.051 E109.02066
G1 X92.8 Y132.961 E113.22749
G1 X94.4 Y132.962 E113.36798
G1 X94.4 Y85.051 E117.57489
G1 X96 Y85.051 E117.71538
G1 X96 Y132.962 E121.92229
G1 X97.6 Y132.963 E122.06278
G1 X97.6 Y85.052 E126.26969
G1 X99.2 Y85.052 E126.41018
G1 X99.2 Y132.964 E130.61718
G1 X100.8 Y132.964 E130.75767
G1 X100.8 Y85.052 E134.96466
G1 X102.4 Y85.052 E135.10515
G1 X102.4 Y132.965 E139.31224
G1 X104 Y132.966 E139.45273
G1 X104 Y85.052 E143.6599
G1 X105.6 Y85.052 E143.80039
G1 X105.6 Y132.966 E148.00757
G1 X107.2 Y132.967 E148.14806
G1 X107.2 Y85.052 E152.35532
G1 X108.8 Y85.052 E152.49581
G1 X108.8 Y133.06 E156.71124
G1 X108.89 Y133.074 E156.71923
G1 X109.597 Y133.272 E156.7837
G1 X109.676 Y133.305 E156.79122
G1 X109.704 Y133.25 E156.79664
G1 X110.4 Y133.622 E156.86593
G1 X110.4 Y85.052 E161.13071
G1 X112 Y85.052 E161.2712
G1 X112 Y134.377 E165.60227
G1 X112.629 Y134.588 E165.66052
G1 X113.424 Y134.778 E165.7323
G1 X113.6 Y134.803 E165.7479
G1 X113.6 Y85.053 E170.11629
G1 X115.2 Y85.053 E170.25678
G1 X115.2 Y134.947 E174.63781
G1 X116.8 Y134.947 E174.7783
G1 X116.8 Y85.053 E179.15933
G1 X118.4 Y85.053 E179.29982
G1 X118.4 Y134.947 E183.68085
G1 X120 Y134.947 E183.82135
G1 X120 Y85.053 E188.20238
G1 X121.6 Y85.053 E188.34287
G1 X121.6 Y134.947 E192.7239
G1 X123.2 Y134.947 E192.86439
G1 X123.2 Y85.053 E197.24542
G1 X124.8 Y85.053 E197.38591
G1 X124.8 Y134.947 E201.76694
G1 X126.4 Y134.947 E201.90743
G1 X126.4 Y85.053 E206.28846
G1 X128 Y85.053 E206.42895
G1 X128 Y134.947 E210.80998
G1 X129.6 Y134.947 E210.95047
G1 X129.6 Y85.053 E215.3315
G1 X129.93 Y85.053 E215.36048
G1 X130.788 Y85.099 E215.43593
G1 X131.2 Y85.16 E215.4725
G1 X131.2 Y134.948 E219.84422
G1 X132.8 Y134.948 E219.98471
G1 X132.8 Y85.54 E224.32307
G1 X133.187 Y85.669 E224.35889
G1 X133.933 Y85.996 E224.43041
G1 X134.4 Y86.253 E224.47721
G1 X134.4 Y134.948 E228.75296
G1 X136 Y134.948 E228.89345
G1 X136 Y87.386 E233.06972
G1 X136.503 Y87.861 E233.13047
G1 X137.128 Y88.56 E233.2128
G1 X137.6 Y89.192 E233.28206
G1 X137.6 Y134.948 E237.29975
G1 X139.2 Y134.948 E237.44024
G1 X139.2 Y91.193 E241.28222
G1 X139.505 Y91.445 E241.31696
G1 X140.124 Y91.838 E241.38135
G1 X140.788 Y92.151 E241.4458
G1 X140.8 Y92.155 E241.44691
G1 X140.8 Y134.948 E245.20443
G1 X142.4 Y134.948 E245.34492
G1 X142.4 Y92.526 E249.06986
G1 X142.895 Y92.556 E249.1134
G1 X144 Y92.557 E249.21043
G1 X144 Y134.948 E252.93264
G1 X145.6 Y134.948 E253.07313
G1 X145.6 Y92.558 E256.79526
G1 X147.2 Y92.559 E256.93575
G1 X147.2 Y134.949 E260.65788
G1 X148.8 Y134.949 E260.79837
G1 X148.8 Y92.56 E264.52041
G1 X150.4 Y92.561 E264.6609
G1 X150.4 Y134.949 E268.38286
G1 X152 Y134.949 E268.52335
G1 X152 Y92.562 E272.24521
G1 X153.6 Y92.563 E272.3857
G1 X153.6 Y134.949 E276.10748
G1 X155.2 Y134.949 E276.24797
G1 X155.2 Y92.564 E279.96966
G1 X156.8 Y92.565 E280.11015
G1 X156.8 Y134.949 E283.83175
G1 X158.4 Y134.949 E283.97224
G1 X158.4 Y92.566 E287.69376
G1 X160 Y92.567 E287.83425
G1 X160 Y134.949 E291.55568
G1 X161.6 Y134.949 E291.69617
G1 X161.6 Y92.568 E295.4175
G1 X162.685 Y92.568 E295.51278
G1 X163.2 Y92.596 E295.55806
G1 X163.2 Y134.928 E299.2751
G1 X163.977 Y134.846 E299.3437
G1 X164.79 Y134.688 E299.41643
G1 X164.8 Y134.686 E299.41732
G1 X164.8 Y92.838 E303.09186
G1 X165.157 Y92.923 E303.12408
G1 X165.957 Y93.192 E303.19819
G1 X166.4 Y93.387 E303.24069
G1 X166.4 Y134.137 E306.81882
G1 X167.095 Y133.79 E306.88703
G1 X167.787 Y133.364 E306.95838
G1 X168 Y133.206 E306.98167
G1 X168 Y94.305 E310.39744
G1 X168.101 Y94.372 E310.40808
G1 X168.74 Y94.888 E310.4802
G1 X169.247 Y95.369 E310.54156
G1 X169.6 Y95.764 E310.58808
G1 X169.6 Y131.766 E313.7493
G1 X169.631 Y131.733 E313.75327
G1 X170.131 Y131.115 E313.82307
G1 X170.596 Y130.427 E313.89599
G1 X171.004 Y129.683 E313.97049
G1 X171.329 Y128.943 E314.04146
G1 X171.597 Y128.14 E314.11579
G1 X171.778 Y127.375 E314.18482
G1 X171.902 Y126.531 E314.25973
G1 X171.947 Y125.682 E314.33438
G1 X171.95 Y120.705 E314.77139
G1 X171.886 Y119.622 E314.86665
G1 X171.762 Y118.812 E314.9386
G1 X171.386 Y117.328 E315.07303
G1 X171.293 Y116.603 E315.13721
G1 X171.293 Y115.869 E315.20166
G1 X171.384 Y115.143 E315.26591
G1 X171.765 Y113.616 E315.4041
G1 X171.888 Y112.783 E315.47803
G1 X171.934 Y111.926 E315.55339
G1 X171.95 Y101.915 E316.43243
G1 X171.93 Y101.32 E316.4847
G1 X171.846 Y100.537 E316.55385
G1 X171.689 Y99.731 E316.62595
G1 X171.463 Y98.947 E316.69759
G1 X171.2 Y98.269 E316.76145
G1 X171.2 Y129.237 E319.48065
;;retract;;
G1 F6000 E311.48065
G0 F600 X171.2 Y129.237 Z0.47
G0 F7200 X171.512 Y97.973
;TIME_ELAPSED:189.691578

;LAYER:-3
;TYPE:SUPPORT
G1 F6000 E319.48065
G1 F1800 X166.559 Y93.02 E320.01649
G1 X166.871 Y93.157 E320.04256
G1 X167.626 Y93.57 E320.10839
G1 X168.336 Y94.048 E320.17386
G1 X169.004 Y94.587 E320.23953
G1 X169.538 Y95.094 E320.29586
G1 X170.189 Y95.822 E320.37057
G1 X170.697 Y96.505 E320.43568
G1 X171.132 Y97.21 E320.49905
G1 X171.522 Y97.992 E320.5659
G1 X171.841 Y98.814 E320.63335
G1 X172.08 Y99.643 E320.69935
G1 X172.154 Y100.029 E320.72942
G1 X164.473 Y92.348 E321.56039
G1 X164.454 Y92.344 E321.56187
G1 X163.59 Y92.216 E321.62869
G1 X162.889 Y92.179 E321.68239
G1 X172.34 Y101.629 E322.70479
G1 X172.35 Y101.901 E322.72561
G1 X172.347 Y103.05 E322.81351
G1 X161.463 Y92.167 E323.99094
G1 X160.048 Y92.166 E324.09918
G1 X172.345 Y104.463 E325.42953
G1 X172.343 Y105.875 E325.53755
G1 X158.633 Y92.165 E327.02077
G1 X157.218 Y92.165 E327.12901
G1 X172.341 Y107.287 E328.76504
G1 X172.338 Y108.699 E328.87305
G1 X155.803 Y92.164 E330.66189
G1 X154.388 Y92.162 E330.77014
G1 X172.336 Y110.11 E332.71184
G1 X172.333 Y111.522 E332.81986
G1 X152.973 Y92.162 E334.91432
G1 X151.558 Y92.161 E335.02256
G1 X172.278 Y112.881 E337.26415
G1 X172.159 Y113.69 E337.32671
G1 X172.061 Y114.078 E337.35732
G1 X150.143 Y92.16 E339.72852
G1 X148.728 Y92.16 E339.83676
G1 X171.779 Y115.211 E342.33053
G1 X171.778 Y115.217 E342.331
G1 X171.693 Y115.894 E342.3832
G1 X171.691 Y116.537 E342.43238
G1 X147.312 Y92.158 E345.06983
G1 X145.898 Y92.157 E345.17799
G1 X172.046 Y118.306 E348.00687
G1 X172.153 Y118.727 E348.0401
G1 X172.284 Y119.58 E348.10612
G1 X172.307 Y119.981 E348.13684
G1 X144.483 Y92.157 E351.14698
G1 X143.068 Y92.156 E351.25523
G1 X172.349 Y121.437 E354.42299
G1 X172.348 Y122.851 E354.53116
G1 X141.439 Y91.941 E357.8751
G1 X140.935 Y91.778 E357.91562
G1 X140.317 Y91.487 E357.96788
G1 X139.741 Y91.121 E358.02008
G1 X139.215 Y90.685 E358.07235
G1 X138.749 Y90.186 E358.12458
G1 X138.357 Y89.643 E358.17581
G1 X137.934 Y88.971 E358.23655
G1 X137.439 Y88.307 E358.29991
G1 X136.788 Y87.579 E358.37462
G1 X136.248 Y87.068 E358.43149
G1 X135.609 Y86.551 E358.49437
G1 X134.882 Y86.06 E358.56148
G1 X134.117 Y85.64 E358.62824
G1 X133.416 Y85.333 E358.68678
G1 X172.348 Y124.264 E362.89858
G1 X172.347 Y125.678 E363.00675
G1 X131.463 Y84.794 E367.42979
G1 X130.835 Y84.701 E367.47835
G1 X129.932 Y84.653 E367.54753
G1 X129.907 Y84.652 E367.54944
G1 X172.239 Y126.985 E372.12918
G1 X172.172 Y127.445 E372.16474
G1 X172.001 Y128.16 E372.22098
G1 X128.493 Y84.652 E376.92789
G1 X127.079 Y84.652 E377.03606
G1 X171.645 Y129.218 E381.85743
G1 X171.36 Y129.867 E381.91165
G1 X171.189 Y130.176 E381.93867
G1 X125.664 Y84.652 E386.86373
G1 X124.25 Y84.652 E386.9719
G1 X170.653 Y131.055 E391.99201
G1 X170.449 Y131.359 E392.02002
G1 X170.043 Y131.859 E392.06929
G1 X122.836 Y84.652 E397.17637
G1 X121.422 Y84.652 E397.28454
G1 X169.36 Y132.591 E402.47077
G1 X168.697 Y133.185 E402.53886
G1 X168.606 Y133.251 E402.54746
G1 X120.008 Y84.652 E407.80509
G1 X118.593 Y84.652 E407.91333
G1 X167.779 Y133.838 E413.23452
G1 X167.296 Y134.137 E413.27797
G1 X166.873 Y134.346 E413.31407
G1 X117.178 Y84.651 E418.69032
G1 X115.764 Y84.651 E418.79849
G1 X165.883 Y134.77 E424.22061
G1 X165.705 Y134.84 E424.23524
G1 X164.878 Y135.079 E424.30109
G1 X164.793 Y135.094 E424.3077
G1 X114.35 Y84.651 E429.76487
G1 X112.936 Y84.651 E429.87304
G1 X163.575 Y135.29 E435.35141
G1 X163.216 Y135.329 E435.37904
G1 X162.596 Y135.35 E435.4265
G1 X162.219 Y135.349 E435.45534
G1 X111.522 Y84.651 E440.94004
G1 X110.107 Y84.651 E441.04829
G1 X160.805 Y135.349 E446.53305
G1 X159.391 Y135.349 E446.64122
G1 X108.693 Y84.651 E452.12598
G1 X107.279 Y84.651 E452.23415
G1 X157.976 Y135.349 E457.71885
G1 X156.562 Y135.349 E457.82702
G1 X105.865 Y84.651 E463.31173
G1 X104.45 Y84.651 E463.41997
G1 X155.148 Y135.349 E468.90473
G1 X153.734 Y135.349 E469.0129
G1 X103.036 Y84.651 E474.49766
G1 X101.621 Y84.651 E474.60591
G1 X152.319 Y135.348 E480.09061
G1 X150.905 Y135.348 E480.19878
G1 X100.207 Y84.651 E485.68349
G1 X98.793 Y84.651 E485.79166
G1 X149.49 Y135.348 E491.27631
G1 X148.076 Y135.348 E491.38448
G1 X97.379 Y84.651 E496.86913
G1 X95.964 Y84.651 E496.97738
G1 X146.662 Y135.348 E502.46208
G1 X145.248 Y135.348 E502.57025
G1 X94.55 Y84.651 E508.05496
G1 X93.136 Y84.651 E508.16313
G1 X143.834 Y135.348 E513.64783
G1 X142.419 Y135.348 E513.75608
G1 X91.721 Y84.65 E519.24084
G1 X90.307 Y84.65 E519.34901
G1 X141.004 Y135.348 E524.83371
G1 X139.59 Y135.348 E524.94188
G1 X88.893 Y84.65 E530.42659
G1 X87.479 Y84.65 E530.53476
G1 X138.176 Y135.348 E536.01946
G1 X136.762 Y135.348 E536.12763
G1 X86.064 Y84.65 E541.61239
G1 X84.65 Y84.65 E541.72056
G1 X135.348 Y135.348 E547.20532
G1 X133.933 Y135.347 E547.31357
G1 X83.236 Y84.65 E552.79822
G1 X81.822 Y84.65 E552.90639
G1 X132.518 Y135.347 E558.39099
G1 X131.104 Y135.347 E558.49915
G1 X80.407 Y84.65 E563.98381
G1 X80.154 Y84.65 E564.00316
G1 X79.534 Y84.671 E564.05062
G1 X79.063 Y84.72 E564.08684
G1 X129.69 Y135.347 E569.56392
G1 X128.276 Y135.347 E569.67209
G1 X77.855 Y84.926 E575.12688
G1 X77.045 Y85.16 E575.19138
G1 X76.778 Y85.263 E575.21327
G1 X126.862 Y135.347 E580.63161
G1 X125.447 Y135.347 E580.73985
G1 X75.794 Y85.693 E586.11161
G1 X75.454 Y85.863 E586.14069
G1 X74.893 Y86.207 E586.19104
G1 X124.032 Y135.346 E591.50714
G1 X122.618 Y135.346 E591.6153
G1 X74.071 Y86.799 E596.86736
G1 X74.057 Y86.811 E596.86877
G1 X73.329 Y87.462 E596.94348
G1 X73.324 Y87.466 E596.94397
G1 X121.204 Y135.346 E602.12386
G1 X119.79 Y135.346 E602.23203
G1 X72.65 Y88.207 E607.33182
G1 X72.289 Y88.656 E607.37589
G1 X72.044 Y89.015 E607.40914
