;FLAVOR:Marlin
;TIME:3982
;Filament used:3.21412m
;Layer height: 0.2
;MINX:85.201
;MINY:72.7
;MINZ:0.24
;MAXX:134.8
;MAXY:147.3
;MAXZ:13.89
                                  
;Creality Print GCode Generated by CXEngine:NO_MAGE_VERSION_GIT_HEAD_BRANCH
;CXEngine Release Time:2022-09-30 09:53:04
;Gcode Generated Time:2023-05-18 13:56:33
;----------Machine Config--------------
;Machine Name:Ender-3 V2
;Machine Height:250
;Machine Width:220
;Machine Depth:220
;Material name:PLA
;Number of Extruders:1
;ExtruderParams[0] Nozzle Diameter1000
;----------Profile Config---------------
;Engine Version:275f99b
;Engine Release Time:2022-09-30 09:42:18
;Layer Height:0.2
;Wall Thickness:0.8
;Top/Bottom Thickness:1
;Out Wall Line Width:0.4
;Inner Wall Line Width:0.4
;Inital Layer Height:200
;Wall Line Count:2
;Infill Line Distance:4
;Infill Pattern:grid
;Infill Sparse Density:20
;Infill Wipe Distance:0
;Print Temperature:200
;Bed Temperature:60
;Support Enable:true
;Support Density:0
;Support Angle:60
;Adhesion Type:simpleraft
;machine is belt:false
;machine belt offset:10
;machine belt offset Y:0
;Raft Base Line Spacing:1.6
;Wait Heatup Sync:true
;----------Shell Config----------------
;Outer Wall Wipe Distance:200
;Outer Inset First:false
;Infill Before Walls:false
;Infill Overlap:0.16
;Fill Gaps Between Walls:everywhere
;Minimum Infill Area:1
;Top Surface Skin Layer:0
;Top Layers:3
;Z Seam Alignment:sharpest_corner
;Seam Corner Preference:z_seam_corner_inner
;Z Seam X:110
;Z Seam Y:110
;Horizontal Expansion:0
;Top/Bottom Pattern:zigzag
;Ironing Pattern:zigzag
;Vase Model:false
;----------Support Config----------------
;Support Type:everywhere
;Support Pattern:zigzag
;Support Infill Layer Thickness:0.2
;Minimum Support Area:5
;Enable Support Roof:false
;Support Roof Thickness:0.8
;Support Roof Pattern:lines
;Connect Support Lines:0
;Connect Support ZigZags:1
;Minimum Support X/Y Distance:0.2
;Support Line Distance:0
; ---------PrintSpeed & Travel----------
;Enable Print Cool:true
;Avoid Printed Parts Traveling:true
;Enable Retraction:true
;Retraction Distance:8
;Retraction Speed:100
;Retraction Prime Speed:100
;Maximum Retraction Count:100
;Minimum Extrusion Distance Window:1
;Z Hop When Retracted:false
;Z Hop Height:0.2
;Retract Before Outer Wall:true
;Print Speed:50
;Infill Speed:50

;Prime Tower Speed:50
;Travel Speed:120
;Initial Layer Speed:25
;Skirt/Brim Speed:25
;Combing Mode:infill
; --------SpecialModel&Mesh Fixes--------
;Union Overlapping Volum:true
;Remove All Holes:false
;Maximum Travel Resolution:0.6
;Maximum Deviation:0.05
;Maximum Model Angle:0.872665
;IS Mold Print:false
;Make Overhang Printable:false
;Enable Coasting:false
;Coasting Volumes:0.06
;Coasting Speed:0.9
;Raft AirGap:0.25
;Layer0 ZOverLap:0.13
;---------------------End of Head--------------------------
M140 S60
M105
M104 S200
M105
M109 S200
M105
M190 S60
M82 ;absolute extrusion mode
M220 S100 ;Reset Feedrate
M221 S100 ;Reset Flowrate

G28 ;Home

G92 E0 ;Reset Extruder
G1 Z2.0 F3000 ;Move Z Axis up
G1 X10.1 Y20 Z0.28 F5000.0 ;Move to start position
G1 X10.1 Y145.0 Z0.28 F1500.0 E15 ;Draw the first line
G1 X10.4 Y145.0 Z0.28 F5000.0 ;Move to side a little
G1 X10.4 Y20 Z0.28 F1500.0 E30 ;Draw the second line
G92 E0  ;Reset Extruder
G1 E-1.0000 F1800 ;Retract a bit
G1 Z2.0 F3000 ;Move Z Axis up
G1 E0.0000 F1800 

G92 E0
G92 E0
G1 F6000 E-8

;LAYER_COUNT:65

;LAYER:-4
M107
G0 F7200 X86.4 Y79.402 Z0.24
;TYPE:SUPPORT-INTERFACE
G1 F6000 E0
G1 F1200 X86.4 Y140.609 E5.37439
G1 X86.287 Y140.318 E5.4018
G1 X86.061 Y139.534 E5.47344
G1 X85.904 Y138.727 E5.54563
G1 X85.82 Y137.932 E5.61583
G1 X85.802 Y128.247 E6.46624
G1 X85.819 Y127.086 E6.56819
G1 X85.811 Y93.15 E9.548
G1 X85.827 Y92.099 E9.6403
G1 X85.81 Y82.711 E10.46463
G1 X85.86 Y81.699 E10.5536
G1 X85.977 Y80.898 E10.62468
G1 X86.175 Y80.068 E10.6996
G1 X86.438 Y79.29 E10.77171
G1 X86.757 Y78.566 E10.84118
G1 X87.167 Y77.818 E10.91608
G1 X87.622 Y77.141 E10.9877
G1 X88 Y76.673 E11.04053
G1 X88 Y143.333 E16.89373
G1 X88.503 Y143.895 E16.95995
G1 X89.017 Y144.381 E17.02207
G1 X89.6 Y144.852 E17.08788
G1 X89.6 Y75.163 E23.20704
G1 X89.972 Y74.886 E23.24777
G1 X90.665 Y74.46 E23.31919
G1 X91.2 Y74.193 E23.3717
G1 X91.2 Y145.812 E29.66033
G1 X91.808 Y146.079 E29.71864
G1 X92.581 Y146.338 E29.79022
G1 X92.8 Y146.39 E29.80998
G1 X92.8 Y73.611 E36.20047
G1 X92.97 Y73.562 E36.21601
G1 X93.783 Y73.404 E36.28873
G1 X94.4 Y73.339 E36.3432
G1 X94.4 Y146.659 E42.7812
G1 X95.212 Y146.7 E42.85259
G1 X96 Y146.699 E42.92178
G1 X96 Y73.301 E49.36662
G1 X97.6 Y73.301 E49.50711
G1 X97.6 Y146.695 E55.9516
G1 X99.2 Y146.692 E56.09209
G1 X99.2 Y73.301 E62.53632
G1 X100.8 Y73.301 E62.67681
G1 X100.8 Y146.689 E69.12077
G1 X102.4 Y146.685 E69.26126
G1 X102.4 Y73.301 E75.70487
G1 X104 Y73.301 E75.84536
G1 X104 Y146.682 E82.28871
G1 X104.66 Y146.68 E82.34666
G1 X105.6 Y146.697 E82.42921
G1 X105.6 Y73.302 E88.87379
G1 X107.2 Y73.302 E89.01428
G1 X107.2 Y146.698 E95.45895
G1 X108.8 Y146.695 E95.59944
G1 X108.8 Y73.302 E102.04384
G1 X110.4 Y73.302 E102.18433
G1 X110.4 Y146.691 E108.62838
G1 X112 Y146.688 E108.76887
G1 X112 Y73.302 E115.21266
G1 X113.6 Y73.302 E115.35315
G1 X113.6 Y146.685 E121.79667
G1 X115.2 Y146.682 E121.93716
G1 X115.2 Y73.303 E128.38034
G1 X116.8 Y73.303 E128.52083
G1 X116.8 Y146.693 E134.96497
G1 X117.161 Y146.7 E134.99667
G1 X118.4 Y146.697 E135.10546
G1 X118.4 Y73.303 E141.54995
G1 X120 Y73.303 E141.69044
G1 X120 Y146.693 E148.13458
G1 X121.6 Y146.689 E148.27507
G1 X121.6 Y73.303 E154.71886
G1 X123.2 Y73.303 E154.85935
G1 X123.2 Y146.685 E161.30278
G1 X124.8 Y146.681 E161.44328
G1 X124.8 Y73.303 E167.88636
G1 X124.93 Y73.303 E167.89778
G1 X125.788 Y73.349 E167.97322
G1 X126.4 Y73.44 E168.02755
G1 X126.4 Y146.563 E174.44824
G1 X127.04 Y146.438 E174.5055
G1 X127.822 Y146.212 E174.57698
G1 X128 Y146.143 E174.59374
G1 X128 Y73.857 E180.94094
G1 X128.187 Y73.919 E180.95824
G1 X128.933 Y74.246 E181.02976
G1 X129.6 Y74.613 E181.09661
G1 X129.6 Y145.384 E187.31078
G1 X130.037 Y145.114 E187.35588
G1 X130.694 Y144.624 E187.42785
G1 X131.39 Y144.002 E187.50981
G1 X131.881 Y143.483 E187.57255
G1 X132.381 Y142.865 E187.64235
G1 X132.8 Y142.246 E187.70798
G1 X132.8 Y77.763 E193.37002
G1 X132.62 Y77.47 E193.40022
G1 X132.128 Y76.81 E193.4725
G1 X131.503 Y76.111 E193.55483
G1 X131.2 Y75.825 E193.59142
G1 X131.2 Y144.172 E199.59275
;;retract;;
G1 F6000 E191.59275
G0 F600 X131.2 Y144.172 Z0.47
G0 F7200 X86.337 Y141.491
;TIME_ELAPSED:119.959126

;LAYER:-3
;TYPE:SUPPORT
G1 F6000 E199.59275
G1 F1800 X91.01 Y146.164 E200.0983
G1 X90.879 Y146.108 E200.1092
G1 X90.118 Y145.69 E200.17561
G1 X89.391 Y145.199 E200.24272
G1 X88.752 Y144.682 E200.3056
G1 X88.218 Y144.177 E200.36183
G1 X87.561 Y143.443 E200.43718
G1 X87.053 Y142.76 E200.5023
G1 X86.61 Y142.04 E200.56697
G1 X86.228 Y141.273 E200.63252
G1 X85.909 Y140.451 E200.69997
G1 X85.67 Y139.622 E200.76597
G1 X85.619 Y139.359 E200.78646
G1 X93.142 Y146.883 E201.60039
G1 X93.303 Y146.922 E201.61306
G1 X94.165 Y147.049 E201.67972
G1 X94.751 Y147.077 E201.7246
G1 X85.419 Y137.745 E202.73418
G1 X85.416 Y136.328 E202.84258
G1 X96.184 Y147.096 E204.00751
G1 X97.596 Y147.093 E204.11553
G1 X85.414 Y134.911 E205.43344
G1 X85.411 Y133.494 E205.54184
G1 X99.007 Y147.09 E207.01272
G1 X100.418 Y147.087 E207.12066
G1 X85.408 Y132.077 E208.74451
G1 X85.406 Y130.661 E208.85284
G1 X101.829 Y147.084 E210.62956
G1 X103.241 Y147.081 E210.73757
G1 X85.403 Y129.244 E212.66732
G1 X85.402 Y128.241 E212.74405
G1 X85.407 Y127.834 E212.77519
G1 X104.652 Y147.078 E214.85715
G1 X104.657 Y147.08 E214.85756
G1 X105.755 Y147.1 E214.94157
G1 X106.086 Y147.098 E214.96689
G1 X85.418 Y126.43 E217.20286
G1 X85.418 Y125.016 E217.31103
G1 X107.497 Y147.095 E219.69965
G1 X108.909 Y147.093 E219.80766
G1 X85.417 Y123.601 E222.34914
G1 X85.417 Y122.187 E222.45731
G1 X110.32 Y147.09 E225.15144
G1 X111.732 Y147.087 E225.25946
G1 X85.417 Y120.772 E228.10634
G1 X85.417 Y119.358 E228.21451
G1 X113.143 Y147.084 E231.21405
G1 X114.554 Y147.081 E231.32199
G1 X85.416 Y117.943 E234.47428
G1 X85.416 Y116.529 E234.58245
G1 X115.966 Y147.078 E237.88744
G1 X116.057 Y147.08 E237.89441
G1 X117.155 Y147.1 E237.97842
G1 X117.4 Y147.098 E237.99716
G1 X85.415 Y115.114 E241.4574
G1 X85.415 Y113.699 E241.56565
G1 X118.81 Y147.095 E245.17854
G1 X120.22 Y147.09 E245.2864
G1 X85.414 Y112.285 E249.05183
G1 X85.414 Y110.87 E249.16008
G1 X121.631 Y147.087 E253.07821
G1 X123.042 Y147.083 E253.18615
G1 X85.414 Y109.455 E257.25693
G1 X85.414 Y108.041 E257.3651
G1 X124.452 Y147.08 E261.58848
G1 X125.466 Y147.079 E261.66605
G1 X125.826 Y147.039 E261.69376
G1 X85.413 Y106.626 E266.06584
G1 X85.413 Y105.212 E266.174
G1 X127.044 Y146.843 E270.67785
G1 X127.128 Y146.829 E270.68437
G1 X127.955 Y146.59 E270.75022
G1 X128.134 Y146.518 E270.76498
G1 X85.412 Y103.797 E275.3868
G1 X85.412 Y102.383 E275.49497
G1 X129.124 Y146.095 E280.22395
G1 X129.546 Y145.887 E280.25994
G1 X130.03 Y145.586 E280.30354
G1 X85.412 Y100.968 E285.13054
G1 X85.412 Y99.554 E285.23871
G1 X130.858 Y145 E290.15528
G1 X130.947 Y144.935 E290.16371
G1 X131.611 Y144.339 E290.23197
G1 X85.411 Y98.139 E295.23011
G1 X85.411 Y96.725 E295.33828
G1 X132.294 Y143.608 E300.41032
G1 X132.699 Y143.109 E300.45948
G1 X132.904 Y142.804 E300.48759
G1 X85.41 Y95.31 E305.62573
G1 X85.41 Y93.896 E305.7339
G1 X133.44 Y141.925 E310.92997
G1 X133.61 Y141.617 E310.95688
G1 X133.895 Y140.966 E311.01124
G1 X85.42 Y92.491 E316.25551
G1 X85.427 Y92.096 E316.28573
G1 X85.424 Y91.081 E316.36337
G1 X134.252 Y139.908 E321.64577
G1 X134.422 Y139.195 E321.70185
G1 X134.49 Y138.732 E321.73765
G1 X85.422 Y89.664 E327.04606
G1 X85.419 Y88.247 E327.15446
G1 X134.597 Y137.426 E332.47484
G1 X134.597 Y136.011 E332.58308
G1 X85.417 Y86.831 E337.90362
G1 X85.414 Y85.414 E338.01202
G1 X134.597 Y134.597 E343.33288
G1 X134.597 Y133.183 E343.44104
G1 X85.411 Y83.997 E348.76223
G1 X85.41 Y82.691 E348.86214
G1 X85.414 Y82.585 E348.87025
G1 X134.597 Y131.769 E354.19117
G1 X134.597 Y130.355 E354.29933
G1 X85.516 Y81.274 E359.60916
G1 X85.583 Y80.824 E359.64396
G1 X85.755 Y80.098 E359.70104
G1 X134.597 Y128.94 E364.98501
G1 X134.597 Y127.526 E365.09318
G1 X86.11 Y79.038 E370.33879
G1 X86.401 Y78.381 E370.39376
G1 X86.564 Y78.079 E370.42002
G1 X134.597 Y126.112 E375.61646
G1 X134.597 Y124.698 E375.72463
G1 X87.099 Y77.199 E380.86325
G1 X87.298 Y76.906 E380.89035
G1 X87.709 Y76.395 E380.94051
G1 X134.597 Y123.284 E386.01314
G1 X134.597 Y121.869 E386.12139
G1 X88.392 Y75.664 E391.12008
G1 X89.067 Y75.061 E391.18932
G1 X89.145 Y75.003 E391.19675
G1 X134.597 Y120.455 E396.11397
G1 X134.598 Y119.042 E396.22207
G1 X89.972 Y74.415 E401.04998
G1 X90.464 Y74.113 E401.09414
G1 X90.877 Y73.906 E401.12948
G1 X134.598 Y117.627 E405.85944
G1 X134.598 Y116.213 E405.96761
G1 X91.867 Y73.482 E410.59046
G1 X92.055 Y73.41 E410.60586
G1 X92.882 Y73.171 E410.67171
G1 X92.956 Y73.157 E410.67747
G1 X134.598 Y114.799 E415.18251
G1 X134.598 Y113.385 E415.29068
G1 X94.173 Y72.96 E419.66405
G1 X94.544 Y72.921 E419.69259
G1 X95.164 Y72.9 E419.74005
G1 X95.528 Y72.9 E419.76789
G1 X134.598 Y111.971 E423.99473
G1 X134.598 Y110.556 E424.10298
G1 X96.942 Y72.9 E428.17679
G1 X98.356 Y72.9 E428.28496
G1 X134.598 Y109.142 E432.2058
G1 X134.598 Y107.728 E432.31397
G1 X99.77 Y72.9 E436.08183
G1 X101.184 Y72.9 E436.19
G1 X134.598 Y106.314 E439.80489
G1 X134.598 Y104.899 E439.91314
G1 X102.599 Y72.9 E443.37495
G1 X104.013 Y72.901 E443.48312
G1 X134.598 Y103.485 E446.7919
G1 X134.598 Y102.071 E446.90007
G1 X105.428 Y72.901 E450.05582
G1 X106.842 Y72.901 E450.16399
G1 X134.599 Y100.658 E453.16688
G1 X134.599 Y99.243 E453.27513
G1 X108.256 Y72.901 E456.12499
G1 X109.67 Y72.901 E456.23316
G1 X134.599 Y97.829 E458.93004
G1 X134.599 Y96.415 E459.03821
G1 X111.085 Y72.902 E461.58202
G1 X112.499 Y72.902 E461.69019
G1 X134.599 Y95.001 E464.08102
G1 X134.599 Y93.586 E464.18927
G1 X113.914 Y72.902 E466.42702
G1 X115.328 Y72.902 E466.53519
G1 X134.599 Y92.172 E468.61997
G1 X134.599 Y90.758 E468.72813
G1 X116.742 Y72.902 E470.65994
G1 X118.157 Y72.902 E470.76818
G1 X134.599 Y89.344 E472.54696
G1 X134.599 Y87.93 E472.65513
G1 X119.571 Y72.902 E474.28093
G1 X120.985 Y72.902 E474.3891
G1 X134.599 Y86.515 E475.86188
G1 X134.599 Y85.101 E475.97005
G1 X122.4 Y72.902 E477.28979
G1 X123.814 Y72.902 E477.39796
G1 X134.599 Y83.687 E478.56474
G1 X134.6 Y82.647 E478.6443
G1 X134.586 Y82.26 E478.67392
G1 X125.245 Y72.919 E479.68448
G1 X125.835 Y72.951 E479.72968
G1 X126.697 Y73.078 E479.79633
G1 X126.856 Y73.116 E479.80883
G1 X134.379 Y80.639 E480.62271
G1 X134.33 Y80.378 E480.64303
G1 X134.091 Y79.549 E480.70903
G1 X133.772 Y78.727 E480.77648
G1 X133.382 Y77.945 E480.84332
G1 X132.947 Y77.24 E480.9067
G1 X132.439 Y76.557 E480.97181
G1 X131.788 Y75.829 E481.04652
G1 X131.248 Y75.318 E481.10339
G1 X130.609 Y74.801 E481.16627
G1 X129.882 Y74.31 E481.23338
G1 X129.117 Y73.89 E481.30014
G1 X128.988 Y73.833 E481.31093
G1 X133.661 Y78.507 E481.81653
G0 F600 X133.661 Y78.507 Z0.62
G0 F7200 X127.933 Y73.2
;TIME_ELAPSED:248.219601

;LAYER:-2
;TYPE:SUPPORT-INTERFACE
G1 F2400 X92.063 Y73.2 E482.71132
G1 X92.835 Y72.977 E482.73136
G1 X93.682 Y72.812 E482.75289
G1 X93.795 Y72.8 E482.75572
G1 X126.187 Y72.8 E483.56374
G1 X126.733 Y72.881 E483.57751
G1 X127.589 Y73.086 E483.59947
G1 X128.413 Y73.362 E483.62115
G1 X128.956 Y73.6 E483.63593
G1 X91.045 Y73.6 E484.58163
G1 X90.372 Y73.936 E484.60039
G1 X90.268 Y74 E484.60344
G1 X129.737 Y74 E485.588
G1 X129.977 Y74.133 E485.59484
G1 X130.375 Y74.4 E485.6068
G1 X89.62 Y74.4 E486.62343
G1 X89.083 Y74.8 E486.64014
G1 X130.927 Y74.8 E487.68394
G1 X131.391 Y75.177 E487.69885
G1 X131.417 Y75.2 E487.69972
G1 X88.612 Y75.2 E488.76749
G1 X88.191 Y75.577 E488.78159
G1 X88.17 Y75.6 E488.78237
G1 X131.839 Y75.6 E489.8717
G1 X131.923 Y75.681 E489.87461
G1 X132.211 Y76 E489.88533
G1 X87.79 Y76 E490.99341
G1 X87.679 Y76.117 E490.99744
G1 X87.451 Y76.4 E491.0065
G1 X132.57 Y76.4 E492.132
G1 X132.587 Y76.421 E492.13268
G1 X132.871 Y76.8 E492.14449
G1 X87.131 Y76.8 E493.28548
G1 X86.861 Y77.2 E493.29752
G1 X133.158 Y77.2 E494.4524
G1 X133.404 Y77.6 E494.46411
G1 X86.601 Y77.6 E495.63162
G1 X86.382 Y78 E495.643
G1 X133.634 Y78 E496.8217
G1 X133.834 Y78.4 E496.83286
G1 X86.175 Y78.4 E498.02172
G1 X85.999 Y78.8 E498.03262
G1 X134.015 Y78.8 E499.23038
G1 X134.171 Y79.2 E499.24109
G1 X85.835 Y79.2 E500.44684
G1 X85.7 Y79.6 E500.45737
G1 X134.315 Y79.6 E501.67007
G1 X134.43 Y80 E501.68046
G1 X85.575 Y80 E502.89915
G1 X85.479 Y80.4 E502.90941
G1 X134.538 Y80.4 E504.13319
G1 X134.616 Y80.8 E504.14336
G1 X85.386 Y80.8 E505.37141
G1 X85.328 Y81.2 E505.38149
G1 X134.692 Y81.2 E506.61288
G1 X134.734 Y81.6 E506.62291
G1 X85.269 Y81.6 E507.85682
G1 X85.263 Y81.639 E507.85781
G1 X85.245 Y82 E507.86682
G1 X134.777 Y82 E509.1024
G1 X134.779 Y82.022 E509.10295
G1 X134.792 Y82.4 E509.11239
G1 X85.225 Y82.4 E510.34884
G1 X85.21 Y82.686 E510.35599
G1 X85.21 Y82.8 E510.35883
G1 X134.799 Y82.8 E511.59583
G1 X134.799 Y83.2 E511.60581
G1 X85.21 Y83.2 E512.84281
G1 X85.211 Y83.6 E512.85279
G1 X134.799 Y83.6 E514.08977
G1 X134.799 Y84 E514.09975
G1 X85.212 Y84 E515.3367
G1 X85.213 Y84.4 E515.34668
G1 X134.799 Y84.4 E516.58361
G1 X134.799 Y84.8 E516.59358
G1 X85.213 Y84.8 E517.83051
G1 X85.214 Y85.2 E517.84049
G1 X134.799 Y85.2 E519.07739
G1 X134.799 Y85.6 E519.08737
G1 X85.215 Y85.6 E520.32425
G1 X85.215 Y86 E520.33423
G1 X134.799 Y86 E521.5711
G1 X134.799 Y86.4 E521.58108
G1 X85.216 Y86.4 E522.81794
G1 X85.217 Y86.8 E522.82791
G1 X134.799 Y86.8 E524.06474
G1 X134.799 Y87.2 E524.07472
G1 X85.218 Y87.2 E525.31152
G1 X85.218 Y87.6 E525.3215
G1 X134.799 Y87.6 E526.5583
G1 X134.799 Y88 E526.56828
G1 X85.219 Y88 E527.80506
G1 X85.22 Y88.4 E527.81504
G1 X134.799 Y88.4 E529.05179
G1 X134.799 Y88.8 E529.06177
G1 X85.221 Y88.8 E530.2985
G1 X85.221 Y89.2 E530.30848
G1 X134.799 Y89.2 E531.5452
G1 X134.799 Y89.6 E531.55518
G1 X85.222 Y89.6 E532.79189
G1 X85.223 Y90 E532.80186
G1 X134.799 Y90 E534.03854
G1 X134.799 Y90.4 E534.04852
G1 X85.223 Y90.4 E535.2852
G1 X85.224 Y90.8 E535.29518
G1 X134.799 Y90.8 E536.53183
