;FLAVOR:Marlin
;TIME:1147
;Filament used:0.986764m
;Layer height: 0.2
;MINX:88.95
;MINY:89.5
;MINZ:0.24
;MAXX:131.05
;MAXY:130.5
;MAXZ:5.89
                                  
;Creality Print GCode Generated by CXEngine:NO_MAGE_VERSION_GIT_HEAD_BRANCH
;CXEngine Release Time:2022-09-30 09:53:04
;Gcode Generated Time:2023-05-18 13:56:06
;----------Machine Config--------------
;Machine Name:Ender-3 V2
;Machine Height:250
;Machine Width:220
;Machine Depth:220
;Material name:PLA
;Number of Extruders:1
;ExtruderParams[0] Nozzle Diameter1000
;----------Profile Config---------------
;Engine Version:275f99b
;Engine Release Time:2022-09-30 09:42:18
;Layer Height:0.2
;Wall Thickness:0.8
;Top/Bottom Thickness:1
;Out Wall Line Width:0.4
;Inner Wall Line Width:0.4
;Inital Layer Height:200
;Wall Line Count:2
;Infill Line Distance:4
;Infill Pattern:grid
;Infill Sparse Density:20
;Infill Wipe Distance:0
;Print Temperature:200
;Bed Temperature:60
;Support Enable:true
;Support Density:0
;Support Angle:60
;Adhesion Type:simpleraft
;machine is belt:false
;machine belt offset:10
;machine belt offset Y:0
;Raft Base Line Spacing:1.6
;Wait Heatup Sync:true
;----------Shell Config----------------
;Outer Wall Wipe Distance:200
;Outer Inset First:false
;Infill Before Walls:false
;Infill Overlap:0.16
;Fill Gaps Between Walls:everywhere
;Minimum Infill Area:1
;Top Surface Skin Layer:0
;Top Layers:3
;Z Seam Alignment:sharpest_corner
;Seam Corner Preference:z_seam_corner_inner
;Z Seam X:110
;Z Seam Y:110
;Horizontal Expansion:0
;Top/Bottom Pattern:zigzag
;Ironing Pattern:zigzag
;Vase Model:false
;----------Support Config----------------
;Support Type:everywhere
;Support Pattern:zigzag
;Support Infill Layer Thickness:0.2
;Minimum Support Area:5
;Enable Support Roof:false
;Support Roof Thickness:0.8
;Support Roof Pattern:lines
;Connect Support Lines:0
;Connect Support ZigZags:1
;Minimum Support X/Y Distance:0.2
;Support Line Distance:0
; ---------PrintSpeed & Travel----------
;Enable Print Cool:true
;Avoid Printed Parts Traveling:true
;Enable Retraction:true
;Retraction Distance:8
;Retraction Speed:100
;Retraction Prime Speed:100
;Maximum Retraction Count:100
;Minimum Extrusion Distance Window:1
;Z Hop When Retracted:false
;Z Hop Height:0.2
;Retract Before Outer Wall:true
;Print Speed:50
;Infill Speed:50

;Prime Tower Speed:50
;Travel Speed:120
;Initial Layer Speed:25
;Skirt/Brim Speed:25
;Combing Mode:infill
; --------SpecialModel&Mesh Fixes--------
;Union Overlapping Volum:true
;Remove All Holes:false
;Maximum Travel Resolution:0.6
;Maximum Deviation:0.05
;Maximum Model Angle:0.872665
;IS Mold Print:false
;Make Overhang Printable:false
;Enable Coasting:false
;Coasting Volumes:0.06
;Coasting Speed:0.9
;Raft AirGap:0.25
;Layer0 ZOverLap:0.13
;---------------------End of Head--------------------------
M140 S60
M105
M104 S200
M105
M109 S200
M105
M190 S60
M82 ;absolute extrusion mode
M220 S100 ;Reset Feedrate
M221 S100 ;Reset Flowrate

G28 ;Home

G92 E0 ;Reset Extruder
G1 Z2.0 F3000 ;Move Z Axis up
G1 X10.1 Y20 Z0.28 F5000.0 ;Move to start position
G1 X10.1 Y145.0 Z0.28 F1500.0 E15 ;Draw the first line
G1 X10.4 Y145.0 Z0.28 F5000.0 ;Move to side a little
G1 X10.4 Y20 Z0.28 F1500.0 E30 ;Draw the second line
G92 E0  ;Reset Extruder
G1 E-1.0000 F1800 ;Retract a bit
G1 Z2.0 F3000 ;Move Z Axis up
G1 E0.0000 F1800 

G92 E0
G92 E0
G1 F6000 E-8

;LAYER_COUNT:25

;LAYER:-4
M107
G0 F7200 X89.6 Y98.501 Z0.24
;TYPE:SUPPORT-INTERFACE
G1 F6000 E0
G1 F1200 X89.6 Y121.415 E2.012
G1 X89.57 Y121.132 E2.03699
G1 X89.55 Y99.513 E3.93529
G1 X89.599 Y98.508 E4.02364
G1 X89.722 Y97.676 E4.09749
G1 X89.91 Y96.885 E4.16888
G1 X90.167 Y96.116 E4.24007
G1 X90.496 Y95.367 E4.3119
G1 X90.907 Y94.618 E4.38692
G1 X91.2 Y94.184 E4.4329
G1 X91.2 Y125.823 E7.21102
G1 X91.622 Y126.39 E7.27308
G1 X92.253 Y127.095 E7.35616
G1 X92.767 Y127.581 E7.41827
G1 X92.8 Y127.607 E7.42196
G1 X92.8 Y92.404 E10.51302
G1 X93.06 Y92.172 E10.54362
G1 X93.712 Y91.686 E10.61503
G1 X94.4 Y91.263 E10.68594
G1 X94.4 Y128.725 E13.97536
G1 X94.813 Y128.952 E14.01674
G1 X95.558 Y129.279 E14.08818
G1 X96 Y129.427 E14.12911
G1 X96 Y90.567 E17.54128
G1 X96.71 Y90.362 E17.60617
G1 X97.523 Y90.204 E17.67889
G1 X97.6 Y90.195 E17.6857
G1 X97.6 Y129.797 E21.16302
G1 X97.962 Y129.851 E21.19516
G1 X98.82 Y129.897 E21.2706
G1 X99.2 Y129.897 E21.30397
G1 X99.2 Y90.101 E24.79833
G1 X100.8 Y90.101 E24.93882
G1 X100.8 Y129.897 E28.43318
G1 X102.4 Y129.897 E28.57367
G1 X102.4 Y90.101 E32.06803
G1 X104 Y90.101 E32.20852
G1 X104 Y129.897 E35.70288
G1 X105.6 Y129.897 E35.84337
G1 X105.6 Y90.101 E39.33772
G1 X107.2 Y90.102 E39.47821
G1 X107.2 Y129.898 E42.97257
G1 X108.8 Y129.898 E43.11306
G1 X108.8 Y90.102 E46.60742
G1 X110.4 Y90.102 E46.74791
G1 X110.4 Y129.898 E50.24227
G1 X112 Y129.898 E50.38276
G1 X112 Y90.102 E53.87712
G1 X113.6 Y90.102 E54.01761
G1 X113.6 Y129.898 E57.51197
G1 X115.2 Y129.899 E57.65246
G1 X115.2 Y90.103 E61.14682
G1 X116.8 Y90.103 E61.28731
G1 X116.8 Y129.899 E64.78167
G1 X118.4 Y129.899 E64.92216
G1 X118.4 Y90.103 E68.41651
G1 X120 Y90.103 E68.557
G1 X120 Y129.899 E72.05136
G1 X121.082 Y129.9 E72.14637
G1 X121.6 Y129.883 E72.19188
G1 X121.6 Y90.126 E75.68281
G1 X122.038 Y90.149 E75.72132
G1 X122.874 Y90.272 E75.79552
G1 X123.2 Y90.35 E75.82495
G1 X123.2 Y129.656 E79.27629
G1 X123.29 Y129.638 E79.28434
G1 X124.072 Y129.412 E79.35582
G1 X124.8 Y129.13 E79.42437
G1 X124.8 Y90.879 E82.78307
G1 X125.183 Y91.046 E82.81976
G1 X125.932 Y91.457 E82.89477
G1 X126.4 Y91.774 E82.94441
G1 X126.4 Y128.23 E86.14549
G1 X126.944 Y127.824 E86.20509
G1 X127.64 Y127.202 E86.28706
G1 X128.131 Y126.683 E86.34979
G1 X128.631 Y126.065 E86.41959
G1 X129.093 Y125.382 E86.49199
G1 X129.504 Y124.633 E86.56701
G1 X129.6 Y124.415 E86.58793
G1 X129.6 Y95.577 E89.1201
G1 X129.293 Y94.961 E89.18053
G1 X128.864 Y94.262 E89.25255
G1 X128.378 Y93.61 E89.32395
G1 X128 Y93.188 E89.3737
G1 X128 Y126.822 E92.32699
;;retract;;
G1 F6000 E84.32699
G0 F600 X128 Y126.822 Z0.47
G0 F7200 X130.36 Y96.419
;TIME_ELAPSED:58.631479

;LAYER:-3
;TYPE:SUPPORT
G1 F6000 E92.32699
G1 F1800 X124.139 Y90.198 E93.00001
G1 X124.582 Y90.346 E93.03574
G1 X125.367 Y90.69 E93.1013
G1 X126.132 Y91.11 E93.16806
G1 X126.859 Y91.601 E93.23517
G1 X127.371 Y92.015 E93.28554
G1 X128.484 Y93.128 E93.40595
G1 X128.689 Y93.357 E93.42947
G1 X129.197 Y94.04 E93.49458
G1 X129.64 Y94.76 E93.55925
G1 X130.022 Y95.527 E93.6248
G1 X130.341 Y96.349 E93.69225
G1 X130.58 Y97.178 E93.75825
G1 X130.742 Y98.013 E93.82332
G1 X130.765 Y98.238 E93.84062
G1 X122.311 Y89.784 E94.75521
G1 X122.085 Y89.751 E94.77269
G1 X121.182 Y89.703 E94.84186
G1 X120.815 Y89.702 E94.86994
G1 X130.849 Y99.736 E95.95546
G1 X130.849 Y101.15 E96.06363
G1 X119.401 Y89.702 E97.30213
G1 X117.987 Y89.702 E97.4103
G1 X130.849 Y102.565 E98.80183
G1 X130.849 Y103.979 E98.91
G1 X116.572 Y89.702 E100.45456
G1 X115.157 Y89.702 E100.5628
G1 X130.848 Y105.392 E102.26028
G1 X130.848 Y106.807 E102.36852
G1 X113.743 Y89.702 E104.21903
G1 X112.329 Y89.702 E104.3272
G1 X130.848 Y108.221 E106.33067
G1 X130.848 Y109.635 E106.43884
G1 X110.915 Y89.702 E108.59529
G1 X109.5 Y89.701 E108.70354
G1 X130.847 Y111.048 E111.01296
G1 X130.847 Y112.463 E111.12121
G1 X108.086 Y89.701 E113.58366
G1 X106.672 Y89.701 E113.69183
G1 X130.847 Y113.877 E116.30725
G1 X130.847 Y115.291 E116.41542
G1 X105.257 Y89.701 E119.18387
G1 X103.842 Y89.7 E119.29212
G1 X130.847 Y116.705 E122.21365
G1 X130.847 Y118.119 E122.32182
G1 X102.428 Y89.7 E125.39633
G1 X101.014 Y89.7 E125.5045
G1 X130.847 Y119.533 E128.73198
G1 X130.847 Y120.632 E128.81605
G1 X130.831 Y120.931 E128.83896
G1 X99.6 Y89.7 E132.21768
G1 X98.904 Y89.7 E132.27092
G1 X98.284 Y89.721 E132.31838
G1 X98.214 Y89.729 E132.32377
G1 X130.698 Y122.213 E135.83805
G1 X130.672 Y122.395 E135.85211
G1 X130.476 Y123.219 E135.91691
G1 X130.429 Y123.358 E135.92813
G1 X96.974 Y89.903 E139.54746
G1 X96.622 Y89.971 E139.57488
G1 X95.851 Y90.194 E139.63628
G1 X130.046 Y124.389 E143.33567
G1 X129.86 Y124.817 E143.37137
G1 X129.575 Y125.333 E143.41646
G1 X94.839 Y90.596 E147.17443
G1 X94.204 Y90.913 E147.22872
G1 X93.917 Y91.089 E147.25447
G1 X129.025 Y126.196 E151.05258
G1 X128.949 Y126.309 E151.06299
G1 X128.432 Y126.948 E151.12587
G1 X128.397 Y126.983 E151.12966
G1 X93.075 Y91.66 E154.95102
G1 X92.807 Y91.861 E154.97665
G1 X92.307 Y92.307 E155.0279
G1 X127.691 Y127.691 E158.85592
G1 X127.197 Y128.135 E158.90673
G1 X126.923 Y128.337 E158.93277
G1 X91.601 Y93.015 E162.75408
G1 X91.568 Y93.052 E162.75787
G1 X91.051 Y93.691 E162.82075
G1 X90.974 Y93.802 E162.83109
G1 X126.081 Y128.909 E166.62913
G1 X125.796 Y129.087 E166.65484
G1 X125.16 Y129.402 E166.70913
G1 X90.423 Y94.666 E170.4671
G1 X90.14 Y95.183 E170.51219
G1 X89.952 Y95.609 E170.54781
G1 X124.148 Y129.805 E174.2473
G1 X123.378 Y130.029 E174.30864
G1 X123.024 Y130.095 E174.33619
G1 X89.569 Y96.64 E177.95552
G1 X89.524 Y96.781 E177.96684
G1 X89.328 Y97.603 E178.03149
G1 X89.3 Y97.785 E178.04557
G1 X121.785 Y130.27 E181.55996
G1 X121.716 Y130.279 E181.56528
G1 X121.096 Y130.3 E181.61274
G1 X120.399 Y130.298 E181.66606
G1 X89.17 Y99.069 E185.04457
G1 X89.15 Y99.493 E185.07704
G1 X89.15 Y100.464 E185.15132
G1 X118.984 Y130.298 E188.37891
G1 X117.57 Y130.298 E188.48708
G1 X89.152 Y101.879 E191.56153
G1 X89.153 Y103.295 E191.66985
G1 X116.156 Y130.298 E194.59117
G1 X114.741 Y130.297 E194.69942
G1 X89.154 Y104.71 E197.46754
G1 X89.155 Y106.126 E197.57587
G1 X113.327 Y130.297 E200.19086
G1 X111.913 Y130.297 E200.29903
G1 X89.156 Y107.541 E202.76094
G1 X89.158 Y108.957 E202.86926
G1 X110.498 Y130.297 E205.17793
G1 X109.083 Y130.297 E205.28617
G1 X89.159 Y110.373 E207.44165
G1 X89.161 Y111.788 E207.54989
G1 X107.669 Y130.297 E209.55223
G1 X106.255 Y130.297 E209.6604
G1 X89.162 Y113.204 E211.50961
G1 X89.164 Y114.619 E211.61785
G1 X104.841 Y130.297 E213.31392
G1 X103.426 Y130.296 E213.42217
G1 X89.165 Y116.035 E214.96499
G1 X89.166 Y117.451 E215.07332
G1 X102.012 Y130.296 E216.46301
G1 X100.597 Y130.296 E216.57125
G1 X89.167 Y118.866 E217.8078
G1 X89.168 Y120.281 E217.91605
G1 X99.183 Y130.296 E218.99952
G1 X98.818 Y130.297 E219.02744
G1 X97.915 Y130.249 E219.09662
G1 X97.687 Y130.214 E219.11427
G1 X89.234 Y121.76 E220.02881
G1 X89.258 Y121.987 E220.04627
G1 X89.42 Y122.822 E220.11134
G1 X89.659 Y123.651 E220.17734
G1 X89.978 Y124.473 E220.24479
G1 X90.36 Y125.24 E220.31034
G1 X90.803 Y125.96 E220.375
G1 X91.311 Y126.643 E220.44012
G1 X91.517 Y126.872 E220.46368
G1 X92.628 Y127.983 E220.58388
G1 X93.141 Y128.399 E220.6344
G1 X93.868 Y128.89 E220.70151
G1 X94.629 Y129.308 E220.76793
G1 X95.412 Y129.652 E220.83335
G1 X95.86 Y129.801 E220.86947
G1 X89.638 Y123.579 E221.5426
G0 F600 X89.638 Y123.579 Z0.62
G0 F7200 X95.82 Y130
;TIME_ELAPSED:118.484128

;LAYER:-2
;TYPE:SUPPORT-INTERFACE
G1 F2400 X124.162 Y130 E222.24959
G1 X123.425 Y130.223 E222.2688
G1 X122.578 Y130.388 E222.29033
G1 X122.455 Y130.4 E222.29341
G1 X97.569 Y130.4 E222.91419
G1 X97.017 Y130.319 E222.92811
G1 X96.161 Y130.114 E222.95007
G1 X95.33 Y129.835 E222.97193
G1 X94.795 Y129.6 E222.98651
G1 X125.212 Y129.6 E223.74526
G1 X125.888 Y129.264 E223.7641
G1 X125.989 Y129.2 E223.76708
G1 X94.015 Y129.2 E224.56467
G1 X93.765 Y129.062 E224.5718
G1 X93.376 Y128.8 E224.5835
G1 X126.638 Y128.8 E225.41322
G1 X127.174 Y128.4 E225.4299
G1 X92.824 Y128.4 E226.28677
G1 X92.359 Y128.023 E226.3017
G1 X92.333 Y128 E226.30257
G1 X127.646 Y128 E227.18345
G1 X128.069 Y127.623 E227.19759
G1 X128.088 Y127.6 E227.19833
G1 X91.912 Y127.6 E228.10075
G1 X91.818 Y127.509 E228.10401
G1 X91.539 Y127.2 E228.11439
G1 X128.467 Y127.2 E229.03557
G1 X128.573 Y127.091 E229.03936
G1 X128.806 Y126.8 E229.04866
G1 X91.18 Y126.8 E229.98724
G1 X91.163 Y126.779 E229.98792
G1 X90.879 Y126.4 E229.99973
G1 X129.128 Y126.4 E230.95386
G1 X129.397 Y126 E230.96588
G1 X90.592 Y126 E231.93388
G1 X90.346 Y125.6 E231.94559
G1 X129.657 Y125.6 E232.92621
G1 X129.877 Y125.2 E232.93759
G1 X90.116 Y125.2 E233.92944
G1 X89.916 Y124.8 E233.94059
G1 X130.083 Y124.8 E234.94256
G1 X130.26 Y124.4 E234.95347
G1 X89.734 Y124.4 E235.9644
G1 X89.579 Y124 E235.9751
G1 X130.423 Y124 E236.99396
G1 X130.558 Y123.6 E237.00449
G1 X89.435 Y123.6 E238.03031
G1 X89.319 Y123.2 E238.04069
G1 X130.684 Y123.2 E239.07255
G1 X130.779 Y122.8 E239.0828
G1 X89.211 Y122.8 E240.11972
G1 X89.133 Y122.4 E240.12989
G1 X130.873 Y122.4 E241.1711
G1 X130.931 Y122 E241.18118
G1 X89.058 Y122 E242.22571
G1 X89.015 Y121.6 E242.23574
G1 X130.99 Y121.6 E243.28281
G1 X130.998 Y121.555 E243.28395
G1 X131.015 Y121.2 E243.29282
G1 X88.972 Y121.2 E244.34158
G1 X88.971 Y121.178 E244.34213
G1 X88.957 Y120.8 E244.35157
G1 X131.037 Y120.8 E245.40126
G1 X131.047 Y120.641 E245.40523
G1 X131.046 Y120.4 E245.41125
G1 X88.95 Y120.4 E246.46133
G1 X88.95 Y120 E246.47131
G1 X131.046 Y120 E247.5214
G1 X131.046 Y119.6 E247.53138
G1 X88.95 Y119.6 E248.58147
G1 X88.95 Y119.2 E248.59145
G1 X131.046 Y119.2 E249.64154
G1 X131.047 Y118.8 E249.65151
G1 X88.951 Y118.8 E250.7016
G1 X88.951 Y118.4 E250.71158
G1 X131.047 Y118.4 E251.76167
G1 X131.047 Y118 E251.77165
G1 X88.951 Y118 E252.82174
G1 X88.951 Y117.6 E252.83172
G1 X131.047 Y117.6 E253.8818
G1 X131.047 Y117.2 E253.89178
G1 X88.951 Y117.2 E254.94187
G1 X88.951 Y116.8 E254.95185
G1 X131.047 Y116.8 E256.00194
G1 X131.047 Y116.4 E256.01192
G1 X88.951 Y116.4 E257.06201
G1 X88.951 Y116 E257.07198
G1 X131.047 Y116 E258.12207
G1 X131.047 Y115.6 E258.13205
G1 X88.951 Y115.6 E259.18214
G1 X88.951 Y115.2 E259.19212
G1 X131.047 Y115.2 E260.24221
G1 X131.047 Y114.8 E260.25218
G1 X88.951 Y114.8 E261.30227
G1 X88.951 Y114.4 E261.31225
G1 X131.047 Y114.4 E262.36234
G1 X131.047 Y114 E262.37232
G1 X88.951 Y114 E263.42241
G1 X88.951 Y113.6 E263.43239
G1 X131.047 Y113.6 E264.48248
G1 X131.048 Y113.2 E264.49245
G1 X88.952 Y113.2 E265.54254
G1 X88.952 Y112.8 E265.55252
G1 X131.048 Y112.8 E266.60261
G1 X131.048 Y112.4 E266.61259
G1 X88.952 Y112.4 E267.66268
G1 X88.952 Y112 E267.67265
G1 X131.048 Y112 E268.72274
G1 X131.048 Y111.6 E268.73272
G1 X88.952 Y111.6 E269.78281
G1 X88.952 Y111.2 E269.79279
G1 X131.048 Y111.2 E270.84288
G1 X131.048 Y110.8 E270.85286
G1 X88.952 Y110.8 E271.90294
G1 X88.952 Y110.4 E271.91292
G1 X131.048 Y110.4 E272.96301
G1 X131.048 Y110 E272.97299
G1 X88.952 Y110 E274.02308
G1 X88.952 Y109.6 E274.03306
G1 X131.048 Y109.6 E275.08315
G1 X131.048 Y109.2 E275.09312
G1 X88.952 Y109.2 E276.14321
G1 X88.952 Y108.8 E276.15319
G1 X131.048 Y108.8 E277.20328
G1 X131.048 Y108.4 E277.21326
G1 X88.952 Y108.4 E278.26335
G1 X88.952 Y108 E278.27333
G1 X131.048 Y108 E279.32341
G1 X131.048 Y107.6 E279.33339
G1 X88.952 Y107.6 E280.38348
G1 X88.952 Y107.2 E280.39346
G1 X131.048 Y107.2 E281.44355
G1 X131.048 Y106.8 E281.45353
G1 X88.952 Y106.8 E282.50362
G1 X88.953 Y106.4 E282.51359
G1 X131.049 Y106.4 E283.56368
G1 X131.049 Y106 E283.57366
G1 X88.953 Y106 E284.62375
G1 X88.953 Y105.6 E284.63373
G1 X131.049 Y105.6 E285.68382
G1 X131.049 Y105.2 E285.6938
G1 X88.953 Y105.2 E286.74388
G1 X88.953 Y104.8 E286.75386
G1 X131.049 Y104.8 E287.80395
G1 X131.049 Y104.4 E287.81393
G1 X88.953 Y104.4 E288.86402
G1 X88.953 Y104 E288.874
G1 X131.049 Y104 E289.92409
G1 X131.049 Y103.6 E289.93406
G1 X88.953 Y103.6 E290.98415
G1 X88.953 Y103.2 E290.99413
G1 X131.049 Y103.2 E292.04422
G1 X131.049 Y102.8 E292.0542
G1 X88.953 Y102.8 E293.10429
G1 X88.953 Y102.4 E293.11426
G1 X131.049 Y102.4 E294.16435
G1 X131.049 Y102 E294.17433
G1 X88.953 Y102 E295.22442
G1 X88.953 Y101.6 E295.2344
G1 X131.049 Y101.6 E296.28449
G1 X131.049 Y101.2 E296.29447
G1 X88.953 Y101.2 E297.34455
G1 X88.953 Y100.8 E297.35453
G1 X131.049 Y100.8 E298.40462
G1 X131.049 Y100.4 E298.4146
G1 X88.953 Y100.4 E299.46469
G1 X88.953 Y100 E299.47467
G1 X131.049 Y100 E300.52476
G1 X131.049 Y99.6 E300.53473
G1 X88.953 Y99.6 E301.58482
G1 X88.953 Y99.359 E301.59084
G1 X88.962 Y99.2 E301.59481
G1 X131.042 Y99.2 E302.6445
G1 X131.029 Y98.822 E302.65393
G1 X131.027 Y98.8 E302.65448
G1 X88.983 Y98.8 E303.70328
G1 X89.002 Y98.445 E303.71214
G1 X89.009 Y98.4 E303.71328
G1 X130.984 Y98.4 E304.76035
G1 X130.942 Y98 E304.77038
G1 X89.068 Y98 E305.81493
