;FLAVOR:Marlin
;TIME:1746
;Filament used:1.47984m
;Layer height: 0.2
;MINX:86.2
;MINY:85.45
;MINZ:0.24
;MAXX:133.8
;MAXY:134.55
;MAXZ:5.89
                                   
;Creality Print GCode Generated by CXEngine:NO_MAGE_VERSION_GIT_HEAD_BRANCH
;CXEngine Release Time:2022-09-30 09:53:04
;Gcode Generated Time:2023-05-18 13:57:45
;----------Machine Config--------------
;Machine Name:Ender-3 V2
;Machine Height:250
;Machine Width:220
;Machine Depth:220
;Material name:PLA
;Number of Extruders:1
;ExtruderParams[0] Nozzle Diameter1000
;----------Profile Config---------------
;Engine Version:275f99b
;Engine Release Time:2022-09-30 09:42:18
;Layer Height:0.2
;Wall Thickness:0.8
;Top/Bottom Thickness:1
;Out Wall Line Width:0.4
;Inner Wall Line Width:0.4
;Inital Layer Height:200
;Wall Line Count:2
;Infill Line Distance:4
;Infill Pattern:grid
;Infill Sparse Density:20
;Infill Wipe Distance:0
;Print Temperature:200
;Bed Temperature:60
;Support Enable:true
;Support Density:0
;Support Angle:60
;Adhesion Type:simpleraft
;machine is belt:false
;machine belt offset:10
;machine belt offset Y:0
;Raft Base Line Spacing:1.6
;Wait Heatup Sync:true
;----------Shell Config----------------
;Outer Wall Wipe Distance:200
;Outer Inset First:false
;Infill Before Walls:false
;Infill Overlap:0.16
;Fill Gaps Between Walls:everywhere
;Minimum Infill Area:1
;Top Surface Skin Layer:0
;Top Layers:3
;Z Seam Alignment:sharpest_corner
;Seam Corner Preference:z_seam_corner_inner
;Z Seam X:110
;Z Seam Y:110
;Horizontal Expansion:0
;Top/Bottom Pattern:zigzag
;Ironing Pattern:zigzag
;Vase Model:false
;----------Support Config----------------
;Support Type:everywhere
;Support Pattern:zigzag
;Support Infill Layer Thickness:0.2
;Minimum Support Area:5
;Enable Support Roof:false
;Support Roof Thickness:0.8
;Support Roof Pattern:lines
;Connect Support Lines:0
;Connect Support ZigZags:1
;Minimum Support X/Y Distance:0.2
;Support Line Distance:0
; ---------PrintSpeed & Travel----------
;Enable Print Cool:true
;Avoid Printed Parts Traveling:true
;Enable Retraction:true
;Retraction Distance:8
;Retraction Speed:100
;Retraction Prime Speed:100
;Maximum Retraction Count:100
;Minimum Extrusion Distance Window:1
;Z Hop When Retracted:false
;Z Hop Height:0.2
;Retract Before Outer Wall:true
;Print Speed:50
;Infill Speed:50

;Prime Tower Speed:50
;Travel Speed:120
;Initial Layer Speed:25
;Skirt/Brim Speed:25
;Combing Mode:infill
; --------SpecialModel&Mesh Fixes--------
;Union Overlapping Volum:true
;Remove All Holes:false
;Maximum Travel Resolution:0.6
;Maximum Deviation:0.05
;Maximum Model Angle:0.872665
;IS Mold Print:false
;Make Overhang Printable:false
;Enable Coasting:false
;Coasting Volumes:0.06
;Coasting Speed:0.9
;Raft AirGap:0.25
;Layer0 ZOverLap:0.13
;---------------------End of Head--------------------------
M140 S60
M105
M104 S200
M105
M109 S200
M105
M190 S60
M82 ;absolute extrusion mode
M220 S100 ;Reset Feedrate
M221 S100 ;Reset Flowrate

G28 ;Home

G92 E0 ;Reset Extruder
G1 Z2.0 F3000 ;Move Z Axis up
G1 X10.1 Y20 Z0.28 F5000.0 ;Move to start position
G1 X10.1 Y145.0 Z0.28 F1500.0 E15 ;Draw the first line
G1 X10.4 Y145.0 Z0.28 F5000.0 ;Move to side a little
G1 X10.4 Y20 Z0.28 F1500.0 E30 ;Draw the second line
G92 E0  ;Reset Extruder
G1 E-1.0000 F1800 ;Retract a bit
G1 Z2.0 F3000 ;Move Z Axis up
G1 E0.0000 F1800 

G92 E0
G92 E0
G1 F6000 E-8

;LAYER_COUNT:25

;LAYER:-4
M107
G0 F7200 X88 Y90.854 Z0.24
;TYPE:SUPPORT-INTERFACE
G1 F6000 E0
G1 F1200 X88 Y129.159 E3.36344
G1 X87.957 Y129.089 E3.37065
G1 X87.596 Y128.365 E3.44169
G1 X87.287 Y127.568 E3.51675
G1 X87.061 Y126.784 E3.58839
G1 X86.904 Y125.977 E3.66058
G1 X86.82 Y125.182 E3.73077
G1 X86.8 Y95.463 E6.3403
G1 X86.849 Y94.458 E6.42865
G1 X86.972 Y93.626 E6.5025
G1 X87.16 Y92.835 E6.57389
G1 X87.417 Y92.066 E6.64509
G1 X87.746 Y91.317 E6.71692
G1 X88.157 Y90.568 E6.79194
G1 X88.619 Y89.885 E6.86434
G1 X89.119 Y89.267 E6.93414
G1 X89.6 Y88.758 E6.99563
G1 X89.6 Y131.236 E10.72549
G1 X90.017 Y131.631 E10.77592
G1 X90.635 Y132.131 E10.84572
G1 X91.2 Y132.513 E10.90561
G1 X91.2 Y87.489 E14.85902
G1 X91.655 Y87.21 E14.90589
G1 X92.385 Y86.846 E14.97751
G1 X92.8 Y86.684 E15.01663
G1 X92.8 Y133.325 E19.11203
G1 X92.808 Y133.329 E19.11281
G1 X93.581 Y133.588 E19.18439
G1 X94.376 Y133.778 E19.25617
G1 X94.4 Y133.781 E19.25829
G1 X94.4 Y86.226 E23.43394
G1 X94.773 Y86.154 E23.4673
G1 X95.561 Y86.071 E23.53687
G1 X96 Y86.055 E23.57544
G1 X96 Y133.943 E27.78033
G1 X96.07 Y133.947 E27.78649
G1 X97.6 Y133.947 E27.92084
G1 X97.6 Y86.051 E32.12643
G1 X99.2 Y86.051 E32.26692
G1 X99.2 Y133.947 E36.47251
G1 X100.8 Y133.947 E36.613
G1 X100.8 Y86.051 E40.81859
G1 X102.4 Y86.051 E40.95909
G1 X102.4 Y133.947 E45.16468
G1 X104 Y133.947 E45.30517
G1 X104 Y86.051 E49.51076
G1 X105.6 Y86.052 E49.65125
G1 X105.6 Y133.948 E53.85684
G1 X107.2 Y133.948 E53.99734
G1 X107.2 Y86.052 E58.20293
G1 X108.8 Y86.052 E58.34342
G1 X108.8 Y133.948 E62.54901
G1 X110.4 Y133.948 E62.6895
G1 X110.4 Y86.052 E66.89509
G1 X112 Y86.052 E67.03559
G1 X112 Y133.948 E71.24118
G1 X113.6 Y133.948 E71.38167
G1 X113.6 Y86.052 E75.58726
G1 X115.2 Y86.053 E75.72775
G1 X115.2 Y133.949 E79.93334
G1 X116.8 Y133.949 E80.07384
G1 X116.8 Y86.053 E84.27943
G1 X118.4 Y86.053 E84.41992
G1 X118.4 Y133.949 E88.62551
G1 X120 Y133.949 E88.766
G1 X120 Y86.053 E92.97159
G1 X121.6 Y86.053 E93.11209
G1 X121.6 Y133.949 E97.31768
G1 X123.2 Y133.949 E97.45817
G1 X123.2 Y86.053 E101.66376
G1 X123.93 Y86.053 E101.72786
G1 X124.788 Y86.099 E101.80331
G1 X124.8 Y86.101 E101.80437
G1 X124.8 Y133.891 E106.00066
G1 X125.227 Y133.846 E106.03836
G1 X126.04 Y133.688 E106.11108
G1 X126.4 Y133.584 E106.14399
G1 X126.4 Y86.408 E110.28636
G1 X126.419 Y86.412 E110.28806
G1 X127.187 Y86.669 E110.35917
G1 X127.933 Y86.996 E110.43069
G1 X128 Y87.033 E110.43742
G1 X128 Y132.963 E114.47038
G1 X128.345 Y132.79 E114.50427
G1 X129.037 Y132.364 E114.57562
G1 X129.6 Y131.945 E114.63724
G1 X129.6 Y88.06 E118.49064
G1 X129.983 Y88.369 E118.53385
G1 X130.503 Y88.861 E118.59671
G1 X131.128 Y89.56 E118.67905
G1 X131.2 Y89.657 E118.68965
G1 X131.2 Y130.339 E122.26181
G1 X131.381 Y130.115 E122.2871
G1 X131.843 Y129.432 E122.3595
G1 X132.254 Y128.683 E122.43452
G1 X132.583 Y127.934 E122.50635
G1 X132.839 Y127.166 E122.57743
G1 X133.028 Y126.372 E122.6491
G1 X133.152 Y125.531 E122.72374
G1 X133.197 Y124.682 E122.7984
G1 X133.2 Y95.397 E125.36982
G1 X133.179 Y94.807 E125.42166
G1 X133.096 Y94.023 E125.49088
G1 X132.939 Y93.216 E125.56307
G1 X132.8 Y92.734 E125.60712
G1 X132.8 Y127.283 E128.64075
;;retract;;
G1 F6000 E120.64075
G0 F600 X132.8 Y127.283 Z0.47
G0 F7200 X132.95 Y91.938
;TIME_ELAPSED:79.470281

;LAYER:-3
;TYPE:SUPPORT
G1 F6000 E128.64075
G1 F1800 X127.296 Y86.284 E129.25243
G1 X127.332 Y86.296 E129.25533
G1 X128.117 Y86.64 E129.3209
G1 X128.882 Y87.06 E129.38766
G1 X129.609 Y87.551 E129.45477
G1 X130.248 Y88.068 E129.51765
G1 X130.788 Y88.579 E129.57452
G1 X131.439 Y89.307 E129.64923
G1 X131.947 Y89.99 E129.71434
G1 X132.39 Y90.71 E129.77901
G1 X132.772 Y91.477 E129.84456
G1 X133.091 Y92.299 E129.91201
G1 X133.33 Y93.128 E129.97801
G1 X133.474 Y93.876 E130.03628
G1 X125.379 Y85.781 E130.91204
G1 X124.835 Y85.701 E130.9541
G1 X123.932 Y85.653 E131.02328
G1 X123.836 Y85.652 E131.03062
G1 X133.599 Y95.415 E132.08683
G1 X133.599 Y96.829 E132.195
G1 X122.422 Y85.652 E133.40419
G1 X121.007 Y85.652 E133.51243
G1 X133.599 Y98.244 E134.8747
G1 X133.599 Y99.658 E134.98286
G1 X119.593 Y85.652 E136.4981
G1 X118.179 Y85.652 E136.60627
G1 X133.599 Y101.072 E138.27448
G1 X133.598 Y102.485 E138.38258
G1 X116.764 Y85.651 E140.20376
G1 X115.35 Y85.651 E140.31193
G1 X133.598 Y103.9 E142.28614
G1 X133.598 Y105.314 E142.39431
G1 X113.936 Y85.651 E144.5215
G1 X112.521 Y85.651 E144.62974
G1 X133.598 Y106.728 E146.90996
G1 X133.597 Y108.142 E147.01813
G1 X111.107 Y85.651 E149.45126
G1 X109.692 Y85.651 E149.5595
G1 X133.597 Y109.556 E152.14567
G1 X133.597 Y110.97 E152.25383
G1 X108.278 Y85.651 E154.99297
G1 X106.864 Y85.651 E155.10114
G1 X133.597 Y112.384 E157.99325
G1 X133.597 Y113.798 E158.10141
G1 X105.45 Y85.651 E161.1465
G1 X104.035 Y85.651 E161.25474
G1 X133.597 Y115.212 E164.45285
G1 X133.597 Y116.626 E164.56102
G1 X102.62 Y85.65 E167.91221
G1 X101.206 Y85.65 E168.02038
G1 X133.597 Y118.04 E171.52454
G1 X133.596 Y119.454 E171.63271
G1 X99.792 Y85.65 E175.2898
G1 X98.378 Y85.65 E175.39796
G1 X133.596 Y120.868 E179.20802
G1 X133.596 Y122.282 E179.31619
G1 X96.964 Y85.65 E183.27922
G1 X96.154 Y85.65 E183.34118
G1 X95.569 Y85.67 E183.38596
G1 X133.596 Y123.697 E187.49991
G1 X133.597 Y124.682 E187.57526
G1 X133.575 Y125.09 E187.60652
G1 X94.319 Y85.834 E191.85343
G1 X93.872 Y85.921 E191.88826
G1 X93.189 Y86.118 E191.94264
G1 X133.433 Y126.362 E196.29644
G1 X133.422 Y126.445 E196.30284
G1 X133.226 Y127.269 E196.36764
G1 X133.151 Y127.494 E196.38578
G1 X92.165 Y86.508 E200.81985
G1 X91.454 Y86.863 E200.88064
G1 X91.238 Y86.996 E200.90004
G1 X132.762 Y128.52 E205.39232
G1 X132.61 Y128.867 E205.4213
G1 X132.286 Y129.457 E205.47279
G1 X90.39 Y87.562 E210.00525
G1 X90.057 Y87.811 E210.03706
G1 X89.618 Y88.203 E210.08208
G1 X131.728 Y130.314 E214.6378
G1 X131.699 Y130.359 E214.6419
G1 X131.182 Y130.998 E214.70478
G1 X131.092 Y131.092 E214.71473
G1 X88.906 Y88.906 E219.27862
G1 X88.818 Y89.002 E219.28859
G1 X88.301 Y89.641 E219.35146
G1 X88.27 Y89.684 E219.35552
G1 X130.381 Y131.795 E223.91129
G1 X129.947 Y132.185 E223.95593
G1 X129.607 Y132.436 E223.98826
G1 X87.713 Y90.541 E228.52061
G1 X87.39 Y91.133 E228.5722
G1 X87.236 Y91.479 E228.60118
G1 X128.76 Y133.003 E233.09345
G1 X128.546 Y133.137 E233.11276
G1 X127.833 Y133.49 E233.17362
G1 X86.848 Y92.505 E237.60758
G1 X86.774 Y92.731 E237.62578
G1 X86.578 Y93.553 E237.69042
G1 X86.564 Y93.635 E237.69678
G1 X126.809 Y133.88 E242.05069
G1 X126.128 Y134.079 E242.10496
G1 X125.679 Y134.165 E242.13993
G1 X86.425 Y94.91 E246.38668
G1 X86.4 Y95.443 E246.4275
G1 X86.399 Y96.299 E246.49298
G1 X124.429 Y134.329 E250.60725
G1 X123.846 Y134.35 E250.65188
G1 X123.035 Y134.348 E250.71392
G1 X86.401 Y97.715 E254.67711
G1 X86.402 Y99.13 E254.78536
G1 X121.62 Y134.348 E258.59542
G1 X120.206 Y134.348 E258.70359
G1 X86.402 Y100.544 E262.36067
G1 X86.404 Y101.96 E262.46899
G1 X118.792 Y134.348 E265.97289
G1 X117.378 Y134.348 E266.08105
G1 X86.404 Y103.375 E269.43192
G1 X86.405 Y104.79 E269.54017
G1 X115.963 Y134.348 E272.7379
G1 X114.549 Y134.348 E272.84607
G1 X86.407 Y106.206 E275.89061
G1 X86.407 Y107.62 E275.99878
G1 X113.134 Y134.348 E278.89029
G1 X111.72 Y134.348 E278.99846
G1 X86.408 Y109.035 E281.73689
G1 X86.409 Y110.451 E281.84521
G1 X110.306 Y134.348 E284.43051
G1 X108.891 Y134.347 E284.53875
G1 X86.41 Y111.866 E286.97086
G1 X86.411 Y113.281 E287.0791
G1 X107.477 Y134.347 E289.35813
G1 X106.063 Y134.347 E289.46629
G1 X86.412 Y114.696 E291.59224
G1 X86.413 Y116.111 E291.70048
G1 X104.648 Y134.347 E293.67329
G1 X103.234 Y134.347 E293.78146
G1 X86.414 Y117.526 E295.60118
G1 X86.415 Y118.942 E295.7095
G1 X101.819 Y134.346 E297.37598
G1 X100.405 Y134.346 E297.48415
G1 X86.416 Y120.357 E298.99755
G1 X86.416 Y121.772 E299.1058
G1 X98.991 Y134.346 E300.46617
G1 X97.577 Y134.346 E300.57434
G1 X86.418 Y123.187 E301.78157
G1 X86.419 Y124.602 E301.88982
G1 X96.162 Y134.346 E302.94392
G1 X96.068 Y134.347 E302.95111
G1 X95.165 Y134.299 E303.02029
G1 X94.619 Y134.217 E303.06252
G1 X86.524 Y126.122 E303.93828
G1 X86.67 Y126.872 E303.99673
G1 X86.909 Y127.701 E304.06273
G1 X87.228 Y128.523 E304.13018
G1 X87.61 Y129.29 E304.19573
G1 X88.053 Y130.01 E304.2604
G1 X88.561 Y130.693 E304.32551
G1 X89.218 Y131.427 E304.40087
G1 X89.752 Y131.932 E304.4571
G1 X90.391 Y132.449 E304.51997
G1 X91.118 Y132.94 E304.58708
G1 X91.879 Y133.358 E304.6535
G1 X92.662 Y133.702 E304.71893
G1 X92.702 Y133.714 E304.72212
G1 X87.049 Y128.061 E305.33369
G0 F600 X87.049 Y128.061 Z0.62
G0 F7200 X92.921 Y134
;TIME_ELAPSED:160.596452

;LAYER:-2
;TYPE:SUPPORT-INTERFACE
G1 F2400 X127.081 Y134 E306.18582
G1 X126.175 Y134.273 E306.20942
G1 X125.522 Y134.4 E306.22601
G1 X94.477 Y134.4 E307.00044
G1 X94.267 Y134.369 E307.00573
G1 X93.411 Y134.164 E307.02769
G1 X92.58 Y133.885 E307.04955
G1 X91.932 Y133.6 E307.06721
G1 X128.064 Y133.6 E307.96853
G1 X128.638 Y133.314 E307.98453
G1 X128.822 Y133.2 E307.98993
G1 X91.174 Y133.2 E308.92906
G1 X91.015 Y133.112 E308.93359
G1 X90.551 Y132.8 E308.94754
G1 X129.456 Y132.8 E309.91803
G1 X129.993 Y132.4 E309.93473
G1 X90.012 Y132.4 E310.93206
G1 X89.609 Y132.073 E310.94501
G1 X89.531 Y132 E310.94767
G1 X130.453 Y132 E311.96848
G1 X130.819 Y131.673 E311.98072
G1 X130.887 Y131.6 E311.98321
G1 X89.11 Y131.6 E313.02534
G1 X89.068 Y131.559 E313.0268
G1 X88.744 Y131.2 E313.03887
G1 X131.267 Y131.2 E314.09961
G1 X131.323 Y131.141 E314.10164
G1 X131.598 Y130.8 E314.11257
G1 X88.39 Y130.8 E315.19039
G1 X88.092 Y130.4 E315.20284
G1 X131.912 Y130.4 E316.29593
G1 X132.182 Y130 E316.30797
G1 X87.811 Y130 E317.41481
G1 X87.565 Y129.6 E317.42652
G1 X132.436 Y129.6 E318.54583
G1 X132.655 Y129.2 E318.55721
G1 X87.341 Y129.2 E319.68757
G1 X87.141 Y128.8 E319.69873
G1 X132.857 Y128.8 E320.83912
G1 X133.033 Y128.4 E320.85002
G1 X86.965 Y128.4 E321.99919
G1 X86.809 Y128 E322.0099
G1 X133.191 Y128 E323.1669
G1 X133.326 Y127.6 E323.17743
G1 X86.67 Y127.6 E324.34127
G1 X86.555 Y127.2 E324.35166
G1 X133.447 Y127.2 E325.52138
G1 X133.542 Y126.8 E325.53164
G1 X86.451 Y126.8 E326.70633
G1 X86.373 Y126.4 E326.71649
G1 X133.631 Y126.4 E327.89535
G1 X133.69 Y126 E327.90543
G1 X86.302 Y126 E329.08753
G1 X86.259 Y125.6 E329.09757
G1 X133.748 Y125.6 E330.28219
G1 X133.769 Y125.2 E330.29218
G1 X86.219 Y125.2 E331.47832
G1 X86.205 Y124.8 E331.4883
G1 X133.791 Y124.8 E332.67534
G1 X133.797 Y124.691 E332.67806
G1 X133.797 Y124.4 E332.68532
G1 X86.2 Y124.4 E333.87263
G1 X86.2 Y124 E333.88261
G1 X133.797 Y124 E335.06992
G1 X133.797 Y123.6 E335.0799
G1 X86.2 Y123.6 E336.26721
G1 X86.2 Y123.2 E336.27719
G1 X133.797 Y123.2 E337.4645
G1 X133.797 Y122.8 E337.47448
G1 X86.2 Y122.8 E338.66179
G1 X86.2 Y122.4 E338.67177
G1 X133.797 Y122.4 E339.85908
G1 X133.797 Y122 E339.86906
G1 X86.2 Y122 E341.05637
G1 X86.2 Y121.6 E341.06635
G1 X133.797 Y121.6 E342.25366
G1 X133.797 Y121.2 E342.26364
G1 X86.2 Y121.2 E343.45095
G1 X86.2 Y120.8 E343.46093
G1 X133.797 Y120.8 E344.64824
G1 X133.797 Y120.4 E344.65822
G1 X86.2 Y120.4 E345.84553
G1 X86.2 Y120 E345.85551
G1 X133.797 Y120 E347.04282
G1 X133.797 Y119.6 E347.0528
G1 X86.2 Y119.6 E348.24011
G1 X86.2 Y119.2 E348.25009
G1 X133.797 Y119.2 E349.4374
G1 X133.797 Y118.8 E349.44738
G1 X86.201 Y118.8 E350.63467
G1 X86.201 Y118.4 E350.64465
G1 X133.797 Y118.4 E351.83193
G1 X133.797 Y118 E351.84191
G1 X86.201 Y118 E353.0292
G1 X86.201 Y117.6 E353.03918
G1 X133.797 Y117.6 E354.22647
G1 X133.797 Y117.2 E354.23644
G1 X86.201 Y117.2 E355.42373
G1 X86.201 Y116.8 E355.43371
G1 X133.797 Y116.8 E356.621
G1 X133.797 Y116.4 E356.63097
G1 X86.201 Y116.4 E357.81826
G1 X86.201 Y116 E357.82824
G1 X133.797 Y116 E359.01553
G1 X133.797 Y115.6 E359.0255
G1 X86.201 Y115.6 E360.21279
G1 X86.201 Y115.2 E360.22277
G1 X133.797 Y115.2 E361.41006
G1 X133.798 Y114.8 E361.42003
G1 X86.202 Y114.8 E362.60732
G1 X86.202 Y114.4 E362.6173
G1 X133.798 Y114.4 E363.80459
G1 X133.798 Y114 E363.81456
G1 X86.202 Y114 E365.00185
G1 X86.202 Y113.6 E365.01183
G1 X133.798 Y113.6 E366.19912
G1 X133.798 Y113.2 E366.20909
G1 X86.202 Y113.2 E367.39638
G1 X86.202 Y112.8 E367.40636
G1 X133.798 Y112.8 E368.59365
G1 X133.798 Y112.4 E368.60362
G1 X86.202 Y112.4 E369.79091
G1 X86.202 Y112 E369.80089
G1 X133.798 Y112 E370.98818
G1 X133.798 Y111.6 E370.99816
G1 X86.202 Y111.6 E372.18544
G1 X86.202 Y111.2 E372.19542
G1 X133.798 Y111.2 E373.38271
G1 X133.798 Y110.8 E373.39269
G1 X86.202 Y110.8 E374.57997
G1 X86.202 Y110.4 E374.58995
G1 X133.798 Y110.4 E375.77724
G1 X133.798 Y110 E375.78722
G1 X86.202 Y110 E376.9745
G1 X86.202 Y109.6 E376.98448
G1 X133.798 Y109.6 E378.17177
G1 X133.798 Y109.2 E378.18175
G1 X86.202 Y109.2 E379.36903
G1 X86.202 Y108.8 E379.37901
G1 X133.798 Y108.8 E380.5663
G1 X133.798 Y108.4 E380.57628
G1 X86.202 Y108.4 E381.76356
