;FLAVOR:Marlin
;TIME:3335
;Filament used:0.722725m
;Layer height: 0.1
;MINX:95.879
;MINY:82.218
;MINZ:0.1
;MAXX:120.37
;MAXY:137.813
;MAXZ:8.9
                               
;Creality Print GCode Generated by CXEngine:NO_MAGE_VERSION_GIT_HEAD_BRANCH
;CXEngine Release Time:2022-09-30 09:53:04
;Gcode Generated Time:2023-03-17 14:44:34
;----------Machine Config--------------
;Machine Name:Creality Ender-3
;Machine Height:250
;Machine Width:220
;Machine Depth:220
;Material name:PLA
;Number of Extruders:1
;ExtruderParams[0] Nozzle Diameter1000
;----------Profile Config---------------
;Engine Version:275f99b
;Engine Release Time:2022-09-30 09:42:18
;Layer Height:0.1
;Wall Thickness:0.8
;Top/Bottom Thickness:0.5
;Out Wall Line Width:0.4
;Inner Wall Line Width:0.4
;Inital Layer Height:100
;Wall Line Count:2
;Infill Line Distance:4
;Infill Pattern:grid
;Infill Sparse Density:20
;Infill Wipe Distance:0
;Print Temperature:200
;Bed Temperature:60
;Support Enable:true
;Support Density:0
;Support Angle:60
;Adhesion Type:none
;machine is belt:false
;machine belt offset:10
;machine belt offset Y:0
;Raft Base Line Spacing:1.6
;Wait Heatup Sync:true
;----------Shell Config----------------
;Outer Wall Wipe Distance:200
;Outer Inset First:false
;Infill Before Walls:false
;Infill Overlap:0.16
;Fill Gaps Between Walls:everywhere
;Minimum Infill Area:1
;Top Surface Skin Layer:0
;Top Layers:4
;Z Seam Alignment:sharpest_corner
;Seam Corner Preference:z_seam_corner_inner
;Z Seam X:110
;Z Seam Y:110
;Horizontal Expansion:0
;Top/Bottom Pattern:zigzag
;Ironing Pattern:zigzag
;Vase Model:false
;----------Support Config----------------
;Support Type:everywhere
;Support Pattern:zigzag
;Support Infill Layer Thickness:0.1
;Minimum Support Area:5
;Enable Support Roof:true
;Support Roof Thickness:0.8
;Support Roof Pattern:lines
;Connect Support Lines:0
;Connect Support ZigZags:0
;Minimum Support X/Y Distance:0.2
;Support Line Distance:0
; ---------PrintSpeed & Travel----------
;Enable Print Cool:true
;Avoid Printed Parts Traveling:true
;Enable Retraction:true
;Retraction Distance:8
;Retraction Speed:100
;Retraction Prime Speed:100
;Maximum Retraction Count:100
;Minimum Extrusion Distance Window:1
;Z Hop When Retracted:false
;Z Hop Height:0.2
;Retract Before Outer Wall:true
;Print Speed:50
;Infill Speed:50

;Prime Tower Speed:50
;Travel Speed:120
;Initial Layer Speed:25
;Skirt/Brim Speed:25
;Combing Mode:infill
; --------SpecialModel&Mesh Fixes--------
;Union Overlapping Volum:true
;Remove All Holes:false
;Maximum Travel Resolution:0.6
;Maximum Deviation:0.05
;Maximum Model Angle:0.872665
;IS Mold Print:false
;Make Overhang Printable:false
;Enable Coasting:false
;Coasting Volumes:0.06
;Coasting Speed:0.9
;Raft AirGap:0.25
;Layer0 ZOverLap:0.13
;---------------------End of Head--------------------------
M140 S60
M105
M104 S200
M105
M109 S200
M105
M190 S60
M82 ;absolute extrusion mode
M220 S100 ;Reset Feedrate
M221 S100 ;Reset Flowrate

G28 ;Home

G92 E0 ;Reset Extruder
G1 Z2.0 F3000 ;Move Z Axis up
G1 X10.1 Y20 Z0.28 F5000.0 ;Move to start position
G1 X10.1 Y145.0 Z0.28 F1500.0 E15 ;Draw the first line
G1 X10.4 Y145.0 Z0.28 F5000.0 ;Move to side a little
G1 X10.4 Y20 Z0.28 F1500.0 E30 ;Draw the second line
G92 E0  ;Reset Extruder
G1 E-1.0000 F1800 ;Retract a bit
G1 Z2.0 F3000 ;Move Z Axis up
G1 E0.0000 F1800 

G92 E0
G92 E0
G1 F6000 E-8

;LAYER_COUNT:89

;LAYER:0
M107
G0 F3600 X97.097 Y87.341 Z0.1
;TYPE:SUPPORT
G1 F6000 E0
G1 F1500 X97.715 Y86.891 E0.01119
G1 X98.475 Y86.891 E0.02231
G1 X99.093 Y87.341 E0.0335
G1 X99.329 Y88.064 E0.04463
G1 X99.093 Y88.787 E0.05576
G1 X98.475 Y89.237 E0.06695
G1 X97.715 Y89.237 E0.07807
G1 X97.097 Y88.787 E0.08926
G1 X96.861 Y88.064 E0.10039
G1 X97.097 Y87.341 E0.11152
;;retract;;
G1 F6000 E-7.88848
G0 F3600 X96.269 Y87.072
G0 X95.948 Y88.064
G0 X103.208 Y127.942
G0 X103.208 Y128.812
G1 F6000 E0.11152
G1 F1500 X103.78 Y128.812 E0.11989
G1 X104.245 Y129.151 E0.12831
G1 X104.423 Y129.695 E0.13668
G1 X104.245 Y130.239 E0.14506
G1 X103.78 Y130.578 E0.15348
G1 X103.208 Y130.578 E0.16185
G1 X102.743 Y130.239 E0.17027
G1 X102.565 Y129.695 E0.17865
G1 X102.743 Y129.151 E0.18703
G1 X103.208 Y128.812 E0.19545
;;retract;;
G1 F6000 E-7.80455
G0 F3600 X102.695 Y128.109
G0 X102.005 Y128.615
G0 X101.652 Y129.695
G0 X102.005 Y130.775
G0 X102.653 Y131.23
G0 X103.22 Y131.874
G1 F6000 E0.19545
G1 F1500 X103.78 Y131.874 E0.20364
G1 X104.237 Y132.207 E0.21192
G1 X104.412 Y132.741 E0.22014
G1 X104.237 Y133.275 E0.22837
G1 X103.78 Y133.608 E0.23664
G1 X103.22 Y133.608 E0.24484
G1 X102.763 Y133.275 E0.25311
G1 X102.588 Y132.741 E0.26134
G1 X102.763 Y132.207 E0.26956
G1 X103.22 Y131.874 E0.27784
;;retract;;
G1 F6000 E-7.72216
G0 F3600 X104.341 Y131.226
G0 X105.332 Y131.754
G0 X105.334 Y133.453
G0 X106.898 Y136.111
G0 X107.958 Y136.451
G0 X111.148 Y136.455
G0 X113.304 Y135.81
G0 X114.666 Y133.452
G0 X114.744 Y132.602
G0 X115.571 Y132.871
G1 F6000 E0.27784
G1 F1500 X115.749 Y132.327 E0.28621
G1 X116.214 Y131.988 E0.29463
G1 X116.786 Y131.988 E0.303
G1 X117.251 Y132.327 E0.31143
G1 X117.429 Y132.871 E0.3198
G1 X117.251 Y133.415 E0.32818
G1 X116.786 Y133.754 E0.3366
G1 X116.214 Y133.754 E0.34497
G1 X115.749 Y133.415 E0.35339
G1 X115.571 Y132.871 E0.36177
;;retract;;
G1 F6000 E-7.63823
G0 F3600 X114.745 Y133.141
G0 X114.256 Y133.862
G0 X112.929 Y134.76
G0 X112.086 Y134.543
;TYPE:SUPPORT-INTERFACE
G1 F6000 E0.36177
G1 F1500 X112.079 Y134.573 E0.36222
G1 X111.868 Y134.859 E0.36742
G1 X111.885 Y134.88 E0.36782
G1 X111.364 Y135.356 E0.37814
G1 X111.14 Y135.477 E0.38187
G1 X111.147 Y135.447 E0.38232
G1 X111.442 Y135.047 E0.38959
G1 X111.792 Y134.728 E0.39652
G1 X111.774 Y134.711 E0.39689
G1 X112.086 Y134.543 E0.40207
;;retract;;
G1 F6000 E-7.59793
G0 F3600 X112.902 Y134.854
G0 X113.304 Y135.81
G0 X111.148 Y136.455
G0 X110.088 Y136.115
G0 X109.739 Y134.756
G0 X108.896 Y134.539
G1 F6000 E0.40207
G1 F1500 X108.888 Y134.57 E0.40254
G1 X108.641 Y134.907 E0.40866
G1 X108.65 Y134.918 E0.40886
G1 X108.174 Y135.352 E0.41829
G1 X107.95 Y135.473 E0.42202
G1 X107.957 Y135.443 E0.42247
G1 X108.252 Y135.043 E0.42974
G1 X108.56 Y134.761 E0.43585
G1 X108.548 Y134.75 E0.43609
G1 X108.662 Y134.665 E0.43817
G1 X108.896 Y134.539 E0.44206
;;retract;;
G1 F6000 E-7.55794
G0 F3600 X109.174 Y133.647
G0 X109.159 Y86.149
G0 X108.727 Y85.095
G1 F6000 E0.44206
G1 F1500 X104.607 Y85.09 E0.50235
G1 X100.818 Y85.085 E0.5578
G1 X100.5 Y85.085 E0.56246
G1 X100.5 Y84.087 E0.57706
G1 X100.733 Y83.854 E0.58189
G1 X108.467 Y83.853 E0.69507
G1 X108.7 Y84.086 E0.69989
G1 X108.7 Y85.062 E0.71417
G1 X108.727 Y85.095 E0.7148
;;retract;;
G1 F6000 E-7.2852
G0 F3600 X109.567 Y84.752
G0 X109.861 Y83.577
G0 X111.175 Y82.988
G0 X115.591 Y82.984
G0 X115.592 Y85.09
G1 F6000 E0.7148
G1 F1500 X111.586 Y85.085 E0.77342
G1 X111.583 Y85.086 E0.77347
G1 X111.3 Y85.085 E0.77761
G1 X111.3 Y84.531 E0.78572
G1 X111.175 Y84.377 E0.78862
G1 X111.3 Y84.31 E0.7907
G1 X111.3 Y84.087 E0.79396
G1 X111.533 Y83.854 E0.79878
G1 X119.267 Y83.853 E0.91197
G1 X119.5 Y84.086 E0.91679
G1 X119.5 Y85.094 E0.93154
G1 X115.592 Y85.09 E0.98873
G0 F3600 X115.436 Y84.889
G1 F1500 X114.6 Y84.053 E1.00603
G0 F3600 X113.737 Y84.887
G1 F1500 X112.903 Y84.053 E1.02329
G0 F3600 X112.038 Y84.885
G1 F1500 X111.498 Y84.345 E1.03447
;;retract;;
G1 F6000 E-6.96553
G0 F3600 X110.433 Y84.84
G0 X109.567 Y84.752
G0 X108.499 Y84.74
G1 F6000 E1.03447
G1 F1500 X107.812 Y84.053 E1.04869
G0 F3600 X106.954 Y84.892
G1 F1500 X106.115 Y84.053 E1.06605
G0 F3600 X105.254 Y84.89
G1 F1500 X104.419 Y84.054 E1.08334
G0 F3600 X103.555 Y84.888
G1 F1500 X102.722 Y84.054 E1.10059
G0 F3600 X101.855 Y84.885
G1 F1500 X101.025 Y84.054 E1.11778
;;retract;;
G1 F6000 E-6.88222
G0 F3600 X101.024 Y82.984
G0 X116.296 Y82.984
G0 X116.297 Y84.053
G1 F6000 E1.11778
G1 F1500 X117.135 Y84.891 E1.13513
G0 F3600 X117.994 Y84.053
G1 F1500 X118.834 Y84.893 E1.15251
;;retract;;
G1 F6000 E-6.84749
;MESH:
G0 F3600 X119.963 Y86.088
G0 X119.966 Y87.481
G0 X119.46 Y87.987
G0 X114.658 Y87.997
G0 X113.4 Y86.744
;TYPE:WALL-INNER
G1 F6000 E1.15251
G1 F1500 X113.4 Y132.693 E1.99306
G1 X112.299 Y132.694 E2.0132
G1 X112.1 Y132.694 E2.01684
G1 X112.1 Y132.495 E2.0192
G1 X112.1 Y86.685 E2.8572
G1 X113.4 Y86.686 E2.88098
G1 X118.7 Y86.694 E2.97794
G1 X118.7 Y86.724 E2.97849
G1 X113.4 Y86.744 E2.98918
G0 F3600 X113.8 Y87.142
;TYPE:WALL-OUTER
G1 F1500 X113.8 Y133.093 E3.82976
G1 X111.9 Y133.094 E3.86452
G1 X111.7 Y133.094 E3.86818
G1 X111.7 Y132.894 E3.87055
G1 X111.7 Y86.485 E4.71951
G1 X111.7 Y86.285 E4.72317
G1 X111.9 Y86.285 E4.72554
G1 X119.1 Y86.294 E4.85725
G1 X119.1 Y87.122 E4.87239
G1 X113.8 Y87.142 E4.96935
G0 F3600 X113.8 Y87.342
G0 X113.36 Y87.342
G0 X113.159 Y86.926
;TYPE:SKIN
G1 F1500 X112.948 Y86.926 E4.97321
G1 X113.159 Y87.138 E4.97868
G1 X113.159 Y87.703 E4.98902
G1 X112.381 Y86.925 E5.00914
G1 X112.339 Y86.924 E5.00991
G1 X112.339 Y87.449 E5.01951
G1 X113.159 Y88.269 E5.04073
G1 X113.159 Y88.835 E5.05108
G1 X112.339 Y88.014 E5.07231
G1 X112.339 Y88.58 E5.08266
G1 X113.159 Y89.4 E5.10388
G1 X113.159 Y89.966 E5.11423
G1 X112.339 Y89.146 E5.13544
G1 X112.339 Y89.712 E5.1458
G1 X113.159 Y90.532 E5.16701
G1 X113.159 Y91.097 E5.17735
G1 X112.339 Y90.277 E5.19856
G1 X112.339 Y90.843 E5.20891
G1 X113.159 Y91.663 E5.23013
G1 X113.159 Y92.229 E5.24048
G1 X112.339 Y91.409 E5.2617
G1 X112.339 Y91.974 E5.27203
G1 X113.159 Y92.795 E5.29326
G1 X113.159 Y93.36 E5.30359
G1 X112.339 Y92.54 E5.32481
G1 X112.339 Y93.106 E5.33516
G1 X113.159 Y93.926 E5.35637
G1 X113.159 Y94.492 E5.36673
G1 X112.339 Y93.671 E5.38796
G1 X112.339 Y94.237 E5.39831
G1 X113.159 Y95.057 E5.41952
G1 X113.159 Y95.623 E5.42988
G1 X112.339 Y94.803 E5.45109
G1 X112.339 Y95.368 E5.46143
G1 X113.159 Y96.189 E5.48265
G1 X113.159 Y96.754 E5.49299
G1 X112.339 Y95.934 E5.5142
G1 X112.339 Y96.5 E5.52456
G1 X113.159 Y97.32 E5.54577
G1 X113.159 Y97.886 E5.55612
G1 X112.339 Y97.065 E5.57735
G1 X112.339 Y97.631 E5.5877
G1 X113.159 Y98.451 E5.60892
G1 X113.159 Y99.017 E5.61927
G1 X112.339 Y98.197 E5.64048
G1 X112.339 Y98.763 E5.65084
G1 X113.159 Y99.583 E5.67205
G1 X113.159 Y100.148 E5.68239
G1 X112.339 Y99.328 E5.7036
G1 X112.339 Y99.894 E5.71396
G1 X113.159 Y100.714 E5.73517
G1 X113.159 Y101.28 E5.74552
G1 X112.339 Y100.46 E5.76674
G1 X112.339 Y101.025 E5.77707
G1 X113.159 Y101.846 E5.7983
G1 X113.159 Y102.411 E5.80863
G1 X112.339 Y101.591 E5.82985
G1 X112.339 Y102.157 E5.8402
G1 X113.159 Y102.977 E5.86142
G1 X113.159 Y103.543 E5.87177
G1 X112.339 Y102.722 E5.893
G1 X112.339 Y103.288 E5.90335
G1 X113.159 Y104.108 E5.92456
G1 X113.159 Y104.674 E5.93492
G1 X112.339 Y103.854 E5.95613
G1 X112.339 Y104.419 E5.96647
G1 X113.159 Y105.24 E5.98769
G1 X113.159 Y105.805 E5.99803
G1 X112.339 Y104.985 E6.01924
G1 X112.339 Y105.551 E6.0296
G1 X113.159 Y106.371 E6.05081
G1 X113.159 Y106.937 E6.06116
G1 X112.339 Y106.116 E6.08239
G1 X112.339 Y106.682 E6.09274
G1 X113.159 Y107.502 E6.11396
G1 X113.159 Y108.068 E6.12431
G1 X112.339 Y107.248 E6.14553
G1 X112.339 Y107.813 E6.15586
G1 X113.159 Y108.634 E6.17709
G1 X113.159 Y109.199 E6.18742
G1 X112.339 Y108.379 E6.20864
G1 X112.339 Y108.945 E6.21899
G1 X113.159 Y109.765 E6.2402
G1 X113.159 Y110.331 E6.25056
G1 X112.339 Y109.511 E6.27177
G1 X112.339 Y110.076 E6.28211
G1 X113.159 Y110.896 E6.30332
G1 X113.159 Y111.462 E6.31368
G1 X112.339 Y110.642 E6.33489
G1 X112.339 Y111.208 E6.34524
G1 X113.159 Y112.028 E6.36646
G1 X113.159 Y112.594 E6.37681
G1 X112.339 Y111.773 E6.39804
G1 X112.339 Y112.339 E6.40839
G1 X113.159 Y113.159 E6.4296
G1 X113.159 Y113.725 E6.43996
G1 X112.339 Y112.905 E6.46117
G1 X112.339 Y113.47 E6.47151
G1 X113.159 Y114.291 E6.49273
G1 X113.159 Y114.856 E6.50307
G1 X112.339 Y114.036 E6.52428
G1 X112.339 Y114.602 E6.53464
G1 X113.159 Y115.422 E6.55585
G1 X113.159 Y115.988 E6.5662
G1 X112.339 Y115.167 E6.58743
G1 X112.339 Y115.733 E6.59779
G1 X113.159 Y116.553 E6.619
G1 X113.159 Y117.119 E6.62935
G1 X112.339 Y116.299 E6.65057
G1 X112.339 Y116.864 E6.6609
G1 X113.159 Y117.685 E6.68213
G1 X113.159 Y118.25 E6.69246
G1 X112.339 Y117.43 E6.71368
G1 X112.339 Y117.996 E6.72403
G1 X113.159 Y118.816 E6.74525
G1 X113.159 Y119.382 E6.7556
G1 X112.339 Y118.562 E6.77681
G1 X112.339 Y119.127 E6.78715
G1 X113.159 Y119.947 E6.80836
G1 X113.159 Y120.513 E6.81872
G1 X112.339 Y119.693 E6.83993
G1 X112.339 Y120.259 E6.85028
G1 X113.159 Y121.079 E6.8715
G1 X113.159 Y121.644 E6.88183
G1 X112.339 Y120.824 E6.90305
G1 X112.339 Y121.39 E6.9134
G1 X113.159 Y122.21 E6.93461
G1 X113.159 Y122.776 E6.94497
G1 X112.339 Y121.956 E6.96618
G1 X112.339 Y122.521 E6.97652
G1 X113.159 Y123.342 E6.99774
G1 X113.159 Y123.907 E7.00808
G1 X112.339 Y123.087 E7.02929
G1 X112.339 Y123.653 E7.03965
G1 X113.159 Y124.473 E7.06086
G1 X113.159 Y125.039 E7.07121
G1 X112.339 Y124.218 E7.09244
G1 X112.339 Y124.784 E7.1028
G1 X113.159 Y125.604 E7.12401
G1 X113.159 Y126.17 E7.13436
G1 X112.339 Y125.35 E7.15558
G1 X112.339 Y125.915 E7.16591
G1 X113.159 Y126.736 E7.18714
G1 X113.159 Y127.301 E7.19747
G1 X112.339 Y126.481 E7.21869
G1 X112.339 Y127.047 E7.22904
G1 X113.159 Y127.867 E7.25026
G1 X113.159 Y128.433 E7.26061
G1 X112.339 Y127.612 E7.28184
G1 X112.339 Y128.178 E7.29219
G1 X113.159 Y128.998 E7.3134
G1 X113.159 Y129.564 E7.32376
G1 X112.339 Y128.744 E7.34497
G1 X112.339 Y129.31 E7.35532
G1 X113.159 Y130.13 E7.37654
G1 X113.159 Y130.695 E7.38687
G1 X112.339 Y129.875 E7.40809
G1 X112.339 Y130.441 E7.41844
G1 X113.159 Y131.261 E7.43966
G1 X113.159 Y131.827 E7.45001
G1 X112.339 Y131.007 E7.47122
G1 X112.339 Y131.572 E7.48156
G1 X113.159 Y132.393 E7.50278
G1 X113.159 Y132.452 E7.50386
G1 X112.653 Y132.452 E7.51312
G1 X112.34 Y132.453 E7.51885
G0 F3600 X112.339 Y132.138
G1 F1500 X112.653 Y132.452 E7.52697
;;retract;;
G1 F6000 E-0.47303
G0 F3600 X110.83 Y132.452
G0 X110.144 Y86.022
G0 X109.566 Y83.728
G0 X108.825 Y82.987
G0 X100.375 Y82.988
G0 X99.634 Y83.729
G0 X99.637 Y85.914
G0 X100.034 Y87.47
G0 X100.541 Y87.976
G0 X104.811 Y88.926
G0 X106.6 Y86.906
;TYPE:WALL-INNER
G1 F6000 E7.52697
G1 F1500 X106.6 Y86.722 E7.53034
G1 X101.3 Y86.712 E7.62729
G1 X101.3 Y86.686 E7.62776
G1 X106.6 Y86.692 E7.63459
G1 X106.784 Y86.692 E7.63685
G1 X107.9 Y86.694 E7.65727
G1 X107.9 Y132.693 E8.49873
G1 X106.799 Y132.694 E8.51887
G1 X106.6 Y132.694 E8.52251
G1 X106.6 Y132.495 E8.52487
G1 X106.6 Y86.906 E9.35883
G0 F3600 X106.2 Y87.121
;TYPE:WALL-OUTER
G1 F1500 X100.9 Y87.111 E9.45578
G1 X100.9 Y86.485 E9.46723
G1 X100.9 Y86.285 E9.47089
G1 X101.1 Y86.285 E9.47326
G1 X108.3 Y86.295 E9.60497
G1 X108.3 Y133.093 E10.46105
G1 X106.4 Y133.094 E10.49581
G1 X106.2 Y133.094 E10.49947
G1 X106.2 Y132.894 E10.50184
G1 X106.2 Y87.121 E11.33916
G0 F3600 X106 Y87.121
G0 X107.659 Y86.933
;TYPE:SKIN
G1 F1500 X107.298 Y86.933 E11.34577
G1 X107.659 Y87.295 E11.35512
G1 X107.659 Y87.86 E11.36546
G1 X106.839 Y87.04 E11.38667
G1 X106.839 Y87.606 E11.39702
G1 X107.659 Y88.426 E11.41824
G1 X107.659 Y88.992 E11.42859
G1 X106.839 Y88.171 E11.44982
G1 X106.839 Y88.737 E11.46017
G1 X107.659 Y89.557 E11.48139
G1 X107.659 Y90.123 E11.49174
G1 X106.839 Y89.303 E11.51295
G1 X106.839 Y89.869 E11.52331
G1 X107.659 Y90.689 E11.54452
G1 X107.659 Y91.254 E11.55486
G1 X106.839 Y90.434 E11.57607
G1 X106.839 Y91 E11.58642
G1 X107.659 Y91.82 E11.60764
G1 X107.659 Y92.386 E11.61799
G1 X106.839 Y91.566 E11.6392
G1 X106.839 Y92.131 E11.64954
G1 X107.659 Y92.952 E11.67077
G1 X107.659 Y93.517 E11.6811
G1 X106.839 Y92.697 E11.70232
G1 X106.839 Y93.263 E11.71267
G1 X107.659 Y94.083 E11.73388
G1 X107.659 Y94.649 E11.74424
G1 X106.839 Y93.828 E11.76546
G1 X106.839 Y94.394 E11.77582
G1 X107.659 Y95.214 E11.79703
G1 X107.659 Y95.78 E11.80739
G1 X106.839 Y94.96 E11.8286
G1 X106.839 Y95.525 E11.83893
G1 X107.659 Y96.346 E11.86016
G1 X107.659 Y96.911 E11.8705
G1 X106.839 Y96.091 E11.89171
G1 X106.839 Y96.657 E11.90206
G1 X107.659 Y97.477 E11.92328
G1 X107.659 Y98.043 E11.93363
G1 X106.839 Y97.222 E11.95486
G1 X106.839 Y97.788 E11.96521
G1 X107.659 Y98.608 E11.98643
G1 X107.659 Y99.174 E11.99678
G1 X106.839 Y98.354 E12.01799
G1 X106.839 Y98.919 E12.02833
G1 X107.659 Y99.74 E12.04956
