;FLAVOR:Marlin
;TIME:2288
;Filament used:0.606804m
;Layer height: 0.1
;MINX:105.33
;MINY:56.33
;MINZ:0.1
;MAXX:114.67
;MAXY:163.67
;MAXZ:2.9
                                 
;Creality Print GCode Generated by CXEngine:NO_MAGE_VERSION_GIT_HEAD_BRANCH
;CXEngine Release Time:2022-09-30 09:53:04
;Gcode Generated Time:2023-03-17 15:07:21
;----------Machine Config--------------
;Machine Name:Creality Ender-3
;Machine Height:250
;Machine Width:220
;Machine Depth:220
;Material name:PLA
;Number of Extruders:1
;ExtruderParams[0] Nozzle Diameter1000
;----------Profile Config---------------
;Engine Version:275f99b
;Engine Release Time:2022-09-30 09:42:18
;Layer Height:0.1
;Wall Thickness:0.8
;Top/Bottom Thickness:0.5
;Out Wall Line Width:0.4
;Inner Wall Line Width:0.4
;Inital Layer Height:100
;Wall Line Count:2
;Infill Line Distance:4
;Infill Pattern:grid
;Infill Sparse Density:20
;Infill Wipe Distance:0
;Print Temperature:200
;Bed Temperature:60
;Support Enable:true
;Support Density:0
;Support Angle:60
;Adhesion Type:none
;machine is belt:false
;machine belt offset:10
;machine belt offset Y:0
;Raft Base Line Spacing:1.6
;Wait Heatup Sync:true
;----------Shell Config----------------
;Outer Wall Wipe Distance:200
;Outer Inset First:false
;Infill Before Walls:false
;Infill Overlap:0.16
;Fill Gaps Between Walls:everywhere
;Minimum Infill Area:1
;Top Surface Skin Layer:0
;Top Layers:4
;Z Seam Alignment:sharpest_corner
;Seam Corner Preference:z_seam_corner_inner
;Z Seam X:110
;Z Seam Y:110
;Horizontal Expansion:0
;Top/Bottom Pattern:zigzag
;Ironing Pattern:zigzag
;Vase Model:false
;----------Support Config----------------
;Support Type:everywhere
;Support Pattern:zigzag
;Support Infill Layer Thickness:0.1
;Minimum Support Area:5
;Enable Support Roof:true
;Support Roof Thickness:0.8
;Support Roof Pattern:lines
;Connect Support Lines:0
;Connect Support ZigZags:0
;Minimum Support X/Y Distance:0.2
;Support Line Distance:0
; ---------PrintSpeed & Travel----------
;Enable Print Cool:true
;Avoid Printed Parts Traveling:true
;Enable Retraction:true
;Retraction Distance:8
;Retraction Speed:100
;Retraction Prime Speed:100
;Maximum Retraction Count:100
;Minimum Extrusion Distance Window:1
;Z Hop When Retracted:false
;Z Hop Height:0.2
;Retract Before Outer Wall:true
;Print Speed:50
;Infill Speed:50

;Prime Tower Speed:50
;Travel Speed:120
;Initial Layer Speed:25
;Skirt/Brim Speed:25
;Combing Mode:infill
; --------SpecialModel&Mesh Fixes--------
;Union Overlapping Volum:true
;Remove All Holes:false
;Maximum Travel Resolution:0.6
;Maximum Deviation:0.05
;Maximum Model Angle:0.872665
;IS Mold Print:false
;Make Overhang Printable:false
;Enable Coasting:false
;Coasting Volumes:0.06
;Coasting Speed:0.9
;Raft AirGap:0.25
;Layer0 ZOverLap:0.13
;---------------------End of Head--------------------------
M140 S60
M105
M104 S200
M105
M109 S200
M105
M190 S60
M82 ;absolute extrusion mode
M220 S100 ;Reset Feedrate
M221 S100 ;Reset Flowrate

G28 ;Home

G92 E0 ;Reset Extruder
G1 Z2.0 F3000 ;Move Z Axis up
G1 X10.1 Y20 Z0.28 F5000.0 ;Move to start position
G1 X10.1 Y145.0 Z0.28 F1500.0 E15 ;Draw the first line
G1 X10.4 Y145.0 Z0.28 F5000.0 ;Move to side a little
G1 X10.4 Y20 Z0.28 F1500.0 E30 ;Draw the second line
G92 E0  ;Reset Extruder
G1 E-1.0000 F1800 ;Retract a bit
G1 Z2.0 F3000 ;Move Z Axis up
G1 E0.0000 F1800 

G92 E0
G92 E0
G1 F6000 E-8

;LAYER_COUNT:29

;LAYER:0
M107
;MESH:
G0 F3600 X108.738 Y59.387 Z0.1
;TYPE:WALL-INNER
G1 F6000 E0
G1 F600 X109.087 Y59.953 E0.01216
G1 X109.668 Y60.277 E0.02433
G1 X110.332 Y60.277 E0.03648
G1 X110.913 Y59.953 E0.04865
G1 X111.262 Y59.387 E0.06081
G1 X111.29 Y58.721 E0.07301
G1 X110.99 Y58.129 E0.08515
G1 X110.77 Y57.98 E0.09001
G1 X110.482 Y57.784 E0.09638
G1 X110.163 Y57.704 E0.1024
G1 X109.56 Y57.755 E0.11347
G1 X109.233 Y57.977 E0.1207
G1 X109.01 Y58.129 E0.12563
G1 X108.71 Y58.721 E0.13777
G1 X108.738 Y59.387 E0.14997
G0 F3600 X109.133 Y59.266
;TYPE:WALL-OUTER
G1 F600 X109.373 Y59.654 E0.15831
G1 X109.772 Y59.877 E0.16668
G1 X110.228 Y59.877 E0.17502
G1 X110.627 Y59.654 E0.18338
G1 X110.867 Y59.266 E0.19173
G1 X110.886 Y58.809 E0.20009
G1 X110.68 Y58.402 E0.20844
G1 X110.316 Y58.155 E0.21648
G1 X110.13 Y58.108 E0.21999
G1 X109.698 Y58.145 E0.22792
G1 X109.32 Y58.402 E0.23629
G1 X109.114 Y58.809 E0.24463
G1 X109.133 Y59.266 E0.253
G0 F3600 X109.238 Y59.436
G0 X108.863 Y59.666
;;retract;;
G1 F6000 E-7.747
G0 F3600 X109.992 Y59.006
G0 X105.336 Y66.9
G0 X106.805 Y66.9
;TYPE:WALL-INNER
G1 F6000 E0.253
G1 F1500 X106.606 Y66.9 E0.25664
G1 X106.606 Y66.701 E0.25899
G1 X106.608 Y57.6 E0.42548
G1 X109.164 Y57.6 E0.47224
G1 X109.56 Y57.6 E0.47737
G1 X110.163 Y57.6 E0.48094
G1 X110.482 Y57.6 E0.48302
G1 X110.831 Y57.6 E0.48777
G1 X113.4 Y57.6 E0.53476
G1 X113.4 Y66.9 E0.70489
G1 X110.8 Y66.9 E0.75245
G1 X110.8 Y69.3 E0.79635
G1 X113.4 Y69.3 E0.84391
G1 X113.4 Y162.201 E2.54336
G1 X113.4 Y162.4 E2.547
G1 X113.201 Y162.4 E2.54935
G1 X110.867 Y162.397 E2.59205
G1 X110.332 Y162.397 E2.60184
G1 X109.668 Y162.396 E2.61398
G1 X109.129 Y162.396 E2.62384
G1 X106.6 Y162.392 E2.67011
G1 X106.6 Y101.496 E3.78408
G1 X106.606 Y69.3 E4.37305
G1 X109.2 Y69.3 E4.4205
G1 X109.2 Y66.9 E4.4644
G1 X106.805 Y66.9 E4.50821
G0 F3600 X106.8 Y67.3
;TYPE:WALL-OUTER
G1 F600 X106.8 Y68.9 E4.53748
G1 X108.8 Y68.9 E4.57407
G1 X108.8 Y67.3 E4.60334
G1 X106.8 Y67.3 E4.63992
G0 F3600 X106.8 Y67.5
;;retract;;
G1 F6000 E-3.36008
G0 F3600 X105.336 Y67.5
G0 X109.991 Y65.003
G0 X108.738 Y65.387
;TYPE:WALL-INNER
G1 F6000 E4.63992
G1 F600 X109.087 Y65.953 E4.65209
G1 X109.668 Y66.277 E4.66426
G1 X110.332 Y66.277 E4.6764
G1 X110.913 Y65.953 E4.68857
G1 X111.262 Y65.387 E4.70074
G1 X111.29 Y64.721 E4.71293
G1 X110.99 Y64.129 E4.72507
G1 X110.482 Y63.784 E4.7363
G1 X110.163 Y63.704 E4.74232
G1 X109.56 Y63.755 E4.75339
G1 X109.01 Y64.129 E4.76556
G1 X108.71 Y64.721 E4.7777
G1 X108.738 Y65.387 E4.78989
G0 F3600 X109.133 Y65.266
;TYPE:WALL-OUTER
G1 F600 X109.373 Y65.654 E4.79824
G1 X109.772 Y65.877 E4.8066
G1 X110.228 Y65.877 E4.81494
G1 X110.627 Y65.654 E4.8233
G1 X110.867 Y65.266 E4.83165
G1 X110.886 Y64.809 E4.84002
G1 X110.68 Y64.402 E4.84836
G1 X110.316 Y64.155 E4.85641
G1 X110.13 Y64.108 E4.85992
G1 X109.698 Y64.145 E4.86785
G1 X109.32 Y64.402 E4.87621
G1 X109.114 Y64.809 E4.88455
G1 X109.133 Y65.266 E4.89292
G0 F3600 X109.238 Y65.436
G0 X108.863 Y65.666
;;retract;;
G1 F6000 E-3.10708
G0 F3600 X111.2 Y67.3
G1 F6000 E4.89292
G1 F600 X111.2 Y68.9 E4.92219
G1 X113.2 Y68.9 E4.95878
G1 X113.2 Y67.3 E4.98805
G1 X111.2 Y67.3 E5.02463
G0 F3600 X111.2 Y67.5
G0 X110.76 Y67.5
;;retract;;
G1 F6000 E-2.97537
G0 F3600 X110.002 Y65.009
G0 X109.991 Y135.003
G0 X108.738 Y135.387
;TYPE:WALL-INNER
G1 F6000 E5.02463
G1 F600 X109.087 Y135.953 E5.0368
G1 X109.668 Y136.277 E5.04897
G1 X110.332 Y136.277 E5.06111
G1 X110.913 Y135.953 E5.07328
G1 X111.262 Y135.387 E5.08544
G1 X111.29 Y134.721 E5.09764
G1 X110.99 Y134.129 E5.10978
G1 X110.482 Y133.784 E5.12101
G1 X110.163 Y133.704 E5.12703
G1 X109.56 Y133.755 E5.1381
G1 X109.01 Y134.129 E5.15027
G1 X108.71 Y134.721 E5.16241
G1 X108.738 Y135.387 E5.1746
G0 F3600 X109.133 Y135.266
;TYPE:WALL-OUTER
G1 F600 X109.373 Y135.654 E5.18295
G1 X109.772 Y135.877 E5.19131
G1 X110.228 Y135.877 E5.19965
G1 X110.627 Y135.654 E5.20801
G1 X110.867 Y135.266 E5.21636
G1 X110.886 Y134.809 E5.22472
G1 X110.68 Y134.402 E5.23307
G1 X110.316 Y134.155 E5.24112
G1 X110.13 Y134.108 E5.24463
G1 X109.698 Y134.145 E5.25256
G1 X109.32 Y134.402 E5.26092
G1 X109.114 Y134.809 E5.26926
G1 X109.133 Y135.266 E5.27763
G0 F3600 X109.238 Y135.436
G0 X108.863 Y135.666
;;retract;;
G1 F6000 E-2.72237
G0 F3600 X109.992 Y135.006
G0 X109.991 Y155.003
G0 X108.738 Y155.387
;TYPE:WALL-INNER
G1 F6000 E5.27763
G1 F600 X109.087 Y155.953 E5.28979
G1 X109.668 Y156.277 E5.30196
G1 X110.332 Y156.277 E5.31411
G1 X110.913 Y155.953 E5.32628
G1 X111.262 Y155.387 E5.33844
G1 X111.29 Y154.721 E5.35064
G1 X110.99 Y154.129 E5.36278
G1 X110.482 Y153.784 E5.37401
G1 X110.163 Y153.704 E5.38003
G1 X109.56 Y153.755 E5.3911
G1 X109.01 Y154.129 E5.40326
G1 X108.71 Y154.721 E5.41541
G1 X108.738 Y155.387 E5.4276
G0 F3600 X109.133 Y155.266
;TYPE:WALL-OUTER
G1 F600 X109.373 Y155.654 E5.43594
G1 X109.772 Y155.877 E5.44431
G1 X110.228 Y155.877 E5.45265
G1 X110.627 Y155.654 E5.46101
G1 X110.867 Y155.266 E5.46936
G1 X110.886 Y154.809 E5.47772
G1 X110.68 Y154.402 E5.48607
G1 X110.316 Y154.155 E5.49411
G1 X110.13 Y154.108 E5.49762
G1 X109.698 Y154.145 E5.50556
G1 X109.32 Y154.402 E5.51392
G1 X109.114 Y154.809 E5.52226
G1 X109.133 Y155.266 E5.53063
G0 F3600 X109.238 Y155.436
G0 X108.863 Y155.666
;;retract;;
G1 F6000 E-2.46937
G0 F3600 X109.992 Y155.006
G0 X109.991 Y161.003
G0 X108.738 Y161.387
;TYPE:WALL-INNER
G1 F6000 E5.53063
G1 F600 X109.087 Y161.953 E5.54279
G1 X109.198 Y162.015 E5.54512
G1 X109.668 Y162.277 E5.55162
G1 X110.332 Y162.277 E5.55525
G1 X110.799 Y162.017 E5.56172
G1 X110.913 Y161.953 E5.56411
G1 X111.262 Y161.387 E5.57628
G1 X111.29 Y160.721 E5.58847
G1 X110.99 Y160.129 E5.60061
G1 X110.482 Y159.784 E5.61184
G1 X110.163 Y159.704 E5.61786
G1 X109.56 Y159.755 E5.62893
G1 X109.01 Y160.129 E5.6411
G1 X108.71 Y160.721 E5.65324
G1 X108.738 Y161.387 E5.66543
G0 F3600 X109.133 Y161.266
;TYPE:WALL-OUTER
G1 F600 X109.373 Y161.654 E5.67378
G1 X109.772 Y161.877 E5.68214
G1 X110.228 Y161.877 E5.69048
G1 X110.627 Y161.654 E5.69884
G1 X110.867 Y161.266 E5.70719
G1 X110.886 Y160.809 E5.71555
G1 X110.68 Y160.402 E5.7239
G1 X110.316 Y160.155 E5.73195
G1 X110.13 Y160.108 E5.73546
G1 X109.698 Y160.145 E5.74339
G1 X109.32 Y160.402 E5.75175
G1 X109.114 Y160.809 E5.76009
G1 X109.133 Y161.266 E5.76846
G0 F3600 X109.238 Y161.436
G0 X108.863 Y161.666
;;retract;;
G1 F6000 E-2.23154
G0 F3600 X109.992 Y161.006
G0 X114.67 Y162.6
G0 X113.8 Y162.6
G1 F6000 E5.76846
G1 F1500 X113.8 Y162.8 E5.77212
G1 X113.6 Y162.8 E5.77449
G1 X106.2 Y162.792 E5.90986
G1 X106.2 Y101.496 E7.03115
G1 X106.208 Y57.2 E7.84146
G1 X113.8 Y57.2 E7.98034
G1 X113.8 Y162.6 E9.90843
G0 F3600 X113.8 Y162.8
;;retract;;
G1 F6000 E1.90843
G0 F3600 X113.8 Y163.67
G0 X106.839 Y163.663
G0 X106.84 Y162.151
;TYPE:SKIN
G1 F6000 E9.90843
G1 F600 X107.28 Y162.151 E9.91648
G1 X107.846 Y162.152 E9.92683
G1 X106.839 Y161.145 E9.95288
G1 X106.839 Y160.579 E9.96324
G1 X108.412 Y162.153 E10.00395
G1 X108.955 Y162.154 E10.01388
G1 X108.914 Y162.131 E10.01474
G1 X108.847 Y162.021 E10.0171
G1 X106.839 Y160.014 E10.06903
G1 X106.839 Y159.448 E10.07938
G1 X108.485 Y161.094 E10.12197
G1 X108.468 Y160.666 E10.1298
G1 X108.521 Y160.564 E10.1319
G1 X106.839 Y158.882 E10.17542
G1 X106.839 Y158.316 E10.18577
G1 X108.711 Y160.188 E10.2342
G1 X108.824 Y159.965 E10.23877
G1 X108.96 Y159.871 E10.2418
G1 X106.839 Y157.751 E10.29666
G1 X106.839 Y157.185 E10.30701
G1 X109.296 Y159.642 E10.37057
G1 X109.477 Y159.52 E10.37457
G1 X109.719 Y159.499 E10.37901
G1 X106.839 Y156.619 E10.45352
G1 X106.839 Y156.054 E10.46385
G1 X110.268 Y159.482 E10.55255
G0 F3600 X110.581 Y159.561
G1 F600 X111.176 Y159.965 E10.56571
G1 X111.531 Y160.667 E10.5801
G1 X111.528 Y160.743 E10.58149
G1 X111.506 Y161.286 E10.59143
G1 X112.377 Y162.157 E10.61396
G1 X111.811 Y162.157 E10.62432
G1 X111.351 Y161.697 E10.63622
G1 X111.135 Y162.047 E10.64374
G1 X111.244 Y162.156 E10.64656
G1 X111.039 Y162.156 E10.65031
G1 X111.085 Y162.131 E10.65127
G0 F3600 X111.528 Y160.743
G1 F600 X112.944 Y162.158 E10.68789
G1 X113.159 Y162.159 E10.69182
G1 X113.159 Y161.808 E10.69824
G1 F1500 X106.839 Y155.488 E10.86174
G1 F600 X106.839 Y154.922 E10.87209
G1 F1500 X113.159 Y161.242 E11.0356
G1 F600 X113.159 Y160.677 E11.04593
G1 F1500 X106.839 Y154.357 E11.20943
G1 F600 X106.839 Y153.791 E11.21978
G1 X108.499 Y155.451 E11.26273
G1 X108.476 Y154.862 E11.27351
G1 X106.839 Y153.225 E11.31586
G1 X106.839 Y152.66 E11.3262
G1 X108.596 Y154.416 E11.37164
G1 X108.786 Y154.041 E11.37933
G1 X106.839 Y152.094 E11.4297
G1 X106.839 Y151.528 E11.44005
G1 X109.092 Y153.781 E11.49834
G1 X109.429 Y153.552 E11.50579
G1 X106.839 Y150.963 E11.57278
G1 X106.839 Y150.397 E11.58314
G1 X109.924 Y153.482 E11.66295
G1 X110.182 Y153.461 E11.66768
G1 X110.564 Y153.556 E11.67488
G1 X106.839 Y149.831 E11.77125
G1 X106.839 Y149.265 E11.7816
G1 F1500 X113.159 Y155.586 E11.94512
G1 F600 X113.159 Y155.02 E11.95547
G1 F1500 X106.839 Y148.7 E12.11897
G1 F600 X106.839 Y148.134 E12.12933
G1 F1500 X113.159 Y154.454 E12.29283
G1 F600 X113.159 Y153.889 E12.30316
G1 F1500 X106.839 Y147.568 E12.46667
G1 F600 X106.839 Y147.003 E12.47701
G1 F1500 X113.159 Y153.323 E12.64051
G1 F600 X113.159 Y152.757 E12.65086
G1 F1500 X106.839 Y146.437 E12.81436
G1 F600 X106.839 Y145.871 E12.82472
G1 F1500 X113.159 Y152.192 E12.98823
G1 F600 X113.159 Y151.626 E12.99859
G1 F1500 X106.839 Y145.306 E13.16209
G1 F600 X106.839 Y144.74 E13.17244
G1 F1500 X113.159 Y151.06 E13.33594
G1 F600 X113.159 Y150.494 E13.34629
G1 F1500 X106.839 Y144.174 E13.50979
G1 F600 X106.839 Y143.609 E13.52013
G1 F1500 X113.159 Y149.929 E13.68363
G1 F600 X113.159 Y149.363 E13.69398
G1 F1500 X106.839 Y143.043 E13.85749
G1 F600 X106.839 Y142.477 E13.86784
G1 F1500 X113.159 Y148.797 E14.03134
G1 F600 X113.159 Y148.232 E14.04167
G1 F1500 X106.839 Y141.912 E14.20518
G1 F600 X106.839 Y141.346 E14.21553
G1 F1500 X113.159 Y147.666 E14.37903
G1 F600 X113.159 Y147.1 E14.38938
G1 F1500 X106.839 Y140.78 E14.55288
G1 F600 X106.839 Y140.215 E14.56322
G1 F1500 X113.159 Y146.535 E14.72672
G1 F600 X113.159 Y145.969 E14.73707
G1 F1500 X106.839 Y139.649 E14.90057
G1 F600 X106.839 Y139.083 E14.91093
G1 F1500 X113.159 Y145.403 E15.07443
G1 F600 X113.159 Y144.838 E15.08476
G1 F1500 X106.839 Y138.517 E15.24828
G1 F600 X106.839 Y137.952 E15.25861
G1 F1500 X113.159 Y144.272 E15.42211
G1 F600 X113.159 Y143.706 E15.43247
G1 F1500 X106.839 Y137.386 E15.59597
G1 F600 X106.839 Y136.82 E15.60632
G1 F1500 X113.159 Y143.141 E15.76983
G1 F600 X113.159 Y142.575 E15.78019
G1 F1500 X106.839 Y136.255 E15.94369
G1 F600 X106.839 Y135.689 E15.95404
G1 F1500 X113.159 Y142.009 E16.11754
G1 F600 X113.159 Y141.443 E16.1279
G1 F1500 X106.839 Y135.123 E16.2914
G1 F600 X106.839 Y134.558 E16.30173
G1 F1500 X113.159 Y140.878 E16.46523
G1 F600 X113.159 Y140.312 E16.47559
G1 X109.058 Y136.211 E16.58168
G1 X109.606 Y136.516 E16.59315
G1 X109.928 Y136.516 E16.59904
G1 X113.159 Y139.746 E16.68262
G1 X113.159 Y139.181 E16.69295
G1 X110.459 Y136.48 E16.76282
G1 X110.822 Y136.277 E16.77043
G1 X113.159 Y138.615 E16.8309
G1 X113.159 Y138.049 E16.84125
G1 X111.144 Y136.034 E16.89338
G1 X111.36 Y135.684 E16.9009
G1 X113.159 Y137.484 E16.94746
G1 X113.159 Y136.918 E16.95781
G1 X111.507 Y135.265 E17.00056
G1 X111.529 Y134.722 E17.0105
G1 X111.531 Y134.667 E17.01151
G1 X111.176 Y133.964 E17.02592
G1 X110.581 Y133.561 E17.03906
G0 F3600 X110.296 Y133.489
G1 F600 X106.838 Y130.031 E17.12852
G1 X106.838 Y130.597 E17.13888
G1 X109.739 Y133.498 E17.21393
G1 X109.477 Y133.52 E17.21874
G1 X109.309 Y133.633 E17.22244
G1 X106.838 Y131.163 E17.28635
G1 X106.838 Y131.729 E17.29671
G1 X108.972 Y133.863 E17.35191
G1 X108.823 Y133.965 E17.35522
G1 X108.718 Y134.174 E17.35949
G1 X106.839 Y132.295 E17.4081
G1 X106.839 Y132.861 E17.41846
G1 X108.528 Y134.549 E17.46214
G1 X108.468 Y134.667 E17.46456
G1 X108.484 Y135.071 E17.47196
G1 X106.839 Y133.426 E17.51452
G1 X106.839 Y133.992 E17.52487
G1 X108.812 Y135.965 E17.57591
G1 X108.914 Y136.131 E17.57948
G0 F3600 X111.529 Y134.722
G1 F600 X113.159 Y136.352 E17.62164
G1 X113.159 Y135.787 E17.63198
G1 F1500 X106.838 Y129.466 E17.79551
G1 F600 X106.838 Y128.9 E17.80586
G1 F1500 X113.159 Y135.221 E17.96939
G1 F600 X113.159 Y134.655 E17.97974
G1 F1500 X106.838 Y128.334 E18.14327
G1 F600 X106.838 Y127.769 E18.1536
G1 F1500 X113.159 Y134.09 E18.31713
G1 F600 X113.159 Y133.524 E18.32748
G1 F1500 X106.838 Y127.203 E18.49101
G1 F600 X106.838 Y126.637 E18.50136
G1 F1500 X113.159 Y132.958 E18.66489
G1 F600 X113.159 Y132.393 E18.67522
G1 F1500 X106.838 Y126.072 E18.83875
G1 F600 X106.838 Y125.506 E18.8491
G1 F1500 X113.159 Y131.827 E19.01263
G1 F600 X113.159 Y131.261 E19.02298
G1 F1500 X106.838 Y124.94 E19.18651
G1 F600 X106.838 Y124.375 E19.19685
