;FLAVOR:Marlin
;TIME:2083
;Filament used:0.598394m
;Layer height: 0.1
;MINX:105.33
;MINY:56.33
;MINZ:0.1
;MAXX:114.67
;MAXY:163.67
;MAXZ:2.9
                                 
;Creality Print GCode Generated by CXEngine:NO_MAGE_VERSION_GIT_HEAD_BRANCH
;CXEngine Release Time:2022-09-30 09:53:04
;Gcode Generated Time:2023-03-17 15:06:35
;----------Machine Config--------------
;Machine Name:Creality Ender-3
;Machine Height:250
;Machine Width:220
;Machine Depth:220
;Material name:PLA
;Number of Extruders:1
;ExtruderParams[0] Nozzle Diameter1000
;----------Profile Config---------------
;Engine Version:275f99b
;Engine Release Time:2022-09-30 09:42:18
;Layer Height:0.1
;Wall Thickness:0.8
;Top/Bottom Thickness:0.5
;Out Wall Line Width:0.4
;Inner Wall Line Width:0.4
;Inital Layer Height:100
;Wall Line Count:2
;Infill Line Distance:4
;Infill Pattern:grid
;Infill Sparse Density:20
;Infill Wipe Distance:0
;Print Temperature:200
;Bed Temperature:60
;Support Enable:true
;Support Density:0
;Support Angle:60
;Adhesion Type:none
;machine is belt:false
;machine belt offset:10
;machine belt offset Y:0
;Raft Base Line Spacing:1.6
;Wait Heatup Sync:true
;----------Shell Config----------------
;Outer Wall Wipe Distance:200
;Outer Inset First:false
;Infill Before Walls:false
;Infill Overlap:0.16
;Fill Gaps Between Walls:everywhere
;Minimum Infill Area:1
;Top Surface Skin Layer:0
;Top Layers:4
;Z Seam Alignment:sharpest_corner
;Seam Corner Preference:z_seam_corner_inner
;Z Seam X:110
;Z Seam Y:110
;Horizontal Expansion:0
;Top/Bottom Pattern:zigzag
;Ironing Pattern:zigzag
;Vase Model:false
;----------Support Config----------------
;Support Type:everywhere
;Support Pattern:zigzag
;Support Infill Layer Thickness:0.1
;Minimum Support Area:5
;Enable Support Roof:true
;Support Roof Thickness:0.8
;Support Roof Pattern:lines
;Connect Support Lines:0
;Connect Support ZigZags:0
;Minimum Support X/Y Distance:0.2
;Support Line Distance:0
; ---------PrintSpeed & Travel----------
;Enable Print Cool:true
;Avoid Printed Parts Traveling:true
;Enable Retraction:true
;Retraction Distance:8
;Retraction Speed:100
;Retraction Prime Speed:100
;Maximum Retraction Count:100
;Minimum Extrusion Distance Window:1
;Z Hop When Retracted:false
;Z Hop Height:0.2
;Retract Before Outer Wall:true
;Print Speed:50
;Infill Speed:50

;Prime Tower Speed:50
;Travel Speed:120
;Initial Layer Speed:25
;Skirt/Brim Speed:25
;Combing Mode:infill
; --------SpecialModel&Mesh Fixes--------
;Union Overlapping Volum:true
;Remove All Holes:false
;Maximum Travel Resolution:0.6
;Maximum Deviation:0.05
;Maximum Model Angle:0.872665
;IS Mold Print:false
;Make Overhang Printable:false
;Enable Coasting:false
;Coasting Volumes:0.06
;Coasting Speed:0.9
;Raft AirGap:0.25
;Layer0 ZOverLap:0.13
;---------------------End of Head--------------------------
M140 S60
M105
M104 S200
M105
M109 S200
M105
M190 S60
M82 ;absolute extrusion mode
M220 S100 ;Reset Feedrate
M221 S100 ;Reset Flowrate

G28 ;Home

G92 E0 ;Reset Extruder
G1 Z2.0 F3000 ;Move Z Axis up
G1 X10.1 Y20 Z0.28 F5000.0 ;Move to start position
G1 X10.1 Y145.0 Z0.28 F1500.0 E15 ;Draw the first line
G1 X10.4 Y145.0 Z0.28 F5000.0 ;Move to side a little
G1 X10.4 Y20 Z0.28 F1500.0 E30 ;Draw the second line
G92 E0  ;Reset Extruder
G1 E-1.0000 F1800 ;Retract a bit
G1 Z2.0 F3000 ;Move Z Axis up
G1 E0.0000 F1800 

G92 E0
G92 E0
G1 F6000 E-8

;LAYER_COUNT:29

;LAYER:0
M107
;MESH:
G0 F3600 X108.738 Y59.387 Z0.1
;TYPE:WALL-INNER
G1 F6000 E0
G1 F600 X109.087 Y59.953 E0.01216
G1 X109.668 Y60.277 E0.02433
G1 X110.332 Y60.277 E0.03648
G1 X110.913 Y59.953 E0.04865
G1 X111.262 Y59.387 E0.06081
G1 X111.29 Y58.721 E0.07301
G1 X110.99 Y58.129 E0.08515
G1 X110.77 Y57.98 E0.09001
G1 X110.482 Y57.784 E0.09638
G1 X110.163 Y57.704 E0.1024
G1 X109.56 Y57.755 E0.11347
G1 X109.233 Y57.977 E0.1207
G1 X109.01 Y58.129 E0.12563
G1 X108.71 Y58.721 E0.13777
G1 X108.738 Y59.387 E0.14997
G0 F3600 X109.133 Y59.266
;TYPE:WALL-OUTER
G1 F600 X109.373 Y59.654 E0.15831
G1 X109.772 Y59.877 E0.16668
G1 X110.228 Y59.877 E0.17502
G1 X110.627 Y59.654 E0.18338
G1 X110.867 Y59.266 E0.19173
G1 X110.886 Y58.809 E0.20009
G1 X110.68 Y58.402 E0.20844
G1 X110.316 Y58.155 E0.21648
G1 X110.13 Y58.108 E0.21999
G1 X109.698 Y58.145 E0.22792
G1 X109.32 Y58.402 E0.23629
G1 X109.114 Y58.809 E0.24463
G1 X109.133 Y59.266 E0.253
G0 F3600 X109.238 Y59.436
G0 X108.863 Y59.666
;;retract;;
G1 F6000 E-7.747
G0 F3600 X109.992 Y59.006
G0 X109.991 Y65.003
G0 X108.738 Y65.387
;TYPE:WALL-INNER
G1 F6000 E0.253
G1 F600 X109.087 Y65.953 E0.26516
G1 X109.668 Y66.277 E0.27733
G1 X110.332 Y66.277 E0.28948
G1 X110.913 Y65.953 E0.30165
G1 X111.262 Y65.387 E0.31381
G1 X111.29 Y64.721 E0.32601
G1 X110.99 Y64.129 E0.33815
G1 X110.482 Y63.784 E0.34938
G1 X110.163 Y63.704 E0.3554
G1 X109.56 Y63.755 E0.36647
G1 X109.01 Y64.129 E0.37863
G1 X108.71 Y64.721 E0.39077
G1 X108.738 Y65.387 E0.40297
G0 F3600 X109.133 Y65.266
;TYPE:WALL-OUTER
G1 F600 X109.373 Y65.654 E0.41131
G1 X109.772 Y65.877 E0.41967
G1 X110.228 Y65.877 E0.42802
G1 X110.627 Y65.654 E0.43638
G1 X110.867 Y65.266 E0.44472
G1 X110.886 Y64.809 E0.45309
G1 X110.68 Y64.402 E0.46144
G1 X110.316 Y64.155 E0.46948
G1 X110.13 Y64.108 E0.47299
G1 X109.698 Y64.145 E0.48092
G1 X109.32 Y64.402 E0.48928
G1 X109.114 Y64.809 E0.49763
G1 X109.133 Y65.266 E0.506
G0 F3600 X109.238 Y65.436
G0 X108.863 Y65.666
;;retract;;
G1 F6000 E-7.494
G0 F3600 X109.992 Y65.006
G0 X109.991 Y135.003
G0 X108.738 Y135.387
;TYPE:WALL-INNER
G1 F6000 E0.506
G1 F600 X109.087 Y135.953 E0.51816
G1 X109.668 Y136.277 E0.53033
G1 X110.332 Y136.277 E0.54248
G1 X110.913 Y135.953 E0.55465
G1 X111.262 Y135.387 E0.56681
G1 X111.29 Y134.721 E0.579
G1 X110.99 Y134.129 E0.59114
G1 X110.482 Y133.784 E0.60238
G1 X110.163 Y133.704 E0.60839
G1 X109.56 Y133.755 E0.61946
G1 X109.01 Y134.129 E0.63163
G1 X108.71 Y134.721 E0.64377
G1 X108.738 Y135.387 E0.65597
G0 F3600 X109.133 Y135.266
;TYPE:WALL-OUTER
G1 F600 X109.373 Y135.654 E0.66431
G1 X109.772 Y135.877 E0.67267
G1 X110.228 Y135.877 E0.68101
G1 X110.627 Y135.654 E0.68938
G1 X110.867 Y135.266 E0.69772
G1 X110.886 Y134.809 E0.70609
G1 X110.68 Y134.402 E0.71443
G1 X110.316 Y134.155 E0.72248
G1 X110.13 Y134.108 E0.72599
G1 X109.698 Y134.145 E0.73392
G1 X109.32 Y134.402 E0.74228
G1 X109.114 Y134.809 E0.75063
G1 X109.133 Y135.266 E0.75899
G0 F3600 X109.238 Y135.436
G0 X108.863 Y135.666
;;retract;;
G1 F6000 E-7.24101
G0 F3600 X109.992 Y135.006
G0 X109.991 Y155.003
G0 X108.738 Y155.387
;TYPE:WALL-INNER
G1 F6000 E0.75899
G1 F600 X109.087 Y155.953 E0.77116
G1 X109.668 Y156.277 E0.78333
G1 X110.332 Y156.277 E0.79547
G1 X110.913 Y155.953 E0.80764
G1 X111.262 Y155.387 E0.81981
G1 X111.29 Y154.721 E0.832
G1 X110.99 Y154.129 E0.84414
G1 X110.482 Y153.784 E0.85538
G1 X110.163 Y153.704 E0.86139
G1 X109.56 Y153.755 E0.87246
G1 X109.01 Y154.129 E0.88463
G1 X108.71 Y154.721 E0.89677
G1 X108.738 Y155.387 E0.90896
G0 F3600 X109.133 Y155.266
;TYPE:WALL-OUTER
G1 F600 X109.373 Y155.654 E0.91731
G1 X109.772 Y155.877 E0.92567
G1 X110.228 Y155.877 E0.93401
G1 X110.627 Y155.654 E0.94237
G1 X110.867 Y155.266 E0.95072
G1 X110.886 Y154.809 E0.95909
G1 X110.68 Y154.402 E0.96743
G1 X110.316 Y154.155 E0.97548
G1 X110.13 Y154.108 E0.97899
G1 X109.698 Y154.145 E0.98692
G1 X109.32 Y154.402 E0.99528
G1 X109.114 Y154.809 E1.00363
G1 X109.133 Y155.266 E1.01199
G0 F3600 X109.238 Y155.436
G0 X108.863 Y155.666
;;retract;;
G1 F6000 E-6.98801
G0 F3600 X109.992 Y155.006
G0 X109.991 Y161.003
G0 X108.738 Y161.387
;TYPE:WALL-INNER
G1 F6000 E1.01199
G1 F600 X109.087 Y161.953 E1.02416
G1 X109.205 Y162.019 E1.02663
G1 X109.668 Y162.277 E1.03633
G1 X110.332 Y162.277 E1.04847
G1 X110.795 Y162.019 E1.05817
G1 X110.913 Y161.953 E1.06064
G1 X111.262 Y161.387 E1.07281
G1 X111.29 Y160.721 E1.085
G1 X110.99 Y160.129 E1.09714
G1 X110.482 Y159.784 E1.10837
G1 X110.163 Y159.704 E1.11439
G1 X109.56 Y159.755 E1.12546
G1 X109.01 Y160.129 E1.13763
G1 X108.71 Y160.721 E1.14977
G1 X108.738 Y161.387 E1.16196
G0 F3600 X109.133 Y161.266
;TYPE:WALL-OUTER
G1 F600 X109.373 Y161.654 E1.17031
G1 X109.772 Y161.877 E1.17867
G1 X110.228 Y161.877 E1.18701
G1 X110.627 Y161.654 E1.19537
G1 X110.867 Y161.266 E1.20372
G1 X110.886 Y160.809 E1.21209
G1 X110.68 Y160.402 E1.22043
G1 X110.316 Y160.155 E1.22848
G1 X110.13 Y160.108 E1.23199
G1 X109.698 Y160.145 E1.23992
G1 X109.32 Y160.402 E1.24828
G1 X109.114 Y160.809 E1.25662
G1 X109.133 Y161.266 E1.26499
G0 F3600 X109.238 Y161.436
G0 X108.863 Y161.666
;;retract;;
G1 F6000 E-6.73501
G0 F3600 X109.992 Y161.006
G0 X113.4 Y163.67
G0 X113.4 Y162.4
;TYPE:WALL-INNER
G1 F6000 E1.26499
G1 F1500 X110.862 Y162.4 E1.31142
G1 X110.332 Y162.4 E1.31787
G1 X109.668 Y162.4 E1.32162
G1 X109.138 Y162.4 E1.32807
G1 X106.6 Y162.4 E1.3745
G1 X106.6 Y57.6 E3.29161
G1 X109.164 Y57.6 E3.33851
G1 X109.56 Y57.6 E3.34364
G1 X110.163 Y57.6 E3.34722
G1 X110.482 Y57.6 E3.3493
G1 X110.831 Y57.6 E3.35404
G1 X113.4 Y57.6 E3.40104
G1 X113.4 Y162.4 E5.31815
G0 F3600 X113.8 Y162.8
;TYPE:WALL-OUTER
G1 F1500 X106.2 Y162.8 E5.45718
G1 X106.2 Y57.2 E7.38893
G1 X113.8 Y57.2 E7.52796
G1 X113.8 Y162.8 E9.45971
G0 F3600 X113.6 Y162.8
G0 X113.36 Y162.36
;;retract;;
G1 F6000 E1.45971
G0 F3600 X113.36 Y163.67
G0 X106.839 Y163.67
G0 X106.839 Y162.159
;TYPE:SKIN
G1 F6000 E9.45971
G1 F600 X107.287 Y162.159 E9.4679
G1 X107.853 Y162.159 E9.47825
G1 X106.839 Y161.145 E9.50449
G1 X106.839 Y160.579 E9.51484
G1 X108.419 Y162.159 E9.55572
G1 X108.966 Y162.159 E9.56572
G1 X108.914 Y162.131 E9.5668
G1 X108.847 Y162.021 E9.56916
G1 X106.839 Y160.014 E9.62109
G1 X106.839 Y159.448 E9.63145
G1 X108.485 Y161.094 E9.67403
G1 X108.468 Y160.666 E9.68187
G1 X108.521 Y160.564 E9.68397
G1 X106.839 Y158.882 E9.72748
G1 X106.839 Y158.316 E9.73784
G1 X108.711 Y160.188 E9.78627
G1 X108.824 Y159.965 E9.79084
G1 X108.96 Y159.871 E9.79386
G1 X106.839 Y157.751 E9.84872
G1 X106.839 Y157.185 E9.85908
G1 X109.296 Y159.642 E9.92264
G1 X109.477 Y159.52 E9.92663
G1 X109.719 Y159.499 E9.93107
G1 X106.839 Y156.619 E10.00558
G1 X106.839 Y156.054 E10.01592
G1 X110.268 Y159.482 E10.10461
G0 F3600 X110.581 Y159.561
G1 F600 X111.176 Y159.965 E10.11777
G1 X111.531 Y160.667 E10.13216
G1 X111.528 Y160.743 E10.13355
G1 X111.506 Y161.286 E10.14349
G1 X112.379 Y162.159 E10.16608
G1 X111.813 Y162.159 E10.17643
G1 X111.351 Y161.697 E10.18838
G1 X111.135 Y162.047 E10.19591
G1 X111.247 Y162.159 E10.1988
G1 X111.034 Y162.159 E10.2027
G1 X111.085 Y162.131 E10.20377
G0 F3600 X111.528 Y160.743
G1 F600 X112.944 Y162.159 E10.2404
G1 X113.159 Y162.159 E10.24433
G1 X113.159 Y161.808 E10.25075
G1 F1500 X106.839 Y155.488 E10.41425
G1 F600 X106.839 Y154.922 E10.42461
G1 F1500 X113.159 Y161.242 E10.58811
G1 F600 X113.159 Y160.677 E10.59844
G1 F1500 X106.839 Y154.357 E10.76194
G1 F600 X106.839 Y153.791 E10.7723
G1 X108.499 Y155.451 E10.81524
G1 X108.476 Y154.862 E10.82602
G1 X106.839 Y153.225 E10.86837
G1 X106.839 Y152.66 E10.87871
G1 X108.596 Y154.416 E10.92415
G1 X108.786 Y154.041 E10.93184
G1 X106.839 Y152.094 E10.98221
G1 X106.839 Y151.528 E10.99256
G1 X109.092 Y153.781 E11.05085
G1 X109.429 Y153.552 E11.0583
G1 X106.839 Y150.963 E11.12529
G1 X106.839 Y150.397 E11.13565
G1 X109.924 Y153.482 E11.21546
G1 X110.182 Y153.461 E11.22019
G1 X110.564 Y153.556 E11.22739
G1 X106.839 Y149.831 E11.32376
G1 X106.839 Y149.265 E11.33411
G1 F1500 X113.159 Y155.586 E11.49763
G1 F600 X113.159 Y155.02 E11.50798
G1 F1500 X106.839 Y148.7 E11.67148
G1 F600 X106.839 Y148.134 E11.68184
G1 F1500 X113.159 Y154.454 E11.84534
G1 F600 X113.159 Y153.889 E11.85567
G1 F1500 X106.839 Y147.568 E12.01919
G1 F600 X106.839 Y147.003 E12.02952
G1 F1500 X113.159 Y153.323 E12.19302
G1 F600 X113.159 Y152.757 E12.20338
G1 F1500 X106.839 Y146.437 E12.36688
G1 F600 X106.839 Y145.871 E12.37723
G1 F1500 X113.159 Y152.192 E12.54074
G1 F600 X113.159 Y151.626 E12.5511
G1 F1500 X106.839 Y145.306 E12.7146
G1 F600 X106.839 Y144.74 E12.72495
G1 F1500 X113.159 Y151.06 E12.88845
G1 F600 X113.159 Y150.494 E12.89881
G1 F1500 X106.839 Y144.174 E13.06231
G1 F600 X106.839 Y143.609 E13.07264
G1 F1500 X113.159 Y149.929 E13.23614
G1 F600 X113.159 Y149.363 E13.2465
G1 F1500 X106.839 Y143.043 E13.41
G1 F600 X106.839 Y142.477 E13.42035
G1 F1500 X113.159 Y148.797 E13.58385
G1 F600 X113.159 Y148.232 E13.59419
G1 F1500 X106.839 Y141.912 E13.75769
G1 F600 X106.839 Y141.346 E13.76804
G1 F1500 X113.159 Y147.666 E13.93154
G1 F600 X113.159 Y147.1 E13.94189
G1 F1500 X106.839 Y140.78 E14.1054
G1 F600 X106.839 Y140.215 E14.11573
G1 F1500 X113.159 Y146.535 E14.27923
G1 F600 X113.159 Y145.969 E14.28958
G1 F1500 X106.839 Y139.649 E14.45309
G1 F600 X106.839 Y139.083 E14.46344
G1 F1500 X113.159 Y145.403 E14.62694
G1 F600 X113.159 Y144.838 E14.63728
G1 F1500 X106.839 Y138.517 E14.80079
G1 F600 X106.839 Y137.952 E14.81112
G1 F1500 X113.159 Y144.272 E14.97462
G1 F600 X113.159 Y143.706 E14.98498
G1 F1500 X106.839 Y137.386 E15.14848
G1 F600 X106.839 Y136.82 E15.15883
G1 F1500 X113.159 Y143.141 E15.32235
G1 F600 X113.159 Y142.575 E15.3327
G1 F1500 X106.839 Y136.255 E15.4962
G1 F600 X106.839 Y135.689 E15.50655
G1 F1500 X113.159 Y142.009 E15.67005
G1 F600 X113.159 Y141.443 E15.68041
G1 F1500 X106.839 Y135.123 E15.84391
G1 F600 X106.839 Y134.558 E15.85424
G1 F1500 X113.159 Y140.878 E16.01774
G1 F600 X113.159 Y140.312 E16.0281
G1 X109.058 Y136.211 E16.13419
G1 X109.606 Y136.516 E16.14567
G1 X109.928 Y136.516 E16.15156
G1 X113.159 Y139.746 E16.23513
G1 X113.159 Y139.181 E16.24547
G1 X110.459 Y136.48 E16.31533
G1 X110.822 Y136.277 E16.32294
G1 X113.159 Y138.615 E16.38341
G1 X113.159 Y138.049 E16.39376
G1 X111.144 Y136.034 E16.44589
G1 X111.36 Y135.684 E16.45341
G1 X113.159 Y137.484 E16.49997
G1 X113.159 Y136.918 E16.51032
G1 X111.507 Y135.265 E16.55307
G1 X111.529 Y134.722 E16.56301
G1 X111.531 Y134.667 E16.56402
G1 X111.176 Y133.964 E16.57843
G1 X110.581 Y133.561 E16.59157
G0 F3600 X110.296 Y133.489
G1 F600 X106.839 Y130.032 E16.68101
G1 X106.839 Y130.598 E16.69136
G1 X109.739 Y133.498 E16.76639
G1 X109.477 Y133.52 E16.77119
G1 X109.309 Y133.633 E16.7749
G1 X106.839 Y131.164 E16.83879
G1 X106.839 Y131.729 E16.84912
G1 X108.972 Y133.863 E16.90432
G1 X108.823 Y133.965 E16.90762
G1 X108.718 Y134.174 E16.9119
G1 X106.839 Y132.295 E16.96051
G1 X106.839 Y132.861 E16.97086
G1 X108.528 Y134.549 E17.01454
G1 X108.468 Y134.667 E17.01696
G1 X108.484 Y135.071 E17.02436
G1 X106.839 Y133.426 E17.06692
G1 X106.839 Y133.992 E17.07727
G1 X108.812 Y135.965 E17.12831
G1 X108.914 Y136.131 E17.13188
G0 F3600 X111.529 Y134.722
G1 F600 X113.159 Y136.352 E17.17405
G1 X113.159 Y135.787 E17.18438
G1 F1500 X106.839 Y129.467 E17.34788
G1 F600 X106.839 Y128.901 E17.35824
G1 F1500 X113.159 Y135.221 E17.52174
G1 F600 X113.159 Y134.655 E17.53209
G1 F1500 X106.839 Y128.335 E17.69559
G1 F600 X106.839 Y127.769 E17.70594
G1 F1500 X113.159 Y134.09 E17.86946
G1 F600 X113.159 Y133.524 E17.87981
G1 F1500 X106.839 Y127.204 E18.04331
G1 F600 X106.839 Y126.638 E18.05367
G1 F1500 X113.159 Y132.958 E18.21717
G1 F600 X113.159 Y132.393 E18.2275
G1 F1500 X106.839 Y126.072 E18.39102
G1 F600 X106.839 Y125.507 E18.40135
G1 F1500 X113.159 Y131.827 E18.56485
G1 F600 X113.159 Y131.261 E18.57521
G1 F1500 X106.839 Y124.941 E18.73871
G1 F600 X106.839 Y124.375 E18.74906
G1 F1500 X113.159 Y130.695 E18.91256
G1 F600 X113.159 Y130.13 E18.9229
G1 F1500 X106.839 Y123.81 E19.0864
G1 F600 X106.839 Y123.244 E19.09675
G1 F1500 X113.159 Y129.564 E19.26025
G1 F600 X113.159 Y128.998 E19.2706
G1 F1500 X106.839 Y122.678 E19.4341
G1 F600 X106.839 Y122.113 E19.44444
G1 F1500 X113.159 Y128.433 E19.60794
G1 F600 X113.159 Y127.867 E19.61829
G1 F1500 X106.839 Y121.547 E19.78179
G1 F600 X106.839 Y120.981 E19.79215
G1 F1500 X113.159 Y127.301 E19.95565
G1 F600 X113.159 Y126.736 E19.96598
G1 F1500 X106.839 Y120.416 E20.12949
G1 F600 X106.839 Y119.85 E20.13984
G1 F1500 X113.159 Y126.17 E20.30334
G1 F600 X113.159 Y125.604 E20.31369
G1 F1500 X106.839 Y119.284 E20.47719
G1 F600 X106.839 Y118.718 E20.48755
G1 F1500 X113.159 Y125.039 E20.65106
G1 F600 X113.159 Y124.473 E20.66141
G1 F1500 X106.839 Y118.153 E20.82492
G1 F600 X106.839 Y117.587 E20.83527
