;FLAVOR:Marlin
;TIME:2189
;Filament used:0.26353m
;Layer height: 0.1
;MINX:103.33
;MINY:104.934
;MINZ:0.1
;MAXX:116.67
;MAXY:115.07
;MAXZ:15
                                 
;Creality Print GCode Generated by CXEngine:NO_MAGE_VERSION_GIT_HEAD_BRANCH
;CXEngine Release Time:2022-09-30 09:53:04
;Gcode Generated Time:2023-03-17 15:08:03
;----------Machine Config--------------
;Machine Name:Creality Ender-3
;Machine Height:250
;Machine Width:220
;Machine Depth:220
;Material name:PLA
;Number of Extruders:1
;ExtruderParams[0] Nozzle Diameter1000
;----------Profile Config---------------
;Engine Version:275f99b
;Engine Release Time:2022-09-30 09:42:18
;Layer Height:0.1
;Wall Thickness:0.8
;Top/Bottom Thickness:0.5
;Out Wall Line Width:0.4
;Inner Wall Line Width:0.4
;Inital Layer Height:100
;Wall Line Count:2
;Infill Line Distance:4
;Infill Pattern:grid
;Infill Sparse Density:20
;Infill Wipe Distance:0
;Print Temperature:200
;Bed Temperature:60
;Support Enable:true
;Support Density:0
;Support Angle:60
;Adhesion Type:none
;machine is belt:false
;machine belt offset:10
;machine belt offset Y:0
;Raft Base Line Spacing:1.6
;Wait Heatup Sync:true
;----------Shell Config----------------
;Outer Wall Wipe Distance:200
;Outer Inset First:false
;Infill Before Walls:false
;Infill Overlap:0.16
;Fill Gaps Between Walls:everywhere
;Minimum Infill Area:1
;Top Surface Skin Layer:0
;Top Layers:4
;Z Seam Alignment:sharpest_corner
;Seam Corner Preference:z_seam_corner_inner
;Z Seam X:110
;Z Seam Y:110
;Horizontal Expansion:0
;Top/Bottom Pattern:zigzag
;Ironing Pattern:zigzag
;Vase Model:false
;----------Support Config----------------
;Support Type:everywhere
;Support Pattern:zigzag
;Support Infill Layer Thickness:0.1
;Minimum Support Area:5
;Enable Support Roof:true
;Support Roof Thickness:0.8
;Support Roof Pattern:lines
;Connect Support Lines:0
;Connect Support ZigZags:0
;Minimum Support X/Y Distance:0.2
;Support Line Distance:0
; ---------PrintSpeed & Travel----------
;Enable Print Cool:true
;Avoid Printed Parts Traveling:true
;Enable Retraction:true
;Retraction Distance:8
;Retraction Speed:100
;Retraction Prime Speed:100
;Maximum Retraction Count:100
;Minimum Extrusion Distance Window:1
;Z Hop When Retracted:false
;Z Hop Height:0.2
;Retract Before Outer Wall:true
;Print Speed:50
;Infill Speed:50

;Prime Tower Speed:50
;Travel Speed:120
;Initial Layer Speed:25
;Skirt/Brim Speed:25
;Combing Mode:infill
; --------SpecialModel&Mesh Fixes--------
;Union Overlapping Volum:true
;Remove All Holes:false
;Maximum Travel Resolution:0.6
;Maximum Deviation:0.05
;Maximum Model Angle:0.872665
;IS Mold Print:false
;Make Overhang Printable:false
;Enable Coasting:false
;Coasting Volumes:0.06
;Coasting Speed:0.9
;Raft AirGap:0.25
;Layer0 ZOverLap:0.13
;---------------------End of Head--------------------------
M140 S60
M105
M104 S200
M105
M109 S200
M105
M190 S60
M82 ;absolute extrusion mode
M220 S100 ;Reset Feedrate
M221 S100 ;Reset Flowrate

G28 ;Home

G92 E0 ;Reset Extruder
G1 Z2.0 F3000 ;Move Z Axis up
G1 X10.1 Y20 Z0.28 F5000.0 ;Move to start position
G1 X10.1 Y145.0 Z0.28 F1500.0 E15 ;Draw the first line
G1 X10.4 Y145.0 Z0.28 F5000.0 ;Move to side a little
G1 X10.4 Y20 Z0.28 F1500.0 E30 ;Draw the second line
G92 E0  ;Reset Extruder
G1 E-1.0000 F1800 ;Retract a bit
G1 Z2.0 F3000 ;Move Z Axis up
G1 E0.0000 F1800 

G92 E0
G92 E0
G1 F6000 E-8

;LAYER_COUNT:150

;LAYER:0
M107
;MESH:
G0 F3600 X112.287 Y108.564 Z0.1
;TYPE:WALL-INNER
G1 F6000 E0
G1 F673.7 X112.012 Y108.199 E0.00836
G1 X111.679 Y107.885 E0.01673
G1 X111.298 Y107.632 E0.0251
G1 X110.88 Y107.445 E0.03348
G1 X110.433 Y107.334 E0.0419
G1 X109.976 Y107.3 E0.05028
G1 X109.522 Y107.342 E0.05862
G1 X109.079 Y107.461 E0.06702
G1 X108.663 Y107.654 E0.0754
G1 X108.286 Y107.913 E0.08377
G1 X107.957 Y108.233 E0.09217
G1 X107.688 Y108.603 E0.10054
G1 X107.485 Y109.015 E0.10894
G1 X107.355 Y109.455 E0.11733
G1 X107.301 Y109.909 E0.12569
G1 X107.324 Y110.366 E0.13406
G1 X107.425 Y110.813 E0.14245
G1 X107.599 Y111.236 E0.15082
G1 X107.843 Y111.624 E0.1592
G1 X108.147 Y111.965 E0.16756
G1 X108.507 Y112.25 E0.17596
G1 X108.909 Y112.471 E0.18435
G1 X109.354 Y112.623 E0.19295
G1 X110.013 Y112.705 E0.2051
G1 X110.69 Y112.611 E0.2176
G1 X111.133 Y112.452 E0.22621
G1 X111.531 Y112.225 E0.23459
G1 X111.886 Y111.934 E0.24299
G1 X112.184 Y111.588 E0.25134
G1 X112.422 Y111.195 E0.25975
G1 X112.589 Y110.769 E0.26812
G1 X112.682 Y110.321 E0.27649
G1 X112.697 Y109.863 E0.28487
G1 X112.636 Y109.41 E0.29323
G1 X112.498 Y108.971 E0.30165
G1 X112.287 Y108.564 E0.31004
G0 F3600 X111.947 Y108.778
;TYPE:WALL-OUTER
G1 F600 X111.713 Y108.467 E0.31716
G1 X111.429 Y108.199 E0.3243
G1 X111.105 Y107.984 E0.33141
G1 X110.749 Y107.825 E0.33855
G1 X110.369 Y107.73 E0.34571
G1 X109.98 Y107.701 E0.35285
G1 X109.593 Y107.737 E0.35996
G1 X109.216 Y107.838 E0.3671
G1 X108.862 Y108.003 E0.37424
G1 X108.541 Y108.223 E0.38136
G1 X108.261 Y108.496 E0.38851
G1 X108.032 Y108.811 E0.39564
G1 X107.859 Y109.161 E0.40278
G1 X107.748 Y109.536 E0.40993
G1 X107.702 Y109.922 E0.41704
G1 X107.722 Y110.311 E0.42417
G1 X107.808 Y110.692 E0.43131
G1 X107.956 Y111.052 E0.43844
G1 X108.164 Y111.383 E0.44559
G1 X108.423 Y111.673 E0.4527
G1 X108.729 Y111.916 E0.45985
G1 X109.071 Y112.104 E0.46699
G1 X109.444 Y112.231 E0.47419
G1 X110.01 Y112.302 E0.48463
G1 X110.594 Y112.221 E0.49541
G1 X110.965 Y112.087 E0.50263
G1 X111.304 Y111.894 E0.50977
G1 X111.605 Y111.647 E0.51689
G1 X111.859 Y111.352 E0.52401
G1 X112.062 Y111.017 E0.53118
G1 X112.204 Y110.655 E0.53829
G1 X112.283 Y110.273 E0.54543
G1 X112.296 Y109.883 E0.55256
G1 X112.244 Y109.497 E0.55969
G1 X112.127 Y109.124 E0.56684
G1 X111.947 Y108.778 E0.57397
G0 F3600 X111.827 Y108.619
G0 X112.179 Y108.355
;;retract;;
G1 F6000 E-7.42603
G0 F3600 X111.13 Y109.138
G0 X115.399 Y105.335
G0 X115.399 Y106.606
;TYPE:WALL-INNER
G1 F6000 E0.57397
G1 F1500 X115.399 Y106.805 E0.57761
G1 X115.383 Y113.399 E0.69824
G1 X104.8 Y113.386 E0.89184
G1 X104.601 Y113.386 E0.89548
G1 X104.601 Y113.187 E0.89783
G1 X104.617 Y106.6 E1.01833
G1 X115.2 Y106.606 E1.21192
G1 X115.399 Y106.606 E1.21428
G0 F3600 X115.8 Y106.206
;TYPE:WALL-OUTER
G1 F1500 X115.8 Y106.406 E1.21794
G1 X115.782 Y113.8 E1.3532
G1 X104.4 Y113.785 E1.56141
G1 X104.2 Y113.785 E1.56507
G1 X104.2 Y113.585 E1.56744
G1 X104.218 Y106.2 E1.70253
G1 X115.6 Y106.206 E1.91074
G1 X115.8 Y106.206 E1.91311
G0 F3600 X115.8 Y106.406
G0 X115.36 Y106.645
G0 X115.158 Y106.845
;TYPE:SKIN
G1 F600 X114.765 Y106.845 E1.9203
G1 X115.157 Y107.238 E1.93046
G1 X115.156 Y107.802 E1.94077
G1 X114.199 Y106.845 E1.96553
G1 X113.633 Y106.845 E1.97588
G1 X115.155 Y108.366 E2.01525
G1 X115.153 Y108.931 E2.02558
G1 X113.067 Y106.845 E2.07955
G1 X112.501 Y106.844 E2.0899
G1 X115.151 Y109.494 E2.15846
G1 X115.15 Y110.059 E2.16879
G1 X111.935 Y106.844 E2.25197
G1 X111.369 Y106.843 E2.26232
G1 X115.148 Y110.623 E2.3601
G1 X115.147 Y111.187 E2.37041
G1 X112.591 Y108.632 E2.43653
G1 X112.719 Y108.878 E2.4416
G1 X112.869 Y109.356 E2.45076
G1 X112.888 Y109.494 E2.45331
G1 X115.145 Y111.751 E2.5117
G1 X115.144 Y112.316 E2.52204
G1 X112.927 Y110.099 E2.57939
G1 X112.92 Y110.35 E2.58398
G1 X112.866 Y110.603 E2.58872
G1 X115.143 Y112.88 E2.64762
G1 X115.141 Y113.159 E2.65273
G1 X114.855 Y113.158 E2.65796
G1 X112.738 Y111.041 E2.71273
G1 X112.637 Y111.302 E2.71785
G1 X112.56 Y111.428 E2.72055
G1 X114.288 Y113.157 E2.76526
G1 X113.722 Y113.156 E2.77562
G1 X112.339 Y111.773 E2.8114
G1 X112.077 Y112.077 E2.81874
G1 X113.156 Y113.156 E2.84665
G1 X112.589 Y113.155 E2.85702
G1 X111.772 Y112.338 E2.87816
G1 X111.668 Y112.422 E2.88061
G1 X111.428 Y112.559 E2.88566
G1 X112.023 Y113.154 E2.90105
G1 X111.456 Y113.154 E2.91143
G1 X111.041 Y112.738 E2.92217
G1 X110.748 Y112.844 E2.92787
G1 X110.602 Y112.864 E2.93057
G1 X110.89 Y113.153 E2.93803
G1 X110.324 Y113.152 E2.94839
G1 X110.105 Y112.934 E2.95404
G1 X110.014 Y112.946 E2.95572
G1 X109.486 Y112.88 E2.96545
G1 X109.757 Y113.151 E2.97246
G1 X109.191 Y113.151 E2.98282
G1 X108.632 Y112.592 E2.99728
G0 F3600 X108.374 Y112.449
G1 F600 X107.981 Y112.139 E3.00644
G1 X107.651 Y111.768 E3.01552
G1 X107.385 Y111.345 E3.02466
G1 X107.195 Y110.885 E3.03376
G1 X107.109 Y110.503 E3.04093
G1 X104.853 Y108.247 E3.09929
G1 X104.854 Y107.683 E3.10961
G1 X107.061 Y109.89 E3.1667
G1 X107.119 Y109.406 E3.17562
G1 X107.125 Y109.388 E3.17597
G1 X104.856 Y107.118 E3.23468
G1 X104.856 Y106.839 E3.23978
G1 X105.143 Y106.84 E3.24503
G1 X107.253 Y108.951 E3.29963
G1 X107.261 Y108.926 E3.30011
G1 X107.437 Y108.568 E3.30741
G1 X105.708 Y106.84 E3.35213
G1 X106.275 Y106.841 E3.3625
G1 X107.663 Y108.229 E3.39841
G1 X107.775 Y108.074 E3.40191
G1 X107.926 Y107.926 E3.40578
G1 X106.841 Y106.841 E3.43384
G1 X107.407 Y106.841 E3.4442
G1 X108.226 Y107.661 E3.4654
G1 X108.543 Y107.444 E3.47243
G1 X108.565 Y107.434 E3.47287
G1 X107.973 Y106.841 E3.4882
G1 X108.539 Y106.842 E3.49855
G1 X108.951 Y107.253 E3.5092
G1 X108.994 Y107.234 E3.51006
G1 X109.39 Y107.127 E3.51756
G1 X109.105 Y106.842 E3.52493
G1 X109.671 Y106.843 E3.53529
G1 X109.894 Y107.065 E3.54104
G1 X109.973 Y107.058 E3.54249
G1 X110.47 Y107.096 E3.55161
G1 X110.496 Y107.102 E3.5521
G1 X110.237 Y106.843 E3.5588
G1 X110.803 Y106.843 E3.56915
G1 X111.353 Y107.393 E3.58338
G0 F3600 X111.413 Y107.42
G1 F600 X111.828 Y107.697 E3.59251
G1 X112.191 Y108.038 E3.60162
G1 X112.49 Y108.435 E3.61071
G1 X112.591 Y108.632 E3.61476
;;retract;;
G1 F6000 E-4.38524
G0 F3600 X111.255 Y109.331
G0 X108.731 Y110.651
G0 X107.385 Y111.345
G1 F6000 E3.61476
G1 F600 X104.851 Y108.811 E3.68032
G1 X104.85 Y109.375 E3.69064
G1 X108.624 Y113.149 E3.78827
G1 X108.057 Y113.149 E3.79864
G1 X104.849 Y109.94 E3.88165
G1 X104.847 Y110.504 E3.89196
G1 X107.491 Y113.148 E3.96037
G1 X106.925 Y113.147 E3.97072
G1 X104.846 Y111.068 E4.0245
G1 X104.844 Y111.633 E4.03484
G1 X106.358 Y113.146 E4.07399
G1 X105.792 Y113.146 E4.08435
G1 X104.843 Y112.197 E4.1089
G1 X104.842 Y112.761 E4.11922
G1 X105.225 Y113.145 E4.12914
G1 X104.841 Y113.145 E4.13616
;;retract;;
G1 F6000 E-3.86384
G0 F3600 X104.84 Y114.657
G0 X109.205 Y114.662
G0 X109.206 Y113.166
;TYPE:SKIN
G1 F6000 E4.13616
G1 F600 X109.375 Y113.335 E4.13835
G0 F3600 X109.658 Y113.335
G1 F600 X109.202 Y112.878 E4.14425
G0 F3600 X109.274 Y112.668
G1 F600 X109.941 Y113.335 E4.15288
G0 F3600 X109.911 Y113.022
G1 F600 X110.214 Y113.042 E4.16864
G0 F3600 X110.79 Y113.336
G1 F600 X110.19 Y112.736 E4.1764
G0 F3600 X110.606 Y112.869
G1 F600 X110.758 Y112.737 E4.18256
;;retract;;
G1 F6000 E-3.81744
G0 F3600 X110.384 Y111.373
G0 X110.357 Y108.623
G0 X110.685 Y107.291
G1 F6000 E4.18256
G1 F600 X110.051 Y106.657 E4.19077
G0 F3600 X110.078 Y106.966
G1 F600 X109.783 Y106.954 E4.20645
G0 F3600 X109.24 Y106.694
G1 F600 X109.805 Y107.259 E4.21375
G0 F3600 X109.547 Y107.284
G1 F600 X109.282 Y107.019 E4.21718
G0 F3600 X110.334 Y106.657
G1 F600 X110.715 Y107.038 E4.22211
G0 F3600 X110.746 Y106.786
G1 F600 X110.617 Y106.657 E4.22378
;;retract;;
G1 F6000 E-3.77622
;MESH:NONMESH
G0 F600 X110.617 Y106.657 Z0.2
G0 F3600 X110.617 Y105.333
G0 X108.922 Y109.066
G0 X107.668 Y108.644
;TIME_ELAPSED:28.613564

;LAYER:1
M140 S60
M106 S127.5
;TYPE:WALL-INNER
;MESH:
G1 F6000 E4.22378
G1 F673 X107.471 Y109.057 E4.23139
G1 X107.349 Y109.5 E4.23903
G1 X107.302 Y109.954 E4.24662
G1 X107.333 Y110.411 E4.25424
G1 X107.441 Y110.856 E4.26185
G1 X107.622 Y111.276 E4.26946
G1 X107.873 Y111.659 E4.27707
G1 X108.184 Y111.995 E4.28469
G1 X108.546 Y112.273 E4.29228
G1 X108.951 Y112.487 E4.2999
G1 X109.397 Y112.63 E4.30769
G1 X110.033 Y112.704 E4.31833
G1 X110.676 Y112.617 E4.32912
G1 X111.173 Y112.431 E4.33795
G1 X111.569 Y112.195 E4.34561
G1 X111.916 Y111.899 E4.3532
G1 X112.209 Y111.548 E4.3608
G1 X112.439 Y111.153 E4.3684
G1 X112.599 Y110.725 E4.376
G1 X112.684 Y110.275 E4.38362
G1 X112.691 Y109.817 E4.39124
G1 X112.622 Y109.366 E4.39882
G1 X112.478 Y108.93 E4.40646
G1 X112.26 Y108.526 E4.41409
G1 X111.978 Y108.167 E4.42169
G1 X111.642 Y107.859 E4.42927
G1 X111.255 Y107.612 E4.4369
G1 X110.835 Y107.433 E4.44449
G1 X110.388 Y107.329 E4.45213
G1 X109.931 Y107.303 E4.45974
G1 X109.476 Y107.353 E4.46735
G1 X109.035 Y107.48 E4.47498
G1 X108.626 Y107.679 E4.48255
G1 X108.252 Y107.944 E4.49017
G1 X107.93 Y108.27 E4.49779
G1 X107.668 Y108.644 E4.50538
G0 F5400 X108.015 Y108.846
;TYPE:WALL-OUTER
G1 F600 X107.847 Y109.198 E4.51187
G1 X107.743 Y109.574 E4.51836
G1 X107.703 Y109.961 E4.52483
G1 X107.73 Y110.35 E4.53131
G1 X107.822 Y110.729 E4.5378
G1 X107.976 Y111.086 E4.54426
G1 X108.189 Y111.412 E4.55074
G1 X108.454 Y111.698 E4.55722
G1 X108.763 Y111.935 E4.5637
G1 X109.107 Y112.117 E4.57017
G1 X109.482 Y112.237 E4.57672
G1 X110.029 Y112.301 E4.58588
G1 X110.578 Y112.227 E4.59509
G1 X110.999 Y112.069 E4.60257
G1 X111.335 Y111.869 E4.60907
G1 X111.631 Y111.617 E4.61554
G1 X111.88 Y111.318 E4.62201
G1 X112.076 Y110.981 E4.62849
G1 X112.212 Y110.617 E4.63495
G1 X112.285 Y110.234 E4.64144
G1 X112.291 Y109.844 E4.64792
G1 X112.232 Y109.46 E4.65438
G1 X112.109 Y109.089 E4.66088
G1 X111.924 Y108.746 E4.66736
G1 X111.684 Y108.44 E4.67383
G1 X111.397 Y108.177 E4.68031
G1 X111.068 Y107.967 E4.6868
G1 X110.71 Y107.815 E4.69326
G1 X110.331 Y107.726 E4.69974
G1 X109.942 Y107.704 E4.70622
G1 X109.554 Y107.747 E4.71271
G1 X109.179 Y107.855 E4.7192
G1 X108.83 Y108.024 E4.72565
G1 X108.512 Y108.25 E4.73214
G1 X108.238 Y108.527 E4.73862
G1 X108.015 Y108.846 E4.74509
G0 F5400 X107.929 Y109.026
G0 X107.533 Y108.836
;;retract;;
G1 F6000 E-3.25491
G0 F5400 X108.766 Y109.289
G0 X115.401 Y105.347
G0 X115.4 Y106.618
;TYPE:WALL-INNER
G1 F6000 E4.74509
G1 F1500 X115.4 Y113.2 E4.85455
G1 X115.4 Y113.399 E4.85786
G1 X115.201 Y113.399 E4.86
G1 X104.6 Y113.383 E5.03629
G1 X104.6 Y106.8 E5.14577
G1 X104.6 Y106.601 E5.14908
G1 X104.799 Y106.601 E5.15122
G1 X115.4 Y106.618 E5.32752
;;retract;;
G1 F6000 E-2.67248
G0 F5400 X115.401 Y105.347
G0 X104.401 Y105.33
G0 X104.4 Y106.2
;TYPE:WALL-OUTER
G1 F6000 E5.32752
G1 F1500 X115.8 Y106.219 E5.5171
G1 X115.8 Y113.6 E5.63985
G1 X115.8 Y113.8 E5.64317
G1 X115.6 Y113.8 E5.64533
G1 X104.2 Y113.782 E5.83491
G1 X104.2 Y106.4 E5.95767
G1 X104.2 Y106.2 E5.961
G1 X104.4 Y106.2 E5.96315
G0 F5400 X104.6 Y106.2
G0 X104.64 Y106.64
G0 X104.84 Y107.291
;TYPE:SKIN
G1 F600 X104.84 Y107.857 E5.97256
G1 X105.856 Y106.841 E5.99646
G1 X106.42 Y106.842 E6.00584
G1 X104.84 Y108.422 E6.043
G1 X104.84 Y108.988 E6.05241
G1 X106.985 Y106.843 E6.10286
G1 X107.55 Y106.844 E6.11225
G1 X104.84 Y109.554 E6.17599
G1 X104.84 Y110.119 E6.18538
G1 X108.115 Y106.845 E6.26239
G1 X108.679 Y106.846 E6.27177
G1 X104.84 Y110.685 E6.36206
G1 X104.84 Y111.251 E6.37147
G1 X107.36 Y108.731 E6.43074
G1 X107.245 Y108.972 E6.43518
G1 X107.113 Y109.455 E6.44351
G1 X107.102 Y109.554 E6.44516
G1 X104.84 Y111.816 E6.49836
G1 X104.84 Y112.382 E6.50778
G1 X107.074 Y110.148 E6.56032
G1 X107.095 Y110.447 E6.5653
G1 X107.142 Y110.645 E6.56869
G1 X104.84 Y112.948 E6.62284
G1 X104.839 Y113.142 E6.62606
G1 X105.211 Y113.143 E6.63225
G1 X107.275 Y111.078 E6.6808
G1 X107.409 Y111.389 E6.68643
G1 X107.457 Y111.462 E6.68789
G1 X105.775 Y113.144 E6.72745
G1 X106.34 Y113.145 E6.73684
G1 X107.681 Y111.804 E6.76838
G0 F5400 X107.683 Y111.807
G1 F600 X107.952 Y112.099 E6.77498
G1 X106.905 Y113.146 E6.79961
G1 X107.47 Y113.146 E6.809
G1 X108.261 Y112.355 E6.82761
G1 X108.416 Y112.475 E6.83087
G1 X108.607 Y112.575 E6.83445
G1 X108.034 Y113.148 E6.84793
G1 X108.599 Y113.149 E6.85732
G1 X108.996 Y112.752 E6.86666
G1 X109.345 Y112.864 E6.87276
G1 X109.439 Y112.874 E6.87433
G1 X109.164 Y113.149 E6.88079
G1 X109.729 Y113.15 E6.89019
G1 X109.945 Y112.934 E6.89527
G1 X110.035 Y112.945 E6.89678
G1 X110.573 Y112.871 E6.90581
G1 X110.293 Y113.151 E6.91239
G1 X110.858 Y113.152 E6.92179
G1 X111.493 Y112.518 E6.93671
G1 X111.708 Y112.39 E6.94087
G1 X112.087 Y112.067 E6.94916
G1 X112.405 Y111.685 E6.95742
G0 F5400 X114.812 Y113.159
G1 F600 X115.158 Y112.812 E6.96557
G1 X115.158 Y112.246 E6.97498
G1 X114.247 Y113.157 E6.99641
G1 X113.682 Y113.156 E7.0058
G1 X115.158 Y111.681 E7.04051
G1 X115.158 Y111.115 E7.04992
G1 X113.117 Y113.156 E7.09792
