;FLAVOR:Marlin
;TIME:2539
;Filament used:0.682507m
;Layer height: 0.1
;MINX:100.43
;MINY:101.33
;MINZ:0.1
;MAXX:119.57
;MAXY:118.667
;MAXZ:23.6
                              
;Creality Print GCode Generated by CXEngine:NO_MAGE_VERSION_GIT_HEAD_BRANCH
;CXEngine Release Time:2022-09-30 09:53:04
;Gcode Generated Time:2023-03-17 14:47:42
;----------Machine Config--------------
;Machine Name:Creality Ender-3
;Machine Height:250
;Machine Width:220
;Machine Depth:220
;Material name:PLA
;Number of Extruders:1
;ExtruderParams[0] Nozzle Diameter1000
;----------Profile Config---------------
;Engine Version:275f99b
;Engine Release Time:2022-09-30 09:42:18
;Layer Height:0.1
;Wall Thickness:0.8
;Top/Bottom Thickness:0.5
;Out Wall Line Width:0.4
;Inner Wall Line Width:0.4
;Inital Layer Height:100
;Wall Line Count:2
;Infill Line Distance:4
;Infill Pattern:grid
;Infill Sparse Density:20
;Infill Wipe Distance:0
;Print Temperature:200
;Bed Temperature:60
;Support Enable:true
;Support Density:0
;Support Angle:60
;Adhesion Type:none
;machine is belt:false
;machine belt offset:10
;machine belt offset Y:0
;Raft Base Line Spacing:1.6
;Wait Heatup Sync:true
;----------Shell Config----------------
;Outer Wall Wipe Distance:200
;Outer Inset First:false
;Infill Before Walls:false
;Infill Overlap:0.16
;Fill Gaps Between Walls:everywhere
;Minimum Infill Area:1
;Top Surface Skin Layer:0
;Top Layers:4
;Z Seam Alignment:sharpest_corner
;Seam Corner Preference:z_seam_corner_inner
;Z Seam X:110
;Z Seam Y:110
;Horizontal Expansion:0
;Top/Bottom Pattern:zigzag
;Ironing Pattern:zigzag
;Vase Model:false
;----------Support Config----------------
;Support Type:everywhere
;Support Pattern:zigzag
;Support Infill Layer Thickness:0.1
;Minimum Support Area:5
;Enable Support Roof:true
;Support Roof Thickness:0.8
;Support Roof Pattern:lines
;Connect Support Lines:0
;Connect Support ZigZags:0
;Minimum Support X/Y Distance:0.2
;Support Line Distance:0
; ---------PrintSpeed & Travel----------
;Enable Print Cool:true
;Avoid Printed Parts Traveling:true
;Enable Retraction:true
;Retraction Distance:8
;Retraction Speed:100
;Retraction Prime Speed:100
;Maximum Retraction Count:100
;Minimum Extrusion Distance Window:1
;Z Hop When Retracted:false
;Z Hop Height:0.2
;Retract Before Outer Wall:true
;Print Speed:50
;Infill Speed:50

;Prime Tower Speed:50
;Travel Speed:120
;Initial Layer Speed:25
;Skirt/Brim Speed:25
;Combing Mode:infill
; --------SpecialModel&Mesh Fixes--------
;Union Overlapping Volum:true
;Remove All Holes:false
;Maximum Travel Resolution:0.6
;Maximum Deviation:0.05
;Maximum Model Angle:0.872665
;IS Mold Print:false
;Make Overhang Printable:false
;Enable Coasting:false
;Coasting Volumes:0.06
;Coasting Speed:0.9
;Raft AirGap:0.25
;Layer0 ZOverLap:0.13
;---------------------End of Head--------------------------
M140 S60
M105
M104 S200
M105
M109 S200
M105
M190 S60
M82 ;absolute extrusion mode
M220 S100 ;Reset Feedrate
M221 S100 ;Reset Flowrate

G28 ;Home

G92 E0 ;Reset Extruder
G1 Z2.0 F3000 ;Move Z Axis up
G1 X10.1 Y20 Z0.28 F5000.0 ;Move to start position
G1 X10.1 Y145.0 Z0.28 F1500.0 E15 ;Draw the first line
G1 X10.4 Y145.0 Z0.28 F5000.0 ;Move to side a little
G1 X10.4 Y20 Z0.28 F1500.0 E30 ;Draw the second line
G92 E0  ;Reset Extruder
G1 E-1.0000 F1800 ;Retract a bit
G1 Z2.0 F3000 ;Move Z Axis up
G1 E0.0000 F1800 

G92 E0
G92 E0
G1 F6000 E-8

;LAYER_COUNT:236

;LAYER:0
M107
G0 F3600 X101.613 Y110.452 Z0.1
;TYPE:SUPPORT
G1 F6000 E0
G1 F1500 X103.176 Y109.307 E0.02835
G1 X103.823 Y109.307 E0.03782
G1 X104.329 Y109.675 E0.04698
G1 X104.424 Y110.748 E0.06274
G1 X104.172 Y112.33 E0.08619
G1 X103.39 Y112.899 E0.10034
G1 X102.41 Y112.899 E0.11468
G1 X101.613 Y112.319 E0.12911
G1 X101.309 Y111.386 E0.14347
G1 X101.613 Y110.452 E0.15784
;;retract;;
G1 F6000 E-7.84216
G0 F3600 X101.099 Y109.751
G0 X102.893 Y108.439
G0 X104.106 Y108.439
G0 X105.156 Y109.206
G0 X105.329 Y110.031
G0 X105.334 Y118.144
G0 X105.841 Y118.65
G0 X114.158 Y118.667
G0 X114.666 Y118.159
G0 X114.634 Y110.648
G0 X115.457 Y110.5
G1 F6000 E0.15784
G1 F1500 X115.807 Y109.606 E0.17189
G1 X116.61 Y109.022 E0.18642
G1 X117.59 Y109.022 E0.20076
G1 X118.377 Y109.595 E0.21501
G1 X118.686 Y111.078 E0.23718
G1 X118.38 Y112.017 E0.25163
G1 X117.588 Y112.594 E0.26597
G1 X116.612 Y112.594 E0.28026
G1 X115.826 Y112.022 E0.29448
G1 X115.457 Y110.5 E0.3174
;;retract;;
G1 F6000 E-7.6826
;MESH:
G0 F3600 X114.647 Y110.183
G0 X114.658 Y107.658
G0 X113.4 Y106.1
;TYPE:WALL-INNER
G1 F6000 E0.3174
G1 F1500 X115.9 Y106.1 E0.36313
G1 X115.9 Y106.4 E0.36862
G1 X113.4 Y106.4 E0.40301
G1 X113.4 Y117.2 E0.60057
G1 X113.4 Y117.399 E0.60421
G1 X113.201 Y117.399 E0.60657
G1 X106.6 Y117.386 E0.72732
G1 X106.6 Y106.4 E0.92829
G1 X104.1 Y106.4 E0.97402
G1 X104.1 Y106.097 E0.97956
G1 X106.6 Y106.087 E1.01481
G1 X106.6 Y102.801 E1.07492
G1 X106.6 Y102.602 E1.07856
G1 X106.799 Y102.602 E1.08092
G1 X113.4 Y102.619 E1.20167
G1 X113.4 Y106.1 E1.26535
G0 F3600 X113.8 Y105.7
;TYPE:WALL-OUTER
G1 F1500 X116.3 Y105.7 E1.31108
G1 X116.3 Y106.8 E1.3312
G1 X113.8 Y106.8 E1.37694
G1 X113.8 Y117.6 E1.5745
G1 X113.8 Y117.8 E1.57816
G1 X113.6 Y117.8 E1.58053
G1 X106.2 Y117.785 E1.7159
G1 X106.2 Y106.8 E1.91685
G1 X103.7 Y106.8 E1.96258
G1 X103.7 Y105.699 E1.98272
G1 X106.2 Y105.689 E2.02845
G1 X106.2 Y102.401 E2.0886
G1 X106.2 Y102.201 E2.09226
G1 X106.4 Y102.201 E2.09463
G1 X113.8 Y102.22 E2.23
G1 X113.8 Y105.7 E2.29366
G0 F3600 X114 Y105.7
G0 X114 Y106.14
;;retract;;
G1 F6000 E-5.70634
G0 F3600 X114.658 Y104.842
G0 X114.67 Y102.859
G0 X113.159 Y102.859
;TYPE:SKIN
G1 F6000 E2.29366
G1 F1500 X113.041 Y102.859 E2.29582
G1 X113.159 Y102.977 E2.29887
G1 X113.159 Y103.543 E2.30922
G1 X112.474 Y102.857 E2.32696
G1 X111.907 Y102.856 E2.33733
G1 X113.159 Y104.108 E2.36972
G1 X113.159 Y104.674 E2.38007
G1 X111.34 Y102.855 E2.42713
G1 X110.773 Y102.853 E2.4375
G1 X113.159 Y105.24 E2.49924
G1 X113.159 Y105.805 E2.50958
G1 X110.206 Y102.852 E2.58597
G1 X109.639 Y102.85 E2.59635
G1 X113.159 Y106.371 E2.68742
G1 X113.159 Y106.937 E2.69778
G1 X109.071 Y102.849 E2.80353
G1 X108.504 Y102.847 E2.81391
G1 X113.159 Y107.502 E2.93433
G1 X113.159 Y108.068 E2.94469
G1 X107.937 Y102.845 E3.07979
G1 X107.369 Y102.844 E3.09018
G1 X113.159 Y108.634 E3.23997
G1 X113.159 Y109.199 E3.25031
G1 X106.839 Y102.879 E3.41381
G1 X106.839 Y103.445 E3.42416
G1 X113.159 Y109.765 E3.58766
G1 X113.16 Y110.331 E3.59802
G1 X106.839 Y104.011 E3.76153
G1 X106.839 Y104.576 E3.77187
G1 X113.16 Y110.897 E3.93539
G1 X113.16 Y111.463 E3.94575
G1 X106.839 Y105.142 E4.10927
G1 X106.839 Y105.708 E4.11963
G1 X113.16 Y112.029 E4.28315
G1 X113.16 Y112.594 E4.29349
G1 X106.839 Y106.273 E4.45701
G1 X106.839 Y106.839 E4.46737
G1 X113.16 Y113.16 E4.63089
G1 X113.16 Y113.726 E4.64125
G1 X106.839 Y107.405 E4.80478
G1 X106.839 Y107.97 E4.81511
G1 X113.16 Y114.291 E4.97864
G1 X113.16 Y114.857 E4.98899
G1 X106.839 Y108.536 E5.15252
G1 X106.839 Y109.102 E5.16287
G1 X113.16 Y115.423 E5.3264
G1 X113.16 Y115.988 E5.33673
G1 X106.839 Y109.668 E5.50025
G1 X106.839 Y110.233 E5.51058
G1 X113.16 Y116.554 E5.67411
G1 X113.16 Y117.12 E5.68446
G1 X106.839 Y110.799 E5.84799
G1 X106.839 Y111.365 E5.85834
G1 X112.631 Y117.156 E6.00817
G1 X112.064 Y117.155 E6.01854
G1 X106.839 Y111.93 E6.15371
G1 X106.839 Y112.496 E6.16407
G1 X111.498 Y117.154 E6.28459
G1 X110.93 Y117.153 E6.29498
G1 X106.839 Y113.062 E6.40081
G1 X106.839 Y113.627 E6.41115
G1 X110.364 Y117.152 E6.50234
G1 X109.797 Y117.151 E6.51271
G1 X106.839 Y114.193 E6.58924
G1 X106.839 Y114.759 E6.59959
G1 X109.23 Y117.149 E6.66143
G1 X108.663 Y117.149 E6.67181
G1 X106.839 Y115.324 E6.71901
G1 X106.839 Y115.89 E6.72936
G1 X108.096 Y117.147 E6.76188
G1 X107.529 Y117.146 E6.77225
G1 X106.839 Y116.456 E6.7901
G1 X106.839 Y117.021 E6.80044
G1 X106.963 Y117.145 E6.80364
G1 X106.84 Y117.145 E6.80589
;;retract;;
G1 F6000 E-1.19411
;MESH:NONMESH
G0 F600 X106.84 Y117.145 Z0.2
G0 F3600 X105.33 Y117.145
G0 X105.302 Y111.417
G0 X105.195 Y109.608
G0 X104.33 Y109.684
;TIME_ELAPSED:26.132819

;LAYER:1
M140 S60
M106 S127.5
;TYPE:SUPPORT
G1 F6000 E6.80589
G1 F2250 X104.484 Y110.538 E6.81744
G1 X104.167 Y112.366 E6.84212
G1 X103.388 Y112.934 E6.85495
G1 X102.412 Y112.934 E6.86793
G1 X101.62 Y112.357 E6.88097
G1 X101.317 Y111.429 E6.89396
G1 X101.621 Y110.498 E6.90699
G1 X103.18 Y109.313 E6.93304
G1 X103.821 Y109.313 E6.94157
G1 X104.33 Y109.684 E6.94995
;;retract;;
G1 F6000 E-1.05005
G0 F5400 X105.186 Y109.529
G0 X105.342 Y107.658
G0 X103.341 Y107.666
G0 X102.834 Y107.159
G0 X102.834 Y105.341
G0 X105.334 Y101.841
G0 X105.841 Y101.334
G0 X114.159 Y101.334
G0 X114.666 Y101.841
G0 X117.166 Y105.341
G0 X117.166 Y107.159
G0 X116.1 Y108.288
G0 X116.612 Y108.991
G1 F6000 E6.94995
G1 F2250 X117.588 Y108.991 E6.96293
G1 X118.369 Y109.56 E6.97579
G1 X118.678 Y111.148 E6.99731
G1 X118.373 Y112.084 E7.01041
G1 X117.585 Y112.657 E7.02337
G1 X116.615 Y112.657 E7.03628
G1 X115.835 Y112.09 E7.0491
G1 X115.465 Y110.499 E7.07084
G1 X115.816 Y109.571 E7.08404
G1 X116.612 Y108.991 E7.09714
;;retract;;
G1 F6000 E-0.90286
;MESH:
G0 F5400 X116.1 Y108.288
G0 X114.658 Y107.658
G0 X113.4 Y106.1
;TYPE:WALL-INNER
G1 F6000 E7.09714
G1 F1500 X115.9 Y106.1 E7.13871
G1 X115.9 Y106.4 E7.1437
G1 X113.4 Y106.4 E7.17496
G1 X113.4 Y117.4 E7.35789
G1 X106.6 Y117.4 E7.47098
G1 X106.6 Y106.4 E7.65391
G1 X104.1 Y106.4 E7.69548
G1 X104.1 Y106.1 E7.70047
G1 X106.6 Y106.1 E7.73173
G1 X106.6 Y102.6 E7.78994
G1 X113.4 Y102.6 E7.90302
G1 X113.4 Y106.1 E7.96123
G0 F5400 X113.8 Y105.7
;TYPE:WALL-OUTER
G1 F1500 X116.3 Y105.7 E8.0028
G1 X116.3 Y106.8 E8.0211
G1 X113.8 Y106.8 E8.06267
G1 X113.8 Y117.8 E8.2456
G1 X106.2 Y117.8 E8.37199
G1 X106.2 Y106.8 E8.55492
G1 X103.7 Y106.8 E8.5965
G1 X103.7 Y105.7 E8.61479
G1 X106.2 Y105.7 E8.65636
G1 X106.2 Y102.2 E8.71457
G1 X113.8 Y102.2 E8.84096
G1 X113.8 Y105.7 E8.89916
G0 F5400 X114 Y105.7
G0 X114 Y106.14
;;retract;;
G1 F6000 E0.89916
G0 F5400 X114.658 Y104.842
G0 X114.666 Y101.841
G0 X114.159 Y101.334
G0 X106.839 Y101.33
G0 X106.839 Y102.84
;TYPE:SKIN
G1 F6000 E8.89916
G1 F1500 X106.839 Y103.029 E8.90231
G1 X106.839 Y103.595 E8.91172
G1 X107.594 Y102.84 E8.92948
G1 X108.16 Y102.84 E8.93889
G1 X106.839 Y104.161 E8.96996
G1 X106.839 Y104.726 E8.97935
G1 X108.726 Y102.84 E9.02372
G1 X109.291 Y102.84 E9.03312
G1 X106.839 Y105.292 E9.09078
G1 X106.839 Y105.858 E9.1002
G1 X109.857 Y102.84 E9.17117
G1 X110.423 Y102.84 E9.18059
G1 X106.839 Y106.423 E9.26487
G1 X106.839 Y106.989 E9.27428
G1 X110.988 Y102.84 E9.37186
G1 X111.554 Y102.84 E9.38127
G1 X106.839 Y107.555 E9.49216
G1 X106.839 Y108.12 E9.50155
G1 X112.12 Y102.84 E9.62574
G1 X112.685 Y102.84 E9.63514
G1 X106.839 Y108.686 E9.77263
G1 X106.839 Y109.252 E9.78204
G1 X113.159 Y102.932 E9.93068
G1 X113.159 Y103.497 E9.94007
G1 X106.839 Y109.817 E10.08871
G1 X106.839 Y110.383 E10.09812
G1 X113.159 Y104.063 E10.24676
G1 X113.159 Y104.629 E10.25617
G1 X106.839 Y110.949 E10.40481
G1 X106.839 Y111.514 E10.4142
G1 X113.159 Y105.194 E10.56284
G1 X113.159 Y105.76 E10.57225
G1 X106.839 Y112.08 E10.72089
G1 X106.839 Y112.646 E10.7303
G1 X113.159 Y106.326 E10.87894
G1 X113.159 Y106.891 E10.88834
G1 X106.839 Y113.212 E11.03698
G1 X106.839 Y113.777 E11.04638
G1 X113.159 Y107.457 E11.19502
G1 X113.159 Y108.023 E11.20443
G1 X106.839 Y114.343 E11.35307
G1 X106.839 Y114.909 E11.36248
G1 X113.159 Y108.588 E11.51113
G1 X113.159 Y109.154 E11.52054
G1 X106.839 Y115.474 E11.66918
G1 X106.839 Y116.04 E11.67859
G1 X113.159 Y109.72 E11.82723
G1 X113.159 Y110.286 E11.83664
G1 X106.839 Y116.606 E11.98528
G1 X106.839 Y117.159 E11.99447
G1 X106.852 Y117.159 E11.99469
G1 X113.159 Y110.851 E12.14303
G1 X113.159 Y111.417 E12.15244
G1 X107.418 Y117.159 E12.28748
G1 X107.983 Y117.159 E12.29687
G1 X113.159 Y111.983 E12.4186
G1 X113.159 Y112.548 E12.428
G1 X108.549 Y117.159 E12.53643
G1 X109.115 Y117.159 E12.54584
G1 X113.159 Y113.114 E12.64096
G1 X113.159 Y113.68 E12.65038
G1 X109.68 Y117.159 E12.7322
G1 X110.246 Y117.159 E12.74161
G1 X113.159 Y114.245 E12.81013
G1 X113.159 Y114.811 E12.81954
G1 X110.812 Y117.159 E12.87475
G1 X111.377 Y117.159 E12.88415
G1 X113.159 Y115.377 E12.92606
G1 X113.159 Y115.942 E12.93546
G1 X111.943 Y117.159 E12.96407
G1 X112.509 Y117.159 E12.97348
G1 X113.159 Y116.508 E12.98878
G1 X113.159 Y117.074 E12.99819
G1 X113.159 Y117.159 E12.9996
G0 F5400 X113.074 Y117.159
G1 F1500 X113.159 Y117.074 E13.0016
;;retract;;
G1 F6000 E5.0016
G0 F5400 X114.67 Y117.074
G0 X114.666 Y118.159
G0 X114.159 Y118.666
G0 X105.841 Y118.666
G0 X105.334 Y118.159
G0 X105.342 Y107.658
G0 X103.341 Y107.666
G0 X102.834 Y107.159
G0 X102.834 Y105.341
G0 X105.334 Y101.841
G0 X105.841 Y101.334
G0 X107.029 Y101.33
G0 X107.029 Y102.84
G1 F6000 E13.0016
G1 F1500 X106.839 Y103.029 E13.00606
;;retract;;
G1 F6000 E5.00606
;MESH:NONMESH
G0 F600 X106.839 Y103.029 Z0.3
G0 F5400 X105.33 Y103.029
G0 X102.834 Y105.341
G0 X102.834 Y107.159
G0 X104.851 Y108.988
G0 X104.336 Y109.696
;TIME_ELAPSED:49.513504

;LAYER:2
M106 S255
;TYPE:SUPPORT
G1 F6000 E13.00606
G1 F3000 X104.538 Y110.315 E13.01472
G1 X104.16 Y112.376 E13.0426
G1 X103.385 Y112.94 E13.05535
G1 X102.415 Y112.94 E13.06826
G1 X101.627 Y112.367 E13.08122
G1 X101.326 Y111.444 E13.09413
G1 X101.628 Y110.517 E13.1071
G1 X103.183 Y109.319 E13.13322
G1 X103.818 Y109.319 E13.14167
G1 X104.336 Y109.696 E13.15019
;;retract;;
G1 F6000 E5.15019
G0 F7200 X105.163 Y109.426
G0 X105.342 Y107.658
G0 X103.341 Y107.666
G0 X102.834 Y107.159
G0 X102.834 Y105.341
G0 X105.334 Y101.841
G0 X105.841 Y101.334
G0 X114.159 Y101.334
G0 X114.666 Y101.841
G0 X117.166 Y105.341
G0 X117.166 Y107.159
G0 X116.103 Y108.29
G0 X116.615 Y108.993
G1 F6000 E13.15019
G1 F3000 X117.585 Y108.993 E13.1631
G1 X118.36 Y109.557 E13.17585
G1 X118.669 Y111.218 E13.19833
G1 X118.366 Y112.148 E13.21134
G1 X117.582 Y112.718 E13.22423
G1 X116.618 Y112.718 E13.23706
G1 X115.842 Y112.154 E13.24982
G1 X115.473 Y110.499 E13.27238
G1 X115.822 Y109.57 E13.28558
G1 X116.615 Y108.993 E13.29863
;;retract;;
G1 F6000 E5.29863
;MESH:
G0 F7200 X116.103 Y108.29
G0 X114.658 Y107.658
G0 X113.4 Y106.1
;TYPE:WALL-INNER
G1 F6000 E13.29863
G1 F1500 X115.9 Y106.1 E13.34021
G1 X115.9 Y106.4 E13.34519
G1 X113.4 Y106.4 E13.37645
G1 X113.4 Y117.4 E13.55939
G1 X106.6 Y117.4 E13.67247
G1 X106.6 Y106.4 E13.8554
G1 X104.1 Y106.4 E13.89698
G1 X104.1 Y106.1 E13.90196
G1 X106.6 Y106.1 E13.93322
G1 X106.6 Y102.6 E13.99143
G1 X113.4 Y102.6 E14.10451
G1 X113.4 Y106.1 E14.16272
G0 F7200 X113.8 Y105.7
;TYPE:WALL-OUTER
G1 F1500 X116.3 Y105.7 E14.20429
G1 X116.3 Y106.8 E14.22259
G1 X113.8 Y106.8 E14.26416
G1 X113.8 Y117.8 E14.44709
G1 X106.2 Y117.8 E14.57348
G1 X106.2 Y106.8 E14.75641
G1 X103.7 Y106.8 E14.79799
G1 X103.7 Y105.7 E14.81628
G1 X106.2 Y105.7 E14.85786
G1 X106.2 Y102.2 E14.91606
G1 X113.8 Y102.2 E15.04245
G1 X113.8 Y105.7 E15.10065
G0 F7200 X114 Y105.7
G0 X114 Y106.14
;;retract;;
G1 F6000 E7.10065
G0 F7200 X114.658 Y107.658
G0 X117.868 Y108.125
G0 X119.15 Y109.059
G0 X119.563 Y111.275
G0 X119.104 Y112.684
G0 X114.666 Y118.159
G0 X114.159 Y118.666
G0 X105.841 Y118.666
G0 X105.334 Y118.159
G0 X105.33 Y117.159
G0 X106.839 Y117.159
;TYPE:SKIN
G1 F6000 E15.10065
G1 F1500 X106.976 Y117.159 E15.10293
G1 X106.839 Y117.021 E15.10617
G1 X106.839 Y116.456 E15.11556
G1 X107.542 Y117.159 E15.1321
G1 X108.108 Y117.159 E15.14151
G1 X106.839 Y115.89 E15.17135
G1 X106.839 Y115.324 E15.18077
G1 X108.673 Y117.159 E15.22391
G1 X109.239 Y117.159 E15.23332
G1 X106.839 Y114.759 E15.28977
G1 X106.839 Y114.193 E15.29918
G1 X109.805 Y117.159 E15.36894
G1 X110.37 Y117.159 E15.37833
G1 X106.839 Y113.627 E15.46139
G1 X106.839 Y113.062 E15.47078
G1 X110.936 Y117.159 E15.56714
G1 X111.502 Y117.159 E15.57655
G1 X106.839 Y112.496 E15.68622
G1 X106.839 Y111.93 E15.69563
G1 X112.067 Y117.159 E15.8186
G1 X112.633 Y117.159 E15.82801
G1 X106.839 Y111.365 E15.96428
G1 X106.839 Y110.799 E15.97369
G1 X113.159 Y117.119 E16.12233
G1 X113.159 Y116.553 E16.13174
G1 X106.839 Y110.233 E16.28037
G1 X106.839 Y109.668 E16.28977
G1 X113.159 Y115.988 E16.43841
G1 X113.159 Y115.422 E16.44782
G1 X106.839 Y109.102 E16.59646
G1 X106.839 Y108.536 E16.60587
