;FLAVOR:Marlin
;TIME:2753
;Filament used:0.608143m
;Layer height: 0.1
;MINX:101.236
;MINY:96.767
;MINZ:0.1
;MAXX:118.558
;MAXY:121.07
;MAXZ:15
                               
;Creality Print GCode Generated by CXEngine:NO_MAGE_VERSION_GIT_HEAD_BRANCH
;CXEngine Release Time:2022-09-30 09:53:04
;Gcode Generated Time:2023-03-17 17:39:46
;----------Machine Config--------------
;Machine Name:Creality Ender-3
;Machine Height:250
;Machine Width:220
;Machine Depth:220
;Material name:PLA
;Number of Extruders:1
;ExtruderParams[0] Nozzle Diameter1000
;----------Profile Config---------------
;Engine Version:275f99b
;Engine Release Time:2022-09-30 09:42:18
;Layer Height:0.1
;Wall Thickness:0.8
;Top/Bottom Thickness:0.5
;Out Wall Line Width:0.4
;Inner Wall Line Width:0.4
;Inital Layer Height:100
;Wall Line Count:2
;Infill Line Distance:4
;Infill Pattern:grid
;Infill Sparse Density:20
;Infill Wipe Distance:0
;Print Temperature:200
;Bed Temperature:60
;Support Enable:true
;Support Density:0
;Support Angle:60
;Adhesion Type:none
;machine is belt:false
;machine belt offset:10
;machine belt offset Y:0
;Raft Base Line Spacing:1.6
;Wait Heatup Sync:true
;----------Shell Config----------------
;Outer Wall Wipe Distance:200
;Outer Inset First:false
;Infill Before Walls:false
;Infill Overlap:0.16
;Fill Gaps Between Walls:everywhere
;Minimum Infill Area:1
;Top Surface Skin Layer:0
;Top Layers:4
;Z Seam Alignment:sharpest_corner
;Seam Corner Preference:z_seam_corner_inner
;Z Seam X:110
;Z Seam Y:110
;Horizontal Expansion:0
;Top/Bottom Pattern:zigzag
;Ironing Pattern:zigzag
;Vase Model:false
;----------Support Config----------------
;Support Type:everywhere
;Support Pattern:zigzag
;Support Infill Layer Thickness:0.1
;Minimum Support Area:5
;Enable Support Roof:true
;Support Roof Thickness:0.8
;Support Roof Pattern:lines
;Connect Support Lines:0
;Connect Support ZigZags:0
;Minimum Support X/Y Distance:0.2
;Support Line Distance:0
; ---------PrintSpeed & Travel----------
;Enable Print Cool:true
;Avoid Printed Parts Traveling:true
;Enable Retraction:true
;Retraction Distance:8
;Retraction Speed:100
;Retraction Prime Speed:100
;Maximum Retraction Count:100
;Minimum Extrusion Distance Window:1
;Z Hop When Retracted:false
;Z Hop Height:0.2
;Retract Before Outer Wall:true
;Print Speed:50
;Infill Speed:50

;Prime Tower Speed:50
;Travel Speed:120
;Initial Layer Speed:25
;Skirt/Brim Speed:25
;Combing Mode:infill
; --------SpecialModel&Mesh Fixes--------
;Union Overlapping Volum:true
;Remove All Holes:false
;Maximum Travel Resolution:0.6
;Maximum Deviation:0.05
;Maximum Model Angle:0.872665
;IS Mold Print:false
;Make Overhang Printable:false
;Enable Coasting:false
;Coasting Volumes:0.06
;Coasting Speed:0.9
;Raft AirGap:0.25
;Layer0 ZOverLap:0.13
;---------------------End of Head--------------------------
M140 S60
M105
M104 S200
M105
M109 S200
M105
M190 S60
M82 ;absolute extrusion mode
M220 S100 ;Reset Feedrate
M221 S100 ;Reset Flowrate

G28 ;Home

G92 E0 ;Reset Extruder
G1 Z2.0 F3000 ;Move Z Axis up
G1 X10.1 Y20 Z0.28 F5000.0 ;Move to start position
G1 X10.1 Y145.0 Z0.28 F1500.0 E15 ;Draw the first line
G1 X10.4 Y145.0 Z0.28 F5000.0 ;Move to side a little
G1 X10.4 Y20 Z0.28 F1500.0 E30 ;Draw the second line
G92 E0  ;Reset Extruder
G1 E-1.0000 F1800 ;Retract a bit
G1 Z2.0 F3000 ;Move Z Axis up
G1 E0.0000 F1800 

G92 E0
G92 E0
G1 F6000 E-8

;LAYER_COUNT:150

;LAYER:0
M107
G0 F3600 X101.748 Y101.416 Z0.1
;TYPE:SUPPORT
G1 F6000 E0
G1 F1500 X102.523 Y100.852 E0.01403
G1 X103.477 Y100.852 E0.02799
G1 X104.242 Y101.409 E0.04184
G1 X104.51 Y102.731 E0.06158
G1 X104.473 Y104.238 E0.08364
G1 X104.554 Y105.758 E0.10591
G1 X104.558 Y107.164 E0.12649
G1 X104.453 Y108.788 E0.15031
G1 X105.092 Y110.281 E0.17407
G1 X105.982 Y112.075 E0.20338
G1 X106.701 Y113.315 E0.22436
G1 X107.713 Y114.484 E0.24698
G1 X108.863 Y115.391 E0.26842
G1 X110.394 Y115.43 E0.29083
G1 X111.943 Y115.311 E0.31357
G1 X112.945 Y114.04 E0.33725
G1 X114.076 Y111.35 E0.37996
G1 X115.523 Y109.007 E0.42026
G1 X115.442 Y107.493 E0.44245
G1 X115.442 Y106.12 E0.46254
G1 X115.748 Y105.181 E0.47699
G1 X116.523 Y104.617 E0.49102
G1 X117.477 Y104.617 E0.50498
G1 X118.242 Y105.174 E0.51883
G1 X118.513 Y106.494 E0.53855
G1 X118.558 Y108.142 E0.56268
G1 X118.319 Y109.892 E0.58852
G1 X117.698 Y111.46 E0.6132
G1 X116.885 Y112.578 E0.63343
G1 X116.249 Y113.894 E0.65482
G1 X115.722 Y115.261 E0.67626
G1 X115.113 Y116.483 E0.69625
G1 X113.663 Y117.803 E0.72494
G1 X112.354 Y118.274 E0.7453
G1 X110.868 Y118.375 E0.7671
G1 X109.081 Y118.578 E0.79342
G1 X107.793 Y118.263 E0.81282
G1 X106.602 Y117.518 E0.83338
G1 X105.293 Y116.458 E0.85803
G1 X104.413 Y115.395 E0.87823
G1 X103.554 Y113.998 E0.90223
G1 X102.999 Y112.714 E0.9227
G1 X102.363 Y111.416 E0.94385
G1 X101.6 Y109.681 E0.97159
G1 X101.442 Y106.681 E1.01555
G1 X101.442 Y105.269 E1.03622
G1 X101.505 Y103.779 E1.05804
G1 X101.444 Y102.351 E1.07896
G1 X101.748 Y101.416 E1.09335
;;retract;;
G1 F6000 E-6.90665
;MESH:
G0 F3600 X101.236 Y100.713
G0 X102.24 Y99.984
G0 X103.101 Y99.984
G0 X113.302 Y100.445
G0 X113.3 Y101.715
;TYPE:WALL-INNER
G1 F6000 E1.09335
G1 F1500 X113.3 Y108.1 E1.21015
G1 X113.3 Y108.299 E1.21379
G1 X113.101 Y108.299 E1.21614
G1 X106.7 Y108.285 E1.33324
G1 X106.7 Y101.9 E1.45004
G1 X106.7 Y101.701 E1.45368
G1 X106.899 Y101.701 E1.45603
G1 X113.3 Y101.715 E1.57313
;;retract;;
G1 F6000 E-6.42687
G0 F3600 X113.302 Y100.445
G0 X106.501 Y100.43
G0 X106.5 Y101.3
;TYPE:WALL-OUTER
G1 F6000 E1.57313
G1 F1500 X113.7 Y101.316 E1.70484
G1 X113.7 Y108.5 E1.83626
G1 X113.7 Y108.7 E1.83992
G1 X113.5 Y108.7 E1.84228
G1 X106.3 Y108.684 E1.97399
G1 X106.3 Y101.5 E2.10541
G1 X106.3 Y101.3 E2.10907
G1 X106.5 Y101.3 E2.11144
G0 F3600 X106.7 Y101.3
G0 X106.74 Y101.74
;;retract;;
G1 F6000 E-5.88856
G0 F3600 X105.43 Y101.74
G0 X105.43 Y108.044
G0 X106.94 Y108.044
;TYPE:SKIN
G1 F6000 E2.11144
G1 F1500 X107.479 Y108.045 E2.1213
G1 X108.046 Y108.046 E2.13167
G1 X106.939 Y106.939 E2.16031
G1 X106.939 Y106.373 E2.17066
G1 X108.613 Y108.048 E2.21398
G1 X109.18 Y108.049 E2.22436
G1 X106.939 Y105.807 E2.28234
G1 X106.939 Y105.242 E2.29268
G1 X109.747 Y108.05 E2.36532
G1 X110.315 Y108.052 E2.37571
G1 X106.939 Y104.676 E2.46305
G1 X106.939 Y104.11 E2.47341
G1 X110.881 Y108.052 E2.57539
G1 X111.448 Y108.054 E2.58576
G1 X106.939 Y103.545 E2.70241
G1 X106.939 Y102.979 E2.71276
G1 X112.015 Y108.055 E2.84408
G1 X112.582 Y108.057 E2.85445
G1 X106.939 Y102.413 E3.00045
G1 X106.939 Y101.941 E3.00909
G1 X107.033 Y101.942 E3.01081
G1 X113.059 Y107.968 E3.1667
G1 X113.059 Y107.402 E3.17705
G1 X107.6 Y101.943 E3.31828
G1 X108.166 Y101.944 E3.32863
G1 X113.059 Y106.836 E3.4552
G1 X113.059 Y106.271 E3.46554
G1 X108.733 Y101.945 E3.57746
G1 X109.301 Y101.947 E3.58785
G1 X113.059 Y105.705 E3.68507
G1 X113.059 Y105.139 E3.69542
G1 X109.868 Y101.948 E3.77797
G1 X110.434 Y101.949 E3.78833
G1 X113.059 Y104.574 E3.85624
G1 X113.059 Y104.008 E3.86659
G1 X111.001 Y101.95 E3.91983
G1 X111.568 Y101.952 E3.9302
G1 X113.059 Y103.442 E3.96876
G1 X113.059 Y102.876 E3.97912
G1 X112.135 Y101.953 E4.00301
G1 X112.702 Y101.954 E4.01338
G1 X113.059 Y101.954 E4.01991
G0 F3600 X113.059 Y102.311
G1 F1500 X112.702 Y101.954 E4.02915
;;retract;;
G1 F6000 E-3.97085
G0 F3600 X112.705 Y100.444
G0 X105.942 Y100.433
G0 X105.434 Y100.941
G0 X105.43 Y107.504
G0 X106.939 Y107.504
G1 F6000 E4.02915
G1 F1500 X107.479 Y108.045 E4.04313
;;retract;;
G1 F6000 E-3.95687
;MESH:NONMESH
G0 F600 X107.479 Y108.045 Z0.2
G0 F3600 X107.476 Y109.557
G0 X105.94 Y109.549
G0 X105.434 Y109.043
G0 X105.434 Y100.941
G0 X105.942 Y100.433
G0 X114.06 Y100.451
G0 X114.515 Y100.906
G0 X116.045 Y103.889
G0 X116.526 Y104.548
;TIME_ELAPSED:20.478331

;LAYER:1
M140 S60
M106 S127.5
;TYPE:SUPPORT
G1 F6000 E4.04313
G1 F2250 X117.474 Y104.548 E4.05574
G1 X118.233 Y105.1 E4.06823
G1 X118.487 Y106.457 E4.08659
G1 X118.424 Y109.151 E4.12245
G1 X117.961 Y110.961 E4.1473
G1 X117.17 Y112.165 E4.16647
G1 X116.437 Y113.396 E4.18553
G1 X115.845 Y114.915 E4.20722
G1 X115.284 Y116.201 E4.22588
G1 X114.319 Y117.304 E4.24538
G1 X113.016 Y118.186 E4.26631
G1 X108.759 Y118.586 E4.3232
G1 X107.479 Y118.102 E4.3414
G1 X106.012 Y117.103 E4.36502
G1 X105.052 Y116.108 E4.38341
G1 X104.183 Y115.06 E4.40152
G1 X102.524 Y111.821 E4.44994
G1 X101.625 Y109.737 E4.48014
G1 X101.564 Y108.161 E4.50112
G1 X101.451 Y106.61 E4.52181
G1 X101.593 Y104.874 E4.54498
G1 X101.453 Y103.507 E4.56326
G1 X101.771 Y101.328 E4.59256
G1 X102.526 Y100.778 E4.60499
G1 X103.474 Y100.778 E4.6176
G1 X104.239 Y101.335 E4.63019
G1 X104.549 Y102.577 E4.64722
G1 X104.549 Y104.057 E4.66691
G1 X104.443 Y106.938 E4.70526
G1 X104.55 Y108.545 E4.72669
G1 X104.774 Y109.773 E4.7433
G1 X105.778 Y111.64 E4.7715
G1 X106.471 Y113.08 E4.79276
G1 X107.471 Y114.243 E4.81317
G1 X108.569 Y115.259 E4.83307
G1 X110.06 Y115.463 E4.85309
G1 X111.759 Y115.357 E4.87574
G1 X112.7 Y114.655 E4.89136
G1 X113.916 Y111.676 E4.93416
G1 X114.677 Y110.329 E4.95475
G1 X115.517 Y109.047 E4.97514
G1 X115.451 Y107.544 E4.99515
G1 X115.489 Y106.159 E5.01359
G1 X115.761 Y105.105 E5.02807
G1 X116.526 Y104.548 E5.04066
;;retract;;
G1 F6000 E-2.95934
;MESH:
G0 F5400 X116.014 Y103.845
G0 X114.57 Y101.7
G0 X113.3 Y101.7
;TYPE:WALL-INNER
G1 F6000 E5.04066
G1 F1500 X113.3 Y108.3 E5.15042
G1 X106.7 Y108.3 E5.26017
G1 X106.7 Y101.7 E5.36993
G1 X113.3 Y101.7 E5.47969
G0 F5400 X113.7 Y101.3
;TYPE:WALL-OUTER
G1 F1500 X113.7 Y108.7 E5.60275
G1 X106.3 Y108.7 E5.72582
G1 X106.3 Y101.3 E5.84888
G1 X113.7 Y101.3 E5.97194
G0 F5400 X113.7 Y101.5
G0 X113.26 Y101.74
;;retract;;
G1 F6000 E-2.02806
G0 F5400 X113.26 Y100.43
G0 X106.939 Y100.43
G0 X106.939 Y101.94
;TYPE:SKIN
G1 F6000 E5.97194
G1 F1500 X106.94 Y102.363 E5.97898
G1 X107.364 Y101.939 E5.98895
G1 X107.929 Y101.939 E5.99834
G1 X106.94 Y102.929 E6.02161
G1 X106.94 Y103.494 E6.03101
G1 X108.495 Y101.939 E6.06758
G1 X109.061 Y101.939 E6.07699
G1 X106.94 Y104.06 E6.12688
G1 X106.94 Y104.626 E6.13629
G1 X109.627 Y101.939 E6.19948
G1 X110.192 Y101.939 E6.20888
G1 X106.94 Y105.192 E6.28537
G1 X106.94 Y105.757 E6.29477
G1 X110.758 Y101.939 E6.38456
G1 X111.324 Y101.939 E6.39398
G1 X106.94 Y106.323 E6.49708
G1 X106.94 Y106.889 E6.50649
G1 X111.889 Y101.939 E6.6229
G1 X112.455 Y101.939 E6.63231
G1 X106.94 Y107.454 E6.76202
G1 X106.94 Y108.02 E6.77143
G1 X113.021 Y101.939 E6.91444
G1 X113.059 Y101.939 E6.91508
G1 X113.059 Y102.466 E6.92384
G1 X107.466 Y108.059 E7.05538
G1 X108.032 Y108.059 E7.06479
G1 X113.059 Y103.032 E7.18302
G1 X113.059 Y103.598 E7.19243
G1 X108.598 Y108.059 E7.29735
G1 X109.163 Y108.059 E7.30674
G1 X113.059 Y104.163 E7.39837
G1 X113.059 Y104.729 E7.40778
G1 X109.729 Y108.059 E7.4861
G1 X110.294 Y108.06 E7.4955
G1 X113.059 Y105.295 E7.56052
G1 X113.059 Y105.86 E7.56992
G1 X110.86 Y108.06 E7.62165
G1 X111.425 Y108.06 E7.63105
G1 X113.059 Y106.426 E7.66947
G1 X113.059 Y106.992 E7.67889
G1 X111.991 Y108.06 E7.704
G1 X112.557 Y108.06 E7.71342
G1 X113.059 Y107.558 E7.72522
G1 X113.059 Y108.06 E7.73357
;;retract;;
G1 F6000 E-0.26643
;MESH:NONMESH
G0 F600 X113.059 Y108.06 Z0.3
G0 F5400 X114.57 Y108.06
G0 X114.623 Y106.037
G0 X114.998 Y104.587
G0 X116.048 Y103.82
G0 X116.529 Y104.481
;TIME_ELAPSED:32.897417

;LAYER:2
M106 S255
;TYPE:SUPPORT
G1 F6000 E7.73357
G1 F3000 X117.471 Y104.481 E7.7461
G1 X118.227 Y105.031 E7.75854
G1 X118.488 Y106.4 E7.77708
G1 X118.386 Y109.167 E7.81392
G1 X117.97 Y110.923 E7.83793
G1 X117.14 Y112.245 E7.8587
G1 X116.378 Y113.636 E7.8798
G1 X115.841 Y114.985 E7.89911
G1 X115.259 Y116.266 E7.91783
G1 X113.679 Y117.805 E7.94718
G1 X112.354 Y118.275 E7.96588
G1 X110.857 Y118.36 E7.98583
G1 X109.097 Y118.558 E8.00939
G1 X107.805 Y118.256 E8.02704
G1 X106.613 Y117.521 E8.04568
G1 X105.586 Y116.665 E8.06346
G1 X103.702 Y114.412 E8.10254
G1 X102.966 Y112.559 E8.12906
G1 X102.221 Y111.301 E8.14851
G1 X101.615 Y109.692 E8.17139
G1 X101.46 Y106.681 E8.2115
G1 X101.46 Y105.266 E8.23032
G1 X101.525 Y103.786 E8.25003
G1 X101.492 Y102.396 E8.26853
G1 X101.768 Y101.257 E8.28412
G1 X102.529 Y100.703 E8.29665
G1 X103.471 Y100.703 E8.30918
G1 X104.232 Y101.257 E8.3217
G1 X104.54 Y102.494 E8.33866
G1 X104.54 Y103.971 E8.35831
G1 X104.46 Y105.497 E8.37864
G1 X104.461 Y106.94 E8.39784
G1 X104.541 Y108.461 E8.4181
G1 X104.765 Y109.724 E8.43517
G1 X105.595 Y111.179 E8.45745
G1 X106.141 Y112.547 E8.47705
G1 X106.992 Y113.814 E8.49735
G1 X108.167 Y114.984 E8.51941
G1 X109.7 Y115.506 E8.54096
G1 X111.571 Y115.362 E8.56592
G1 X112.548 Y114.925 E8.58016
G1 X113.271 Y113.363 E8.60306
G1 X113.775 Y112.006 E8.62232
G1 X114.441 Y110.684 E8.64201
G1 X115.387 Y109.481 E8.66238
G1 X115.566 Y107.802 E8.68484
G1 X115.512 Y106.4 E8.70351
G1 X115.773 Y105.031 E8.72205
G1 X116.529 Y104.481 E8.73448
;;retract;;
G1 F6000 E0.73448
;MESH:
G0 F7200 X116.017 Y103.778
G0 X114.57 Y101.7
G0 X113.3 Y101.7
;TYPE:WALL-INNER
G1 F6000 E8.73448
G1 F1500 X113.3 Y108.3 E8.84424
G1 X106.7 Y108.3 E8.954
G1 X106.7 Y101.7 E9.06376
G1 X113.3 Y101.7 E9.17352
G0 F7200 X113.7 Y101.3
;TYPE:WALL-OUTER
G1 F1500 X113.7 Y108.7 E9.29658
G1 X106.3 Y108.7 E9.41964
G1 X106.3 Y101.3 E9.54271
G1 X113.7 Y101.3 E9.66577
G0 F7200 X113.7 Y101.5
G0 X113.26 Y101.74
G0 X113.059 Y102.311
;TYPE:SKIN
G1 F1500 X112.688 Y101.94 E9.67449
G1 X112.122 Y101.94 E9.68391
G1 X113.059 Y102.876 E9.70593
G1 X113.059 Y103.442 E9.71534
G1 X111.556 Y101.94 E9.75068
G1 X110.991 Y101.94 E9.76008
G1 X113.059 Y104.008 E9.80871
G1 X113.059 Y104.574 E9.81813
G1 X110.425 Y101.94 E9.88007
G1 X109.859 Y101.94 E9.88949
G1 X113.059 Y105.139 E9.96473
G1 X113.059 Y105.705 E9.97415
G1 X109.293 Y101.94 E10.0627
G1 X108.728 Y101.94 E10.0721
G1 X113.059 Y106.271 E10.17396
G1 X113.059 Y106.836 E10.18336
G1 X108.162 Y101.94 E10.29851
G1 X107.596 Y101.94 E10.30793
G1 X113.059 Y107.402 E10.4364
G1 X113.059 Y107.968 E10.44581
G1 X107.031 Y101.94 E10.58758
G1 X106.939 Y101.94 E10.58911
G1 X106.939 Y102.413 E10.59697
G1 X112.584 Y108.059 E10.72975
G1 X112.019 Y108.059 E10.73914
G1 X106.939 Y102.979 E10.85862
G1 X106.939 Y103.545 E10.86803
G1 X111.453 Y108.059 E10.97419
G1 X110.887 Y108.059 E10.9836
G1 X106.939 Y104.11 E11.07647
G1 X106.939 Y104.676 E11.08588
G1 X110.322 Y108.059 E11.16544
G1 X109.755 Y108.058 E11.17487
G1 X106.939 Y105.242 E11.2411
G1 X106.939 Y105.807 E11.2505
G1 X109.19 Y108.058 E11.30344
G1 X108.624 Y108.058 E11.31285
G1 X106.939 Y106.373 E11.35248
G1 X106.939 Y106.939 E11.36189
G1 X108.058 Y108.058 E11.38821
G1 X107.492 Y108.058 E11.39762
G1 X106.94 Y108.058 E11.4068
G0 F7200 X106.939 Y107.504
G1 F1500 X107.492 Y108.058 E11.41982
;;retract;;
G1 F6000 E3.41982
G0 F7200 X107.492 Y109.57
G0 X114.059 Y109.566
G0 X114.566 Y109.059
G0 X114.566 Y100.941
G0 X114.059 Y100.434
G0 X112.688 Y100.43
G0 X112.688 Y101.94
G1 F6000 E11.41982
G1 F1500 X113.059 Y101.939 E11.42599
;;retract;;
G1 F6000 E3.42599
;MESH:NONMESH
G0 F600 X113.059 Y101.939 Z0.4
G0 F7200 X114.57 Y101.939
G0 X116.041 Y103.76
G0 X116.531 Y104.433
;TIME_ELAPSED:45.364044

;LAYER:3
;TYPE:SUPPORT
G1 F6000 E11.42599
G1 F2758.5 X117.469 Y104.433 E11.43847
G1 X118.218 Y104.979 E11.4508
G1 X118.467 Y106.364 E11.46952
G1 X118.401 Y109.167 E11.50682
G1 X117.938 Y110.97 E11.53159
G1 X117.131 Y112.151 E11.55062
G1 X116.407 Y113.389 E11.5697
G1 X115.418 Y115.975 E11.60653
G1 X114.565 Y117.132 E11.62565
G1 X113.492 Y117.959 E11.64368
G1 X112.031 Y118.319 E11.6637
G1 X110.569 Y118.375 E11.68316
G1 X108.774 Y118.57 E11.70718
G1 X107.489 Y118.099 E11.72539
G1 X106.024 Y117.108 E11.74892
G1 X105.054 Y116.101 E11.76752
G1 X104.193 Y115.055 E11.78555
G1 X103.155 Y113.003 E11.81614
G1 X101.64 Y109.73 E11.86412
G1 X101.582 Y108.16 E11.88503
G1 X101.468 Y106.61 E11.9057
G1 X101.612 Y104.882 E11.92877
G1 X101.468 Y103.492 E11.94736
G1 X101.488 Y102.166 E11.96501
G1 X101.772 Y101.181 E11.97864
G1 X102.531 Y100.628 E11.99114
G1 X103.469 Y100.628 E12.00362
G1 X104.225 Y101.178 E12.01606
G1 X104.53 Y102.435 E12.03326
G1 X104.44 Y103.782 E12.05122
G1 X104.531 Y105.321 E12.07174
G1 X104.426 Y106.935 E12.09325
G1 X104.533 Y108.545 E12.11472
G1 X104.761 Y109.775 E12.13136
G1 X105.815 Y111.682 E12.16035
G1 X106.408 Y112.959 E12.17908
