;FLAVOR:Marlin
;TIME:1520
;Filament used:0.193164m
;Layer height: 0.1
;MINX:96.327
;MINY:96.328
;MINZ:0.1
;MAXX:123.656
;MAXY:123.673
;MAXZ:1.5
                              
;Creality Print GCode Generated by CXEngine:NO_MAGE_VERSION_GIT_HEAD_BRANCH
;CXEngine Release Time:2022-09-30 09:53:04
;Gcode Generated Time:2023-03-17 15:30:30
;----------Machine Config--------------
;Machine Name:Creality Ender-3
;Machine Height:250
;Machine Width:220
;Machine Depth:220
;Material name:PLA
;Number of Extruders:1
;ExtruderParams[0] Nozzle Diameter1000
;----------Profile Config---------------
;Engine Version:275f99b
;Engine Release Time:2022-09-30 09:42:18
;Layer Height:0.1
;Wall Thickness:0.8
;Top/Bottom Thickness:0.5
;Out Wall Line Width:0.4
;Inner Wall Line Width:0.4
;Inital Layer Height:100
;Wall Line Count:2
;Infill Line Distance:4
;Infill Pattern:grid
;Infill Sparse Density:20
;Infill Wipe Distance:0
;Print Temperature:200
;Bed Temperature:60
;Support Enable:true
;Support Density:0
;Support Angle:60
;Adhesion Type:none
;machine is belt:false
;machine belt offset:10
;machine belt offset Y:0
;Raft Base Line Spacing:1.6
;Wait Heatup Sync:true
;----------Shell Config----------------
;Outer Wall Wipe Distance:200
;Outer Inset First:false
;Infill Before Walls:false
;Infill Overlap:0.16
;Fill Gaps Between Walls:everywhere
;Minimum Infill Area:1
;Top Surface Skin Layer:0
;Top Layers:4
;Z Seam Alignment:sharpest_corner
;Seam Corner Preference:z_seam_corner_inner
;Z Seam X:110
;Z Seam Y:110
;Horizontal Expansion:0
;Top/Bottom Pattern:zigzag
;Ironing Pattern:zigzag
;Vase Model:false
;----------Support Config----------------
;Support Type:everywhere
;Support Pattern:zigzag
;Support Infill Layer Thickness:0.1
;Minimum Support Area:5
;Enable Support Roof:true
;Support Roof Thickness:0.8
;Support Roof Pattern:lines
;Connect Support Lines:0
;Connect Support ZigZags:0
;Minimum Support X/Y Distance:0.2
;Support Line Distance:0
; ---------PrintSpeed & Travel----------
;Enable Print Cool:true
;Avoid Printed Parts Traveling:true
;Enable Retraction:true
;Retraction Distance:8
;Retraction Speed:100
;Retraction Prime Speed:100
;Maximum Retraction Count:100
;Minimum Extrusion Distance Window:1
;Z Hop When Retracted:false
;Z Hop Height:0.2
;Retract Before Outer Wall:true
;Print Speed:50
;Infill Speed:50

;Prime Tower Speed:50
;Travel Speed:120
;Initial Layer Speed:25
;Skirt/Brim Speed:25
;Combing Mode:infill
; --------SpecialModel&Mesh Fixes--------
;Union Overlapping Volum:true
;Remove All Holes:false
;Maximum Travel Resolution:0.6
;Maximum Deviation:0.05
;Maximum Model Angle:0.872665
;IS Mold Print:false
;Make Overhang Printable:false
;Enable Coasting:false
;Coasting Volumes:0.06
;Coasting Speed:0.9
;Raft AirGap:0.25
;Layer0 ZOverLap:0.13
;---------------------End of Head--------------------------
M140 S60
M105
M104 S200
M105
M109 S200
M105
M190 S60
M82 ;absolute extrusion mode
M220 S100 ;Reset Feedrate
M221 S100 ;Reset Flowrate

G28 ;Home

G92 E0 ;Reset Extruder
G1 Z2.0 F3000 ;Move Z Axis up
G1 X10.1 Y20 Z0.28 F5000.0 ;Move to start position
G1 X10.1 Y145.0 Z0.28 F1500.0 E15 ;Draw the first line
G1 X10.4 Y145.0 Z0.28 F5000.0 ;Move to side a little
G1 X10.4 Y20 Z0.28 F1500.0 E30 ;Draw the second line
G92 E0  ;Reset Extruder
G1 E-1.0000 F1800 ;Retract a bit
G1 Z2.0 F3000 ;Move Z Axis up
G1 E0.0000 F1800 

G92 E0
G92 E0
G1 F6000 E-8

;LAYER_COUNT:15

;LAYER:0
M107
;MESH:
G0 F3600 X99.98 Y98.282 Z0.1
;TYPE:WALL-INNER
G1 F6000 E0
G1 F600 X99.651 Y98.203 E0.00619
G1 X99.058 Y98.257 E0.01708
G1 X98.51 Y98.629 E0.0292
G1 X98.21 Y99.221 E0.04134
G1 X98.238 Y99.887 E0.05353
G1 X98.587 Y100.453 E0.0657
G1 X99.168 Y100.777 E0.07787
G1 X99.832 Y100.777 E0.09001
G1 X100.413 Y100.453 E0.10218
G1 X100.762 Y99.887 E0.11435
G1 X100.79 Y99.221 E0.12654
G1 X100.49 Y98.629 E0.13868
G1 X99.98 Y98.282 E0.14996
G0 F3600 X99.815 Y98.654
;TYPE:WALL-OUTER
G1 F600 X99.621 Y98.607 E0.15362
G1 X99.197 Y98.646 E0.16141
G1 X98.82 Y98.902 E0.16974
G1 X98.614 Y99.309 E0.17809
G1 X98.633 Y99.766 E0.18645
G1 X98.873 Y100.154 E0.1948
G1 X99.272 Y100.377 E0.20316
G1 X99.728 Y100.377 E0.2115
G1 X100.127 Y100.154 E0.21986
G1 X100.367 Y99.766 E0.22821
G1 X100.386 Y99.309 E0.23658
G1 X100.18 Y98.902 E0.24492
G1 X99.815 Y98.654 E0.25299
G0 F3600 X99.621 Y98.607
G0 X99.653 Y98.169
G0 X100.087 Y97.696
;TYPE:WALL-INNER
G1 F600 X100.45 Y97.859 E0.26027
G1 X100.768 Y98.09 E0.26746
G1 X101.035 Y98.386 E0.27475
G1 X101.232 Y98.728 E0.28197
G1 X101.355 Y99.105 E0.28923
G1 X101.397 Y99.5 E0.2965
G1 X101.355 Y99.895 E0.30376
G1 X101.232 Y100.272 E0.31102
G1 X101.035 Y100.614 E0.31824
G1 X100.768 Y100.91 E0.32553
G1 X100.449 Y101.142 E0.33274
G1 X100.084 Y101.305 E0.34006
G1 X99.7 Y101.386 E0.34724
G1 X99.3 Y101.386 E0.35455
G1 X98.916 Y101.305 E0.36173
G1 X98.551 Y101.142 E0.36904
G1 X98.232 Y100.91 E0.37626
G1 X97.965 Y100.614 E0.38355
G1 X97.768 Y100.272 E0.39077
G1 X97.645 Y99.895 E0.39803
G1 X97.603 Y99.5 E0.40529
G1 X97.645 Y99.105 E0.41256
G1 X97.768 Y98.728 E0.41981
G1 X97.965 Y98.386 E0.42703
G1 X98.232 Y98.09 E0.43433
G1 X98.551 Y97.858 E0.44154
G1 X98.916 Y97.695 E0.44885
G1 X99.301 Y97.614 E0.45605
G1 X99.687 Y97.613 E0.46311
G1 X100.087 Y97.696 E0.47059
G0 F3600 X100.21 Y97.313
;TYPE:WALL-OUTER
G1 F600 X100.652 Y97.511 E0.47944
G1 X101.036 Y97.79 E0.48813
G1 X101.362 Y98.151 E0.49703
G1 X101.6 Y98.564 E0.50575
G1 X101.748 Y99.021 E0.51453
G1 X101.799 Y99.5 E0.52334
G1 X101.748 Y99.979 E0.53216
G1 X101.6 Y100.436 E0.54094
G1 X101.362 Y100.849 E0.54966
G1 X101.036 Y101.21 E0.55856
G1 X100.652 Y101.489 E0.56724
G1 X100.209 Y101.687 E0.57612
G1 X99.739 Y101.786 E0.58491
G1 X99.261 Y101.786 E0.59365
G1 X98.791 Y101.687 E0.60244
G1 X98.348 Y101.489 E0.61131
G1 X97.964 Y101.21 E0.62
G1 X97.638 Y100.849 E0.6289
G1 X97.4 Y100.436 E0.63762
G1 X97.252 Y99.979 E0.6464
G1 X97.201 Y99.5 E0.65521
G1 X97.252 Y99.021 E0.66403
G1 X97.4 Y98.564 E0.67281
G1 X97.638 Y98.151 E0.68153
G1 X97.964 Y97.79 E0.69043
G1 X98.348 Y97.511 E0.69911
G1 X98.791 Y97.313 E0.70799
G1 X99.261 Y97.214 E0.71678
G1 X99.729 Y97.213 E0.72534
G1 X100.21 Y97.313 E0.73433
G0 F3600 X100.392 Y97.394
G0 X100.211 Y97.795
G0 X100.84 Y98.529
;TYPE:SKIN
G1 F600 X100.604 Y98.269 E0.74075
G1 X100.338 Y98.075 E0.74677
G1 X100.904 Y98.642 E0.76143
G1 X101.012 Y98.83 E0.76539
G1 X101.116 Y99.152 E0.77158
G1 X101.15 Y99.453 E0.77712
G1 X101.024 Y99.327 E0.78038
G1 X101.003 Y99.871 E0.79034
G1 X101.083 Y99.951 E0.79241
G1 X101.012 Y100.169 E0.79661
G1 X100.911 Y100.346 E0.80033
G1 X100.817 Y100.252 E0.80277
G1 X100.602 Y100.602 E0.81028
G1 X100.665 Y100.665 E0.81191
G1 X100.605 Y100.73 E0.81353
G1 X100.349 Y100.915 E0.81931
G1 X100.251 Y100.817 E0.82184
G1 X99.893 Y101.016 E0.82933
G1 X99.885 Y101.016 E0.82948
G1 X99.954 Y101.085 E0.83127
G1 X99.674 Y101.145 E0.8365
G1 X99.448 Y101.145 E0.84064
G1 X99.319 Y101.016 E0.84398
G0 F3600 X99.105 Y101.016
G1 F600 X98.415 Y100.631 E0.85843
G1 X98 Y99.958 E0.87289
G1 X97.989 Y99.686 E0.87787
G1 X97.968 Y99.167 E0.88738
G1 X97.991 Y99.122 E0.8883
G1 X97.915 Y99.047 E0.89025
G1 X97.986 Y98.829 E0.89445
G1 X98.087 Y98.653 E0.89816
G1 X98.181 Y98.747 E0.90059
G1 X98.323 Y98.465 E0.90637
G1 X98.408 Y98.408 E0.90824
G1 X98.334 Y98.334 E0.91015
G1 X98.394 Y98.268 E0.91178
G1 X98.649 Y98.084 E0.91754
G1 X98.744 Y98.178 E0.91998
G1 X98.973 Y98.024 E0.92503
G1 X99.139 Y98.008 E0.92808
G1 X99.045 Y97.913 E0.93053
G1 X99.325 Y97.854 E0.93576
G1 X99.55 Y97.853 E0.93988
G1 X99.658 Y97.961 E0.94267
G0 F3600 X101.024 Y99.327
G1 F600 X101.031 Y99.167 E0.9456
G1 X100.675 Y98.466 E0.95998
G1 X100.077 Y98.059 E0.97321
G1 X99.668 Y97.961 E0.98091
G0 F3600 X97.989 Y99.686
G1 F600 X97.849 Y99.546 E0.98453
G1 X97.881 Y99.846 E0.99005
G1 X97.987 Y100.169 E0.99627
G1 X98.094 Y100.356 E1.00021
G1 X98.659 Y100.922 E1.01484
G1 X98.395 Y100.73 E1.02081
G1 X98.158 Y100.469 E1.02726
G0 F3600 X97.975 Y100.52
;TYPE:SKIN
G1 F600 X98.467 Y101.013 E1.03363
G0 F3600 X99.004 Y101.266
G1 F600 X97.737 Y99.999 E1.05002
G0 F3600 X97.674 Y99.654
G1 F600 X99.35 Y101.33 E1.0717
G0 F3600 X99.371 Y101.068
G1 F600 X99.647 Y101.061 E1.0786
G1 X100.298 Y100.864 E1.09559
G1 X100.752 Y100.469 E1.11063
G1 X101.026 Y99.895 E1.12653
G1 X101.052 Y99.355 E1.14004
G0 F3600 X101.262 Y98.999
G1 F600 X99.997 Y97.734 E1.1564
G0 F3600 X99.648 Y97.668
G1 F600 X101.324 Y99.344 E1.17808
G0 F3600 X101.024 Y98.478
G1 F600 X100.53 Y97.984 E1.18447
G0 F3600 X99.634 Y97.937
G1 F600 X99.345 Y97.93 E1.19227
G1 X98.696 Y98.131 E1.2106
G1 X98.241 Y98.524 E1.22683
G1 X97.963 Y99.094 E1.24394
G1 X97.927 Y99.624 E1.25827
;;retract;;
G1 F6000 E-6.74173
G0 F3600 X96.33 Y99.507
G0 X96.395 Y100.147
G0 X96.597 Y100.779
G0 X96.924 Y101.352
G0 X97.378 Y101.818
G0 X99.5 Y106.488
G0 X99.98 Y105.282
;TYPE:WALL-INNER
G1 F6000 E1.25827
G1 F600 X99.651 Y105.203 E1.26446
G1 X99.058 Y105.257 E1.27536
G1 X98.51 Y105.629 E1.28747
G1 X98.21 Y106.221 E1.29961
G1 X98.238 Y106.887 E1.31181
G1 X98.587 Y107.453 E1.32397
G1 X99.168 Y107.777 E1.33614
G1 X99.832 Y107.777 E1.34829
G1 X100.413 Y107.453 E1.36046
G1 X100.762 Y106.887 E1.37262
G1 X100.79 Y106.221 E1.38481
G1 X100.49 Y105.629 E1.39695
G1 X99.98 Y105.282 E1.40824
G0 F3600 X99.815 Y105.654
;TYPE:WALL-OUTER
G1 F600 X99.621 Y105.607 E1.41189
G1 X99.197 Y105.646 E1.41968
G1 X98.82 Y105.902 E1.42802
G1 X98.614 Y106.309 E1.43636
G1 X98.633 Y106.766 E1.44473
G1 X98.873 Y107.154 E1.45307
G1 X99.272 Y107.377 E1.46143
G1 X99.728 Y107.377 E1.46978
G1 X100.127 Y107.154 E1.47814
G1 X100.367 Y106.766 E1.48648
G1 X100.386 Y106.309 E1.49485
G1 X100.18 Y105.902 E1.5032
G1 X99.815 Y105.654 E1.51127
G0 F3600 X99.621 Y105.607
G0 X99.653 Y105.169
G0 X100.087 Y104.696
;TYPE:WALL-INNER
G1 F600 X100.45 Y104.859 E1.51855
G1 X100.768 Y105.09 E1.52574
G1 X101.035 Y105.386 E1.53303
G1 X101.232 Y105.728 E1.54025
G1 X101.355 Y106.105 E1.5475
G1 X101.397 Y106.5 E1.55477
G1 X101.355 Y106.895 E1.56204
G1 X101.232 Y107.272 E1.56929
G1 X101.035 Y107.614 E1.57651
G1 X100.768 Y107.91 E1.5838
G1 X100.449 Y108.142 E1.59102
G1 X100.084 Y108.305 E1.59833
G1 X99.7 Y108.386 E1.60551
G1 X99.3 Y108.386 E1.61283
G1 X98.916 Y108.305 E1.62001
G1 X98.551 Y108.142 E1.62732
G1 X98.232 Y107.91 E1.63453
G1 X97.965 Y107.614 E1.64183
G1 X97.768 Y107.272 E1.64905
G1 X97.645 Y106.895 E1.6563
G1 X97.603 Y106.5 E1.66357
G1 X97.645 Y106.105 E1.67083
G1 X97.768 Y105.728 E1.67809
G1 X97.965 Y105.386 E1.68531
G1 X98.232 Y105.09 E1.6926
G1 X98.551 Y104.858 E1.69982
G1 X98.916 Y104.695 E1.70713
G1 X99.301 Y104.614 E1.71433
G1 X99.687 Y104.613 E1.72139
G1 X100.087 Y104.696 E1.72886
G0 F3600 X100.21 Y104.313
;TYPE:WALL-OUTER
G1 F600 X100.652 Y104.511 E1.73772
G1 X101.036 Y104.79 E1.7464
G1 X101.362 Y105.151 E1.7553
G1 X101.6 Y105.564 E1.76402
G1 X101.748 Y106.021 E1.77281
G1 X101.799 Y106.5 E1.78162
G1 X101.748 Y106.979 E1.79043
G1 X101.6 Y107.436 E1.79922
G1 X101.362 Y107.849 E1.80794
G1 X101.036 Y108.21 E1.81684
G1 X100.652 Y108.489 E1.82552
G1 X100.209 Y108.687 E1.8344
G1 X99.739 Y108.786 E1.84318
G1 X99.261 Y108.786 E1.85193
G1 X98.791 Y108.687 E1.86071
G1 X98.348 Y108.489 E1.86959
G1 X97.964 Y108.21 E1.87827
G1 X97.638 Y107.849 E1.88717
G1 X97.4 Y107.436 E1.89589
G1 X97.252 Y106.979 E1.90468
G1 X97.201 Y106.5 E1.91349
G1 X97.252 Y106.021 E1.9223
G1 X97.4 Y105.564 E1.93109
G1 X97.638 Y105.151 E1.93981
G1 X97.964 Y104.79 E1.94871
G1 X98.348 Y104.511 E1.95739
G1 X98.791 Y104.313 E1.96627
G1 X99.261 Y104.214 E1.97505
G1 X99.729 Y104.213 E1.98361
G1 X100.21 Y104.313 E1.9926
G0 F3600 X100.392 Y104.394
G0 X100.211 Y104.795
G0 X100.077 Y105.058
;TYPE:SKIN
G1 F600 X100.675 Y105.465 E2.00583
G1 X100.986 Y106.077 E2.01839
G1 X101.032 Y106.167 E2.02024
G1 X101.01 Y106.667 E2.02939
G1 X101.125 Y106.782 E2.03237
G1 X101.117 Y106.846 E2.03355
G1 X101.013 Y107.169 E2.03976
G1 X100.988 Y107.211 E2.04065
G1 X100.899 Y107.121 E2.04297
G1 X100.682 Y107.471 E2.0505
G1 X100.765 Y107.553 E2.05263
G1 X100.605 Y107.729 E2.05699
G1 X100.472 Y107.826 E2.06
G1 X100.387 Y107.741 E2.0622
G1 X100.024 Y107.944 E2.0698
G1 X100.108 Y108.028 E2.07198
G1 X100.004 Y108.075 E2.07406
G1 X99.675 Y108.144 E2.08021
G1 X99.659 Y108.144 E2.08051
G1 X99.531 Y108.016 E2.08382
G1 X99.105 Y108.016 E2.09161
G1 X98.789 Y107.84 E2.09823
G1 X99.032 Y108.083 E2.10451
G1 X98.994 Y108.075 E2.10522
G1 X98.669 Y107.929 E2.11174
G1 X98.395 Y107.73 E2.11794
G1 X98.159 Y107.468 E2.12439
G1 X97.986 Y107.169 E2.13071
G0 F3600 X98.415 Y107.631
G1 F600 X98.148 Y107.199 E2.14
G1 X97.922 Y106.973 E2.14584
G1 X97.881 Y106.846 E2.14828
G1 X97.844 Y106.499 E2.15467
G1 X97.86 Y106.346 E2.15748
G1 X97.98 Y106.465 E2.16057
G1 X97.967 Y106.167 E2.16603
G1 X98.062 Y105.981 E2.16985
G1 X97.967 Y105.887 E2.1723
G1 X97.987 Y105.829 E2.17342
G1 X98.158 Y105.529 E2.17974
G1 X98.166 Y105.52 E2.17996
G1 X98.252 Y105.606 E2.18218
G1 X98.323 Y105.465 E2.18507
G1 X98.533 Y105.322 E2.18972
G1 X98.444 Y105.233 E2.19202
G1 X98.67 Y105.068 E2.19714
G1 X98.792 Y105.014 E2.19958
G1 X98.87 Y105.093 E2.20161
G1 X98.974 Y105.023 E2.2039
G1 X99.333 Y104.99 E2.2105
G1 X99.219 Y104.875 E2.21346
G1 X99.326 Y104.853 E2.21546
G1 X99.663 Y104.851 E2.22162
G1 X99.786 Y104.878 E2.22393
G1 X100.018 Y104.925 E2.22826
G1 X100.322 Y105.063 E2.23436
G1 X100.605 Y105.267 E2.24074
G1 X100.841 Y105.529 E2.2472
G1 X101.013 Y105.829 E2.25352
G1 X101.117 Y106.152 E2.25973
G0 F3600 X101.124 Y106.215
G1 F600 X100.986 Y106.077 E2.2633
G0 F3600 X99.932 Y105.023
G1 F600 X99.786 Y104.878 E2.26706
G0 F3600 X100.601 Y105.409
;TYPE:SKIN
G1 F600 X100.949 Y106.04 E2.29503
G0 F3600 X100.002 Y105.094
G1 F600 X99.553 Y104.927 E2.30775
G1 X98.826 Y105.049 E2.32733
G1 X98.212 Y105.566 E2.34864
G1 X97.956 Y106.158 E2.36577
G1 X97.963 Y106.732 E2.38102
G0 F3600 X97.77 Y107.104
G1 F600 X98.905 Y108.239 E2.3957
G0 F3600 X98.477 Y107.528
G1 F600 X99.255 Y108.023 E2.41688
G1 X99.84 Y108.042 E2.43033
G1 X100.428 Y107.782 E2.4451
G1 X100.838 Y107.344 E2.45889
G1 X101.058 Y106.715 E2.4742
G1 X101.082 Y106.456 E2.48017
G0 F3600 X101.321 Y106.695
G0 X101.124 Y105.65
G1 F600 X100.346 Y104.872 E2.49023
;;retract;;
G1 F6000 E-5.50977
G0 F3600 X99.5 Y106.488
G0 X99.5 Y113.488
G0 X99.98 Y112.282
;TYPE:WALL-INNER
G1 F6000 E2.49023
G1 F600 X99.651 Y112.203 E2.49642
G1 X99.058 Y112.257 E2.50732
G1 X98.51 Y112.629 E2.51943
G1 X98.21 Y113.221 E2.53157
G1 X98.238 Y113.887 E2.54377
G1 X98.587 Y114.453 E2.55593
G1 X99.168 Y114.777 E2.5681
G1 X99.832 Y114.777 E2.58025
G1 X100.413 Y114.453 E2.59242
G1 X100.762 Y113.887 E2.60458
G1 X100.79 Y113.221 E2.61677
G1 X100.49 Y112.629 E2.62891
G1 X99.98 Y112.282 E2.6402
G0 F3600 X99.815 Y112.654
;TYPE:WALL-OUTER
G1 F600 X99.621 Y112.607 E2.64385
G1 X99.197 Y112.646 E2.65164
G1 X98.82 Y112.902 E2.65998
G1 X98.614 Y113.309 E2.66832
G1 X98.633 Y113.766 E2.67669
G1 X98.873 Y114.154 E2.68503
G1 X99.272 Y114.377 E2.69339
G1 X99.728 Y114.377 E2.70174
G1 X100.127 Y114.154 E2.7101
G1 X100.367 Y113.766 E2.71844
G1 X100.386 Y113.309 E2.72681
G1 X100.18 Y112.902 E2.73516
G1 X99.815 Y112.654 E2.74323
G0 F3600 X99.621 Y112.607
G0 X99.653 Y112.169
G0 X100.087 Y111.696
;TYPE:WALL-INNER
G1 F600 X100.45 Y111.859 E2.75051
G1 X100.768 Y112.09 E2.7577
G1 X101.035 Y112.386 E2.76499
G1 X101.232 Y112.728 E2.77221
G1 X101.355 Y113.105 E2.77946
G1 X101.397 Y113.5 E2.78673
G1 X101.355 Y113.895 E2.794
G1 X101.232 Y114.272 E2.80125
G1 X101.035 Y114.614 E2.80847
G1 X100.768 Y114.91 E2.81576
G1 X100.449 Y115.142 E2.82298
G1 X100.084 Y115.305 E2.83029
G1 X99.7 Y115.386 E2.83747
G1 X99.3 Y115.386 E2.84479
G1 X98.916 Y115.305 E2.85197
G1 X98.551 Y115.142 E2.85928
G1 X98.232 Y114.91 E2.86649
G1 X97.965 Y114.614 E2.87379
G1 X97.768 Y114.272 E2.88101
G1 X97.645 Y113.895 E2.88826
G1 X97.603 Y113.5 E2.89553
G1 X97.645 Y113.105 E2.90279
G1 X97.768 Y112.728 E2.91005
G1 X97.965 Y112.386 E2.91727
G1 X98.232 Y112.09 E2.92456
G1 X98.551 Y111.858 E2.93178
G1 X98.916 Y111.695 E2.93909
G1 X99.301 Y111.614 E2.94629
G1 X99.687 Y111.613 E2.95335
G1 X100.087 Y111.696 E2.96082
G0 F3600 X100.21 Y111.313
;TYPE:WALL-OUTER
G1 F600 X100.652 Y111.511 E2.96968
G1 X101.036 Y111.79 E2.97836
G1 X101.362 Y112.151 E2.98726
G1 X101.6 Y112.564 E2.99598
