; HEADER_BLOCK_START
; generated by OrcaSlicer 2.1.1 on 2025-01-25 at 16:33:23
; total layer number: 36
; filament_density: 1.27
; filament_diameter: 1.75
; max_z_height: 3.00
; HEADER_BLOCK_END

; THUMBNAIL_BLOCK_START

;
; THUMBNAIL_BLOCK_END







; external perimeters extrusion width = 0.40mm
; perimeters extrusion width = 0.45mm
; infill extrusion width = 0.45mm
; solid infill extrusion width = 0.45mm
; top infill extrusion width = 0.38mm
; first layer extrusion width = 0.42mm

; EXECUTABLE_BLOCK_START
EXCLUDE_OBJECT_DEFINE NAME=铲斗侧盖.STL_id_0_copy_0 CENTER=113.857,115 POLYGON=[[90.8585,124.298],[90.9373,122.493],[91.2479,120.713],[91.7853,118.988],[92.5403,117.346],[93.5005,115.815],[94.6498,114.421],[95.9692,113.187],[97.4365,112.132],[129.662,91.9952],[136.855,135.005],[136.855,138.005],[104.855,138.005],[103.052,137.888],[101.279,137.54],[99.5656,136.967],[97.9402,136.178],[96.43,135.186],[95.0601,134.007],[93.8534,132.663],[92.83,131.173],[92.0068,129.565],[91.3977,127.864],[91.0128,126.098],[90.8585,124.298]]
M73 P0 R14
;TYPE:Custom
;ELEGOO NEPTUNE 4 PRO
M220 S100 ;Set the feed speed to 100%
M221 S100 ;Set the flow rate to 100%
M104 S140
M190 S70
G90
G28 ;home
G1 Z10 F300
G1 X67.5 Y0 F6000
G1 Z0 F300
M109 S240
G92 E0 ;Reset Extruder
G1 X67.5 Y0 Z0.4 F300 ;Move to start position
G1 X167.5 E30 F400 ;Draw the first line
G1 Z0.6 F120.0 ;Move to side a little
M73 P2 R13
G1 X162.5 F3000
G92 E0 ;Reset Extruder
G90
G21
M83 ; use relative distances for extrusion
; filament start gcode
M106 S0
;LAYER_CHANGE
;Z:0.2
;HEIGHT:0.2
;BEFORE_LAYER_CHANGE
G92 E0
;0.2


G1 E-.8 F3600
;AFTER_LAYER_CHANGE
;0.2
;_SET_FAN_SPEED_CHANGING_LAYER
SET_VELOCITY_LIMIT ACCEL=1000 ACCEL_TO_DECEL=500
SET_VELOCITY_LIMIT SQUARE_CORNER_VELOCITY=7
; printing object 铲斗侧盖.STL id:0 copy 0
EXCLUDE_OBJECT_START NAME=铲斗侧盖.STL_id_0_copy_0
G1 X128.875 Y93.742 F21000
G1 Z.4
G1 Z.2
G1 E.8 F2700
;TYPE:Inner wall
;WIDTH:0.419999
G1 F3000
G1 X135.791 Y135.093 E1.24883
G1 X135.791 Y136.941 E.05503
G1 X128.453 Y136.941 E.21858
G1 X128.506 Y136.353 E.0176
G1 X128.359 Y135.805 E.01688
G1 X128.146 Y135.453 E.01227
G1 X127.723 Y135.084 E.01671
G1 X127.359 Y134.924 E.01185
G1 X127.048 Y134.857 E.00949
G1 X126.544 Y134.872 E.01499
G1 X126.073 Y135.051 E.01503
G1 X125.815 Y135.207 E.00898
G1 X125.474 Y135.576 E.01496
G1 X125.247 Y136.136 E.018
G1 X125.199 Y136.528 E.01177
G1 X125.262 Y136.941 E.01245
G1 X104.89 Y136.941 E.60681
G1 X103.19 Y136.831 E.05075
G1 X101.552 Y136.509 E.04972
G1 X99.969 Y135.98 E.04972
G1 X98.467 Y135.251 E.04972
G1 X97.072 Y134.334 E.04972
G1 X95.806 Y133.246 E.04972
G1 X94.691 Y132.003 E.04972
G1 X93.746 Y130.627 E.04972
G1 X92.968 Y129.097 E.05114
G1 X93.338 Y129.03 E.01119
G1 X93.837 Y128.774 E.01671
G1 X94.18 Y128.436 E.01434
G1 X94.411 Y127.959 E.01578
G1 X94.491 Y127.653 E.00943
G1 X94.459 Y127.128 E.01567
G1 X94.365 Y126.791 E.01042
G1 X94.1 Y126.364 E.01497
G1 X93.703 Y126.027 E.01551
G1 X93.197 Y125.824 E.01625
G1 X92.781 Y125.794 E.0124
G1 X92.384 Y125.866 E.01202
G1 X92.077 Y125.995 E.00993
G1 X91.925 Y124.276 E.0514
G1 X91.997 Y122.608 E.04972
G1 X92.284 Y120.964 E.04972
G1 X92.781 Y119.37 E.04972
G1 X93.478 Y117.853 E.04972
G1 X94.365 Y116.439 E.04972
G1 X95.427 Y115.151 E.04972
G1 X96.646 Y114.011 E.04972
G1 X98.03 Y113.016 E.05075
G1 X111.914 Y104.34 E.48769
G1 X112.15 Y104.819 E.01591
G1 X112.478 Y105.165 E.01419
G1 X112.946 Y105.436 E.01612
G1 X113.407 Y105.522 E.01396
G1 X113.69 Y105.516 E.00843
G1 X114.185 Y105.38 E.01531
G1 X114.62 Y105.076 E.01579
G1 X114.844 Y104.84 E.0097
G1 X115.086 Y104.357 E.01607
G1 X115.161 Y103.86 E.01497
G1 X115.035 Y103.271 E.01796
G1 X114.795 Y102.851 E.01439
G1 X114.605 Y102.658 E.00807
G1 X128.842 Y93.763 E.50004
G1 X129.154 Y93.123 F21000
G1 F3000
G1 X136.14 Y134.891 E1.26142
G1 X136.168 Y135.235 E.01027
G1 X136.168 Y137.318 E.06204
G1 X127.808 Y137.328 E.24903
G1 X127.991 Y137.076 E.00928
G1 X128.09 Y136.842 E.00757
G1 X128.134 Y136.414 E.01283
G1 X128.03 Y135.989 E.01302
G1 X127.791 Y135.627 E.01292
G1 X127.445 Y135.365 E.01292
G1 X127.032 Y135.234 E.01292
G1 X126.59 Y135.25 E.01316
G1 X126.125 Y135.446 E.01503
G1 X125.787 Y135.786 E.01427
G1 X125.603 Y136.259 E.01513
M73 P3 R13
G1 X125.574 Y136.495 E.00706
G1 X125.653 Y136.938 E.01342
G1 X125.897 Y137.328 E.01371
G1 X104.878 Y137.318 E.6261
G1 X103.141 Y137.205 E.05184
G1 X101.455 Y136.875 E.05117
G1 X99.826 Y136.33 E.05117
G1 X98.28 Y135.579 E.05118
G1 X96.844 Y134.636 E.05117
G1 X95.542 Y133.515 E.05118
G1 X94.394 Y132.237 E.05117
G1 X93.421 Y130.821 E.05118
G1 X92.637 Y129.289 E.05126
G1 X92.391 Y128.621 E.02121
G1 X92.76 Y128.724 E.01141
G1 X93.002 Y128.719 E.0072
G1 X93.425 Y128.59 E.01318
G1 X93.773 Y128.33 E.01295
G1 X93.917 Y128.137 E.00718
G1 X94.115 Y127.62 E.01647
G1 X94.079 Y127.119 E.01496
G1 X93.895 Y126.721 E.01307
G1 X93.592 Y126.411 E.01293
G1 X93.202 Y126.22 E.01292
G1 X92.768 Y126.171 E.01302
G1 X92.53 Y126.214 E.00721
G1 X92.263 Y126.326 E.00863
G1 X91.962 Y126.534 E.01088
G1 X91.831 Y126.706 E.00646
G1 X91.694 Y126.002 E.02137
G1 X91.547 Y124.284 E.05138
G1 X91.622 Y122.567 E.05117
G1 X91.917 Y120.875 E.05117
G1 X92.428 Y119.234 E.05117
G1 X93.146 Y117.674 E.05117
G1 X94.059 Y116.218 E.05117
G1 X95.152 Y114.892 E.05118
G1 X96.406 Y113.719 E.05117
G1 X97.819 Y112.703 E.05184
G1 X112.247 Y103.676 E.50694
G1 X112.247 Y104.163 E.01453
G1 X112.48 Y104.637 E.01573
G1 X112.677 Y104.844 E.00851
G1 X113.155 Y105.107 E.01626
G1 X113.591 Y105.149 E.01302
G1 X114.046 Y105.027 E.01404
G1 X114.452 Y104.725 E.01509
G1 X114.691 Y104.342 E.01344
G1 X114.784 Y103.862 E.01455
G1 X114.671 Y103.368 E.01511
G1 X114.527 Y103.116 E.00863
G1 X114.28 Y102.866 E.01046
G1 X114.021 Y102.711 E.009
G1 X113.862 Y102.666 E.00493
G1 X129.12 Y93.144 E.53575
G1 X129.433 Y92.504 F21000
;TYPE:Outer wall
G1 F3000
G1 X136.512 Y134.829 E1.27823
G1 X136.545 Y135.235 E.01213
G1 X136.545 Y137.695 E.07327
G1 X128.126 Y137.699 E.25078
;WIDTH:0.420879
G1 X127.55 Y137.71 E.01722
;WIDTH:0.423229
G1 X126.866 Y137.74 E.02055
;WIDTH:0.434274
G1 X126.459 Y137.712 E.01264
G1 X125.902 Y137.705 E.01722
;WIDTH:0.419999
G1 X104.865 Y137.695 E.62659
G1 X103.092 Y137.58 E.05293
G1 X101.359 Y137.24 E.05263
G1 X99.683 Y136.679 E.05263
G1 X98.094 Y135.908 E.05263
G1 X96.617 Y134.938 E.05263
G1 X95.277 Y133.785 E.05263
G1 X94.098 Y132.47 E.05263
G1 X93.097 Y131.014 E.05263
G1 X92.493 Y129.834 E.03948
G1 X92.192 Y129.17 E.02175
G1 X91.966 Y128.565 E.01924
;WIDTH:0.420288
G1 X91.741 Y128.019 E.01758
;WIDTH:0.421516
G1 X91.605 Y127.513 E.01568
G1 X91.488 Y126.916 E.01819
;WIDTH:0.419999
G1 X91.32 Y126.054 E.02615
G1 X91.169 Y124.291 E.0527
G1 X91.246 Y122.526 E.05263
G1 X91.55 Y120.786 E.05263
G1 X92.075 Y119.099 E.05263
G1 X92.814 Y117.494 E.05263
G1 X93.752 Y115.997 E.05263
G1 X94.876 Y114.634 E.05263
G1 X96.166 Y113.427 E.05263
G1 X97.609 Y112.39 E.05293
G1 X112.048 Y103.355 E.50732
;WIDTH:0.429898
G1 X112.952 Y102.755 E.03318
;WIDTH:0.419999
G1 X114.134 Y102.063 E.04081
G1 X129.399 Y92.525 E.53615
G1 E-.68 F3600
;WIPE_START
G1 F3000
G1 X129.565 Y93.511 E-.12
;WIPE_END
G1 X129.244 Y101.137 Z.6 F21000
G1 X127.754 Y136.569 Z.6
G1 Z.2
G1 E.8 F2700
G1 F3000
G1 X127.686 Y136.855 E.00875
;WIDTH:0.420879
G1 X127.413 Y137.2 E.01313
;WIDTH:0.42508
G1 X127.125 Y137.341 E.0097
G1 X126.736 Y137.36 E.01174
;WIDTH:0.426688
G1 X126.419 Y137.28 E.00993
G1 X126.098 Y136.987 E.01316
;WIDTH:0.419999
G1 X125.99 Y136.771 E.00721
G1 X125.96 Y136.383 E.01158
G1 X126.121 Y135.97 E.0132
G1 X126.355 Y135.75 E.00956
G1 X126.772 Y135.6 E.01319
G1 X127.078 Y135.624 E.00915
G1 X127.359 Y135.748 E.00915
G1 X127.582 Y135.959 E.00915
G1 X127.722 Y136.234 E.00918
G1 X127.76 Y136.53 E.00888
G1 E-.68 F3600
;WIPE_START
G1 F3000
G1 X127.686 Y136.855 E-.03999
G1 X127.413 Y137.2 E-.05277
G1 X127.21 Y137.3 E-.02724
;WIPE_END
G1 X119.925 Y135.023 Z.6 F21000
G1 X92.823 Y126.552 Z.6
G1 Z.2
G1 E.8 F2700
G1 F3000
G1 X93.062 Y126.57 E.00714
G1 X93.343 Y126.694 E.00915
G1 X93.566 Y126.905 E.00915
G1 X93.708 Y127.193 E.00956
G1 X93.731 Y127.627 E.01296
G1 X93.525 Y128.046 E.0139
G1 X93.287 Y128.24 E.00915
G1 X92.994 Y128.342 E.00925
G1 X92.673 Y128.332 E.00954
;WIDTH:0.420814
G1 X92.271 Y128.133 E.0134
G1 X92.095 Y127.888 E.00901
;WIDTH:0.421516
G1 X91.979 Y127.492 E.01234
G1 X92.047 Y127.046 E.01349
;WIDTH:0.419999
G1 X92.34 Y126.702 E.01348
G1 X92.755 Y126.547 E.01318
G1 X92.783 Y126.549 E.00085
G1 E-.68 F3600
;WIPE_START
G1 F3000
G1 X93.062 Y126.57 E-.03355
G1 X93.343 Y126.694 E-.03685
G1 X93.566 Y126.905 E-.03686
G1 X93.613 Y127 E-.01274
;WIPE_END
G1 X98.505 Y121.142 Z.6 F21000
G1 X112.676 Y104.174 Z.6
G1 Z.2
G1 E.8 F2700
G1 F3000
G1 X112.612 Y104.04 E.00444
;WIDTH:0.420467
G1 X112.643 Y103.605 E.013
;WIDTH:0.427101
G1 X112.803 Y103.319 E.00995
G1 X113.117 Y103.092 E.01176
;WIDTH:0.426093
G1 X113.392 Y102.98 E.009
G1 X113.576 Y102.979 E.00557
;WIDTH:0.419999
G1 X114.012 Y103.131 E.01375
G1 X114.307 Y103.465 E.01326
G1 X114.404 Y103.897 E.0132
G1 X114.342 Y104.198 E.00915
G1 X114.171 Y104.47 E.00956
G1 X113.786 Y104.724 E.01374
G1 X113.503 Y104.774 E.00856
G1 X113.185 Y104.716 E.00961
G1 X112.81 Y104.455 E.01363
G1 X112.693 Y104.21 E.00807
G1 E-.68 F3600
;WIPE_START
G1 F3000
G1 X112.612 Y104.04 E-.02269
G1 X112.643 Y103.605 E-.05231
G1 X112.803 Y103.319 E-.03934
G1 X112.841 Y103.291 E-.00566
;WIPE_END
G1 X119.599 Y99.743 Z.6 F21000
G1 X128.944 Y94.837 Z.6
G1 Z.2
M73 P4 R13
G1 E.8 F2700
;TYPE:Bottom surface
;WIDTH:0.42117
G1 F4800
G1 X128.449 Y94.342 E.02093
G1 X128.12 Y94.547 E.0116
G1 X128.845 Y95.273 E.03065
G1 X128.952 Y95.915 E.01946
G1 X127.79 Y94.753 E.0491
G1 X127.461 Y94.959 E.0116
G1 X129.06 Y96.558 E.06755
G1 X129.167 Y97.2 E.01946
G1 X127.132 Y95.165 E.086
G1 X126.803 Y95.37 E.0116
G1 X129.275 Y97.842 E.10445
G1 X129.382 Y98.485 E.01946
G1 X126.473 Y95.576 E.1229
G1 X126.144 Y95.782 E.0116
G1 X129.489 Y99.127 E.14135
G1 X129.597 Y99.769 E.01946
G1 X125.815 Y95.987 E.1598
G1 X125.486 Y96.193 E.0116
G1 X129.704 Y100.412 E.17825
G1 X129.812 Y101.054 E.01946
G1 X125.157 Y96.399 E.1967
G1 X124.827 Y96.605 E.0116
G1 X129.919 Y101.696 E.21516
G1 X130.027 Y102.339 E.01946
G1 X124.498 Y96.81 E.23361
G1 X124.169 Y97.016 E.0116
G1 X130.134 Y102.981 E.25206
G1 X130.241 Y103.623 E.01946
G1 X123.84 Y97.222 E.27051
G1 X123.51 Y97.427 E.0116
G1 X130.349 Y104.266 E.28896
G1 X130.456 Y104.908 E.01946
G1 X123.181 Y97.633 E.30741
G1 X122.852 Y97.839 E.0116
G1 X130.564 Y105.55 E.32586
G1 X130.671 Y106.193 E.01946
G1 X122.523 Y98.045 E.34431
G1 X122.194 Y98.25 E.0116
G1 X130.779 Y106.835 E.36276
G1 X130.886 Y107.478 E.01946
G1 X121.864 Y98.456 E.38121
G1 X121.535 Y98.662 E.0116
G1 X130.993 Y108.12 E.39966
G1 X131.101 Y108.762 E.01946
G1 X121.206 Y98.867 E.41811
G1 X120.877 Y99.073 E.0116
G1 X131.208 Y109.405 E.43656
G1 X131.316 Y110.047 E.01946
G1 X120.547 Y99.279 E.45502
G1 X120.218 Y99.484 E.0116
G1 X131.423 Y110.689 E.47347
G1 X131.531 Y111.332 E.01946
G1 X119.889 Y99.69 E.49192
G1 X119.56 Y99.896 E.0116
G1 X131.638 Y111.974 E.51037
G1 X131.745 Y112.616 E.01946
G1 X119.231 Y100.102 E.52882
G1 X118.901 Y100.307 E.0116
G1 X131.853 Y113.259 E.54727
G1 X131.96 Y113.901 E.01946
G1 X118.572 Y100.513 E.56572
G1 X118.243 Y100.719 E.0116
G1 X132.068 Y114.543 E.58417
G1 X132.175 Y115.186 E.01946
G1 X117.914 Y100.924 E.60262
G1 X117.585 Y101.13 E.0116
G1 X132.283 Y115.828 E.62107
G1 X132.39 Y116.471 E.01946
G1 X117.255 Y101.336 E.63952
G1 X116.926 Y101.542 E.0116
G1 X132.497 Y117.113 E.65797
G1 X132.605 Y117.755 E.01946
M73 P5 R13
G1 X116.597 Y101.747 E.67642
G1 X116.268 Y101.953 E.0116
G1 X132.712 Y118.398 E.69487
G1 X132.82 Y119.04 E.01946
G1 X115.938 Y102.159 E.71333
G1 X115.609 Y102.364 E.0116
G1 X132.927 Y119.682 E.73178
G1 X133.035 Y120.325 E.01946
G1 X115.28 Y102.57 E.75023
G1 X115.032 Y102.725 E.00872
G1 X115.225 Y103.05 E.0113
G1 X133.142 Y120.967 E.75708
G1 X133.249 Y121.609 E.01946
G1 X115.436 Y103.796 E.75271
G1 X115.445 Y103.859 E.00189
G1 X115.389 Y104.284 E.0128
G1 X133.357 Y122.252 E.75924
G1 X133.464 Y122.894 E.01946
G1 X115.253 Y104.683 E.76952
G1 X115.056 Y105.021 E.01169
G1 X133.572 Y123.536 E.78238
G1 X133.679 Y124.179 E.01946
G1 X114.795 Y105.295 E.79794
G1 X114.488 Y105.523 E.01143
G1 X133.787 Y124.821 E.81546
G1 X133.894 Y125.464 E.01946
G1 X114.135 Y105.705 E.83491
G1 X113.69 Y105.794 E.01358
G1 X134.001 Y126.106 E.85829
G1 X134.109 Y126.748 E.01946
G1 X113.133 Y105.772 E.88636
G1 X112.845 Y105.701 E.00884
G1 X112.642 Y105.599 E.00678
G1 X112.318 Y105.398 E.01139
G1 X111.908 Y104.966 E.0178
G1 X111.789 Y104.751 E.00734
G1 X111.659 Y104.833 E.0046
G1 X134.216 Y127.391 E.95318
G1 X134.324 Y128.033 E.01946
G1 X111.329 Y105.039 E.97163
G1 X111 Y105.244 E.0116
G1 X134.431 Y128.675 E.99008
G1 X134.539 Y129.318 E.01946
G1 X110.671 Y105.45 E1.00853
G1 X110.342 Y105.656 E.0116
G1 X134.646 Y129.96 E1.02698
G1 X134.753 Y130.602 E.01946
M73 P6 R13
G1 X110.013 Y105.862 E1.04543
G1 X109.683 Y106.067 E.0116
G1 X134.861 Y131.245 E1.06388
G1 X134.968 Y131.887 E.01946
G1 X109.354 Y106.273 E1.08233
G1 X109.025 Y106.479 E.0116
G1 X135.076 Y132.529 E1.10078
G1 X135.183 Y133.172 E.01946
G1 X108.696 Y106.684 E1.11923
G1 X108.367 Y106.89 E.0116
G1 X135.291 Y133.814 E1.13768
G1 X135.398 Y134.456 E.01946
G1 X108.037 Y107.096 E1.15613
G1 X107.708 Y107.302 E.0116
G1 X135.505 Y135.099 E1.17458
G1 X135.508 Y135.637 E.01607
G1 X107.379 Y107.507 E1.18862
G1 X107.05 Y107.713 E.0116
G1 X135.508 Y136.172 E1.20253
G1 X135.508 Y136.658 E.01453
G1 X135.46 Y136.658 E.00145
G1 X106.721 Y107.919 E1.21438
G1 X106.391 Y108.124 E.0116
G1 X134.925 Y136.658 E1.20569
G1 X134.39 Y136.658 E.01598
G1 X106.062 Y108.33 E1.197
G1 X105.733 Y108.536 E.0116
G1 X133.855 Y136.658 E1.18831
G1 X133.32 Y136.658 E.01598
G1 X105.404 Y108.742 E1.17962
G1 X105.075 Y108.947 E.0116
M73 P7 R13
G1 X132.785 Y136.658 E1.17092
G1 X132.25 Y136.658 E.01598
G1 X104.745 Y109.153 E1.16223
G1 X104.416 Y109.359 E.0116
G1 X131.715 Y136.658 E1.15354
G1 X131.181 Y136.658 E.01598
G1 X104.087 Y109.565 E1.14485
G1 X103.758 Y109.77 E.0116
G1 X130.646 Y136.658 E1.13616
G1 X130.111 Y136.658 E.01598
G1 X103.429 Y109.976 E1.12747
G1 X103.099 Y110.182 E.0116
G1 X129.576 Y136.658 E1.11878
G1 X129.041 Y136.658 E.01598
G1 X128.598 Y136.215 E.01873
G1 E-.68 F3600
;WIPE_START
G1 F4800
G1 X129.041 Y136.658 E-.07521
G1 X129.414 Y136.658 E-.04479
;WIPE_END
G1 X127.136 Y134.753 Z.6 F21000
G1 Z.2
G1 E.8 F2700
G1 F4800
G1 X102.77 Y110.387 E1.02958
G1 X102.441 Y110.593 E.0116
G1 X126.454 Y134.606 E1.01468
G1 X126.065 Y134.752 E.01242
G1 X102.112 Y110.799 E1.01214
G1 X101.783 Y111.005 E.0116
G1 X125.714 Y134.936 E1.01125
G1 X125.633 Y134.99 E.00291
G1 X125.434 Y135.191 E.00846
G1 X101.453 Y111.21 E1.0133
G1 X101.124 Y111.416 E.0116
G1 X125.201 Y135.493 E1.01738
G1 X125.101 Y135.693 E.00668
G1 X125.041 Y135.868 E.00552
G1 X100.795 Y111.622 E1.02452
G1 X100.466 Y111.827 E.0116
G1 X124.945 Y136.307 E1.03439
G1 X124.916 Y136.543 E.0071
M73 P8 R13
G1 X124.926 Y136.658 E.00346
G1 X124.762 Y136.658 E.00492
G1 X100.137 Y112.033 E1.04054
G1 X99.807 Y112.239 E.0116
G1 X124.227 Y136.658 E1.03185
G1 X123.692 Y136.658 E.01598
G1 X99.478 Y112.445 E1.02316
G1 X99.149 Y112.65 E.0116
G1 X123.157 Y136.658 E1.01446
G1 X122.622 Y136.658 E.01598
G1 X98.82 Y112.856 E1.00577
G1 X98.49 Y113.062 E.0116
G1 X122.087 Y136.658 E.99708
G1 X121.552 Y136.658 E.01598
G1 X98.163 Y113.269 E.98832
G1 X97.851 Y113.493 E.01145
G1 X121.017 Y136.658 E.97887
G1 X120.482 Y136.658 E.01598
G1 X97.54 Y113.716 E.96942
G1 X97.229 Y113.94 E.01145
G1 X119.947 Y136.658 E.95997
G1 X119.412 Y136.658 E.01598
G1 X96.918 Y114.164 E.95052
G1 X96.631 Y114.412 E.01133
G1 X118.877 Y136.658 E.94002
G1 X118.342 Y136.658 E.01598
G1 X96.355 Y114.671 E.9291
G1 X96.078 Y114.929 E.01131
G1 X117.807 Y136.658 E.91817
G1 X117.272 Y136.658 E.01598
G1 X95.802 Y115.188 E.90724
G1 X95.539 Y115.46 E.0113
G1 X116.738 Y136.658 E.89574
G1 X116.203 Y136.658 E.01598
M73 P8 R12
G1 X95.298 Y115.753 E.88335
G1 X95.056 Y116.046 E.01135
M73 P9 R12
G1 X115.668 Y136.658 E.87096
G1 X115.133 Y136.658 E.01598
G1 X94.814 Y116.339 E.85857
G1 X94.576 Y116.636 E.01137
