; HEADER_BLOCK_START
; generated by OrcaSlicer 2.1.1 on 2025-01-25 at 16:34:54
; total layer number: 123
; filament_density: 1.27
; filament_diameter: 1.75
; max_z_height: 9.96
; HEADER_BLOCK_END

; THUMBNAIL_BLOCK_START

;
; THUMBNAIL_BLOCK_END







; external perimeters extrusion width = 0.40mm
; perimeters extrusion width = 0.45mm
; infill extrusion width = 0.45mm
; solid infill extrusion width = 0.45mm
; top infill extrusion width = 0.38mm
; first layer extrusion width = 0.42mm

; EXECUTABLE_BLOCK_START
EXCLUDE_OBJECT_DEFINE NAME=铲斗铲齿.STL_id_0_copy_0 CENTER=117.5,115 POLYGON=[[115.625,104.071],[116.868,108.711],[119.375,118.066],[117.025,125.929],[115.625,119.071],[115.625,104.071]]
M73 P0 R17
;TYPE:Custom
;ELEGOO NEPTUNE 4 PRO
M220 S100 ;Set the feed speed to 100%
M221 S100 ;Set the flow rate to 100%
M104 S140
M190 S70
G90
G28 ;home
G1 Z10 F300
G1 X67.5 Y0 F6000
G1 Z0 F300
M109 S240
G92 E0 ;Reset Extruder
G1 X67.5 Y0 Z0.4 F300 ;Move to start position
G1 X167.5 E30 F400 ;Draw the first line
G1 Z0.6 F120.0 ;Move to side a little
M73 P1 R17
G1 X162.5 F3000
G92 E0 ;Reset Extruder
G90
G21
M83 ; use relative distances for extrusion
; filament start gcode
M106 S0
;LAYER_CHANGE
;Z:0.2
;HEIGHT:0.2
;BEFORE_LAYER_CHANGE
G92 E0
;0.2


G1 E-.8 F3600
;AFTER_LAYER_CHANGE
;0.2
;_SET_FAN_SPEED_CHANGING_LAYER
SET_VELOCITY_LIMIT ACCEL=1000 ACCEL_TO_DECEL=500
SET_VELOCITY_LIMIT SQUARE_CORNER_VELOCITY=7
; printing object 铲斗铲齿.STL id:0 copy 0
EXCLUDE_OBJECT_START NAME=铲斗铲齿.STL_id_0_copy_0
G1 X116.688 Y112.142 F21000
G1 Z.4
G1 Z.2
G1 E.8 F2700
;TYPE:Inner wall
;WIDTH:0.419999
G1 F857
G1 X118.269 Y118.05 E.18217
G1 X117.219 Y121.57 E.1094
M73 P2 R17
G1 X116.689 Y118.963 E.07922
G1 X116.688 Y112.182 E.20198
G1 E-.68 F3600
;WIPE_START
G1 F3000
G1 X116.948 Y113.148 E-.12
;WIPE_END
G1 X116.31 Y109.273 Z.6 F21000
G1 Z.2
G1 E.8 F2700
G1 F857
G1 X118.661 Y118.056 E.27081
G1 X118.322 Y119.192 E.0353
G1 X117.148 Y123.126 E.12229
G1 X116.312 Y119.001 E.12535
G1 X116.31 Y109.313 E.28858
G1 E-.68 F3600
;WIPE_START
G1 F3000
G1 X116.569 Y110.279 E-.12
;WIPE_END
G1 X115.835 Y105.666 Z.6 F21000
G1 Z.2
G1 E.8 F2700
;TYPE:Outer wall
;WIDTH:0.42012
G1 F857
G1 X116.214 Y107.08 E.04361
;WIDTH:0.465196
G1 X116.366 Y108.069 E.03337
G1 X116.507 Y108.551 E.01677
;WIDTH:0.419999
G1 X119.053 Y118.061 E.29324
G1 X118.683 Y119.299 E.03848
G1 X117.558 Y123.072 E.11728
G1 X117.236 Y124.488 E.04326
G1 X117.069 Y125.049 E.01743
G1 X116.946 Y124.468 E.0177
G1 X116.766 Y123.125 E.04036
G1 X115.935 Y119.039 E.12418
G1 X115.933 Y108.561 E.31212
;WIDTH:0.462224
G1 X115.94 Y108.052 E.01686
G1 X115.835 Y107.062 E.03297
;WIDTH:0.42012
M73 P2 R16
G1 X115.835 Y105.706 E.04039
G1 E-.68 F3600
;WIPE_START
G1 F3000
G1 X116.101 Y106.67 E-.12
;WIPE_END
G1 X117.257 Y114.215 Z.6 F21000
G1 X117.433 Y115.366 Z.6
G1 Z.2
G1 E.8 F2700
;TYPE:Bottom surface
;WIDTH:0.451732
G1 F857
G1 X116.971 Y114.904 E.02112
G1 X116.971 Y115.482 E.01867
G1 X117.405 Y115.916 E.01981
G1 X117.616 Y116.705 E.02639
G1 X116.971 Y116.06 E.02946
G1 X116.971 Y116.638 E.01867
G1 X117.828 Y117.495 E.03911
G1 X117.975 Y118.046 E.01843
G1 X117.935 Y118.18 E.00453
G1 X116.972 Y117.217 E.04401
G1 X116.972 Y117.795 E.01867
G1 X117.802 Y118.626 E.03794
G1 X117.669 Y119.071 E.01501
G1 X116.972 Y118.373 E.03186
G1 X116.976 Y118.956 E.01881
G1 X117.537 Y119.516 E.02559
G1 X117.404 Y119.962 E.01501
G1 X116.906 Y119.464 E.02271
; stop printing object 铲斗铲齿.STL id:0 copy 0
;LAYER_CHANGE
;Z:0.28
;HEIGHT:0.08
;BEFORE_LAYER_CHANGE
G92 E0
;0.28


G1 E-.68 F3600
;WIPE_START
G1 F4800
G1 X117.404 Y119.962 E-.0844
G1 X117.489 Y119.677 E-.0356
;WIPE_END
EXCLUDE_OBJECT_END NAME=铲斗铲齿.STL_id_0_copy_0
;AFTER_LAYER_CHANGE
;0.28
;_SET_FAN_SPEED_CHANGING_LAYER
SET_VELOCITY_LIMIT ACCEL=5000 ACCEL_TO_DECEL=2500
SET_VELOCITY_LIMIT SQUARE_CORNER_VELOCITY=9
M140 S70 ; set bed temperature
; printing object 铲斗铲齿.STL id:0 copy 0
EXCLUDE_OBJECT_START NAME=铲斗铲齿.STL_id_0_copy_0
G1 X116.678 Y112.088 Z.6 F21000
G1 X116.666 Y111.975 Z.6
G1 Z.28
G1 E.8 F2700
SET_VELOCITY_LIMIT ACCEL=3000 ACCEL_TO_DECEL=1500 SQUARE_CORNER_VELOCITY=7
;TYPE:Inner wall
;WIDTH:0.449999
G1 F777
G1 X118.293 Y118.05 E.08602
G1 X117.215 Y121.658 E.0515
G1 X116.666 Y118.966 E.03758
G1 X116.666 Y112.015 E.09505
SET_VELOCITY_LIMIT ACCEL=5000 ACCEL_TO_DECEL=2500 SQUARE_CORNER_VELOCITY=9
G1 E-.68 F3600
;WIPE_START
G1 F12000
G1 X116.926 Y112.981 E-.12
;WIPE_END
G1 X116.233 Y108.688 Z.68 F21000
G1 Z.28
G1 E.8 F2700
SET_VELOCITY_LIMIT ACCEL=3000 ACCEL_TO_DECEL=1500 SQUARE_CORNER_VELOCITY=7
G1 F777
G1 X118.743 Y118.057 E.13266
G1 X117.136 Y123.435 E.07676
M73 P3 R16
G1 X116.233 Y119.009 E.06177
G1 X116.233 Y108.728 E.14061
SET_VELOCITY_LIMIT ACCEL=5000 ACCEL_TO_DECEL=2500 SQUARE_CORNER_VELOCITY=9
G1 E-.68 F3600
;WIPE_START
G1 F12000
G1 X116.493 Y109.693 E-.12
;WIPE_END
G1 X115.825 Y105.59 Z.68 F21000
G1 Z.28
G1 E.8 F2700
SET_VELOCITY_LIMIT ACCEL=3000 ACCEL_TO_DECEL=1500 SQUARE_CORNER_VELOCITY=7
;TYPE:Outer wall
;WIDTH:0.399999
G1 F777
G1 X119.167 Y118.063 E.1562
G1 X117.062 Y125.108 E.08895
G1 X115.825 Y119.051 E.07479
G1 X115.825 Y105.63 E.16234
SET_VELOCITY_LIMIT ACCEL=5000 ACCEL_TO_DECEL=2500 SQUARE_CORNER_VELOCITY=9
G1 E-.68 F3600
;WIPE_START
G1 F7200
G1 X116.085 Y106.596 E-.12
;WIPE_END
G1 X116.978 Y114.176 Z.68 F21000
G1 X117.173 Y115.829 Z.68
G1 Z.28
G1 E.8 F2700
;TYPE:Internal solid infill
;WIDTH:0.598992
G1 F777
G1 X117.173 Y118.914 E.05672
G1 X117.308 Y119.576 E.01242
G1 X117.743 Y118.122 E.0279
G1 X117.745 Y117.963 E.00292
G1 X117.183 Y115.868 E.03989
; stop printing object 铲斗铲齿.STL id:0 copy 0
;LAYER_CHANGE
;Z:0.36
;HEIGHT:0.08
;BEFORE_LAYER_CHANGE
G92 E0
;0.36


G1 E-.68 F3600
;WIPE_START
G1 F12000
G1 X117.442 Y116.833 E-.12
;WIPE_END
EXCLUDE_OBJECT_END NAME=铲斗铲齿.STL_id_0_copy_0
;AFTER_LAYER_CHANGE
;0.36
;_SET_FAN_SPEED_CHANGING_LAYER
; printing object 铲斗铲齿.STL id:0 copy 0
EXCLUDE_OBJECT_START NAME=铲斗铲齿.STL_id_0_copy_0
G1 X116.666 Y111.975 Z.68 F21000
G1 Z.36
G1 E.8 F2700
SET_VELOCITY_LIMIT ACCEL=3000 ACCEL_TO_DECEL=1500 SQUARE_CORNER_VELOCITY=7
;TYPE:Inner wall
;WIDTH:0.449999
G1 F775
G1 X118.293 Y118.05 E.08602
G1 X117.215 Y121.658 E.0515
G1 X116.666 Y118.966 E.03758
G1 X116.666 Y112.015 E.09505
SET_VELOCITY_LIMIT ACCEL=5000 ACCEL_TO_DECEL=2500 SQUARE_CORNER_VELOCITY=9
G1 E-.68 F3600
;WIPE_START
G1 F12000
G1 X116.926 Y112.981 E-.12
;WIPE_END
G1 X116.233 Y108.688 Z.76 F21000
G1 Z.36
G1 E.8 F2700
SET_VELOCITY_LIMIT ACCEL=3000 ACCEL_TO_DECEL=1500 SQUARE_CORNER_VELOCITY=7
G1 F775
G1 X118.743 Y118.057 E.13266
G1 X117.136 Y123.435 E.07676
G1 X116.233 Y119.009 E.06177
G1 X116.233 Y108.728 E.14061
SET_VELOCITY_LIMIT ACCEL=5000 ACCEL_TO_DECEL=2500 SQUARE_CORNER_VELOCITY=9
G1 E-.68 F3600
;WIPE_START
G1 F12000
G1 X116.493 Y109.693 E-.12
;WIPE_END
G1 X115.825 Y105.59 Z.76 F21000
G1 Z.36
G1 E.8 F2700
SET_VELOCITY_LIMIT ACCEL=3000 ACCEL_TO_DECEL=1500 SQUARE_CORNER_VELOCITY=7
;TYPE:Outer wall
;WIDTH:0.399999
G1 F775
G1 X119.167 Y118.063 E.1562
G1 X117.062 Y125.108 E.08895
M73 P4 R16
G1 X115.825 Y119.051 E.07479
G1 X115.825 Y105.63 E.16234
SET_VELOCITY_LIMIT ACCEL=5000 ACCEL_TO_DECEL=2500 SQUARE_CORNER_VELOCITY=9
G1 E-.68 F3600
;WIPE_START
G1 F7200
G1 X116.085 Y106.596 E-.12
;WIPE_END
G1 X116.978 Y114.176 Z.76 F21000
G1 X117.173 Y115.829 Z.76
G1 Z.36
G1 E.8 F2700
;TYPE:Internal solid infill
;WIDTH:0.598992
G1 F775
G1 X117.173 Y118.914 E.05672
G1 X117.308 Y119.576 E.01242
G1 X117.743 Y118.122 E.0279
G1 X117.745 Y117.963 E.00292
G1 X117.183 Y115.868 E.03989
; stop printing object 铲斗铲齿.STL id:0 copy 0
M106 S125
;LAYER_CHANGE
;Z:0.44
;HEIGHT:0.08
;BEFORE_LAYER_CHANGE
G92 E0
;0.44


G1 E-.68 F3600
;WIPE_START
G1 F12000
G1 X117.442 Y116.833 E-.12
;WIPE_END
EXCLUDE_OBJECT_END NAME=铲斗铲齿.STL_id_0_copy_0
;AFTER_LAYER_CHANGE
;0.44
;_SET_FAN_SPEED_CHANGING_LAYER
; printing object 铲斗铲齿.STL id:0 copy 0
EXCLUDE_OBJECT_START NAME=铲斗铲齿.STL_id_0_copy_0
G1 X116.666 Y111.975 Z.76 F21000
G1 Z.44
G1 E.8 F2700
SET_VELOCITY_LIMIT ACCEL=3000 ACCEL_TO_DECEL=1500 SQUARE_CORNER_VELOCITY=7
;TYPE:Inner wall
;WIDTH:0.449999
G1 F775
G1 X118.293 Y118.05 E.08602
G1 X117.215 Y121.658 E.0515
G1 X116.666 Y118.966 E.03758
G1 X116.666 Y112.015 E.09505
SET_VELOCITY_LIMIT ACCEL=5000 ACCEL_TO_DECEL=2500 SQUARE_CORNER_VELOCITY=9
G1 E-.68 F3600
;WIPE_START
G1 F12000
G1 X116.926 Y112.981 E-.12
;WIPE_END
G1 X116.233 Y108.688 Z.84 F21000
G1 Z.44
G1 E.8 F2700
SET_VELOCITY_LIMIT ACCEL=3000 ACCEL_TO_DECEL=1500 SQUARE_CORNER_VELOCITY=7
G1 F775
G1 X118.743 Y118.057 E.13266
G1 X117.136 Y123.435 E.07676
G1 X116.233 Y119.009 E.06177
G1 X116.233 Y108.728 E.14061
SET_VELOCITY_LIMIT ACCEL=5000 ACCEL_TO_DECEL=2500 SQUARE_CORNER_VELOCITY=9
G1 E-.68 F3600
;WIPE_START
G1 F12000
G1 X116.493 Y109.693 E-.12
;WIPE_END
G1 X115.825 Y105.59 Z.84 F21000
G1 Z.44
G1 E.8 F2700
SET_VELOCITY_LIMIT ACCEL=3000 ACCEL_TO_DECEL=1500 SQUARE_CORNER_VELOCITY=7
;TYPE:Outer wall
;WIDTH:0.399999
G1 F775
G1 X119.167 Y118.063 E.1562
G1 X117.062 Y125.108 E.08895
G1 X115.825 Y119.051 E.07479
G1 X115.825 Y105.63 E.16234
SET_VELOCITY_LIMIT ACCEL=5000 ACCEL_TO_DECEL=2500 SQUARE_CORNER_VELOCITY=9
G1 E-.68 F3600
;WIPE_START
M73 P5 R16
G1 F7200
G1 X116.085 Y106.596 E-.12
;WIPE_END
G1 X116.978 Y114.176 Z.84 F21000
G1 X117.173 Y115.829 Z.84
G1 Z.44
G1 E.8 F2700
;TYPE:Internal solid infill
;WIDTH:0.598992
G1 F775
G1 X117.173 Y118.914 E.05672
G1 X117.308 Y119.576 E.01242
G1 X117.743 Y118.122 E.0279
G1 X117.745 Y117.963 E.00292
G1 X117.183 Y115.868 E.03989
; stop printing object 铲斗铲齿.STL id:0 copy 0
;LAYER_CHANGE
;Z:0.52
;HEIGHT:0.08
;BEFORE_LAYER_CHANGE
G92 E0
;0.52


G1 E-.68 F3600
;WIPE_START
G1 F12000
G1 X117.442 Y116.833 E-.12
;WIPE_END
EXCLUDE_OBJECT_END NAME=铲斗铲齿.STL_id_0_copy_0
;AFTER_LAYER_CHANGE
;0.52
;_SET_FAN_SPEED_CHANGING_LAYER
; printing object 铲斗铲齿.STL id:0 copy 0
EXCLUDE_OBJECT_START NAME=铲斗铲齿.STL_id_0_copy_0
G1 X116.666 Y111.975 Z.84 F21000
G1 Z.52
G1 E.8 F2700
SET_VELOCITY_LIMIT ACCEL=3000 ACCEL_TO_DECEL=1500 SQUARE_CORNER_VELOCITY=7
;TYPE:Inner wall
;WIDTH:0.449999
G1 F775
G1 X118.293 Y118.05 E.08602
G1 X117.215 Y121.658 E.0515
G1 X116.666 Y118.966 E.03758
G1 X116.666 Y112.015 E.09505
SET_VELOCITY_LIMIT ACCEL=5000 ACCEL_TO_DECEL=2500 SQUARE_CORNER_VELOCITY=9
G1 E-.68 F3600
;WIPE_START
G1 F12000
G1 X116.926 Y112.981 E-.12
;WIPE_END
G1 X116.233 Y108.688 Z.92 F21000
G1 Z.52
G1 E.8 F2700
SET_VELOCITY_LIMIT ACCEL=3000 ACCEL_TO_DECEL=1500 SQUARE_CORNER_VELOCITY=7
G1 F775
G1 X118.743 Y118.057 E.13266
G1 X117.136 Y123.435 E.07676
G1 X116.233 Y119.009 E.06177
G1 X116.233 Y108.728 E.14061
SET_VELOCITY_LIMIT ACCEL=5000 ACCEL_TO_DECEL=2500 SQUARE_CORNER_VELOCITY=9
G1 E-.68 F3600
;WIPE_START
G1 F12000
G1 X116.493 Y109.693 E-.12
;WIPE_END
G1 X115.825 Y105.59 Z.92 F21000
G1 Z.52
G1 E.8 F2700
SET_VELOCITY_LIMIT ACCEL=3000 ACCEL_TO_DECEL=1500 SQUARE_CORNER_VELOCITY=7
;TYPE:Outer wall
;WIDTH:0.399999
G1 F775
G1 X119.167 Y118.063 E.1562
G1 X117.062 Y125.108 E.08895
G1 X115.825 Y119.051 E.07479
G1 X115.825 Y105.63 E.16234
SET_VELOCITY_LIMIT ACCEL=5000 ACCEL_TO_DECEL=2500 SQUARE_CORNER_VELOCITY=9
G1 E-.68 F3600
;WIPE_START
G1 F7200
G1 X116.085 Y106.596 E-.12
;WIPE_END
G1 X116.978 Y114.176 Z.92 F21000
G1 X117.173 Y115.829 Z.92
G1 Z.52
G1 E.8 F2700
;TYPE:Internal solid infill
;WIDTH:0.598992
G1 F775
G1 X117.173 Y118.914 E.05672
G1 X117.308 Y119.576 E.01242
G1 X117.743 Y118.122 E.0279
G1 X117.745 Y117.963 E.00292
G1 X117.183 Y115.868 E.03989
; stop printing object 铲斗铲齿.STL id:0 copy 0
;LAYER_CHANGE
;Z:0.6
;HEIGHT:0.08
;BEFORE_LAYER_CHANGE
G92 E0
;0.6


G1 E-.68 F3600
;WIPE_START
G1 F12000
G1 X117.442 Y116.833 E-.12
;WIPE_END
EXCLUDE_OBJECT_END NAME=铲斗铲齿.STL_id_0_copy_0
;AFTER_LAYER_CHANGE
;0.6
;_SET_FAN_SPEED_CHANGING_LAYER
; printing object 铲斗铲齿.STL id:0 copy 0
EXCLUDE_OBJECT_START NAME=铲斗铲齿.STL_id_0_copy_0
G1 X116.666 Y111.975 Z.92 F21000
G1 Z.6
G1 E.8 F2700
SET_VELOCITY_LIMIT ACCEL=3000 ACCEL_TO_DECEL=1500 SQUARE_CORNER_VELOCITY=7
;TYPE:Inner wall
;WIDTH:0.449999
G1 F775
G1 X118.293 Y118.05 E.08602
G1 X117.215 Y121.658 E.0515
M73 P6 R16
G1 X116.666 Y118.966 E.03758
G1 X116.666 Y112.015 E.09505
SET_VELOCITY_LIMIT ACCEL=5000 ACCEL_TO_DECEL=2500 SQUARE_CORNER_VELOCITY=9
G1 E-.68 F3600
;WIPE_START
G1 F12000
G1 X116.926 Y112.981 E-.12
;WIPE_END
G1 X116.233 Y108.688 Z1 F21000
G1 Z.6
G1 E.8 F2700
SET_VELOCITY_LIMIT ACCEL=3000 ACCEL_TO_DECEL=1500 SQUARE_CORNER_VELOCITY=7
G1 F775
G1 X118.743 Y118.057 E.13266
G1 X117.136 Y123.435 E.07676
G1 X116.233 Y119.009 E.06177
G1 X116.233 Y108.728 E.14061
SET_VELOCITY_LIMIT ACCEL=5000 ACCEL_TO_DECEL=2500 SQUARE_CORNER_VELOCITY=9
G1 E-.68 F3600
;WIPE_START
G1 F12000
G1 X116.493 Y109.693 E-.12
;WIPE_END
G1 X115.825 Y105.59 Z1 F21000
G1 Z.6
G1 E.8 F2700
SET_VELOCITY_LIMIT ACCEL=3000 ACCEL_TO_DECEL=1500 SQUARE_CORNER_VELOCITY=7
;TYPE:Outer wall
;WIDTH:0.399999
G1 F775
G1 X119.167 Y118.063 E.1562
G1 X117.062 Y125.108 E.08895
G1 X115.825 Y119.051 E.07479
G1 X115.825 Y105.63 E.16234
SET_VELOCITY_LIMIT ACCEL=5000 ACCEL_TO_DECEL=2500 SQUARE_CORNER_VELOCITY=9
G1 E-.68 F3600
;WIPE_START
G1 F7200
G1 X116.085 Y106.596 E-.12
;WIPE_END
G1 X116.978 Y114.176 Z1 F21000
G1 X117.173 Y115.829 Z1
G1 Z.6
G1 E.8 F2700
;TYPE:Internal solid infill
;WIDTH:0.598992
G1 F775
G1 X117.173 Y118.914 E.05672
G1 X117.308 Y119.576 E.01242
G1 X117.743 Y118.122 E.0279
G1 X117.745 Y117.963 E.00292
G1 X117.183 Y115.868 E.03989
; stop printing object 铲斗铲齿.STL id:0 copy 0
;LAYER_CHANGE
;Z:0.68
;HEIGHT:0.08
;BEFORE_LAYER_CHANGE
G92 E0
;0.68


G1 E-.68 F3600
;WIPE_START
G1 F12000
G1 X117.442 Y116.833 E-.12
;WIPE_END
EXCLUDE_OBJECT_END NAME=铲斗铲齿.STL_id_0_copy_0
;AFTER_LAYER_CHANGE
;0.68
;_SET_FAN_SPEED_CHANGING_LAYER
; printing object 铲斗铲齿.STL id:0 copy 0
EXCLUDE_OBJECT_START NAME=铲斗铲齿.STL_id_0_copy_0
G1 X116.666 Y111.975 Z1 F21000
G1 Z.68
G1 E.8 F2700
SET_VELOCITY_LIMIT ACCEL=3000 ACCEL_TO_DECEL=1500 SQUARE_CORNER_VELOCITY=7
;TYPE:Inner wall
;WIDTH:0.449999
G1 F775
G1 X118.293 Y118.05 E.08602
G1 X117.215 Y121.658 E.0515
G1 X116.666 Y118.966 E.03758
G1 X116.666 Y112.015 E.09505
SET_VELOCITY_LIMIT ACCEL=5000 ACCEL_TO_DECEL=2500 SQUARE_CORNER_VELOCITY=9
G1 E-.68 F3600
;WIPE_START
G1 F12000
G1 X116.926 Y112.981 E-.12
;WIPE_END
G1 X116.233 Y108.688 Z1.08 F21000
G1 Z.68
G1 E.8 F2700
SET_VELOCITY_LIMIT ACCEL=3000 ACCEL_TO_DECEL=1500 SQUARE_CORNER_VELOCITY=7
G1 F775
G1 X118.743 Y118.057 E.13266
G1 X117.136 Y123.435 E.07676
G1 X116.233 Y119.009 E.06177
M73 P7 R16
G1 X116.233 Y108.728 E.14061
SET_VELOCITY_LIMIT ACCEL=5000 ACCEL_TO_DECEL=2500 SQUARE_CORNER_VELOCITY=9
G1 E-.68 F3600
;WIPE_START
G1 F12000
G1 X116.493 Y109.693 E-.12
;WIPE_END
G1 X115.825 Y105.59 Z1.08 F21000
G1 Z.68
G1 E.8 F2700
SET_VELOCITY_LIMIT ACCEL=3000 ACCEL_TO_DECEL=1500 SQUARE_CORNER_VELOCITY=7
;TYPE:Outer wall
;WIDTH:0.399999
G1 F775
G1 X119.167 Y118.063 E.1562
G1 X117.062 Y125.108 E.08895
G1 X115.825 Y119.051 E.07479
G1 X115.825 Y105.63 E.16234
SET_VELOCITY_LIMIT ACCEL=5000 ACCEL_TO_DECEL=2500 SQUARE_CORNER_VELOCITY=9
G1 E-.68 F3600
;WIPE_START
G1 F7200
G1 X116.085 Y106.596 E-.12
;WIPE_END
G1 X116.978 Y114.176 Z1.08 F21000
G1 X117.173 Y115.829 Z1.08
G1 Z.68
G1 E.8 F2700
;TYPE:Internal solid infill
;WIDTH:0.598992
G1 F775
G1 X117.173 Y118.914 E.05672
G1 X117.308 Y119.576 E.01242
G1 X117.743 Y118.122 E.0279
G1 X117.745 Y117.963 E.00292
G1 X117.183 Y115.868 E.03989
; stop printing object 铲斗铲齿.STL id:0 copy 0
;LAYER_CHANGE
;Z:0.76
;HEIGHT:0.08
;BEFORE_LAYER_CHANGE
G92 E0
;0.76


G1 E-.68 F3600
;WIPE_START
G1 F12000
G1 X117.442 Y116.833 E-.12
;WIPE_END
EXCLUDE_OBJECT_END NAME=铲斗铲齿.STL_id_0_copy_0
;AFTER_LAYER_CHANGE
;0.76
;_SET_FAN_SPEED_CHANGING_LAYER
; printing object 铲斗铲齿.STL id:0 copy 0
EXCLUDE_OBJECT_START NAME=铲斗铲齿.STL_id_0_copy_0
G1 X116.666 Y111.975 Z1.08 F21000
G1 Z.76
G1 E.8 F2700
SET_VELOCITY_LIMIT ACCEL=3000 ACCEL_TO_DECEL=1500 SQUARE_CORNER_VELOCITY=7
;TYPE:Inner wall
;WIDTH:0.449999
G1 F775
G1 X118.293 Y118.05 E.08602
G1 X117.215 Y121.658 E.0515
G1 X116.666 Y118.966 E.03758
G1 X116.666 Y112.015 E.09505
SET_VELOCITY_LIMIT ACCEL=5000 ACCEL_TO_DECEL=2500 SQUARE_CORNER_VELOCITY=9
G1 E-.68 F3600
;WIPE_START
G1 F12000
G1 X116.926 Y112.981 E-.12
;WIPE_END
G1 X116.233 Y108.688 Z1.16 F21000
G1 Z.76
G1 E.8 F2700
