; HEADER_BLOCK_START
; generated by OrcaSlicer 2.1.1 on 2025-01-09 at 19:08:42
; total layer number: 36
; filament_density: 1.27
; filament_diameter: 1.75
; max_z_height: 3.00
; HEADER_BLOCK_END

; THUMBNAIL_BLOCK_START

;
; THUMBNAIL_BLOCK_END







; external perimeters extrusion width = 0.40mm
; perimeters extrusion width = 0.45mm
; infill extrusion width = 0.45mm
; solid infill extrusion width = 0.45mm
; top infill extrusion width = 0.38mm
; first layer extrusion width = 0.42mm

; EXECUTABLE_BLOCK_START
EXCLUDE_OBJECT_DEFINE NAME=观察平台_-_侧板.STL_id_0_copy_0 CENTER=117.5,115 POLYGON=[[57.5,98],[177.5,98],[177.5,132],[57.5,132],[57.5,98]]
M73 P0 R32
;TYPE:Custom
;ELEGOO NEPTUNE 4 PRO
M220 S100 ;Set the feed speed to 100%
M221 S100 ;Set the flow rate to 100%
M104 S140
M190 S70
G90
G28 ;home
G1 Z10 F300
G1 X67.5 Y0 F6000
G1 Z0 F300
M109 S240
G92 E0 ;Reset Extruder
G1 X67.5 Y0 Z0.4 F300 ;Move to start position
G1 X167.5 E30 F400 ;Draw the first line
G1 Z0.6 F120.0 ;Move to side a little
M73 P1 R32
G1 X162.5 F3000
G92 E0 ;Reset Extruder
G90
G21
M83 ; use relative distances for extrusion
; filament start gcode
M106 S0
;LAYER_CHANGE
;Z:0.2
;HEIGHT:0.2
;BEFORE_LAYER_CHANGE
G92 E0
;0.2


G1 E-.8 F3600
;AFTER_LAYER_CHANGE
;0.2
;_SET_FAN_SPEED_CHANGING_LAYER
SET_VELOCITY_LIMIT ACCEL=1000 ACCEL_TO_DECEL=500
SET_VELOCITY_LIMIT SQUARE_CORNER_VELOCITY=7
; printing object 观察平台 - 侧板.STL id:0 copy 0
EXCLUDE_OBJECT_START NAME=观察平台_-_侧板.STL_id_0_copy_0
G1 X143.568 Y130.936 F21000
G1 Z.4
G1 Z.2
G1 E.8 F2700
;TYPE:Inner wall
;WIDTH:0.419999
G1 F3000
G1 X94.443 Y130.936 E1.46326
G1 X94.588 Y130.74 E.00725
G1 X94.796 Y130.326 E.01381
G1 X94.89 Y130.021 E.00949
G1 X94.949 Y129.562 E.01381
G1 X94.935 Y129.243 E.00949
G1 X94.783 Y128.618 E.01916
G1 X94.475 Y128.099 E.01797
G1 X94.31 Y127.899 E.00775
G1 X93.904 Y127.569 E.01558
G1 X93.626 Y127.413 E.00949
G1 X93.093 Y127.231 E.01678
G1 X92.558 Y127.189 E.01597
G1 X92.024 Y127.278 E.01614
G1 X91.765 Y127.363 E.00812
G1 X91.321 Y127.61 E.01513
G1 X91.073 Y127.81 E.00949
G1 X90.656 Y128.313 E.01948
G1 X90.427 Y128.86 E.01764
G1 X90.36 Y129.171 E.00948
G1 X90.34 Y129.634 E.01381
G1 X90.381 Y129.95 E.00949
G1 X90.516 Y130.394 E.01381
G1 X90.66 Y130.678 E.00949
G1 X90.85 Y130.936 E.00955
G1 X58.564 Y130.936 E.9617
G1 X58.564 Y99.064 E.94935
G1 X176.436 Y99.064 E3.51099
G1 X176.436 Y130.936 E.94935
G1 X147.157 Y130.936 E.87211
G1 X147.302 Y130.74 E.00725
G1 X147.511 Y130.326 E.01381
G1 X147.604 Y130.021 E.00949
G1 X147.663 Y129.562 E.01381
G1 X147.649 Y129.243 E.00949
G1 X147.497 Y128.618 E.01916
G1 X147.19 Y128.099 E.01797
G1 X147.024 Y127.899 E.00775
G1 X146.618 Y127.569 E.01558
G1 X146.34 Y127.413 E.00949
G1 X145.807 Y127.231 E.01678
G1 X145.273 Y127.189 E.01597
G1 X144.738 Y127.278 E.01614
G1 X144.479 Y127.363 E.00812
G1 X144.036 Y127.61 E.01513
G1 X143.788 Y127.81 E.00949
G1 X143.37 Y128.313 E.01948
G1 X143.141 Y128.86 E.01764
G1 X143.074 Y129.171 E.00948
G1 X143.055 Y129.634 E.01381
G1 X143.095 Y129.95 E.00949
G1 X143.231 Y130.394 E.01381
G1 X143.379 Y130.684 E.00971
G1 X143.544 Y130.904 E.00819
G1 E-.68 F3600
;WIPE_START
G1 F3000
G1 X142.544 Y130.905 E-.12
;WIPE_END
G1 X150.176 Y130.995 Z.6 F21000
G1 X176.813 Y131.313 Z.6
G1 Z.2
G1 E.8 F2700
G1 F3000
G1 X146.002 Y131.313 E.91774
G1 X146.517 Y131.045 E.01727
G1 X146.965 Y130.57 E.01945
G1 X147.23 Y129.974 E.01945
G1 X147.281 Y129.323 E.01945
G1 X147.15 Y128.766 E.01702
G1 X146.869 Y128.297 E.0163
G1 X146.742 Y128.154 E.00569
G1 X146.24 Y127.779 E.01868
G1 X145.749 Y127.605 E.01552
G1 X145.245 Y127.572 E.01502
G1 X144.672 Y127.689 E.01743
G1 X144.219 Y127.939 E.0154
G1 X144.071 Y128.059 E.0057
G1 X143.697 Y128.501 E.01722
G1 X143.491 Y129 E.0161
G1 X143.431 Y129.65 E.01944
G1 X143.591 Y130.283 E.01945
G1 X143.967 Y130.84 E.02
G1 X144.477 Y131.22 E.01893
G1 X144.709 Y131.313 E.00745
G1 X93.288 Y131.313 E1.53164
G1 X93.802 Y131.045 E.01727
G1 X94.251 Y130.57 E.01945
G1 X94.516 Y129.974 E.01945
G1 X94.566 Y129.323 E.01945
G1 X94.436 Y128.766 E.01702
G1 X94.154 Y128.297 E.0163
G1 X94.028 Y128.154 E.00569
G1 X93.526 Y127.779 E.01868
G1 X93.034 Y127.605 E.01552
G1 X92.531 Y127.572 E.01502
G1 X91.958 Y127.689 E.01743
G1 X91.505 Y127.939 E.0154
G1 X91.356 Y128.059 E.0057
G1 X90.983 Y128.501 E.01722
G1 X90.777 Y129 E.0161
G1 X90.717 Y129.65 E.01944
G1 X90.877 Y130.283 E.01945
G1 X91.239 Y130.827 E.01945
G1 X91.761 Y131.219 E.01945
G1 X91.995 Y131.313 E.0075
G1 X58.187 Y131.313 E1.00701
G1 X58.187 Y98.687 E.97181
G1 X176.813 Y98.687 E3.53345
G1 X176.813 Y131.273 E.97062
G1 X177.19 Y131.69 F21000
;TYPE:Outer wall
G1 F3000
G1 X146.393 Y131.69 E.91734
;WIDTH:0.469774
G1 X146.178 Y131.665 E.0073
;WIDTH:0.519548
G1 X145.963 Y131.64 E.00816
;WIDTH:0.569322
G1 X145.747 Y131.615 E.00901
G1 X145.241 Y131.626 E.02107
;WIDTH:0.548712
G1 X145.043 Y131.647 E.00795
;WIDTH:0.505808
G1 X144.845 Y131.669 E.00727
;WIDTH:0.462904
G1 X144.648 Y131.69 E.0066
;WIDTH:0.419999
G1 X93.679 Y131.69 E1.51818
;WIDTH:0.469774
G1 X93.464 Y131.665 E.0073
;WIDTH:0.519548
G1 X93.248 Y131.64 E.00816
;WIDTH:0.569322
G1 X93.033 Y131.615 E.00901
G1 X92.527 Y131.626 E.02107
;WIDTH:0.548712
G1 X92.329 Y131.647 E.00795
;WIDTH:0.505808
G1 X92.131 Y131.669 E.00727
;WIDTH:0.462904
G1 X91.933 Y131.69 E.0066
;WIDTH:0.419999
G1 X57.81 Y131.69 E1.01641
G1 X57.81 Y98.31 E.99427
G1 X177.19 Y98.31 E3.55592
G1 X177.19 Y131.65 E.99308
M73 P2 R32
G1 E-.68 F3600
;WIPE_START
G1 F3000
G1 X176.19 Y131.651 E-.12
;WIPE_END
G1 X168.559 Y131.514 Z.6 F21000
G1 X145.124 Y131.093 Z.6
G1 Z.2
G1 E.8 F2700
;WIDTH:0.557006
G1 F3000
G1 X145.013 Y131.046 E.0049
;WIDTH:0.511337
G1 X144.85 Y130.976 E.00656
;WIDTH:0.465668
G1 X144.687 Y130.907 E.00592
;WIDTH:0.419999
G1 X144.269 Y130.613 E.01522
G1 X143.952 Y130.173 E.01615
G1 X143.816 Y129.729 E.01381
G1 X143.828 Y129.203 E.01569
G1 X144.014 Y128.711 E.01567
G1 X144.354 Y128.308 E.01571
G1 X144.808 Y128.042 E.01569
G1 X145.31 Y127.944 E.01523
G1 X145.651 Y127.97 E.01019
G1 X146.129 Y128.144 E.01513
G1 X146.524 Y128.465 E.01518
G1 X146.791 Y128.89 E.01494
G1 X146.912 Y129.402 E.01569
G1 X146.856 Y129.926 E.01569
G1 X146.628 Y130.401 E.01569
G1 X146.256 Y130.773 E.01569
;WIDTH:0.453448
G1 X146.104 Y130.864 E.00573
;WIDTH:0.486897
G1 X145.953 Y130.954 E.0062
;WIDTH:0.520345
G1 X145.801 Y131.045 E.00666
;WIDTH:0.569322
G1 X145.725 Y131.09 E.00367
G1 X145.176 Y131.116 E.02286
;WIDTH:0.557006
G1 X145.161 Y131.109 E.00068
G1 E-.68 F3600
;WIPE_START
G1 F3000
G1 X145.013 Y131.046 E-.01927
G1 X144.85 Y130.976 E-.02128
G1 X144.687 Y130.907 E-.02128
G1 X144.29 Y130.628 E-.05817
;WIPE_END
G1 X136.658 Y130.693 Z.6 F21000
G1 X92.359 Y131.072 Z.6
G1 Z.2
G1 E.8 F2700
M73 P2 R31
G1 F3000
G1 X92.299 Y131.046 E.00268
;WIDTH:0.511337
G1 X92.135 Y130.976 E.00657
;WIDTH:0.465668
G1 X91.972 Y130.906 E.00593
;WIDTH:0.419999
G1 X91.542 Y130.603 E.01569
G1 X91.238 Y130.173 E.01569
G1 X91.102 Y129.729 E.01381
G1 X91.113 Y129.203 E.01569
G1 X91.299 Y128.711 E.01567
G1 X91.639 Y128.308 E.01571
G1 X92.094 Y128.042 E.01569
G1 X92.596 Y127.944 E.01523
G1 X92.937 Y127.97 E.01019
G1 X93.414 Y128.144 E.01513
G1 X93.81 Y128.465 E.01518
G1 X94.076 Y128.89 E.01494
G1 X94.198 Y129.402 E.01569
G1 X94.142 Y129.926 E.01569
G1 X93.914 Y130.401 E.01569
G1 X93.542 Y130.773 E.01569
;WIDTH:0.453448
G1 X93.39 Y130.864 E.00573
;WIDTH:0.486897
G1 X93.238 Y130.954 E.0062
;WIDTH:0.520345
G1 X93.087 Y131.045 E.00666
;WIDTH:0.569322
G1 X93.011 Y131.09 E.00367
G1 X92.462 Y131.116 E.02286
;WIDTH:0.557006
G1 X92.396 Y131.088 E.0029
G1 E-.68 F3600
;WIPE_START
G1 F3000
G1 X92.299 Y131.046 E-.01271
G1 X92.135 Y130.976 E-.0213
G1 X91.972 Y130.906 E-.0213
G1 X91.542 Y130.603 E-.0632
G1 X91.535 Y130.592 E-.00149
;WIPE_END
G1 X98.713 Y127.997 Z.6 F21000
G1 X176.323 Y99.94 Z.6
G1 Z.2
G1 E.8 F2700
;TYPE:Bottom surface
;WIDTH:0.420126
G1 F4800
G1 X175.73 Y99.347 E.02498
G1 X175.196 Y99.347 E.01589
G1 X176.153 Y100.304 E.04031
G1 X176.153 Y100.837 E.01589
G1 X174.663 Y99.347 E.06279
G1 X174.13 Y99.347 E.01589
G1 X176.153 Y101.37 E.08527
G1 X176.153 Y101.904 E.01589
G1 X173.596 Y99.347 E.10775
G1 X173.063 Y99.347 E.01589
G1 X176.153 Y102.437 E.13023
G1 X176.153 Y102.971 E.01589
G1 X172.529 Y99.347 E.15271
G1 X171.996 Y99.347 E.01589
G1 X176.153 Y103.504 E.17518
G1 X176.153 Y104.038 E.01589
G1 X171.462 Y99.347 E.19766
G1 X170.929 Y99.347 E.01589
G1 X176.153 Y104.571 E.22014
G1 X176.153 Y105.105 E.01589
G1 X170.395 Y99.347 E.24262
G1 X169.862 Y99.347 E.01589
G1 X176.153 Y105.638 E.2651
G1 X176.153 Y106.172 E.01589
G1 X169.328 Y99.347 E.28758
G1 X168.795 Y99.347 E.01589
G1 X176.153 Y106.705 E.31006
G1 X176.153 Y107.238 E.01589
G1 X168.262 Y99.347 E.33254
G1 X167.728 Y99.347 E.01589
G1 X176.153 Y107.772 E.35502
G1 X176.153 Y108.305 E.01589
G1 X167.195 Y99.347 E.37749
G1 X166.661 Y99.347 E.01589
G1 X176.153 Y108.839 E.39997
G1 X176.153 Y109.372 E.01589
G1 X166.128 Y99.347 E.42245
G1 X165.594 Y99.347 E.01589
G1 X176.153 Y109.906 E.44493
G1 X176.153 Y110.439 E.01589
G1 X165.061 Y99.347 E.46741
G1 X164.527 Y99.347 E.01589
G1 X176.153 Y110.973 E.48989
G1 X176.153 Y111.506 E.01589
G1 X163.994 Y99.347 E.51237
G1 X163.461 Y99.347 E.01589
G1 X176.153 Y112.039 E.53485
G1 X176.153 Y112.573 E.01589
G1 X162.927 Y99.347 E.55733
G1 X162.394 Y99.347 E.01589
G1 X176.153 Y113.106 E.5798
G1 X176.153 Y113.64 E.01589
G1 X161.86 Y99.347 E.60228
G1 X161.327 Y99.347 E.01589
G1 X176.153 Y114.173 E.62476
G1 X176.153 Y114.707 E.01589
G1 X160.793 Y99.347 E.64724
G1 X160.26 Y99.347 E.01589
G1 X176.153 Y115.24 E.66972
G1 X176.153 Y115.774 E.01589
G1 X159.726 Y99.347 E.6922
G1 X159.193 Y99.347 E.01589
G1 X176.153 Y116.307 E.71468
G1 X176.153 Y116.841 E.01589
G1 X158.659 Y99.347 E.73716
G1 X158.126 Y99.347 E.01589
G1 X176.153 Y117.374 E.75964
G1 X176.153 Y117.907 E.01589
G1 X157.593 Y99.347 E.78211
G1 X157.059 Y99.347 E.01589
G1 X176.153 Y118.441 E.80459
G1 X176.153 Y118.974 E.01589
G1 X156.526 Y99.347 E.82707
G1 X155.992 Y99.347 E.01589
G1 X176.153 Y119.508 E.84955
G1 X176.153 Y120.041 E.01589
G1 X155.459 Y99.347 E.87203
G1 X154.925 Y99.347 E.01589
G1 X176.153 Y120.575 E.89451
G1 X176.153 Y121.108 E.01589
G1 X154.392 Y99.347 E.91699
G1 X153.858 Y99.347 E.01589
G1 X176.153 Y121.642 E.93947
G1 X176.153 Y122.175 E.01589
G1 X153.325 Y99.347 E.96195
G1 X152.792 Y99.347 E.01589
G1 X176.153 Y122.708 E.98442
G1 X176.153 Y123.242 E.01589
G1 X152.258 Y99.347 E1.0069
G1 X151.725 Y99.347 E.01589
G1 X176.153 Y123.775 E1.02938
G1 X176.153 Y124.309 E.01589
M73 P3 R31
G1 X151.191 Y99.347 E1.05186
G1 X150.658 Y99.347 E.01589
G1 X176.153 Y124.842 E1.07434
G1 X176.153 Y125.376 E.01589
G1 X150.124 Y99.347 E1.09682
G1 X149.591 Y99.347 E.01589
G1 X176.153 Y125.909 E1.1193
G1 X176.153 Y126.443 E.01589
G1 X149.057 Y99.347 E1.14178
G1 X148.524 Y99.347 E.01589
G1 X176.153 Y126.976 E1.16426
G1 X176.153 Y127.51 E.01589
G1 X147.99 Y99.347 E1.18673
G1 X147.457 Y99.347 E.01589
G1 X176.153 Y128.043 E1.20921
G1 X176.153 Y128.576 E.01589
G1 X146.924 Y99.347 E1.23169
G1 X146.39 Y99.347 E.01589
G1 X176.153 Y129.11 E1.25417
G1 X176.153 Y129.643 E.01589
G1 X145.857 Y99.347 E1.27665
G1 X145.323 Y99.347 E.01589
G1 X176.153 Y130.177 E1.29913
G1 X176.153 Y130.653 E.01419
G1 X176.096 Y130.653 E.0017
G1 X144.79 Y99.347 E1.3192
G1 X144.256 Y99.347 E.01589
G1 X175.562 Y130.653 E1.3192
G1 X175.029 Y130.653 E.01589
G1 X143.723 Y99.347 E1.3192
G1 X143.189 Y99.347 E.01589
G1 X174.495 Y130.653 E1.3192
G1 X173.962 Y130.653 E.01589
G1 X142.656 Y99.347 E1.3192
G1 X142.123 Y99.347 E.01589
G1 X173.429 Y130.653 E1.3192
G1 X172.895 Y130.653 E.01589
G1 X141.589 Y99.347 E1.3192
G1 X141.056 Y99.347 E.01589
G1 X172.362 Y130.653 E1.3192
G1 X171.828 Y130.653 E.01589
G1 X140.522 Y99.347 E1.3192
G1 X139.989 Y99.347 E.01589
G1 X171.295 Y130.653 E1.3192
G1 X170.761 Y130.653 E.01589
G1 X139.455 Y99.347 E1.3192
G1 X138.922 Y99.347 E.01589
G1 X170.228 Y130.653 E1.3192
G1 X169.694 Y130.653 E.01589
G1 X138.388 Y99.347 E1.3192
G1 X137.855 Y99.347 E.01589
G1 X169.161 Y130.653 E1.3192
G1 X168.628 Y130.653 E.01589
G1 X137.321 Y99.347 E1.3192
G1 X136.788 Y99.347 E.01589
G1 X168.094 Y130.653 E1.3192
G1 X167.561 Y130.653 E.01589
G1 X136.255 Y99.347 E1.3192
G1 X135.721 Y99.347 E.01589
G1 X167.027 Y130.653 E1.3192
G1 X166.494 Y130.653 E.01589
G1 X135.188 Y99.347 E1.3192
G1 X134.654 Y99.347 E.01589
G1 X165.96 Y130.653 E1.3192
G1 X165.427 Y130.653 E.01589
M73 P4 R31
G1 X134.121 Y99.347 E1.3192
G1 X133.587 Y99.347 E.01589
G1 X164.893 Y130.653 E1.3192
G1 X164.36 Y130.653 E.01589
G1 X133.054 Y99.347 E1.3192
G1 X132.52 Y99.347 E.01589
G1 X163.826 Y130.653 E1.3192
G1 X163.293 Y130.653 E.01589
G1 X131.987 Y99.347 E1.3192
G1 X131.454 Y99.347 E.01589
G1 X162.76 Y130.653 E1.3192
G1 X162.226 Y130.653 E.01589
G1 X130.92 Y99.347 E1.3192
G1 X130.387 Y99.347 E.01589
G1 X161.693 Y130.653 E1.3192
G1 X161.159 Y130.653 E.01589
G1 X129.853 Y99.347 E1.3192
G1 X129.32 Y99.347 E.01589
G1 X160.626 Y130.653 E1.3192
G1 X160.092 Y130.653 E.01589
G1 X128.786 Y99.347 E1.3192
G1 X128.253 Y99.347 E.01589
G1 X159.559 Y130.653 E1.3192
G1 X159.025 Y130.653 E.01589
G1 X127.719 Y99.347 E1.3192
G1 X127.186 Y99.347 E.01589
G1 X158.492 Y130.653 E1.3192
G1 X157.959 Y130.653 E.01589
G1 X126.652 Y99.347 E1.3192
G1 X126.119 Y99.347 E.01589
G1 X157.425 Y130.653 E1.3192
G1 X156.892 Y130.653 E.01589
G1 X125.586 Y99.347 E1.3192
G1 X125.052 Y99.347 E.01589
G1 X156.358 Y130.653 E1.3192
G1 X155.825 Y130.653 E.01589
G1 X124.519 Y99.347 E1.3192
G1 X123.985 Y99.347 E.01589
G1 X155.291 Y130.653 E1.3192
G1 X154.758 Y130.653 E.01589
G1 X123.452 Y99.347 E1.3192
G1 X122.918 Y99.347 E.01589
G1 X154.224 Y130.653 E1.3192
G1 X153.691 Y130.653 E.01589
G1 X122.385 Y99.347 E1.3192
G1 X121.851 Y99.347 E.01589
G1 X153.158 Y130.653 E1.3192
G1 X152.624 Y130.653 E.01589
G1 X121.318 Y99.347 E1.3192
G1 X120.785 Y99.347 E.01589
G1 X152.091 Y130.653 E1.3192
G1 X151.557 Y130.653 E.01589
G1 X120.251 Y99.347 E1.3192
G1 X119.718 Y99.347 E.01589
G1 X151.024 Y130.653 E1.3192
G1 X150.49 Y130.653 E.01589
G1 X119.184 Y99.347 E1.3192
G1 X118.651 Y99.347 E.01589
G1 X149.957 Y130.653 E1.3192
G1 X149.423 Y130.653 E.01589
M73 P5 R31
G1 X147.918 Y129.148 E.06343
G1 X147.944 Y129.589 E.01318
G1 X147.931 Y129.694 E.00314
G1 X148.89 Y130.653 E.04041
G1 X148.356 Y130.653 E.01589
G1 X147.857 Y130.153 E.02106
G1 X147.767 Y130.446 E.00913
G1 X147.716 Y130.546 E.00334
G1 X147.993 Y130.823 E.01164
G1 E-.68 F3600
;WIPE_START
G1 F4800
G1 X147.716 Y130.546 E-.0469
G1 X147.767 Y130.446 E-.01345
G1 X147.857 Y130.153 E-.03679
G1 X147.991 Y130.288 E-.02286
;WIPE_END
G1 X145.915 Y127.145 Z.6 F21000
G1 Z.2
G1 E.8 F2700
G1 F4800
G1 X118.117 Y99.347 E1.17138
G1 X117.584 Y99.347 E.01589
G1 X145.156 Y126.92 E1.16187
G1 X144.708 Y127.005 E.0136
G1 X117.05 Y99.347 E1.16546
G1 X116.517 Y99.347 E.01589
G1 X144.306 Y127.136 E1.17099
G1 X143.963 Y127.326 E.01169
G1 X115.983 Y99.347 E1.17902
G1 X115.45 Y99.347 E.01589
G1 X143.651 Y127.548 E1.18836
G1 X143.396 Y127.827 E.01125
G1 X114.917 Y99.347 E1.20009
G1 X114.383 Y99.347 E.01589
G1 X143.16 Y128.123 E1.2126
M73 P5 R30
G1 X142.991 Y128.488 E.01198
G1 X113.85 Y99.347 E1.22798
G1 X113.316 Y99.347 E.01589
G1 X142.85 Y128.881 E1.24452
G1 X142.792 Y129.151 E.00823
G1 X142.784 Y129.348 E.00587
G1 X112.783 Y99.347 E1.2642
G1 X112.249 Y99.347 E.01589
G1 X142.807 Y129.904 E1.28765
G1 X142.822 Y130.025 E.00364
G1 X142.963 Y130.484 E.0143
G1 X143.049 Y130.653 E.00564
G1 X143.022 Y130.653 E.00079
G1 X111.716 Y99.347 E1.3192
G1 X111.182 Y99.347 E.01589
G1 X142.489 Y130.653 E1.3192
G1 X141.955 Y130.653 E.01589
G1 X110.649 Y99.347 E1.3192
G1 X110.116 Y99.347 E.01589
G1 X141.422 Y130.653 E1.3192
G1 X140.888 Y130.653 E.01589
G1 X109.582 Y99.347 E1.3192
G1 X109.049 Y99.347 E.01589
G1 X140.355 Y130.653 E1.3192
G1 X139.821 Y130.653 E.01589
G1 X108.515 Y99.347 E1.3192
G1 X107.982 Y99.347 E.01589
G1 X139.288 Y130.653 E1.3192
G1 X138.754 Y130.653 E.01589
G1 X107.448 Y99.347 E1.3192
G1 X106.915 Y99.347 E.01589
G1 X138.221 Y130.653 E1.3192
G1 X137.687 Y130.653 E.01589
G1 X106.381 Y99.347 E1.3192
G1 X105.848 Y99.347 E.01589
G1 X137.154 Y130.653 E1.3192
G1 X136.621 Y130.653 E.01589
G1 X105.314 Y99.347 E1.3192
