;FLAVOR:Marlin
;TIME:361
;Filament used: 0.0872839m
;Layer height: 0.2
;MINX:135.314
;MINY:136.376
;MINZ:0.2
;MAXX:164.688
;MAXY:165.526
;MAXZ:9.2
;Generated with Creality Slicer 4.8.2-191
M140 S50
M105
M190 S50
M104 S200
M105
M109 S200
M82 ;absolute extrusion mode

G28 ;Home

G92 E0 ;Reset Extruder
G1 Z2.0 F3000 ;Move Z Axis up
G1 X10.1 Y20 Z0.28 F5000.0 ;Move to start position
G1 X10.1 Y200.0 Z0.28 F1500.0 E15 ;Draw the first line
G1 X10.4 Y200.0 Z0.28 F5000.0 ;Move to side a little
G1 X10.4 Y20 Z0.28 F1500.0 E30 ;Draw the second line
G92 E0 ;Reset Extruder
G1 Z2.0 F3000 ;Move Z Axis up

G92 E0
G92 E0
G1 F2700 E-5
;LAYER_COUNT:46
;LAYER:0
M107
G0 F6000 X139.526 Y140.795 Z0.2
;TYPE:SKIRT
G1 F2700 E0
G1 F1200 X139.864 Y140.463 E0.01576
G1 X140.02 Y140.315 E0.02291
G1 X140.692 Y139.727 E0.05261
G1 X140.964 Y139.508 E0.06422
G1 X141.393 Y139.18 E0.08219
G1 X141.459 Y139.132 E0.0849
G1 X142.103 Y138.697 E0.11075
G1 X142.481 Y138.461 E0.12557
G1 X143.688 Y137.809 E0.1712
G1 X144.01 Y137.66 E0.183
G1 X144.324 Y137.52 E0.19443
G1 X145.279 Y137.157 E0.22841
G1 X145.636 Y137.04 E0.24091
G1 X146.872 Y136.713 E0.28343
G1 X147.315 Y136.623 E0.29847
G1 X148.63 Y136.438 E0.34263
G1 X149.081 Y136.402 E0.35768
G1 X150.413 Y136.376 E0.40199
G1 X150.774 Y136.391 E0.41401
G1 X151.279 Y136.424 E0.43084
G1 X152.115 Y136.526 E0.45886
G1 X152.475 Y136.584 E0.47098
G1 X152.859 Y136.653 E0.48396
G1 X153.815 Y136.88 E0.51664
G1 X154.193 Y136.988 E0.52972
G1 X155.442 Y137.428 E0.57376
G1 X155.874 Y137.61 E0.58935
G1 X157.069 Y138.201 E0.63369
G1 X157.434 Y138.41 E0.64768
G1 X158.56 Y139.15 E0.6925
G1 X158.914 Y139.415 E0.7072
G1 X159.309 Y139.725 E0.7239
G1 X159.891 Y140.234 E0.74962
G1 X160.085 Y140.416 E0.75847
G1 X160.366 Y140.689 E0.7715
G1 X160.669 Y140.998 E0.78589
G1 X161.026 Y141.374 E0.80314
G1 X161.642 Y142.081 E0.83433
G1 X162.041 Y142.613 E0.85644
G1 X162.165 Y142.789 E0.8636
G1 X162.528 Y143.337 E0.88547
G1 X162.708 Y143.628 E0.89685
G1 X163.167 Y144.446 E0.92805
G1 X163.678 Y145.621 E0.97066
G1 X163.836 Y146.051 E0.9859
G1 X163.943 Y146.357 E0.99668
G1 X164.049 Y146.674 E1.0078
G1 X164.308 Y147.575 E1.03898
G1 X164.514 Y148.662 E1.07578
G1 X164.544 Y148.88 E1.08309
G1 X164.59 Y149.261 E1.09586
G1 X164.626 Y149.613 E1.10763
G1 X164.681 Y150.546 E1.13871
G1 X164.687 Y150.9 E1.15049
G1 X164.688 Y151.259 E1.16243
G1 X164.683 Y151.576 E1.17297
G1 X164.638 Y152.41 E1.20075
G1 X164.513 Y153.339 E1.23193
G1 X164.365 Y154.04 E1.25576
G1 X164.232 Y154.581 E1.27429
G1 X164.002 Y155.385 E1.3021
G1 X163.917 Y155.644 E1.31117
G1 X163.419 Y156.895 E1.35595
G1 X163.277 Y157.197 E1.36705
G1 X163.151 Y157.457 E1.37666
G1 X163.06 Y157.638 E1.3834
G1 X162.404 Y158.769 E1.42689
G1 X162.169 Y159.124 E1.44105
G1 X161.599 Y159.908 E1.47329
G1 X161.493 Y160.041 E1.47894
G1 X161.302 Y160.274 E1.48896
G1 X161.066 Y160.554 E1.50114
G1 X160.397 Y161.28 E1.53398
G1 X160.122 Y161.548 E1.54675
G1 X159.944 Y161.717 E1.55491
G1 X159.237 Y162.333 E1.5861
G1 X158.269 Y163.025 E1.62568
G1 X158.003 Y163.194 E1.63616
G1 X157.668 Y163.398 E1.64921
G1 X157.303 Y163.612 E1.66328
G1 X156.407 Y164.084 E1.69696
G1 X155.961 Y164.293 E1.71334
G1 X154.713 Y164.787 E1.75799
G1 X154.389 Y164.893 E1.76933
G1 X153.417 Y165.162 E1.80287
G1 X153.198 Y165.212 E1.81034
G1 X152.276 Y165.382 E1.84152
G1 X151.777 Y165.44 E1.85823
G1 X151.489 Y165.467 E1.86785
G1 X150.911 Y165.506 E1.88712
G1 X150.642 Y165.517 E1.89608
G1 X150.193 Y165.526 E1.91101
G1 X149.892 Y165.524 E1.92102
G1 X149.455 Y165.516 E1.93556
G1 X148.802 Y165.485 E1.9573
G1 X148.391 Y165.453 E1.97102
G1 X147.46 Y165.34 E2.00221
G1 X146.841 Y165.22 E2.02318
G1 X146.591 Y165.164 E2.0317
G1 X145.585 Y164.888 E2.0664
G1 X145.401 Y164.828 E2.07283
G1 X144.464 Y164.475 E2.10614
G1 X144.013 Y164.281 E2.12247
G1 X142.856 Y163.7 E2.16553
G1 X142.593 Y163.548 E2.17563
G1 X142.378 Y163.42 E2.18395
G1 X141.918 Y163.14 E2.20186
G1 X141.138 Y162.619 E2.23306
G1 X140.261 Y161.905 E2.27068
G1 X140.157 Y161.811 E2.27534
G1 X139.733 Y161.406 E2.29484
G1 X139.554 Y161.226 E2.30328
G1 X139.161 Y160.81 E2.32232
G1 X139.049 Y160.685 E2.3279
G1 X138.811 Y160.41 E2.34
G1 X138.537 Y160.083 E2.35419
G1 X137.75 Y159.02 E2.39818
G1 X137.582 Y158.762 E2.40842
G1 X136.961 Y157.679 E2.44994
G1 X136.798 Y157.353 E2.46206
G1 X136.593 Y156.92 E2.478
G1 X136.343 Y156.323 E2.49952
G1 X136.185 Y155.913 E2.51414
G1 X135.784 Y154.652 E2.55815
G1 X135.687 Y154.268 E2.57132
G1 X135.617 Y153.976 E2.58131
G1 X135.585 Y153.833 E2.58618
G1 X135.42 Y152.91 E2.61737
G1 X135.321 Y151.598 E2.66113
G1 X135.314 Y151.137 E2.67646
G1 X135.315 Y150.787 E2.6881
G1 X135.319 Y150.547 E2.69609
G1 X135.361 Y149.744 E2.72283
G1 X135.379 Y149.544 E2.72951
G1 X135.419 Y149.177 E2.74179
G1 X135.463 Y148.822 E2.75369
G1 X135.617 Y147.897 E2.78488
G1 X135.962 Y146.64 E2.82823
G1 X136.113 Y146.195 E2.84386
G1 X136.225 Y145.883 E2.85489
G1 X136.334 Y145.591 E2.86525
G1 X136.699 Y144.727 E2.89645
G1 X137.102 Y143.957 E2.92535
G1 X137.202 Y143.783 E2.93203
G1 X137.508 Y143.282 E2.95155
G1 X137.694 Y142.995 E2.96293
G1 X138.237 Y142.23 E2.99413
G1 X138.851 Y141.506 E3.02571
G1 X139.218 Y141.112 E3.04361
G1 X139.526 Y140.795 E3.05831
G0 F6000 X139.964 Y140.924
G1 F1200 X140.295 Y140.605 E3.0736
G1 X140.943 Y140.039 E3.10222
G1 X141.215 Y139.82 E3.11384
G1 X141.628 Y139.503 E3.13115
G1 X141.694 Y139.455 E3.13387
G1 X142.315 Y139.037 E3.15876
G1 X142.693 Y138.801 E3.17359
G1 X143.856 Y138.172 E3.21756
G1 X144.178 Y138.023 E3.22936
G1 X144.483 Y137.887 E3.24047
G1 X145.404 Y137.537 E3.27324
G1 X145.761 Y137.42 E3.28574
G1 X146.952 Y137.105 E3.32671
G1 X147.395 Y137.015 E3.34175
G1 X148.662 Y136.837 E3.3843
G1 X149.113 Y136.801 E3.39935
G1 X150.396 Y136.776 E3.44203
G1 X150.757 Y136.791 E3.45405
G1 X151.245 Y136.823 E3.47031
G1 X152.051 Y136.921 E3.49732
G1 X152.411 Y136.979 E3.50944
G1 X152.783 Y137.046 E3.52202
G1 X153.705 Y137.265 E3.55354
G1 X154.083 Y137.373 E3.56661
G1 X155.286 Y137.797 E3.60904
G1 X155.718 Y137.979 E3.62463
G1 X156.87 Y138.548 E3.66736
G1 X157.235 Y138.757 E3.68135
G1 X158.32 Y139.47 E3.72453
G1 X158.674 Y139.735 E3.73924
G1 X159.056 Y140.035 E3.7554
G1 X159.617 Y140.525 E3.78017
G1 X159.811 Y140.707 E3.78902
G1 X160.082 Y140.971 E3.8016
G1 X160.379 Y141.273 E3.81569
G1 X160.736 Y141.649 E3.83293
G1 X161.34 Y142.344 E3.86356
G1 X161.714 Y142.843 E3.8843
G1 X161.838 Y143.019 E3.89146
G1 X162.188 Y143.548 E3.91256
G1 X162.368 Y143.839 E3.92394
G1 X162.818 Y144.642 E3.95455
G1 X163.303 Y145.759 E3.99506
G1 X163.461 Y146.189 E4.01029
G1 X163.564 Y146.483 E4.02065
G1 X163.67 Y146.8 E4.03177
G1 X163.924 Y147.685 E4.0624
G1 X164.118 Y148.717 E4.09732
G1 X164.148 Y148.935 E4.10464
G1 X164.192 Y149.302 E4.11693
G1 X164.228 Y149.654 E4.1287
G1 X164.281 Y150.552 E4.15862
G1 X164.287 Y150.906 E4.1704
G1 X164.288 Y151.253 E4.18194
G1 X164.283 Y151.57 E4.19248
G1 X164.239 Y152.374 E4.21927
G1 X164.116 Y153.286 E4.24987
G1 X163.977 Y153.945 E4.27227
G1 X163.844 Y154.486 E4.2908
G1 X163.621 Y155.26 E4.31759
G1 X163.536 Y155.519 E4.32666
G1 X163.058 Y156.724 E4.36978
G1 X162.916 Y157.026 E4.38088
G1 X162.702 Y157.458 E4.39691
G1 X162.071 Y158.548 E4.4388
G1 X161.836 Y158.903 E4.45296
G1 X161.286 Y159.659 E4.48406
G1 X161.18 Y159.792 E4.48971
G1 X160.996 Y160.016 E4.49935
G1 X160.76 Y160.296 E4.51153
G1 X160.115 Y160.995 E4.54317
G1 X159.846 Y161.258 E4.55568
G1 X159.668 Y161.427 E4.56384
G1 X158.974 Y162.031 E4.59444
G1 X158.054 Y162.687 E4.63203
G1 X157.788 Y162.856 E4.64251
G1 X157.465 Y163.053 E4.65509
G1 X157.1 Y163.267 E4.66916
G1 X156.237 Y163.721 E4.7016
G1 X155.791 Y163.93 E4.71798
G1 X154.589 Y164.407 E4.76099
G1 X154.265 Y164.513 E4.77233
G1 X153.328 Y164.772 E4.80466
G1 X153.109 Y164.822 E4.81213
G1 X152.204 Y164.988 E4.84274
G1 X151.739 Y165.042 E4.85831
G1 X151.451 Y165.069 E4.86793
G1 X150.895 Y165.106 E4.88646
G1 X150.626 Y165.117 E4.89542
G1 X150.193 Y165.126 E4.90982
G1 X149.899 Y165.124 E4.9196
G1 X149.462 Y165.116 E4.93414
G1 X148.833 Y165.086 E4.95508
G1 X148.422 Y165.054 E4.96879
G1 X147.508 Y164.943 E4.99941
G1 X146.928 Y164.83 E5.01907
G1 X146.678 Y164.774 E5.02759
G1 X145.709 Y164.508 E5.06101
G1 X145.525 Y164.448 E5.06745
G1 X144.622 Y164.107 E5.09955
G1 X144.171 Y163.913 E5.11588
G1 X143.056 Y163.353 E5.15738
G1 X142.586 Y163.079 E5.17548
G1 X142.126 Y162.799 E5.19339
G1 X141.361 Y162.286 E5.22402
G1 X140.529 Y161.608 E5.25972
G1 X140.425 Y161.514 E5.26438
G1 X140.017 Y161.124 E5.28315
G1 X139.838 Y160.944 E5.2916
G1 X139.459 Y160.544 E5.30992
G1 X139.347 Y160.419 E5.31551
G1 X139.117 Y160.153 E5.3272
G1 X138.843 Y159.826 E5.34139
G1 X138.085 Y158.802 E5.38377
G1 X137.917 Y158.544 E5.39401
G1 X137.319 Y157.5 E5.43402
G1 X137.156 Y157.174 E5.44615
G1 X136.957 Y156.754 E5.4616
G1 X136.716 Y156.18 E5.48231
G1 X136.558 Y155.77 E5.49692
G1 X136.172 Y154.554 E5.53936
G1 X136.075 Y154.17 E5.55253
G1 X135.976 Y153.746 E5.56701
G1 X135.814 Y152.839 E5.59766
G1 X135.721 Y151.592 E5.63925
G1 X135.714 Y151.131 E5.65458
G1 X135.714 Y150.793 E5.66582
G1 X135.718 Y150.553 E5.67381
G1 X135.76 Y149.78 E5.69955
G1 X135.778 Y149.58 E5.70623
G1 X135.815 Y149.226 E5.71807
G1 X135.859 Y148.871 E5.72997
G1 X136.012 Y147.963 E5.7606
G1 X136.341 Y146.769 E5.80179
G1 X136.492 Y146.324 E5.81742
G1 X136.599 Y146.023 E5.82804
G1 X136.708 Y145.731 E5.83841
G1 X137.067 Y144.883 E5.86904
G1 X137.449 Y144.156 E5.89635
G1 X137.549 Y143.982 E5.90303
G1 X137.844 Y143.499 E5.92185
G1 X138.03 Y143.212 E5.93323
G1 X138.563 Y142.462 E5.96383
G1 X139.145 Y141.778 E5.9937
G1 X139.507 Y141.388 E6.0114
G1 X139.613 Y141.277 E6.0165
G1 X139.964 Y140.924 E6.03306
G0 F6000 X140.09 Y141.362
G1 F1200 X140.415 Y141.043 E6.04821
G1 X140.571 Y140.895 E6.05536
G1 X141.194 Y140.35 E6.08289
G1 X141.466 Y140.131 E6.0945
G1 X141.864 Y139.827 E6.11116
G1 X141.93 Y139.779 E6.11388
G1 X142.527 Y139.376 E6.13783
G1 X142.905 Y139.14 E6.15265
G1 X144.023 Y138.535 E6.19493
G1 X144.345 Y138.386 E6.20673
G1 X144.642 Y138.254 E6.21754
G1 X145.528 Y137.917 E6.24907
G1 X145.885 Y137.8 E6.26157
G1 X147.031 Y137.497 E6.30099
G1 X147.474 Y137.407 E6.31603
G1 X148.693 Y137.235 E6.35698
G1 X149.144 Y137.199 E6.37202
G1 X150.379 Y137.176 E6.41311
G1 X150.74 Y137.191 E6.42512
G1 X151.212 Y137.221 E6.44085
G1 X151.987 Y137.316 E6.46682
G1 X152.347 Y137.374 E6.47895
G1 X152.708 Y137.438 E6.49115
G1 X153.595 Y137.649 E6.52147
G1 X153.973 Y137.757 E6.53455
G1 X155.131 Y138.165 E6.57538
G1 X155.563 Y138.347 E6.59097
G1 X156.671 Y138.895 E6.63209
G1 X157.036 Y139.104 E6.64608
G1 X158.081 Y139.79 E6.68765
G1 X158.435 Y140.055 E6.70236
G1 X158.804 Y140.345 E6.71797
G1 X159.344 Y140.817 E6.74182
G1 X159.538 Y140.999 E6.75067
G1 X159.798 Y141.253 E6.76276
G1 X160.089 Y141.549 E6.77657
G1 X160.446 Y141.925 E6.79381
G1 X161.038 Y142.607 E6.82385
G1 X161.387 Y143.073 E6.84321
G1 X161.511 Y143.249 E6.85037
G1 X161.848 Y143.758 E6.87068
G1 X162.028 Y144.049 E6.88206
G1 X162.468 Y144.838 E6.91211
G1 X162.927 Y145.897 E6.95049
G1 X163.085 Y146.327 E6.96573
G1 X163.185 Y146.61 E6.97571
G1 X163.291 Y146.927 E6.98683
G1 X163.539 Y147.796 E7.01689
G1 X163.722 Y148.771 E7.04988
G1 X163.752 Y148.989 E7.0572
G1 X163.794 Y149.342 E7.06903
G1 X163.83 Y149.694 E7.08079
G1 X163.882 Y150.559 E7.10962
G1 X163.888 Y150.913 E7.12139
G1 X163.888 Y151.247 E7.1325
G1 X163.883 Y151.564 E7.14305
G1 X163.841 Y152.337 E7.16879
G1 X163.72 Y153.232 E7.19883
G1 X163.588 Y153.849 E7.21982
G1 X163.455 Y154.39 E7.23835
G1 X163.241 Y155.136 E7.26416
G1 X163.156 Y155.395 E7.27323
G1 X162.696 Y156.554 E7.3147
G1 X162.554 Y156.856 E7.3258
G1 X162.345 Y157.279 E7.34149
G1 X161.737 Y158.327 E7.38179
G1 X161.502 Y158.682 E7.39595
G1 X160.974 Y159.409 E7.42583
G1 X160.868 Y159.542 E7.43149
G1 X160.69 Y159.759 E7.44083
G1 X160.454 Y160.039 E7.45301
G1 X159.834 Y160.711 E7.48342
G1 X159.571 Y160.968 E7.49565
G1 X159.393 Y161.137 E7.50381
G1 X158.711 Y161.729 E7.53385
G1 X157.84 Y162.349 E7.56941
G1 X157.574 Y162.518 E7.57989
G1 X157.263 Y162.708 E7.59201
G1 X156.898 Y162.922 E7.60608
G1 X156.067 Y163.359 E7.63731
G1 X155.621 Y163.568 E7.65369
G1 X154.465 Y164.026 E7.69505
G1 X154.141 Y164.132 E7.70639
G1 X153.239 Y164.382 E7.73752
G1 X153.02 Y164.432 E7.74499
G1 X151.702 Y164.643 E7.78939
G1 X151.414 Y164.67 E7.79901
G1 X150.879 Y164.706 E7.81684
G1 X150.61 Y164.717 E7.8258
G1 X150.193 Y164.726 E7.83967
G1 X149.906 Y164.724 E7.84921
G1 X149.469 Y164.716 E7.86375
G1 X148.864 Y164.687 E7.8839
G1 X148.453 Y164.655 E7.89761
G1 X147.557 Y164.545 E7.92763
G1 X147.015 Y164.439 E7.946
G1 X146.765 Y164.383 E7.95452
G1 X145.833 Y164.127 E7.98667
G1 X145.649 Y164.067 E7.99311
G1 X144.78 Y163.74 E8.02399
G1 X144.329 Y163.546 E8.04032
G1 X143.256 Y163.007 E8.08025
G1 X142.993 Y162.855 E8.09036
G1 X142.794 Y162.737 E8.09805
G1 X142.334 Y162.457 E8.11596
G1 X141.584 Y161.954 E8.146
G1 X140.797 Y161.311 E8.1798
G1 X140.693 Y161.217 E8.18446
G1 X140.3 Y160.842 E8.20253
G1 X140.121 Y160.662 E8.21097
G1 X139.757 Y160.277 E8.2286
G1 X139.645 Y160.152 E8.23418
G1 X139.424 Y159.896 E8.24543
G1 X139.15 Y159.569 E8.25962
G1 X138.42 Y158.584 E8.30039
G1 X138.252 Y158.326 E8.31063
G1 X137.677 Y157.322 E8.34912
G1 X137.514 Y156.996 E8.36124
G1 X137.321 Y156.589 E8.37622
G1 X137.089 Y156.036 E8.39617
G1 X136.931 Y155.626 E8.41078
G1 X136.56 Y154.456 E8.4516
G1 X136.463 Y154.072 E8.46478
G1 X136.398 Y153.801 E8.47405
G1 X136.366 Y153.658 E8.47892
G1 X136.208 Y152.769 E8.50895
G1 X136.121 Y151.586 E8.54841
G1 X136.114 Y151.125 E8.56374
G1 X136.114 Y150.8 E8.57455
G1 X136.118 Y150.56 E8.58253
G1 X136.158 Y149.816 E8.60731
G1 X136.176 Y149.616 E8.61399
G1 X136.212 Y149.275 E8.6254
G1 X136.256 Y148.92 E8.6373
G1 X136.407 Y148.03 E8.66732
G1 X136.72 Y146.897 E8.70642
G1 X136.871 Y146.452 E8.72205
G1 X136.974 Y146.163 E8.73225
G1 X137.083 Y145.871 E8.74262
G1 X137.436 Y145.04 E8.77265
G1 X137.795 Y144.356 E8.79834
G1 X137.895 Y144.182 E8.80501
G1 X138.179 Y143.717 E8.82314
G1 X138.365 Y143.43 E8.83451
G1 X138.89 Y142.694 E8.86458
G1 X139.439 Y142.049 E8.89275
G1 X139.796 Y141.665 E8.91019
G1 X140.09 Y141.362 E8.92423
G0 F6000 X146.907 Y151.056
G1 F1200 X146.927 Y151.21 E8.9294
G1 X147.079 Y151.765 E8.94854
G1 X147.134 Y151.899 E8.95335
G1 X147.534 Y152.618 E8.98072
G1 X147.7 Y152.807 E8.98909
G1 X148.33 Y153.276 E9.01521
G1 X148.393 Y153.318 E9.01773
G1 X148.675 Y153.477 E9.0285
G1 X148.758 Y153.515 E9.03153
G1 X149.104 Y153.646 E9.04384
G1 X149.189 Y153.671 E9.04678
G1 X149.522 Y153.743 E9.05812
G1 X149.607 Y153.756 E9.06098
G1 X150.008 Y153.784 E9.07434
G1 X150.111 Y153.782 E9.07777
G1 X150.407 Y153.752 E9.08767
G1 X150.457 Y153.745 E9.08935
G1 X150.801 Y153.68 E9.10099
G1 X150.916 Y153.646 E9.10498
G1 X151.283 Y153.497 E9.11815
G1 X151.364 Y153.457 E9.12116
G1 X151.674 Y153.271 E9.13318
G1 X151.891 Y153.126 E9.14186
G1 X151.985 Y153.049 E9.1459
G1 X152.492 Y152.536 E9.16989
G1 X152.59 Y152.404 E9.17536
G1 X152.896 Y151.85 E9.19641
G1 X152.957 Y151.689 E9.20214
G1 X153.079 Y151.135 E9.221
G1 X153.093 Y150.769 E9.23319
G1 X153.094 Y151.291 E9.25055
G1 X152.973 Y151.829 E9.26889
G1 X152.914 Y151.999 E9.27487
G1 X152.678 Y152.485 E9.29284
G1 X152.589 Y152.614 E9.29806
G1 X152.227 Y153.054 E9.31701
G1 X152.039 Y153.238 E9.32576
G1 X151.699 Y153.455 E9.33917
G1 X151.366 Y153.655 E9.35209
G1 X151.068 Y153.788 E9.36295
G1 X150.725 Y153.894 E9.37489
G1 X150.435 Y153.926 E9.38459
G1 X149.997 Y153.928 E9.39916
G1 X149.573 Y153.926 E9.41326
G1 X149.284 Y153.898 E9.42292
G1 X148.953 Y153.795 E9.43445
G1 X148.613 Y153.642 E9.44685
G1 X148.282 Y153.444 E9.45968
G1 X148.006 Y153.256 E9.47078
G1 X147.789 Y153.069 E9.48031
G1 X147.418 Y152.619 E9.49971
G1 X147.307 Y152.461 E9.50613
G1 X147.074 Y151.972 E9.52415
G1 X147.033 Y151.857 E9.52821
G1 X146.906 Y151.293 E9.54744
G1 X146.907 Y151.056 E9.55532
G0 F6000 X147.306 Y151.052
G1 F1200 X147.313 Y151.105 E9.5571
G1 X147.465 Y151.66 E9.57624
G1 X147.483 Y151.704 E9.57782
G1 X147.883 Y152.423 E9.60518
G1 X147.939 Y152.486 E9.60799
G1 X148.59 Y152.969 E9.63495
G1 X148.872 Y153.128 E9.64572
G1 X148.899 Y153.141 E9.64671
G1 X149.245 Y153.272 E9.65902
