;FLAVOR:Marlin
;TIME:2239
;Filament used: 0.942945m
;Layer height: 0.2
;MINX:131.3
;MINY:126.699
;MINZ:0.2
;MAXX:168.706
;MAXY:173.295
;MAXZ:28.2
;Generated with Creality Slicer 4.8.2-191
M140 S50
M105
M190 S50
M104 S200
M105
M109 S200
M82 ;absolute extrusion mode

G28 ;Home

G92 E0 ;Reset Extruder
G1 Z2.0 F3000 ;Move Z Axis up
G1 X10.1 Y20 Z0.28 F5000.0 ;Move to start position
G1 X10.1 Y200.0 Z0.28 F1500.0 E15 ;Draw the first line
G1 X10.4 Y200.0 Z0.28 F5000.0 ;Move to side a little
G1 X10.4 Y20 Z0.28 F1500.0 E30 ;Draw the second line
G92 E0 ;Reset Extruder
G1 Z2.0 F3000 ;Move Z Axis up

G92 E0
G92 E0
G1 F2700 E-5
;LAYER_COUNT:142
;LAYER:0
M107
G0 F6000 X134.991 Y131.249 Z0.2
;TYPE:SKIRT
G1 F2700 E0
G1 F1200 X135.872 Y130.368 E0.04144
G1 X135.956 Y130.293 E0.04518
G1 X136.254 Y130.036 E0.05827
G1 X136.437 Y129.884 E0.06619
G1 X137.502 Y129.102 E0.11013
G1 X137.995 Y128.784 E0.12964
G1 X138.805 Y128.31 E0.16086
G1 X139.505 Y127.97 E0.18674
G1 X139.636 Y127.912 E0.19151
G1 X139.997 Y127.759 E0.20455
G1 X140.279 Y127.646 E0.21465
G1 X141.431 Y127.257 E0.25509
G1 X141.568 Y127.219 E0.25982
G1 X142.073 Y127.092 E0.27714
G1 X142.399 Y127.018 E0.28826
G1 X143.637 Y126.81 E0.33001
G1 X143.774 Y126.795 E0.3346
G1 X144.31 Y126.75 E0.35249
G1 X144.642 Y126.73 E0.36355
G1 X145.118 Y126.71 E0.37939
G1 X145.391 Y126.704 E0.38848
G1 X145.796 Y126.7 E0.40195
G1 X155.96 Y126.699 E0.74
G1 X156.875 Y126.711 E0.77044
G1 X157.811 Y126.765 E0.80162
G1 X158.739 Y126.898 E0.8328
G1 X159.653 Y127.11 E0.86401
G1 X160.545 Y127.399 E0.8952
G1 X161.41 Y127.763 E0.92641
G1 X162.24 Y128.199 E0.95759
G1 X163.03 Y128.704 E0.98878
G1 X163.774 Y129.275 E1.01997
G1 X164.622 Y130.064 E1.0585
G1 X164.739 Y130.185 E1.06409
G1 X165.361 Y130.886 E1.09527
G1 X165.922 Y131.638 E1.12647
G1 X166.416 Y132.435 E1.15766
G1 X166.841 Y133.271 E1.18885
G1 X167.193 Y134.14 E1.22003
G1 X167.47 Y135.036 E1.25123
G1 X167.669 Y135.953 E1.28244
G1 X167.784 Y136.819 E1.31149
G1 X167.866 Y137.712 E1.34132
G1 X167.954 Y138.825 E1.37845
G1 X168.225 Y141.358 E1.46318
G1 X168.589 Y144.026 E1.55274
G1 X168.683 Y145.115 E1.5891
G1 X168.694 Y145.531 E1.60294
G1 X168.7 Y146.108 E1.62213
G1 X168.701 Y151.596 E1.80466
G1 X168.706 Y151.681 E1.80749
G1 X168.705 Y152.14 E1.82276
G1 X168.7 Y152.252 E1.82649
G1 X168.7 Y158.538 E2.03556
G1 X168.698 Y158.749 E2.04258
G1 X168.674 Y159.999 E2.08416
G1 X168.634 Y160.753 E2.10928
G1 X168.606 Y161.071 E2.11989
G1 X168.484 Y162.001 E2.15109
G1 X168.283 Y162.917 E2.18228
G1 X168.191 Y163.265 E2.19425
G1 X167.913 Y164.161 E2.22546
G1 X167.492 Y165.175 E2.26197
G1 X167.3 Y165.572 E2.27664
G1 X167.185 Y165.801 E2.28516
G1 X166.588 Y166.843 E2.32511
G1 X166.362 Y167.192 E2.33894
G1 X165.819 Y167.957 E2.37014
G1 X165.213 Y168.673 E2.40134
G1 X164.802 Y169.095 E2.42093
G1 X164.462 Y169.426 E2.43671
G1 X163.763 Y170.051 E2.4679
G1 X162.909 Y170.684 E2.50325
G1 X162.67 Y170.843 E2.5128
G1 X162.244 Y171.12 E2.5297
G1 X161.437 Y171.597 E2.56088
G1 X160.645 Y171.981 E2.59016
G1 X160.512 Y172.039 E2.59498
G1 X159.624 Y172.381 E2.62663
G1 X159.208 Y172.519 E2.64121
G1 X158.817 Y172.642 E2.65484
G1 X158.383 Y172.769 E2.66988
G1 X158.083 Y172.85 E2.68022
G1 X157.168 Y173.055 E2.71141
G1 X156.459 Y173.16 E2.73524
G1 X156.037 Y173.208 E2.74937
G1 X155.003 Y173.276 E2.78384
G1 X154.054 Y173.294 E2.81541
G1 X153.694 Y173.295 E2.82738
G1 X153.33 Y173.29 E2.83949
G1 X152.622 Y173.257 E2.86306
G1 X151.958 Y173.205 E2.88521
G1 X151.027 Y173.092 E2.91641
G1 X150.126 Y172.905 E2.94701
G1 X149.912 Y172.851 E2.95435
G1 X149.581 Y172.762 E2.96575
G1 X149.315 Y172.686 E2.97495
G1 X148.747 Y172.507 E2.99476
G1 X148.188 Y172.314 E3.01443
G1 X147.315 Y171.97 E3.04564
G1 X146.475 Y171.553 E3.07683
G1 X145.862 Y171.19 E3.10053
G1 X145.537 Y170.982 E3.11336
G1 X145.268 Y170.807 E3.12403
G1 X144.504 Y170.262 E3.15525
G1 X143.873 Y169.731 E3.18268
G1 X143.808 Y169.672 E3.1856
G1 X143.477 Y169.359 E3.20075
G1 X143.188 Y169.074 E3.21425
G1 X142.876 Y168.753 E3.22914
G1 X142.262 Y168.044 E3.26033
G1 X141.959 Y167.644 E3.27702
G1 X141.762 Y167.371 E3.28822
G1 X141.246 Y166.588 E3.31941
G1 X141.01 Y166.173 E3.33529
G1 X140.893 Y165.957 E3.34346
G1 X140.428 Y164.988 E3.37921
G1 X140.321 Y164.734 E3.38837
G1 X140.213 Y164.468 E3.39792
G1 X140.001 Y163.923 E3.41737
G1 X139.37 Y162.237 E3.47725
G1 X138.412 Y159.882 E3.56181
G1 X137.409 Y157.604 E3.64459
G1 X136.315 Y155.298 E3.72948
G1 X135.196 Y153.103 E3.81143
G1 X133.963 Y150.843 E3.89706
G1 X133.259 Y149.627 E3.94379
G1 X133.011 Y149.183 E3.96071
G1 X132.606 Y148.374 E3.9908
G1 X132.542 Y148.232 E3.99598
G1 X132.333 Y147.736 E4.01388
G1 X132.219 Y147.446 E4.02424
G1 X131.842 Y146.31 E4.06405
G1 X131.802 Y146.163 E4.06912
G1 X131.688 Y145.705 E4.08482
G1 X131.618 Y145.396 E4.09535
G1 X131.411 Y144.162 E4.13697
G1 X131.397 Y144.034 E4.14125
G1 X131.354 Y143.53 E4.15808
G1 X131.332 Y143.181 E4.16971
G1 X131.313 Y142.786 E4.18286
G1 X131.306 Y142.481 E4.19301
G1 X131.3 Y141.904 E4.2122
G1 X131.301 Y141.208 E4.23535
G1 X131.311 Y140.536 E4.2577
G1 X131.326 Y140.089 E4.27258
G1 X131.364 Y139.533 E4.29111
G1 X131.394 Y139.213 E4.3018
G1 X131.58 Y137.983 E4.34318
G1 X131.619 Y137.797 E4.3495
G1 X131.733 Y137.308 E4.3662
G1 X131.807 Y137.021 E4.37606
G1 X132.166 Y135.887 E4.41562
G1 X132.215 Y135.757 E4.42024
G1 X132.427 Y135.237 E4.43892
G1 X132.561 Y134.93 E4.45006
G1 X133.118 Y133.825 E4.49122
G1 X133.181 Y133.716 E4.49541
G1 X133.412 Y133.336 E4.5102
G1 X133.595 Y133.047 E4.52157
G1 X134.283 Y132.08 E4.56105
G1 X134.369 Y131.972 E4.56564
G1 X134.767 Y131.5 E4.58617
G1 X134.991 Y131.249 E4.59736
G0 F6000 X135.289 Y131.515
G1 F1200 X136.138 Y130.666 E4.6373
G1 X136.222 Y130.591 E4.64104
G1 X136.509 Y130.344 E4.65364
G1 X136.692 Y130.192 E4.66155
G1 X137.719 Y129.438 E4.70392
G1 X138.212 Y129.12 E4.72344
G1 X139.007 Y128.655 E4.75407
G1 X139.667 Y128.336 E4.77845
G1 X139.798 Y128.278 E4.78321
G1 X140.146 Y128.131 E4.79578
G1 X140.428 Y128.018 E4.80588
G1 X141.538 Y127.643 E4.84485
G1 X141.675 Y127.605 E4.84958
G1 X142.162 Y127.482 E4.86629
G1 X142.488 Y127.408 E4.87741
G1 X143.68 Y127.208 E4.91761
G1 X143.817 Y127.193 E4.92219
G1 X144.334 Y127.149 E4.93945
G1 X144.666 Y127.129 E4.95051
G1 X144.932 Y127.116 E4.95937
G1 X145.132 Y127.109 E4.96602
G1 X145.689 Y127.101 E4.98455
G1 X155.96 Y127.099 E5.32617
G1 X156.869 Y127.111 E5.3564
G1 X157.788 Y127.165 E5.38702
G1 X158.699 Y127.298 E5.41764
G1 X159.595 Y127.509 E5.44826
G1 X160.469 Y127.797 E5.47887
G1 X161.315 Y128.161 E5.5095
G1 X162.126 Y128.596 E5.54011
G1 X162.897 Y129.1 E5.57074
G1 X163.621 Y129.669 E5.60137
G1 X164.334 Y130.342 E5.63398
G1 X164.451 Y130.463 E5.63958
G1 X165.062 Y131.152 E5.67021
G1 X165.61 Y131.891 E5.70081
G1 X166.093 Y132.675 E5.73144
G1 X166.505 Y133.498 E5.76205
G1 X166.845 Y134.354 E5.79268
G1 X167.109 Y135.236 E5.8233
G1 X167.295 Y136.138 E5.85393
G1 X167.386 Y136.856 E5.87801
G1 X167.467 Y137.744 E5.90766
G1 X167.555 Y138.864 E5.94503
G1 X167.824 Y141.372 E6.02892
G1 X168.193 Y144.08 E6.11983
G1 X168.283 Y145.129 E6.15484
G1 X168.294 Y145.536 E6.16839
G1 X168.3 Y146.108 E6.18741
G1 X168.301 Y151.572 E6.36914
G1 X168.306 Y151.68 E6.37274
G1 X168.305 Y152.139 E6.38801
G1 X168.3 Y152.249 E6.39167
G1 X168.3 Y158.538 E6.60084
G1 X168.298 Y158.741 E6.60759
G1 X168.274 Y159.991 E6.64918
G1 X168.235 Y160.718 E6.67339
G1 X168.207 Y161.036 E6.68401
G1 X168.087 Y161.948 E6.7146
G1 X167.896 Y162.815 E6.74413
G1 X167.804 Y163.163 E6.7561
G1 X167.53 Y164.042 E6.78673
G1 X167.13 Y165.003 E6.82135
G1 X166.943 Y165.392 E6.8357
G1 X166.828 Y165.621 E6.84423
G1 X166.252 Y166.626 E6.88276
G1 X166.026 Y166.975 E6.89658
G1 X165.493 Y167.725 E6.92719
G1 X164.896 Y168.426 E6.95781
G1 X164.523 Y168.808 E6.97557
G1 X164.183 Y169.139 E6.99135
G1 X163.496 Y169.752 E7.02198
G1 X162.686 Y170.352 E7.0555
G1 X162.452 Y170.508 E7.06486
G1 X162.026 Y170.785 E7.08176
G1 X161.233 Y171.252 E7.11237
G1 X160.485 Y171.614 E7.14
G1 X160.352 Y171.672 E7.14483
G1 X159.496 Y172.002 E7.17534
G1 X159.088 Y172.137 E7.18964
G1 X158.697 Y172.26 E7.20327
G1 X158.279 Y172.383 E7.21776
G1 X157.979 Y172.464 E7.2281
G1 X157.081 Y172.665 E7.2587
G1 X156.414 Y172.762 E7.28112
G1 X155.992 Y172.81 E7.29525
G1 X154.995 Y172.876 E7.32848
G1 X154.046 Y172.894 E7.36005
G1 X153.699 Y172.895 E7.37159
G1 X153.335 Y172.89 E7.3837
G1 X152.653 Y172.859 E7.40641
G1 X151.989 Y172.807 E7.42856
G1 X151.076 Y172.695 E7.45915
G1 X150.224 Y172.517 E7.4881
G1 X150.01 Y172.463 E7.49544
G1 X149.691 Y172.377 E7.50643
G1 X149.425 Y172.301 E7.51563
G1 X148.878 Y172.129 E7.53471
G1 X148.319 Y171.936 E7.55437
G1 X147.462 Y171.598 E7.58502
G1 X146.638 Y171.187 E7.61564
G1 X146.078 Y170.853 E7.63733
G1 X145.755 Y170.646 E7.65009
G1 X145.486 Y170.471 E7.66076
G1 X144.736 Y169.936 E7.6914
G1 X144.142 Y169.435 E7.71725
G1 X144.077 Y169.376 E7.72017
G1 X143.758 Y169.074 E7.73478
G1 X143.469 Y168.789 E7.74828
G1 X143.167 Y168.479 E7.76267
G1 X142.565 Y167.782 E7.79331
G1 X142.283 Y167.41 E7.80883
G1 X142.086 Y167.137 E7.82003
G1 X141.362 Y165.983 E7.86534
G1 X141.245 Y165.767 E7.87351
G1 X140.796 Y164.833 E7.90798
G1 X140.689 Y164.579 E7.91715
G1 X140.585 Y164.323 E7.92634
G1 X140.376 Y163.783 E7.94559
G1 X139.733 Y162.065 E8.00661
G1 X138.79 Y159.749 E8.08978
G1 X137.759 Y157.407 E8.17489
G1 X136.696 Y155.166 E8.25738
G1 X135.538 Y152.895 E8.34217
G1 X134.32 Y150.662 E8.42677
G1 X133.605 Y149.427 E8.47423
G1 X133.361 Y148.99 E8.49088
G1 X132.97 Y148.21 E8.5199
G1 X132.906 Y148.068 E8.52508
G1 X132.705 Y147.59 E8.54233
G1 X132.591 Y147.3 E8.55269
G1 X132.228 Y146.205 E8.59106
G1 X132.188 Y146.058 E8.59613
G1 X132.078 Y145.617 E8.61124
G1 X132.008 Y145.308 E8.62178
G1 X131.809 Y144.119 E8.66188
G1 X131.795 Y143.991 E8.66616
G1 X131.753 Y143.505 E8.68239
G1 X131.731 Y143.156 E8.69402
G1 X131.713 Y142.771 E8.70684
G1 X131.706 Y142.476 E8.71665
G1 X131.7 Y141.904 E8.73568
G1 X131.701 Y141.214 E8.75863
G1 X131.711 Y140.542 E8.78098
G1 X131.726 Y140.106 E8.79549
G1 X131.762 Y139.571 E8.81332
G1 X131.792 Y139.251 E8.82401
G1 X131.972 Y138.065 E8.86391
G1 X132.011 Y137.879 E8.87023
G1 X132.121 Y137.407 E8.88635
G1 X132.195 Y137.12 E8.89621
G1 X132.54 Y136.028 E8.9343
G1 X132.589 Y135.898 E8.93892
G1 X132.793 Y135.397 E8.95691
G1 X132.927 Y135.09 E8.96805
G1 X133.465 Y134.026 E9.00771
G1 X133.528 Y133.917 E9.0119
G1 X133.749 Y133.55 E9.02614
G1 X133.932 Y133.261 E9.03752
G1 X134.596 Y132.329 E9.07558
G1 X134.682 Y132.221 E9.08017
G1 X135.065 Y131.766 E9.09996
G1 X135.289 Y131.515 E9.11114
G0 F6000 X135.588 Y131.781
G1 F1200 X136.405 Y130.964 E9.14957
G1 X136.489 Y130.889 E9.15332
G1 X136.765 Y130.652 E9.16542
G1 X136.948 Y130.5 E9.17333
G1 X137.936 Y129.774 E9.21411
G1 X138.429 Y129.456 E9.23362
G1 X139.209 Y129.001 E9.26366
G1 X139.829 Y128.701 E9.28657
G1 X139.96 Y128.643 E9.29133
G1 X140.295 Y128.502 E9.30342
G1 X140.577 Y128.389 E9.31352
G1 X141.645 Y128.028 E9.35102
G1 X141.782 Y127.99 E9.35575
G1 X142.25 Y127.872 E9.3718
G1 X142.576 Y127.798 E9.38292
G1 X143.724 Y127.606 E9.42163
G1 X143.861 Y127.591 E9.42622
G1 X144.358 Y127.548 E9.44281
G1 X144.69 Y127.528 E9.45387
G1 X145.146 Y127.509 E9.46905
G1 X145.693 Y127.501 E9.48725
G1 X155.96 Y127.499 E9.82873
G1 X156.863 Y127.511 E9.85876
G1 X157.765 Y127.564 E9.88882
G1 X158.658 Y127.697 E9.91885
G1 X159.536 Y127.908 E9.94888
G1 X160.392 Y128.196 E9.97892
G1 X161.219 Y128.559 E10.00896
G1 X162.011 Y128.993 E10.039
G1 X162.761 Y129.496 E10.06903
G1 X163.464 Y130.063 E10.09907
G1 X164.047 Y130.62 E10.12589
G1 X164.164 Y130.741 E10.13149
G1 X164.762 Y131.417 E10.16151
G1 X165.298 Y132.144 E10.19155
G1 X165.768 Y132.915 E10.22158
G1 X166.168 Y133.725 E10.25163
G1 X166.495 Y134.567 E10.28167
G1 X166.745 Y135.434 E10.31168
G1 X166.919 Y136.321 E10.34174
G1 X166.988 Y136.893 E10.36091
G1 X167.068 Y137.775 E10.39036
G1 X167.157 Y138.901 E10.42793
G1 X167.43 Y141.448 E10.51313
G1 X167.796 Y144.134 E10.60329
G1 X167.883 Y145.144 E10.63701
G1 X167.894 Y145.54 E10.65019
G1 X167.9 Y146.108 E10.66908
G1 X167.901 Y151.522 E10.84915
G1 X167.906 Y151.679 E10.85437
G1 X167.905 Y152.138 E10.86964
G1 X167.9 Y152.245 E10.8732
G1 X167.9 Y158.538 E11.08251
G1 X167.898 Y158.734 E11.08903
G1 X167.874 Y159.984 E11.13061
G1 X167.837 Y160.683 E11.15389
G1 X167.809 Y161.001 E11.16451
G1 X167.69 Y161.896 E11.19454
G1 X167.509 Y162.713 E11.22237
G1 X167.417 Y163.061 E11.23434
G1 X167.148 Y163.923 E11.26438
G1 X166.769 Y164.831 E11.2971
G1 X166.585 Y165.212 E11.31118
G1 X166.47 Y165.441 E11.3197
G1 X165.917 Y166.408 E11.35675
G1 X165.691 Y166.757 E11.37058
G1 X165.167 Y167.493 E11.40063
G1 X164.58 Y168.179 E11.43066
G1 X164.244 Y168.522 E11.44663
G1 X163.904 Y168.853 E11.46241
G1 X163.23 Y169.453 E11.49242
G1 X162.464 Y170.02 E11.52412
G1 X162.234 Y170.172 E11.53329
G1 X161.808 Y170.449 E11.55019
G1 X161.03 Y170.908 E11.58023
G1 X160.325 Y171.248 E11.60627
G1 X160.192 Y171.306 E11.61109
G1 X159.368 Y171.623 E11.64046
G1 X158.968 Y171.756 E11.65448
G1 X158.577 Y171.879 E11.66811
G1 X158.175 Y171.996 E11.68204
G1 X157.875 Y172.077 E11.69237
G1 X156.993 Y172.274 E11.72243
G1 X156.369 Y172.365 E11.7434
G1 X155.947 Y172.413 E11.75753
G1 X154.987 Y172.476 E11.78953
G1 X154.038 Y172.494 E11.8211
G1 X153.705 Y172.495 E11.83217
G1 X153.341 Y172.49 E11.84428
G1 X152.685 Y172.46 E11.86612
G1 X152.021 Y172.408 E11.88827
G1 X151.124 Y172.298 E11.91833
G1 X150.321 Y172.129 E11.94563
G1 X150.107 Y172.075 E11.95297
G1 X149.801 Y171.993 E11.9635
G1 X149.535 Y171.917 E11.9727
G1 X149.008 Y171.751 E11.99108
G1 X148.449 Y171.558 E12.01075
G1 X147.609 Y171.225 E12.0408
G1 X146.802 Y170.82 E12.07084
G1 X146.293 Y170.516 E12.09055
G1 X145.973 Y170.311 E12.10319
G1 X145.704 Y170.136 E12.11387
G1 X144.969 Y169.61 E12.14393
G1 X144.411 Y169.139 E12.16822
G1 X144.346 Y169.08 E12.17114
G1 X144.039 Y168.79 E12.18518
G1 X143.75 Y168.505 E12.19868
G1 X143.458 Y168.204 E12.21263
G1 X142.608 Y167.176 E12.257
G1 X142.411 Y166.903 E12.26819
G1 X141.713 Y165.792 E12.31183
G1 X141.596 Y165.576 E12.32
G1 X141.165 Y164.678 E12.35313
G1 X141.058 Y164.424 E12.3623
G1 X140.958 Y164.177 E12.37116
G1 X140.75 Y163.643 E12.39022
G1 X140.108 Y161.928 E12.45113
G1 X139.15 Y159.572 E12.53572
G1 X138.135 Y157.266 E12.61952
G1 X137.049 Y154.978 E12.70376
G1 X135.881 Y152.687 E12.78929
G1 X134.659 Y150.447 E12.87416
G1 X133.855 Y149.056 E12.92759
G1 X133.711 Y148.796 E12.93748
G1 X133.335 Y148.045 E12.96541
G1 X133.271 Y147.903 E12.97059
G1 X133.077 Y147.444 E12.98717
G1 X132.963 Y147.154 E12.99753
G1 X132.614 Y146.1 E13.03446
G1 X132.574 Y145.953 E13.03953
G1 X132.468 Y145.529 E13.05406
G1 X132.398 Y145.22 E13.0646
G1 X132.206 Y144.075 E13.10321
G1 X132.192 Y143.947 E13.1075
G1 X132.152 Y143.48 E13.12309
G1 X132.13 Y143.131 E13.13472
G1 X132.113 Y142.755 E13.14724
G1 X132.106 Y142.472 E13.15665
G1 X132.1 Y141.904 E13.17554
G1 X132.101 Y141.22 E13.19829
G1 X132.111 Y140.548 E13.22065
G1 X132.125 Y140.123 E13.23479
G1 X132.161 Y139.608 E13.25196
G1 X132.191 Y139.288 E13.26265
G1 X132.363 Y138.147 E13.30103
G1 X132.402 Y137.961 E13.30735
G1 X132.508 Y137.507 E13.32286
G1 X132.582 Y137.22 E13.33271
G1 X132.914 Y136.169 E13.36937
G1 X132.963 Y136.039 E13.37399
G1 X133.16 Y135.557 E13.39131
G1 X133.294 Y135.25 E13.40245
G1 X133.811 Y134.226 E13.44061
G1 X133.874 Y134.117 E13.44479
G1 X134.087 Y133.764 E13.45851
G1 X134.27 Y133.475 E13.46988
G1 X134.909 Y132.578 E13.50652
G1 X134.995 Y132.47 E13.51111
G1 X135.364 Y132.032 E13.53016
G1 X135.588 Y131.781 E13.54134
G1 F2700 E8.54134
G0 F6000 X142.038 Y144.174
G0 X142.339 Y144.661
G0 X142.702 Y145.086
G0 X143.183 Y145.489
G0 X143.643 Y145.77
G0 X144.076 Y145.948
G0 X151.7 Y147.7
G1 F2700 E13.54134
G1 F1200 X155.646 Y147.7 E13.67259
G1 X155.978 Y147.66 E13.68371
G1 X156.29 Y147.543 E13.69479
G1 X156.3 Y147.536 E13.6952
G1 X156.3 Y148.803 E13.73734
G1 X155.945 Y148.528 E13.75228
G1 X155.658 Y148.356 E13.76341
G1 X155.274 Y148.247 E13.77668
G1 X154.882 Y148.194 E13.78984
G1 X154.836 Y148.178 E13.79146
G1 X154.362 Y148.095 E13.80746
G1 X153.644 Y148.095 E13.83134
G1 X153.182 Y148.173 E13.84693
G1 X153.13 Y148.191 E13.84876
