;FLAVOR:Marlin
;TIME:1746
;Filament used: 0.780451m
;Layer height: 0.2
;MINX:127.098
;MINY:127.3
;MINZ:0.2
;MAXX:172.902
;MAXY:171.739
;MAXZ:7.4
;Generated with Creality Slicer 4.8.2-191
M140 S50
M105
M190 S50
M104 S200
M105
M109 S200
M82 ;absolute extrusion mode

G28 ;Home

G92 E0 ;Reset Extruder
G1 Z2.0 F3000 ;Move Z Axis up
G1 X10.1 Y20 Z0.28 F5000.0 ;Move to start position
G1 X10.1 Y200.0 Z0.28 F1500.0 E15 ;Draw the first line
G1 X10.4 Y200.0 Z0.28 F5000.0 ;Move to side a little
G1 X10.4 Y20 Z0.28 F1500.0 E30 ;Draw the second line
G92 E0 ;Reset Extruder
G1 Z2.0 F3000 ;Move Z Axis up

G92 E0
G92 E0
G1 F2700 E-5
;LAYER_COUNT:37
;LAYER:0
M107
G0 F6000 X131.711 Y131.213 Z0.2
;TYPE:SKIRT
G1 F2700 E0
G1 F1200 X131.828 Y131.106 E0.00527
G1 X132.235 Y130.752 E0.02321
G1 X132.538 Y130.501 E0.0363
G1 X133.55 Y129.756 E0.0781
G1 X133.705 Y129.655 E0.08425
G1 X134.109 Y129.404 E0.10007
G1 X134.42 Y129.22 E0.11209
G1 X135.54 Y128.641 E0.15402
G1 X135.679 Y128.579 E0.15909
G1 X136.07 Y128.414 E0.1732
G1 X136.432 Y128.269 E0.18617
G1 X137.665 Y127.858 E0.2294
G1 X137.836 Y127.812 E0.23529
G1 X138.278 Y127.702 E0.25044
G1 X138.638 Y127.621 E0.26271
G1 X139.845 Y127.42 E0.30341
G1 X140.035 Y127.399 E0.30977
G1 X140.545 Y127.354 E0.3268
G1 X140.891 Y127.332 E0.33833
G1 X141.187 Y127.317 E0.34818
G1 X141.351 Y127.311 E0.35364
G1 X141.645 Y127.305 E0.36342
G1 X142.161 Y127.3 E0.38059
G1 X157.693 Y127.3 E0.89718
G1 X158.555 Y127.311 E0.92585
G1 X158.889 Y127.321 E0.93697
G1 X159.046 Y127.328 E0.9422
G1 X159.582 Y127.365 E0.96007
G1 X159.977 Y127.402 E0.97326
G1 X161.186 Y127.584 E1.01393
G1 X161.345 Y127.617 E1.01933
G1 X161.812 Y127.724 E1.03526
G1 X162.183 Y127.818 E1.04799
G1 X163.443 Y128.219 E1.09197
G1 X163.601 Y128.28 E1.0976
G1 X163.976 Y128.433 E1.11107
G1 X164.321 Y128.581 E1.12356
G1 X165.46 Y129.15 E1.16591
G1 X165.629 Y129.247 E1.17239
G1 X166.027 Y129.487 E1.18785
G1 X166.312 Y129.667 E1.19906
G1 X167.297 Y130.367 E1.23925
G1 X167.465 Y130.501 E1.2464
G1 X167.861 Y130.832 E1.26356
G1 X168.122 Y131.061 E1.27511
G1 X169.037 Y131.964 E1.31787
G1 X169.147 Y132.086 E1.32333
G1 X169.444 Y132.429 E1.33842
G1 X169.692 Y132.728 E1.35134
G1 X170.423 Y133.718 E1.39227
G1 X170.524 Y133.872 E1.3984
G1 X170.793 Y134.303 E1.4153
G1 X170.98 Y134.619 E1.42751
G1 X171.55 Y135.719 E1.46872
G1 X171.611 Y135.855 E1.47367
G1 X171.783 Y136.262 E1.48837
G1 X171.927 Y136.621 E1.50124
G1 X172.336 Y137.843 E1.5441
G1 X172.382 Y138.013 E1.54995
G1 X172.493 Y138.46 E1.56527
G1 X172.576 Y138.827 E1.57779
G1 X172.78 Y140.045 E1.61886
G1 X172.801 Y140.235 E1.62522
G1 X172.846 Y140.743 E1.64218
G1 X172.868 Y141.088 E1.65368
G1 X172.883 Y141.388 E1.66367
G1 X172.889 Y141.553 E1.66916
G1 X172.895 Y141.845 E1.67888
G1 X172.9 Y142.36 E1.69601
G1 X172.902 Y159.02 E2.25012
G1 X172.898 Y160.105 E2.28621
G1 X172.889 Y160.763 E2.30809
G1 X172.836 Y161.7 E2.33931
G1 X172.704 Y162.628 E2.37049
G1 X172.493 Y163.542 E2.40168
G1 X172.205 Y164.435 E2.43289
G1 X171.842 Y165.299 E2.46406
G1 X171.406 Y166.13 E2.49527
G1 X170.902 Y166.921 E2.52647
G1 X170.332 Y167.665 E2.55764
G1 X169.668 Y168.391 E2.59037
G1 X169.552 Y168.507 E2.59582
G1 X168.861 Y169.141 E2.62701
G1 X168.119 Y169.715 E2.65821
G1 X167.33 Y170.222 E2.68941
G1 X166.502 Y170.661 E2.72058
G1 X165.638 Y171.028 E2.7518
G1 X164.747 Y171.32 E2.78299
G1 X163.834 Y171.534 E2.81418
G1 X162.906 Y171.671 E2.84538
G1 X162.145 Y171.723 E2.87075
G1 X161.759 Y171.733 E2.88359
G1 X161.215 Y171.739 E2.90168
G1 X154.767 Y171.739 E3.11614
G1 X153.88 Y171.725 E3.14565
G1 X151.25 Y171.651 E3.23316
G1 X148.743 Y171.651 E3.31654
G1 X146.729 Y171.701 E3.38355
G1 X145.983 Y171.728 E3.40838
G1 X145.705 Y171.734 E3.41762
G1 X145.215 Y171.739 E3.43392
G1 X138.774 Y171.739 E3.64815
G1 X138.067 Y171.729 E3.67167
G1 X137.131 Y171.676 E3.70285
G1 X136.203 Y171.543 E3.73403
G1 X135.289 Y171.331 E3.76524
G1 X134.397 Y171.043 E3.79641
G1 X133.532 Y170.68 E3.82761
G1 X132.701 Y170.244 E3.85883
G1 X131.911 Y169.739 E3.89001
G1 X131.167 Y169.168 E3.92121
G1 X130.473 Y168.537 E3.9524
G1 X129.925 Y167.951 E3.97909
G1 X129.811 Y167.82 E3.98486
G1 X129.226 Y167.087 E4.01606
G1 X128.706 Y166.307 E4.04724
G1 X128.254 Y165.485 E4.07844
G1 X127.873 Y164.628 E4.10963
G1 X127.567 Y163.741 E4.14084
G1 X127.338 Y162.832 E4.17202
G1 X127.187 Y161.906 E4.20322
G1 X127.115 Y160.951 E4.23507
G1 X127.107 Y160.701 E4.24339
G1 X127.101 Y160.408 E4.25314
G1 X127.098 Y159.769 E4.27439
G1 X127.1 Y158.577 E4.31404
G1 X127.101 Y142.351 E4.85372
G1 X127.111 Y141.644 E4.87724
G1 X127.121 Y141.307 E4.88845
G1 X127.128 Y141.151 E4.89364
G1 X127.165 Y140.621 E4.91132
G1 X127.202 Y140.225 E4.92454
G1 X127.397 Y138.948 E4.96751
G1 X127.431 Y138.789 E4.97292
G1 X127.518 Y138.414 E4.98572
G1 X127.61 Y138.047 E4.99831
G1 X128.015 Y136.769 E5.04289
G1 X128.077 Y136.608 E5.04863
G1 X128.233 Y136.224 E5.06242
G1 X128.381 Y135.879 E5.0749
G1 X128.95 Y134.74 E5.11725
G1 X129.047 Y134.571 E5.12373
G1 X129.292 Y134.165 E5.1395
G1 X129.473 Y133.879 E5.15076
G1 X130.183 Y132.883 E5.19144
G1 X130.316 Y132.717 E5.19852
G1 X130.656 Y132.314 E5.21606
G1 X130.89 Y132.049 E5.22781
G1 X131.711 Y131.213 E5.26679
G0 F6000 X131.981 Y131.508
G1 F1200 X132.098 Y131.401 E5.27206
G1 X132.49 Y131.06 E5.28934
G1 X132.793 Y130.809 E5.30243
G1 X133.768 Y130.091 E5.3427
G1 X133.923 Y129.99 E5.34885
G1 X134.313 Y129.748 E5.36412
G1 X134.624 Y129.564 E5.37614
G1 X135.703 Y129.006 E5.41654
G1 X135.842 Y128.944 E5.4216
G1 X136.219 Y128.785 E5.43521
G1 X136.581 Y128.64 E5.44818
G1 X137.768 Y128.244 E5.4898
G1 X137.939 Y128.198 E5.49569
G1 X138.366 Y128.093 E5.51031
G1 X138.726 Y128.012 E5.52259
G1 X139.889 Y127.817 E5.56181
G1 X140.079 Y127.796 E5.56817
G1 X140.57 Y127.753 E5.58456
G1 X140.916 Y127.731 E5.59609
G1 X141.365 Y127.711 E5.61104
G1 X141.649 Y127.705 E5.62049
G1 X142.161 Y127.7 E5.63752
G1 X157.693 Y127.7 E6.15411
G1 X158.549 Y127.711 E6.18259
G1 X158.871 Y127.721 E6.1933
G1 X159.028 Y127.728 E6.19853
G1 X159.545 Y127.763 E6.21576
G1 X159.94 Y127.8 E6.22896
G1 X161.105 Y127.975 E6.26814
G1 X161.264 Y128.008 E6.27354
G1 X161.713 Y128.112 E6.28887
G1 X162.084 Y128.206 E6.3016
G1 X163.299 Y128.592 E6.344
G1 X163.457 Y128.653 E6.34964
G1 X163.818 Y128.801 E6.36261
G1 X164.163 Y128.949 E6.3751
G1 X165.261 Y129.497 E6.41591
G1 X165.43 Y129.594 E6.4224
G1 X165.813 Y129.825 E6.43727
G1 X166.098 Y130.005 E6.44848
G1 X167.048 Y130.68 E6.48724
G1 X167.216 Y130.814 E6.49439
G1 X167.597 Y131.133 E6.51092
G1 X167.858 Y131.362 E6.52247
G1 X168.739 Y132.232 E6.56365
G1 X168.849 Y132.354 E6.56911
G1 X169.136 Y132.685 E6.58368
G1 X169.384 Y132.984 E6.5966
G1 X170.089 Y133.938 E6.63606
G1 X170.19 Y134.092 E6.64218
G1 X170.448 Y134.507 E6.65844
G1 X170.635 Y134.823 E6.67065
G1 X171.185 Y135.883 E6.71037
G1 X171.246 Y136.019 E6.71533
G1 X171.412 Y136.411 E6.72949
G1 X171.556 Y136.77 E6.74235
G1 X171.95 Y137.947 E6.78363
G1 X171.996 Y138.117 E6.78949
G1 X172.103 Y138.548 E6.80426
G1 X172.186 Y138.915 E6.81678
G1 X172.383 Y140.089 E6.85637
G1 X172.404 Y140.279 E6.86273
G1 X172.447 Y140.768 E6.87905
G1 X172.469 Y141.113 E6.89055
G1 X172.489 Y141.568 E6.9057
G1 X172.495 Y141.849 E6.91505
G1 X172.5 Y142.36 E6.93204
G1 X172.502 Y159.019 E7.48613
G1 X172.498 Y160.1 E7.52208
G1 X172.489 Y160.758 E7.54397
G1 X172.436 Y161.677 E7.57458
G1 X172.304 Y162.588 E7.6052
G1 X172.094 Y163.484 E7.63581
G1 X171.806 Y164.359 E7.66645
G1 X171.444 Y165.205 E7.69705
G1 X171.009 Y166.017 E7.72769
G1 X170.506 Y166.788 E7.75831
G1 X169.937 Y167.512 E7.78894
G1 X169.385 Y168.108 E7.81596
G1 X169.269 Y168.224 E7.82141
G1 X168.591 Y168.846 E7.85201
G1 X167.861 Y169.407 E7.88264
G1 X167.085 Y169.903 E7.91327
G1 X166.269 Y170.329 E7.94388
G1 X165.419 Y170.683 E7.97451
G1 X164.541 Y170.961 E8.00514
G1 X163.643 Y171.163 E8.03575
G1 X162.73 Y171.286 E8.06639
G1 X162.132 Y171.323 E8.08632
G1 X161.754 Y171.333 E8.0989
G1 X161.215 Y171.339 E8.11683
G1 X154.773 Y171.339 E8.33109
G1 X153.891 Y171.325 E8.36043
G1 X151.261 Y171.251 E8.44794
G1 X148.733 Y171.251 E8.53202
G1 X146.706 Y171.301 E8.59946
G1 X145.969 Y171.328 E8.62399
G1 X145.7 Y171.334 E8.63294
G1 X145.215 Y171.339 E8.64907
G1 X138.78 Y171.339 E8.8631
G1 X138.073 Y171.329 E8.88661
G1 X137.154 Y171.276 E8.91723
G1 X136.243 Y171.143 E8.94785
G1 X135.347 Y170.932 E8.97847
G1 X134.472 Y170.644 E9.00911
G1 X133.626 Y170.281 E9.03973
G1 X132.815 Y169.847 E9.07032
G1 X132.044 Y169.343 E9.10096
G1 X131.32 Y168.774 E9.13158
G1 X130.648 Y168.145 E9.1622
G1 X130.227 Y167.689 E9.18284
G1 X130.113 Y167.558 E9.18862
G1 X129.539 Y166.837 E9.21927
G1 X129.03 Y166.07 E9.24988
G1 X128.59 Y165.262 E9.28048
G1 X128.221 Y164.418 E9.31112
G1 X127.927 Y163.546 E9.34173
G1 X127.71 Y162.651 E9.37236
G1 X127.571 Y161.741 E9.40298
G1 X127.514 Y160.938 E9.42975
G1 X127.506 Y160.688 E9.43807
G1 X127.501 Y160.406 E9.44745
G1 X127.498 Y159.769 E9.46864
G1 X127.5 Y158.577 E9.50828
G1 X127.501 Y142.357 E10.04776
G1 X127.511 Y141.65 E10.07128
G1 X127.521 Y141.325 E10.0821
G1 X127.528 Y141.169 E10.08729
G1 X127.563 Y140.658 E10.10433
G1 X127.6 Y140.262 E10.11755
G1 X127.788 Y139.031 E10.15897
G1 X127.822 Y138.872 E10.16438
G1 X127.906 Y138.512 E10.17668
G1 X127.998 Y138.145 E10.18926
G1 X128.388 Y136.913 E10.23224
G1 X128.45 Y136.752 E10.23798
G1 X128.601 Y136.382 E10.25127
G1 X128.749 Y136.037 E10.26376
G1 X129.297 Y134.939 E10.30457
G1 X129.394 Y134.77 E10.31105
G1 X129.63 Y134.378 E10.32627
G1 X129.811 Y134.092 E10.33753
G1 X130.496 Y133.133 E10.37673
G1 X130.629 Y132.967 E10.3838
G1 X130.955 Y132.579 E10.40066
G1 X131.189 Y132.314 E10.41241
G1 X131.981 Y131.508 E10.45
G0 F6000 X132.251 Y131.803
G1 F1200 X132.368 Y131.696 E10.45527
G1 X132.745 Y131.368 E10.47189
G1 X133.048 Y131.117 E10.48498
G1 X133.986 Y130.426 E10.52373
G1 X134.141 Y130.325 E10.52988
G1 X134.516 Y130.092 E10.54457
G1 X134.827 Y129.908 E10.55658
G1 X135.866 Y129.372 E10.59547
G1 X136.005 Y129.31 E10.60053
G1 X136.367 Y129.156 E10.61362
G1 X136.729 Y129.011 E10.62659
G1 X137.872 Y128.63 E10.66666
G1 X138.043 Y128.584 E10.67255
G1 X138.454 Y128.483 E10.68662
G1 X138.814 Y128.402 E10.6989
G1 X139.932 Y128.215 E10.7366
G1 X140.122 Y128.194 E10.74296
G1 X140.596 Y128.153 E10.75878
G1 X140.942 Y128.131 E10.77031
G1 X141.216 Y128.117 E10.77944
G1 X141.653 Y128.104 E10.79398
G1 X142.061 Y128.1 E10.80755
G1 X157.693 Y128.1 E11.32747
G1 X158.543 Y128.111 E11.35575
G1 X158.853 Y128.12 E11.36606
G1 X159.01 Y128.127 E11.37129
G1 X159.507 Y128.161 E11.38786
G1 X159.902 Y128.198 E11.40105
G1 X161.024 Y128.367 E11.43879
G1 X161.183 Y128.4 E11.44419
G1 X161.615 Y128.499 E11.45893
G1 X161.986 Y128.593 E11.47166
G1 X163.155 Y128.966 E11.51247
G1 X163.313 Y129.027 E11.51811
G1 X163.66 Y129.168 E11.53056
G1 X164.005 Y129.316 E11.54305
G1 X165.062 Y129.844 E11.58235
G1 X165.231 Y129.941 E11.58883
G1 X165.6 Y130.163 E11.60315
G1 X165.885 Y130.343 E11.61436
G1 X166.798 Y130.993 E11.65164
G1 X166.966 Y131.127 E11.65879
G1 X167.333 Y131.434 E11.6747
G1 X167.594 Y131.663 E11.68625
G1 X168.442 Y132.5 E11.72588
G1 X168.552 Y132.622 E11.73134
G1 X168.828 Y132.94 E11.74535
G1 X169.076 Y133.239 E11.75827
G1 X169.754 Y134.157 E11.79623
G1 X169.855 Y134.311 E11.80235
G1 X170.104 Y134.71 E11.81799
G1 X170.291 Y135.026 E11.83021
G1 X170.82 Y136.047 E11.86845
G1 X170.881 Y136.183 E11.87341
G1 X171.041 Y136.56 E11.88703
G1 X171.185 Y136.919 E11.8999
G1 X171.564 Y138.052 E11.93963
G1 X171.61 Y138.222 E11.94549
G1 X171.713 Y138.636 E11.95968
G1 X171.796 Y139.003 E11.9722
G1 X171.985 Y140.132 E12.01027
G1 X172.006 Y140.322 E12.01663
G1 X172.047 Y140.794 E12.03238
G1 X172.069 Y141.139 E12.04388
G1 X172.083 Y141.417 E12.05314
G1 X172.096 Y141.853 E12.06765
G1 X172.1 Y142.36 E12.08451
G1 X172.102 Y159.018 E12.63856
G1 X172.098 Y160.095 E12.67438
G1 X172.089 Y160.753 E12.69627
G1 X172.037 Y161.654 E12.72629
G1 X171.905 Y162.548 E12.75634
G1 X171.695 Y163.426 E12.78637
G1 X171.407 Y164.282 E12.81641
G1 X171.045 Y165.109 E12.84643
G1 X170.612 Y165.902 E12.87648
G1 X170.11 Y166.652 E12.9065
G1 X169.543 Y167.356 E12.93657
G1 X169.102 Y167.825 E12.95798
G1 X168.986 Y167.941 E12.96343
G1 X168.32 Y168.551 E12.99347
G1 X167.603 Y169.1 E13.02351
G1 X166.839 Y169.582 E13.05355
G1 X166.036 Y169.996 E13.0836
G1 X165.2 Y170.336 E13.11362
G1 X164.337 Y170.602 E13.14366
G1 X163.454 Y170.79 E13.17368
G1 X162.118 Y170.923 E13.21834
G1 X161.749 Y170.933 E13.23061
G1 X161.215 Y170.939 E13.24838
G1 X154.779 Y170.939 E13.46244
G1 X153.902 Y170.925 E13.49161
G1 X151.272 Y170.851 E13.57912
G1 X148.723 Y170.851 E13.6639
G1 X146.68 Y170.902 E13.73187
G1 X145.954 Y170.928 E13.75603
G1 X145.696 Y170.934 E13.76462
G1 X145.215 Y170.939 E13.78062
G1 X138.786 Y170.939 E13.99445
G1 X138.079 Y170.929 E14.01796
G1 X137.177 Y170.876 E14.04802
G1 X136.284 Y170.744 E14.07804
G1 X135.406 Y170.533 E14.10807
G1 X134.55 Y170.246 E14.1381
G1 X133.722 Y169.883 E14.16817
G1 X132.93 Y169.449 E14.19821
G1 X132.18 Y168.947 E14.22823
G1 X131.477 Y168.38 E14.25827
G1 X130.529 Y167.426 E14.303
G1 X130.415 Y167.295 E14.30877
G1 X129.852 Y166.588 E14.33883
G1 X129.355 Y165.834 E14.36887
G1 X128.926 Y165.039 E14.39892
G1 X128.57 Y164.21 E14.42892
G1 X128.288 Y163.352 E14.45896
G1 X128.083 Y162.472 E14.48902
G1 X127.956 Y161.578 E14.51905
G1 X127.914 Y160.925 E14.54081
G1 X127.906 Y160.675 E14.54913
G1 X127.901 Y160.403 E14.55818
G1 X127.898 Y159.77 E14.57923
G1 X127.9 Y158.578 E14.61888
G1 X127.901 Y142.363 E15.15819
G1 X127.911 Y141.656 E15.18171
G1 X127.92 Y141.343 E15.19213
G1 X127.927 Y141.187 E15.19732
G1 X127.961 Y140.695 E15.21372
G1 X127.998 Y140.299 E15.22695
G1 X128.179 Y139.115 E15.26679
G1 X128.213 Y138.956 E15.2722
G1 X128.294 Y138.609 E15.28405
G1 X128.386 Y138.242 E15.29663
G1 X128.761 Y137.056 E15.338
G1 X128.823 Y136.895 E15.34374
G1 X128.968 Y136.54 E15.3565
G1 X129.116 Y136.195 E15.36898
G1 X129.644 Y135.138 E15.40828
G1 X129.741 Y134.969 E15.41476
G1 X129.968 Y134.592 E15.4294
G1 X130.149 Y134.306 E15.44065
G1 X130.808 Y133.383 E15.47838
G1 X130.941 Y133.217 E15.48545
G1 X131.255 Y132.844 E15.50167
G1 X131.489 Y132.579 E15.51342
G1 X132.251 Y131.803 E15.5496
G1 F2700 E10.5496
G0 F6000 X137.439 Y159.144
G0 X137.943 Y159.648
G0 X154.3 Y159.987
G1 F2700 E15.5496
G1 F1200 X161.7 Y159.986 E15.79572
G1 X161.7 Y160.536 E15.81402
G1 X154.3 Y160.54 E16.06014
G1 X154.3 Y159.987 E16.07853
G0 F6000 X145.7 Y159.986
G1 F1200 X145.7 Y160.536 E16.09683
G1 X138.3 Y160.54 E16.34295
G1 X138.3 Y159.987 E16.36134
G1 X145.7 Y159.986 E16.60747
G1 F2700 E11.60747
;MESH:???90???.STL
G0 F6000 X153.435 Y158.573
G0 X154.514 Y158.573
G0 X154.7 Y158.387
;TYPE:WALL-INNER
G1 F2700 E16.60747
G1 F1200 X154.7 Y158.188 E16.61409
G1 X154.7 Y145.5 E17.03609
G1 X145.3 Y145.5 E17.34874
G1 X145.3 Y158.386 E17.77733
G1 X138.899 Y158.387 E17.99023
G1 X138.7 Y158.387 E17.99685
G1 X138.7 Y158.188 E18.00113
G1 X138.7 Y141.819 E18.54556
G1 X138.738 Y141.344 E18.56141
G1 X138.841 Y140.911 E18.57622
G1 X139.02 Y140.479 E18.59177
G1 X139.253 Y140.098 E18.60662
G1 X139.551 Y139.751 E18.62184
G1 X139.898 Y139.453 E18.63705
G1 X140.279 Y139.22 E18.6519
G1 X140.711 Y139.041 E18.66746
G1 X141.144 Y138.938 E18.68226
G1 X141.621 Y138.9 E18.69817
G1 X158.379 Y138.9 E19.25555
G1 X158.856 Y138.938 E19.27146
G1 X159.289 Y139.041 E19.28627
G1 X159.721 Y139.22 E19.30182
G1 X160.102 Y139.453 E19.31667
G1 X160.449 Y139.751 E19.33189
G1 X160.747 Y140.098 E19.3471
G1 X160.98 Y140.479 E19.36195
G1 X161.159 Y140.911 E19.37751
G1 X161.262 Y141.344 E19.39231
G1 X161.3 Y141.819 E19.40816
G1 X161.3 Y158.386 E19.95918
G1 X154.899 Y158.387 E20.17208
G1 X154.7 Y158.387 E20.17636
G0 F6000 X154.3 Y158.787
;TYPE:WALL-OUTER
G1 F1200 X154.3 Y145.9 E20.60498
G1 X145.7 Y145.9 E20.89102
G1 X145.7 Y158.786 E21.31961
G1 X138.3 Y158.787 E21.56574
G1 X138.3 Y141.8 E22.13073
G1 X138.341 Y141.283 E22.14798
G1 X138.46 Y140.785 E22.16501
G1 X138.661 Y140.299 E22.1825
G1 X138.929 Y139.862 E22.19955
G1 X139.267 Y139.467 E22.21684
G1 X139.662 Y139.129 E22.23413
G1 X140.099 Y138.861 E22.25118
G1 X140.585 Y138.66 E22.26867
G1 X141.083 Y138.541 E22.2857
G1 X141.603 Y138.5 E22.30305
