;FLAVOR:Marlin
;TIME:2241
;Filament used: 0.945218m
;Layer height: 0.2
;MINX:131.273
;MINY:126.698
;MINZ:0.2
;MAXX:168.7
;MAXY:173.295
;MAXZ:28.2
;Generated with Creality Slicer 4.8.2-191
M140 S50
M105
M190 S50
M104 S200
M105
M109 S200
M82 ;absolute extrusion mode

G28 ;Home

G92 E0 ;Reset Extruder
G1 Z2.0 F3000 ;Move Z Axis up
G1 X10.1 Y20 Z0.28 F5000.0 ;Move to start position
G1 X10.1 Y200.0 Z0.28 F1500.0 E15 ;Draw the first line
G1 X10.4 Y200.0 Z0.28 F5000.0 ;Move to side a little
G1 X10.4 Y20 Z0.28 F1500.0 E30 ;Draw the second line
G92 E0 ;Reset Extruder
G1 Z2.0 F3000 ;Move Z Axis up

G92 E0
G92 E0
G1 F2700 E-5
;LAYER_COUNT:142
;LAYER:0
M107
G0 F6000 X135.25 Y130.187 Z0.2
;TYPE:SKIRT
G1 F2700 E0
G1 F1200 X135.926 Y129.537 E0.03119
G1 X136.655 Y128.947 E0.06238
G1 X137.431 Y128.421 E0.09356
G1 X138.25 Y127.963 E0.12477
G1 X139.104 Y127.576 E0.15596
G1 X139.589 Y127.395 E0.17318
G1 X139.813 Y127.317 E0.18107
G1 X140.711 Y127.046 E0.21226
G1 X141.629 Y126.854 E0.24346
G1 X142.559 Y126.74 E0.27462
G1 X143.293 Y126.706 E0.29906
G1 X144.016 Y126.698 E0.32311
G1 X144.984 Y126.7 E0.3553
G1 X154.149 Y126.701 E0.66013
G1 X154.855 Y126.711 E0.68362
G1 X155.295 Y126.725 E0.69826
G1 X155.901 Y126.767 E0.71846
G1 X156.233 Y126.799 E0.72956
G1 X157.399 Y126.974 E0.76877
G1 X157.53 Y127.001 E0.77322
G1 X158.07 Y127.127 E0.79166
G1 X158.394 Y127.211 E0.8028
G1 X159.505 Y127.563 E0.84156
G1 X159.622 Y127.607 E0.84572
G1 X160.111 Y127.804 E0.86325
G1 X160.419 Y127.937 E0.87441
G1 X161.531 Y128.494 E0.91578
G1 X161.66 Y128.568 E0.92072
G1 X162.122 Y128.849 E0.93871
G1 X162.303 Y128.965 E0.94586
G1 X163.305 Y129.689 E0.98697
G1 X163.764 Y130.062 E1.00664
G1 X164.466 Y130.684 E1.03784
G1 X164.966 Y131.2 E1.06174
G1 X165.056 Y131.299 E1.06619
G1 X165.419 Y131.718 E1.08463
G1 X165.63 Y131.975 E1.09569
G1 X166.326 Y132.922 E1.13478
G1 X166.387 Y133.015 E1.13847
G1 X166.655 Y133.445 E1.15533
G1 X166.832 Y133.744 E1.16688
G1 X167.421 Y134.886 E1.20962
G1 X167.488 Y135.037 E1.21512
G1 X167.644 Y135.406 E1.22844
G1 X167.755 Y135.683 E1.23837
G1 X168.168 Y136.923 E1.28184
G1 X168.208 Y137.072 E1.28697
G1 X168.312 Y137.494 E1.30142
G1 X168.382 Y137.803 E1.31196
G1 X168.591 Y139.061 E1.35437
G1 X168.606 Y139.201 E1.35906
G1 X168.646 Y139.666 E1.37458
G1 X168.667 Y139.992 E1.38545
G1 X168.682 Y140.271 E1.39474
G1 X168.688 Y140.425 E1.39987
G1 X168.695 Y140.74 E1.41034
G1 X168.7 Y141.241 E1.42701
G1 X168.699 Y141.946 E1.45046
G1 X168.689 Y142.654 E1.47401
G1 X168.678 Y143.01 E1.48585
G1 X168.672 Y143.139 E1.49015
G1 X168.638 Y143.63 E1.50652
G1 X168.607 Y143.969 E1.51784
G1 X168.425 Y145.193 E1.559
G1 X168.394 Y145.343 E1.56409
G1 X168.269 Y145.88 E1.58243
G1 X168.187 Y146.196 E1.59329
G1 X167.833 Y147.313 E1.63226
G1 X167.784 Y147.443 E1.63688
G1 X167.6 Y147.9 E1.65327
G1 X167.473 Y148.196 E1.66398
G1 X166.909 Y149.326 E1.70599
G1 X166.366 Y150.273 E1.7423
G1 X165.098 Y152.567 E1.82947
G1 X163.945 Y154.797 E1.91297
G1 X162.84 Y157.091 E1.99766
G1 X161.824 Y159.366 E2.08053
G1 X160.871 Y161.668 E2.1634
G1 X160.374 Y163 E2.21068
G1 X160.205 Y163.401 E2.22516
G1 X159.835 Y164.371 E2.25969
G1 X159.492 Y165.175 E2.28876
G1 X159.3 Y165.572 E2.30343
G1 X159.185 Y165.801 E2.31195
G1 X158.588 Y166.843 E2.35189
G1 X158.362 Y167.192 E2.36572
G1 X157.819 Y167.957 E2.39692
G1 X157.213 Y168.673 E2.42812
G1 X156.813 Y169.085 E2.44722
G1 X156.478 Y169.412 E2.46279
G1 X155.779 Y170.038 E2.494
G1 X154.818 Y170.744 E2.53366
G1 X154.271 Y171.102 E2.5554
G1 X153.465 Y171.582 E2.58661
G1 X152.672 Y171.969 E2.61595
G1 X152.54 Y172.027 E2.62075
G1 X151.624 Y172.381 E2.65341
G1 X151.208 Y172.519 E2.66799
G1 X150.817 Y172.642 E2.68162
G1 X150.383 Y172.769 E2.69666
G1 X150.083 Y172.85 E2.707
G1 X149.168 Y173.055 E2.73819
G1 X148.459 Y173.16 E2.76202
G1 X148.037 Y173.208 E2.77615
G1 X147.003 Y173.276 E2.81062
G1 X146.054 Y173.294 E2.84219
G1 X145.694 Y173.295 E2.85416
G1 X145.33 Y173.29 E2.86627
G1 X144.622 Y173.257 E2.88984
G1 X143.958 Y173.205 E2.91199
G1 X143.027 Y173.092 E2.94319
G1 X142.126 Y172.905 E2.97379
G1 X141.912 Y172.851 E2.98113
G1 X141.581 Y172.762 E2.99253
G1 X141.315 Y172.686 E3.00173
G1 X140.747 Y172.507 E3.02154
G1 X140.188 Y172.314 E3.04121
G1 X139.315 Y171.97 E3.07242
G1 X138.475 Y171.553 E3.10361
G1 X137.862 Y171.19 E3.12731
G1 X137.521 Y170.971 E3.14079
G1 X137.253 Y170.796 E3.15143
G1 X136.49 Y170.251 E3.18262
G1 X135.839 Y169.699 E3.21101
G1 X135.487 Y169.368 E3.22708
G1 X135.202 Y169.088 E3.24037
G1 X134.869 Y168.746 E3.25624
G1 X134.256 Y168.036 E3.28744
G1 X133.959 Y167.644 E3.3038
G1 X133.762 Y167.371 E3.315
G1 X133.246 Y166.588 E3.34618
G1 X133.01 Y166.173 E3.36206
G1 X132.893 Y165.957 E3.37023
G1 X132.415 Y164.959 E3.40704
G1 X132.293 Y164.667 E3.41756
G1 X132.011 Y163.915 E3.44428
G1 X131.909 Y163.61 E3.45497
G1 X131.65 Y162.708 E3.48619
G1 X131.412 Y161.364 E3.53158
G1 X131.393 Y161.197 E3.53717
G1 X131.358 Y160.843 E3.549
G1 X131.319 Y160.339 E3.56582
G1 X131.301 Y160.049 E3.57548
G1 X131.287 Y159.747 E3.58554
G1 X131.278 Y159.486 E3.59422
G1 X131.273 Y158.911 E3.61335
G1 X131.284 Y158.277 E3.63444
G1 X131.3 Y156.509 E3.69325
G1 X131.301 Y146.053 E4.04101
G1 X131.312 Y145.336 E4.06486
G1 X131.402 Y144.096 E4.10621
G1 X131.491 Y143.415 E4.12906
G1 X131.709 Y141.879 E4.18066
G1 X131.995 Y139.37 E4.26465
G1 X132.192 Y137.06 E4.34176
G1 X132.311 Y136.13 E4.37294
G1 X132.495 Y135.267 E4.40229
G1 X132.549 Y135.056 E4.40953
G1 X132.821 Y134.158 E4.44074
G1 X133.167 Y133.286 E4.47194
G1 X133.587 Y132.448 E4.50312
G1 X134.076 Y131.648 E4.53431
G1 X134.632 Y130.892 E4.56552
G1 X135.25 Y130.187 E4.5967
G0 F6000 X135.61 Y130.39
G1 F1200 X136.28 Y129.759 E4.62731
G1 X137.002 Y129.188 E4.65793
G1 X137.771 Y128.682 E4.68855
G1 X138.582 Y128.245 E4.71919
G1 X139.72 Y127.773 E4.76016
G1 X139.944 Y127.695 E4.76805
G1 X140.826 Y127.43 E4.79868
G1 X141.727 Y127.243 E4.82929
G1 X142.642 Y127.134 E4.85994
G1 X143.298 Y127.106 E4.88178
G1 X144.015 Y127.098 E4.90562
G1 X144.983 Y127.1 E4.93782
G1 X154.143 Y127.101 E5.24248
G1 X154.849 Y127.111 E5.26597
G1 X155.278 Y127.125 E5.28024
G1 X155.863 Y127.165 E5.29975
G1 X156.195 Y127.197 E5.31084
G1 X157.318 Y127.366 E5.34861
G1 X157.449 Y127.393 E5.35306
G1 X157.969 Y127.514 E5.37082
G1 X158.293 Y127.598 E5.38195
G1 X159.364 Y127.937 E5.41931
G1 X159.481 Y127.981 E5.42347
G1 X159.952 Y128.172 E5.44038
G1 X160.26 Y128.305 E5.45153
G1 X161.332 Y128.841 E5.4914
G1 X161.461 Y128.915 E5.49634
G1 X161.907 Y129.186 E5.5137
G1 X162.088 Y129.302 E5.52085
G1 X163.053 Y130 E5.56046
G1 X163.512 Y130.373 E5.58014
G1 X164.201 Y130.984 E5.61076
G1 X164.67 Y131.469 E5.6332
G1 X164.76 Y131.568 E5.63765
G1 X165.11 Y131.972 E5.65543
G1 X165.321 Y132.229 E5.66649
G1 X165.991 Y133.141 E5.70413
G1 X166.052 Y133.234 E5.70783
G1 X166.311 Y133.648 E5.72407
G1 X166.488 Y133.947 E5.73563
G1 X167.055 Y135.048 E5.77682
G1 X167.122 Y135.199 E5.78231
G1 X167.272 Y135.555 E5.79516
G1 X167.383 Y135.832 E5.80509
G1 X167.782 Y137.027 E5.84699
G1 X167.822 Y137.176 E5.85212
G1 X167.922 Y137.582 E5.86603
G1 X167.992 Y137.891 E5.87657
G1 X168.194 Y139.104 E5.91747
G1 X168.209 Y139.244 E5.92215
G1 X168.247 Y139.692 E5.9371
G1 X168.268 Y140.018 E5.94797
G1 X168.288 Y140.44 E5.96202
G1 X168.295 Y140.744 E5.97213
G1 X168.3 Y141.241 E5.98867
G1 X168.299 Y141.941 E6.01195
G1 X168.289 Y142.649 E6.0355
G1 X168.279 Y142.991 E6.04688
G1 X168.273 Y143.12 E6.05117
G1 X168.24 Y143.593 E6.06694
G1 X168.209 Y143.932 E6.07827
G1 X168.034 Y145.112 E6.11794
G1 X168.003 Y145.262 E6.12304
G1 X167.882 Y145.779 E6.1407
G1 X167.8 Y146.095 E6.15155
G1 X167.459 Y147.172 E6.18913
G1 X167.41 Y147.302 E6.19375
G1 X167.232 Y147.743 E6.20957
G1 X167.105 Y148.039 E6.22028
G1 X166.562 Y149.128 E6.26075
G1 X166.013 Y150.087 E6.29751
G1 X164.727 Y152.411 E6.38585
G1 X163.586 Y154.618 E6.46848
G1 X162.492 Y156.89 E6.55235
G1 X161.447 Y159.229 E6.63756
G1 X160.51 Y161.494 E6.71909
G1 X160 Y162.86 E6.76758
G1 X159.822 Y163.28 E6.78276
G1 X159.461 Y164.228 E6.81649
G1 X159.13 Y165.003 E6.84452
G1 X158.943 Y165.392 E6.85888
G1 X158.828 Y165.621 E6.8674
G1 X158.252 Y166.626 E6.90593
G1 X158.026 Y166.975 E6.91976
G1 X157.493 Y167.725 E6.95036
G1 X156.896 Y168.426 E6.98099
G1 X156.533 Y168.798 E6.99827
G1 X156.198 Y169.125 E7.01384
G1 X155.512 Y169.739 E7.04446
G1 X154.599 Y170.409 E7.08213
G1 X154.052 Y170.767 E7.10387
G1 X153.26 Y171.238 E7.13452
G1 X152.511 Y171.603 E7.16223
G1 X152.379 Y171.661 E7.16703
G1 X151.496 Y172.002 E7.19851
G1 X151.088 Y172.137 E7.21281
G1 X150.697 Y172.26 E7.22644
G1 X150.279 Y172.383 E7.24093
G1 X149.979 Y172.464 E7.25127
G1 X149.081 Y172.665 E7.28187
G1 X148.414 Y172.762 E7.30429
G1 X147.992 Y172.81 E7.31842
G1 X146.995 Y172.876 E7.35165
G1 X146.046 Y172.894 E7.38322
G1 X145.699 Y172.895 E7.39476
G1 X145.335 Y172.89 E7.40687
G1 X144.653 Y172.859 E7.42958
G1 X143.989 Y172.807 E7.45173
G1 X143.076 Y172.695 E7.48232
G1 X142.224 Y172.517 E7.51127
G1 X142.01 Y172.463 E7.51861
G1 X141.691 Y172.377 E7.5296
G1 X141.425 Y172.301 E7.5388
G1 X140.878 Y172.129 E7.55787
G1 X140.319 Y171.936 E7.57754
G1 X139.462 Y171.598 E7.60818
G1 X138.638 Y171.187 E7.63881
G1 X138.078 Y170.853 E7.6605
G1 X137.74 Y170.636 E7.67386
G1 X137.472 Y170.461 E7.6845
G1 X136.723 Y169.925 E7.71514
G1 X136.109 Y169.404 E7.74192
G1 X135.767 Y169.082 E7.75754
G1 X135.482 Y168.802 E7.77083
G1 X135.16 Y168.472 E7.78617
G1 X134.283 Y167.41 E7.83198
G1 X134.086 Y167.137 E7.84317
G1 X133.362 Y165.983 E7.88848
G1 X133.245 Y165.767 E7.89665
G1 X132.784 Y164.804 E7.93216
G1 X132.662 Y164.512 E7.94269
G1 X132.39 Y163.788 E7.96841
G1 X132.288 Y163.483 E7.97911
G1 X132.034 Y162.598 E8.00973
G1 X131.809 Y161.319 E8.05293
G1 X131.79 Y161.152 E8.05852
G1 X131.757 Y160.811 E8.06991
G1 X131.718 Y160.315 E8.08646
G1 X131.7 Y160.025 E8.09612
G1 X131.686 Y159.733 E8.10585
G1 X131.677 Y159.472 E8.11453
G1 X131.673 Y158.918 E8.13296
G1 X131.684 Y158.281 E8.15415
G1 X131.7 Y156.513 E8.21296
G1 X131.701 Y146.059 E8.56066
G1 X131.712 Y145.342 E8.58451
G1 X131.798 Y144.147 E8.62436
G1 X131.887 Y143.471 E8.64703
G1 X132.105 Y141.94 E8.69847
G1 X132.392 Y139.417 E8.78293
G1 X132.59 Y137.094 E8.86047
G1 X132.708 Y136.181 E8.89109
G1 X132.883 Y135.366 E8.91881
G1 X132.937 Y135.155 E8.92606
G1 X133.204 Y134.274 E8.95668
G1 X133.546 Y133.419 E8.9873
G1 X133.961 Y132.597 E9.01793
G1 X134.446 Y131.815 E9.04854
G1 X134.997 Y131.077 E9.07917
G1 X135.61 Y130.39 E9.10979
G0 F6000 X135.969 Y130.595
G1 F1200 X136.633 Y129.983 E9.13983
G1 X137.349 Y129.433 E9.16986
G1 X138.11 Y128.947 E9.19989
G1 X138.912 Y128.531 E9.22994
G1 X139.852 Y128.15 E9.26367
G1 X140.076 Y128.072 E9.27156
G1 X140.941 Y127.813 E9.30159
G1 X141.826 Y127.632 E9.33164
G1 X142.723 Y127.53 E9.36166
G1 X143.303 Y127.506 E9.38097
G1 X144.014 Y127.498 E9.40462
G1 X144.982 Y127.5 E9.43682
G1 X154.137 Y127.501 E9.74131
G1 X154.843 Y127.511 E9.7648
G1 X155.115 Y127.518 E9.77385
G1 X155.262 Y127.524 E9.77874
G1 X155.825 Y127.563 E9.79751
G1 X156.157 Y127.595 E9.8086
G1 X157.237 Y127.758 E9.84493
G1 X157.368 Y127.785 E9.84938
G1 X157.869 Y127.901 E9.86648
G1 X158.193 Y127.985 E9.87762
G1 X159.223 Y128.312 E9.91356
G1 X159.34 Y128.356 E9.91772
G1 X159.794 Y128.539 E9.934
G1 X160.102 Y128.672 E9.94516
G1 X161.133 Y129.188 E9.9835
G1 X161.262 Y129.262 E9.98845
G1 X161.691 Y129.522 E10.00513
G1 X161.872 Y129.638 E10.01228
G1 X162.801 Y130.31 E10.05042
G1 X163.26 Y130.683 E10.07009
G1 X163.935 Y131.283 E10.10013
G1 X164.374 Y131.738 E10.12116
G1 X164.464 Y131.837 E10.12561
G1 X164.8 Y132.226 E10.1427
G1 X165.011 Y132.483 E10.15376
G1 X165.657 Y133.361 E10.19002
G1 X165.718 Y133.454 E10.19372
G1 X165.966 Y133.852 E10.20932
G1 X166.143 Y134.151 E10.22087
G1 X166.689 Y135.21 E10.2605
G1 X166.756 Y135.361 E10.26599
G1 X166.901 Y135.704 E10.27838
G1 X167.012 Y135.981 E10.28831
G1 X167.395 Y137.13 E10.32859
G1 X167.435 Y137.279 E10.33372
G1 X167.532 Y137.67 E10.34712
G1 X167.602 Y137.979 E10.35766
G1 X167.796 Y139.146 E10.397
G1 X167.811 Y139.286 E10.40169
G1 X167.848 Y139.717 E10.41608
G1 X167.869 Y140.043 E10.42694
G1 X167.888 Y140.456 E10.44069
G1 X167.895 Y140.748 E10.45041
G1 X167.9 Y141.241 E10.4668
G1 X167.899 Y141.935 E10.48989
G1 X167.889 Y142.643 E10.51344
G1 X167.879 Y142.973 E10.52442
G1 X167.873 Y143.102 E10.52871
G1 X167.842 Y143.557 E10.54388
G1 X167.811 Y143.896 E10.5552
G1 X167.642 Y145.031 E10.59337
G1 X167.611 Y145.181 E10.59846
G1 X167.495 Y145.679 E10.61547
G1 X167.413 Y145.995 E10.62633
G1 X167.085 Y147.031 E10.66247
G1 X167.036 Y147.161 E10.66709
G1 X166.865 Y147.585 E10.6823
G1 X166.738 Y147.881 E10.69301
G1 X166.215 Y148.929 E10.73197
G1 X165.664 Y149.891 E10.76884
G1 X164.387 Y152.198 E10.85654
G1 X163.222 Y154.454 E10.94099
G1 X162.131 Y156.719 E11.02461
G1 X161.09 Y159.049 E11.10949
G1 X160.126 Y161.379 E11.19336
G1 X159.625 Y162.72 E11.24097
G1 X159.465 Y163.097 E11.25459
G1 X159.088 Y164.086 E11.28979
G1 X158.769 Y164.831 E11.31675
G1 X158.585 Y165.212 E11.33082
G1 X158.47 Y165.441 E11.33935
G1 X157.917 Y166.408 E11.3764
G1 X157.691 Y166.757 E11.39022
G1 X157.167 Y167.493 E11.42027
G1 X156.58 Y168.179 E11.4503
G1 X156.254 Y168.512 E11.4658
G1 X155.919 Y168.839 E11.48137
G1 X155.245 Y169.441 E11.51143
G1 X154.38 Y170.075 E11.5471
G1 X153.833 Y170.433 E11.56884
G1 X153.056 Y170.893 E11.59888
G1 X152.35 Y171.236 E11.62498
G1 X152.218 Y171.294 E11.62978
G1 X151.368 Y171.623 E11.66009
G1 X150.968 Y171.756 E11.67411
G1 X150.577 Y171.879 E11.68775
G1 X150.175 Y171.996 E11.70167
G1 X149.875 Y172.077 E11.71201
G1 X148.993 Y172.274 E11.74207
G1 X148.369 Y172.365 E11.76304
G1 X147.947 Y172.413 E11.77717
G1 X146.987 Y172.476 E11.80916
G1 X146.038 Y172.494 E11.84073
G1 X145.705 Y172.495 E11.85181
G1 X145.341 Y172.49 E11.86392
G1 X144.685 Y172.46 E11.88576
G1 X144.021 Y172.408 E11.90791
G1 X143.124 Y172.298 E11.93797
G1 X142.321 Y172.129 E11.96526
G1 X142.107 Y172.075 E11.9726
G1 X141.801 Y171.993 E11.98314
G1 X141.535 Y171.917 E11.99234
G1 X141.008 Y171.751 E12.01072
G1 X140.449 Y171.558 E12.03039
G1 X139.609 Y171.225 E12.06044
G1 X138.802 Y170.82 E12.09047
G1 X138.293 Y170.516 E12.11019
G1 X137.958 Y170.301 E12.12343
G1 X137.69 Y170.126 E12.13408
G1 X136.957 Y169.6 E12.16408
G1 X136.379 Y169.109 E12.18931
G1 X136.048 Y168.797 E12.20444
G1 X135.763 Y168.517 E12.21773
G1 X135.451 Y168.198 E12.23257
G1 X134.608 Y167.176 E12.27663
G1 X134.411 Y166.903 E12.28783
G1 X133.713 Y165.792 E12.33147
G1 X133.596 Y165.576 E12.33964
G1 X133.153 Y164.65 E12.37378
G1 X133.031 Y164.358 E12.38431
G1 X132.77 Y163.661 E12.40906
G1 X132.668 Y163.356 E12.41976
G1 X132.419 Y162.488 E12.44979
G1 X132.206 Y161.274 E12.49078
G1 X132.187 Y161.107 E12.49638
G1 X132.155 Y160.778 E12.50737
G1 X132.131 Y160.482 E12.51725
G1 X132.1 Y160 E12.53331
G1 X132.086 Y159.72 E12.54264
G1 X132.077 Y159.459 E12.55132
G1 X132.073 Y158.925 E12.56908
G1 X132.084 Y158.285 E12.59037
G1 X132.1 Y156.517 E12.64918
G1 X132.101 Y146.066 E12.99678
G1 X132.112 Y145.349 E13.02063
G1 X132.195 Y144.199 E13.05898
G1 X132.283 Y143.527 E13.08152
G1 X132.504 Y141.969 E13.13386
G1 X132.79 Y139.459 E13.21788
G1 X132.989 Y137.128 E13.29569
G1 X133.105 Y136.232 E13.32574
G1 X133.27 Y135.465 E13.35184
G1 X133.324 Y135.254 E13.35908
G1 X133.587 Y134.39 E13.38912
G1 X133.925 Y133.552 E13.41917
G1 X134.335 Y132.748 E13.44919
G1 X134.815 Y131.983 E13.47923
G1 X135.361 Y131.264 E13.50926
G1 X135.969 Y130.595 E13.53932
G0 F6000 X143.7 Y147.529
G1 F1200 X143.932 Y147.635 E13.54781
G1 X144.355 Y147.7 E13.56204
G1 X148.3 Y147.7 E13.69325
G1 X148.3 Y148.803 E13.72994
G1 X147.945 Y148.528 E13.74488
G1 X147.658 Y148.356 E13.756
G1 X147.274 Y148.247 E13.76928
G1 X146.882 Y148.194 E13.78244
G1 X146.836 Y148.178 E13.78406
G1 X146.362 Y148.095 E13.80006
G1 X145.644 Y148.095 E13.82394
G1 X145.182 Y148.173 E13.83953
G1 X145.13 Y148.191 E13.84136
G1 X144.7 Y148.248 E13.85578
G1 X144.377 Y148.331 E13.86688
G1 X143.987 Y148.561 E13.88193
G1 X143.7 Y148.8 E13.89436
G1 X143.7 Y147.529 E13.93663
G0 F6000 X143.874 Y147.176
G1 F1200 X144.138 Y147.276 E13.94602
G1 X144.355 Y147.3 E13.95328
G1 X148.7 Y147.3 E14.0978
