;FLAVOR:Marlin
;TIME:1715
;Filament used: 0.671738m
;Layer height: 0.2
;MINX:127.307
;MINY:127.3
;MINZ:0.2
;MAXX:172.7
;MAXY:172.7
;MAXZ:7.8
;Generated with Creality Slicer 4.8.2-191
M140 S50
M105
M190 S50
M104 S200
M105
M109 S200
M82 ;absolute extrusion mode

G28 ;Home

G92 E0 ;Reset Extruder
G1 Z2.0 F3000 ;Move Z Axis up
G1 X10.1 Y20 Z0.28 F5000.0 ;Move to start position
G1 X10.1 Y200.0 Z0.28 F1500.0 E15 ;Draw the first line
G1 X10.4 Y200.0 Z0.28 F5000.0 ;Move to side a little
G1 X10.4 Y20 Z0.28 F1500.0 E30 ;Draw the second line
G92 E0 ;Reset Extruder
G1 Z2.0 F3000 ;Move Z Axis up

G92 E0
G92 E0
G1 F2700 E-5
;LAYER_COUNT:39
;LAYER:0
M107
G0 F6000 X131.911 Y131.213 Z0.2
;TYPE:SKIRT
G1 F2700 E0
G1 F1200 X132.028 Y131.106 E0.00527
G1 X132.429 Y130.756 E0.02298
G1 X132.728 Y130.508 E0.0359
G1 X133.73 Y129.769 E0.07731
G1 X133.889 Y129.665 E0.08363
G1 X134.309 Y129.404 E0.10007
G1 X134.62 Y129.22 E0.11209
G1 X135.74 Y128.641 E0.15403
G1 X135.879 Y128.579 E0.15909
G1 X136.27 Y128.414 E0.1732
G1 X136.632 Y128.269 E0.18617
G1 X137.865 Y127.858 E0.2294
G1 X138.036 Y127.812 E0.23529
G1 X138.478 Y127.702 E0.25044
G1 X138.838 Y127.621 E0.26271
G1 X140.045 Y127.42 E0.30341
G1 X140.235 Y127.399 E0.30977
G1 X140.745 Y127.354 E0.3268
G1 X141.091 Y127.332 E0.33833
G1 X141.387 Y127.317 E0.34819
G1 X141.551 Y127.311 E0.35365
G1 X141.845 Y127.305 E0.36343
G1 X142.361 Y127.3 E0.38059
G1 X157.493 Y127.3 E0.88388
G1 X158.355 Y127.311 E0.91255
G1 X158.689 Y127.321 E0.92367
G1 X158.846 Y127.328 E0.92889
G1 X159.382 Y127.365 E0.94676
G1 X159.777 Y127.402 E0.95996
G1 X160.986 Y127.584 E1.00062
G1 X161.145 Y127.617 E1.00603
G1 X161.612 Y127.724 E1.02196
G1 X161.983 Y127.818 E1.03469
G1 X163.243 Y128.219 E1.07867
G1 X163.401 Y128.28 E1.0843
G1 X163.776 Y128.433 E1.09777
G1 X164.121 Y128.581 E1.11026
G1 X165.26 Y129.15 E1.15261
G1 X165.429 Y129.247 E1.15909
G1 X165.827 Y129.487 E1.17455
G1 X166.112 Y129.667 E1.18576
G1 X167.097 Y130.367 E1.22595
G1 X167.265 Y130.501 E1.2331
G1 X167.661 Y130.832 E1.25026
G1 X167.922 Y131.061 E1.26181
G1 X168.837 Y131.964 E1.30457
G1 X168.947 Y132.086 E1.31003
G1 X169.244 Y132.429 E1.32512
G1 X169.492 Y132.728 E1.33804
G1 X170.223 Y133.718 E1.37897
G1 X170.324 Y133.872 E1.3851
G1 X170.593 Y134.303 E1.402
G1 X170.78 Y134.619 E1.41421
G1 X171.35 Y135.719 E1.45542
G1 X171.411 Y135.855 E1.46037
G1 X171.583 Y136.262 E1.47507
G1 X171.727 Y136.621 E1.48793
G1 X172.136 Y137.843 E1.53079
G1 X172.182 Y138.013 E1.53665
G1 X172.293 Y138.46 E1.55197
G1 X172.376 Y138.827 E1.56449
G1 X172.58 Y140.045 E1.60556
G1 X172.601 Y140.235 E1.61192
G1 X172.646 Y140.743 E1.62888
G1 X172.668 Y141.088 E1.64038
G1 X172.683 Y141.388 E1.65037
G1 X172.689 Y141.553 E1.65586
G1 X172.695 Y141.845 E1.66558
G1 X172.7 Y142.361 E1.68274
G1 X172.699 Y157.649 E2.19122
G1 X172.689 Y158.355 E2.2147
G1 X172.679 Y158.689 E2.22582
G1 X172.672 Y158.846 E2.23104
G1 X172.636 Y159.367 E2.24841
G1 X172.6 Y159.757 E2.26144
G1 X172.418 Y160.979 E2.30253
G1 X172.384 Y161.143 E2.3081
G1 X172.285 Y161.578 E2.32294
G1 X172.195 Y161.938 E2.33528
G1 X171.79 Y163.219 E2.37997
G1 X171.725 Y163.388 E2.38599
G1 X171.567 Y163.776 E2.39993
G1 X171.419 Y164.121 E2.41241
G1 X170.85 Y165.26 E2.45476
G1 X170.753 Y165.429 E2.46124
G1 X170.508 Y165.835 E2.47701
G1 X170.327 Y166.121 E2.48827
G1 X169.617 Y167.117 E2.52895
G1 X169.484 Y167.283 E2.53603
G1 X169.162 Y167.666 E2.55267
G1 X168.93 Y167.93 E2.56436
G1 X168.06 Y168.815 E2.60563
G1 X167.941 Y168.923 E2.61098
G1 X167.573 Y169.241 E2.62716
G1 X167.273 Y169.49 E2.64012
G1 X166.266 Y170.234 E2.68177
G1 X166.113 Y170.334 E2.68784
G1 X165.697 Y170.593 E2.70414
G1 X165.381 Y170.78 E2.71636
G1 X164.26 Y171.359 E2.75832
G1 X164.121 Y171.421 E2.76338
G1 X163.73 Y171.586 E2.7775
G1 X163.368 Y171.731 E2.79047
G1 X162.135 Y172.142 E2.8337
G1 X161.964 Y172.188 E2.83959
G1 X161.522 Y172.298 E2.85474
G1 X161.162 Y172.379 E2.86701
G1 X159.955 Y172.58 E2.90771
G1 X159.765 Y172.601 E2.91406
G1 X159.255 Y172.646 E2.93109
G1 X158.909 Y172.668 E2.94262
G1 X158.613 Y172.683 E2.95248
G1 X158.449 Y172.689 E2.95794
G1 X158.155 Y172.695 E2.96772
G1 X157.64 Y172.7 E2.98485
G1 X142.351 Y172.699 E3.49336
G1 X141.645 Y172.689 E3.51685
G1 X141.311 Y172.679 E3.52796
G1 X141.154 Y172.672 E3.53319
G1 X140.618 Y172.635 E3.55106
G1 X140.223 Y172.598 E3.56425
G1 X139.014 Y172.416 E3.60492
G1 X138.855 Y172.383 E3.61032
G1 X138.388 Y172.276 E3.62625
G1 X138.017 Y172.182 E3.63898
G1 X136.757 Y171.781 E3.68296
G1 X136.599 Y171.72 E3.6886
G1 X136.224 Y171.567 E3.70207
G1 X135.879 Y171.419 E3.71455
G1 X134.74 Y170.85 E3.7569
G1 X134.571 Y170.753 E3.76338
G1 X134.165 Y170.508 E3.77915
G1 X133.879 Y170.327 E3.79041
G1 X132.883 Y169.617 E3.83109
G1 X132.717 Y169.484 E3.83817
G1 X132.329 Y169.158 E3.85502
G1 X132.063 Y168.924 E3.86681
G1 X131.177 Y168.051 E3.90818
G1 X131.071 Y167.934 E3.91343
G1 X130.761 Y167.576 E3.92918
G1 X130.511 Y167.275 E3.94219
G1 X129.765 Y166.265 E3.98395
G1 X129.665 Y166.112 E3.99003
G1 X129.399 Y165.683 E4.00682
G1 X129.212 Y165.366 E4.01906
G1 X128.646 Y164.271 E4.06006
G1 X128.582 Y164.128 E4.06527
G1 X128.411 Y163.724 E4.07986
G1 X128.268 Y163.367 E4.09265
G1 X127.84 Y162.073 E4.13799
G1 X127.794 Y161.898 E4.144
G1 X127.699 Y161.507 E4.15739
G1 X127.619 Y161.15 E4.16956
G1 X127.419 Y159.947 E4.21012
G1 X127.398 Y159.756 E4.21651
G1 X127.353 Y159.234 E4.23393
G1 X127.331 Y158.879 E4.24576
G1 X127.313 Y158.48 E4.25905
G1 X127.307 Y157.933 E4.27724
G1 X127.311 Y157.647 E4.28676
G1 X127.321 Y157.315 E4.2978
G1 X127.342 Y156.888 E4.31202
G1 X127.399 Y156.029 E4.34066
G1 X127.536 Y153.443 E4.42679
G1 X127.598 Y150.915 E4.51089
G1 X127.589 Y148.395 E4.59471
G1 X127.507 Y145.856 E4.6792
G1 X127.422 Y144.317 E4.73047
G1 X127.333 Y142.921 E4.77699
G1 X127.314 Y142.493 E4.79124
G1 X127.307 Y141.932 E4.8099
G1 X127.311 Y141.647 E4.81938
G1 X127.322 Y141.285 E4.83143
G1 X127.329 Y141.136 E4.83639
G1 X127.36 Y140.686 E4.85139
G1 X127.395 Y140.289 E4.86465
G1 X127.589 Y138.986 E4.90846
G1 X127.624 Y138.82 E4.91411
G1 X127.724 Y138.387 E4.92889
G1 X127.817 Y138.02 E4.94148
G1 X128.215 Y136.769 E4.98514
G1 X128.277 Y136.608 E4.99088
G1 X128.433 Y136.224 E5.00467
G1 X128.581 Y135.879 E5.01715
G1 X129.15 Y134.74 E5.0595
G1 X129.247 Y134.571 E5.06598
G1 X129.492 Y134.165 E5.08175
G1 X129.673 Y133.879 E5.09301
G1 X130.383 Y132.883 E5.13369
G1 X130.516 Y132.717 E5.14077
G1 X130.856 Y132.314 E5.1583
G1 X131.09 Y132.049 E5.17006
G1 X131.911 Y131.213 E5.20903
G0 F6000 X132.181 Y131.508
G1 F1200 X132.298 Y131.401 E5.21431
G1 X132.685 Y131.064 E5.23138
G1 X132.984 Y130.816 E5.2443
G1 X133.949 Y130.104 E5.28418
G1 X134.108 Y130 E5.2905
G1 X134.513 Y129.748 E5.30637
G1 X134.824 Y129.564 E5.31839
G1 X135.903 Y129.006 E5.35879
G1 X136.042 Y128.944 E5.36385
G1 X136.419 Y128.785 E5.37746
G1 X136.781 Y128.64 E5.39043
G1 X137.968 Y128.244 E5.43205
G1 X138.139 Y128.198 E5.43794
G1 X138.566 Y128.093 E5.45256
G1 X138.926 Y128.012 E5.46484
G1 X140.089 Y127.817 E5.50406
G1 X140.279 Y127.796 E5.51041
G1 X140.77 Y127.753 E5.52681
G1 X141.116 Y127.731 E5.53834
G1 X141.565 Y127.711 E5.55329
G1 X141.849 Y127.705 E5.56274
G1 X142.361 Y127.7 E5.57977
G1 X157.493 Y127.7 E6.08306
G1 X158.349 Y127.711 E6.11153
G1 X158.671 Y127.721 E6.12225
G1 X158.828 Y127.728 E6.12747
G1 X159.345 Y127.763 E6.14471
G1 X159.74 Y127.8 E6.1579
G1 X160.905 Y127.975 E6.19709
G1 X161.064 Y128.008 E6.20249
G1 X161.513 Y128.112 E6.21782
G1 X161.884 Y128.206 E6.23055
G1 X163.099 Y128.592 E6.27295
G1 X163.257 Y128.653 E6.27858
G1 X163.618 Y128.801 E6.29156
G1 X163.963 Y128.949 E6.30404
G1 X165.061 Y129.497 E6.34486
G1 X165.23 Y129.594 E6.35134
G1 X165.613 Y129.825 E6.36622
G1 X165.898 Y130.005 E6.37743
G1 X166.848 Y130.68 E6.41619
G1 X167.016 Y130.814 E6.42334
G1 X167.397 Y131.133 E6.43986
G1 X167.658 Y131.362 E6.45141
G1 X168.539 Y132.232 E6.49259
G1 X168.649 Y132.354 E6.49806
G1 X168.936 Y132.685 E6.51263
G1 X169.184 Y132.984 E6.52555
G1 X169.889 Y133.938 E6.565
G1 X169.99 Y134.092 E6.57113
G1 X170.248 Y134.507 E6.58738
G1 X170.435 Y134.823 E6.59959
G1 X170.985 Y135.883 E6.63931
G1 X171.046 Y136.019 E6.64427
G1 X171.212 Y136.411 E6.65843
G1 X171.356 Y136.77 E6.67129
G1 X171.75 Y137.947 E6.71258
G1 X171.796 Y138.117 E6.71843
G1 X171.903 Y138.548 E6.7332
G1 X171.986 Y138.915 E6.74572
G1 X172.183 Y140.089 E6.78531
G1 X172.204 Y140.279 E6.79167
G1 X172.247 Y140.768 E6.808
G1 X172.269 Y141.113 E6.8195
G1 X172.289 Y141.568 E6.83464
G1 X172.295 Y141.849 E6.84399
G1 X172.3 Y142.361 E6.86102
G1 X172.299 Y157.643 E7.3693
G1 X172.289 Y158.349 E7.39279
G1 X172.279 Y158.671 E7.4035
G1 X172.272 Y158.828 E7.40873
G1 X172.238 Y159.33 E7.42546
G1 X172.202 Y159.72 E7.43849
G1 X172.026 Y160.898 E7.47811
G1 X171.992 Y161.062 E7.48368
G1 X171.897 Y161.481 E7.49797
G1 X171.807 Y161.841 E7.51031
G1 X171.416 Y163.075 E7.55336
G1 X171.351 Y163.244 E7.55938
G1 X171.199 Y163.618 E7.57281
G1 X171.051 Y163.963 E7.5853
G1 X170.503 Y165.061 E7.62611
G1 X170.406 Y165.23 E7.63259
G1 X170.17 Y165.622 E7.64781
G1 X169.989 Y165.908 E7.65907
G1 X169.304 Y166.867 E7.69827
G1 X169.171 Y167.033 E7.70534
G1 X168.861 Y167.402 E7.72137
G1 X168.629 Y167.666 E7.73306
G1 X167.791 Y168.518 E7.77281
G1 X167.672 Y168.626 E7.77815
G1 X167.318 Y168.934 E7.79376
G1 X167.018 Y169.183 E7.80673
G1 X166.047 Y169.899 E7.84685
G1 X165.894 Y169.999 E7.85293
G1 X165.493 Y170.248 E7.86863
G1 X165.177 Y170.435 E7.88085
G1 X164.097 Y170.994 E7.92129
G1 X163.958 Y171.056 E7.92635
G1 X163.581 Y171.215 E7.93996
G1 X163.219 Y171.36 E7.95293
G1 X162.032 Y171.756 E7.99455
G1 X161.861 Y171.802 E8.00044
G1 X161.434 Y171.907 E8.01507
G1 X161.074 Y171.988 E8.02734
G1 X159.911 Y172.183 E8.06656
G1 X159.721 Y172.204 E8.07292
G1 X159.23 Y172.247 E8.08931
G1 X158.884 Y172.269 E8.10084
G1 X158.435 Y172.289 E8.11579
G1 X158.151 Y172.295 E8.12524
G1 X157.64 Y172.3 E8.14224
G1 X142.357 Y172.299 E8.65055
G1 X141.651 Y172.289 E8.67404
G1 X141.329 Y172.279 E8.68475
G1 X141.172 Y172.272 E8.68998
G1 X140.655 Y172.237 E8.70721
G1 X140.26 Y172.2 E8.72041
G1 X139.095 Y172.025 E8.75959
G1 X138.936 Y171.992 E8.76499
G1 X138.487 Y171.888 E8.78032
G1 X138.116 Y171.794 E8.79305
G1 X136.901 Y171.408 E8.83545
G1 X136.743 Y171.347 E8.84109
G1 X136.382 Y171.199 E8.85406
G1 X136.037 Y171.051 E8.86655
G1 X134.939 Y170.503 E8.90736
G1 X134.77 Y170.406 E8.91384
G1 X134.378 Y170.17 E8.92906
G1 X134.092 Y169.989 E8.94032
G1 X133.133 Y169.304 E8.97952
G1 X132.967 Y169.171 E8.98659
G1 X132.594 Y168.858 E9.00279
G1 X132.328 Y168.624 E9.01457
G1 X131.473 Y167.782 E9.05448
G1 X131.367 Y167.665 E9.05973
G1 X131.069 Y167.321 E9.07487
G1 X130.819 Y167.02 E9.08789
G1 X130.1 Y166.046 E9.12815
G1 X130 Y165.893 E9.13423
G1 X129.743 Y165.48 E9.15041
G1 X129.556 Y165.163 E9.16265
G1 X129.011 Y164.107 E9.20218
G1 X128.947 Y163.964 E9.20739
G1 X128.782 Y163.575 E9.22144
G1 X128.639 Y163.218 E9.23423
G1 X128.227 Y161.972 E9.27788
G1 X128.181 Y161.797 E9.2839
G1 X128.09 Y161.42 E9.2968
G1 X128.01 Y161.063 E9.30897
G1 X127.816 Y159.903 E9.34808
G1 X127.795 Y159.712 E9.35447
G1 X127.752 Y159.21 E9.37123
G1 X127.73 Y158.855 E9.38306
G1 X127.713 Y158.465 E9.39605
G1 X127.707 Y157.939 E9.41354
G1 X127.711 Y157.653 E9.42306
G1 X127.72 Y157.333 E9.4337
G1 X127.742 Y156.914 E9.44766
G1 X127.798 Y156.074 E9.47566
G1 X127.935 Y153.474 E9.56225
G1 X127.998 Y150.923 E9.64713
G1 X127.989 Y148.416 E9.73051
G1 X127.905 Y145.821 E9.81687
G1 X127.821 Y144.291 E9.86783
G1 X127.732 Y142.895 E9.91436
G1 X127.713 Y142.478 E9.92824
G1 X127.707 Y141.937 E9.94624
G1 X127.711 Y141.652 E9.95572
G1 X127.722 Y141.304 E9.9673
G1 X127.729 Y141.155 E9.97226
G1 X127.758 Y140.721 E9.98672
G1 X127.793 Y140.324 E9.99998
G1 X127.98 Y139.068 E10.04221
G1 X128.015 Y138.902 E10.04786
G1 X128.112 Y138.485 E10.0621
G1 X128.205 Y138.118 E10.07469
G1 X128.588 Y136.913 E10.11674
G1 X128.65 Y136.752 E10.12248
G1 X128.801 Y136.382 E10.13577
G1 X128.949 Y136.037 E10.14826
G1 X129.497 Y134.939 E10.18907
G1 X129.594 Y134.77 E10.19556
G1 X129.83 Y134.378 E10.21077
G1 X130.011 Y134.092 E10.22203
G1 X130.696 Y133.133 E10.26123
G1 X130.829 Y132.967 E10.2683
G1 X131.155 Y132.579 E10.28516
G1 X131.389 Y132.314 E10.29692
G1 X132.181 Y131.508 E10.3345
G0 F6000 X132.451 Y131.803
G1 F1200 X132.568 Y131.696 E10.33977
G1 X132.94 Y131.372 E10.35618
G1 X133.239 Y131.124 E10.3691
G1 X134.168 Y130.439 E10.40749
G1 X134.327 Y130.335 E10.41381
G1 X134.716 Y130.092 E10.42907
G1 X135.027 Y129.908 E10.44109
G1 X136.066 Y129.372 E10.47997
G1 X136.205 Y129.31 E10.48503
G1 X136.567 Y129.156 E10.49812
G1 X136.929 Y129.011 E10.51109
G1 X138.072 Y128.63 E10.55116
G1 X138.243 Y128.584 E10.55705
G1 X138.654 Y128.483 E10.57113
G1 X139.014 Y128.402 E10.5834
G1 X140.132 Y128.215 E10.6211
G1 X140.322 Y128.194 E10.62746
G1 X140.796 Y128.153 E10.64328
G1 X141.142 Y128.131 E10.65481
G1 X141.416 Y128.117 E10.66394
G1 X141.853 Y128.104 E10.67848
G1 X142.261 Y128.1 E10.69205
G1 X157.493 Y128.1 E11.19867
G1 X158.343 Y128.111 E11.22694
G1 X158.653 Y128.12 E11.23726
G1 X158.81 Y128.127 E11.24249
G1 X159.307 Y128.161 E11.25905
G1 X159.702 Y128.198 E11.27225
G1 X160.824 Y128.367 E11.30999
G1 X160.983 Y128.4 E11.31539
G1 X161.415 Y128.499 E11.33013
G1 X161.786 Y128.593 E11.34286
G1 X162.955 Y128.966 E11.38367
G1 X163.113 Y129.027 E11.38931
G1 X163.46 Y129.168 E11.40176
G1 X163.805 Y129.316 E11.41425
G1 X164.862 Y129.844 E11.45355
G1 X165.031 Y129.941 E11.46003
G1 X165.4 Y130.163 E11.47435
G1 X165.685 Y130.343 E11.48556
G1 X166.598 Y130.993 E11.52284
G1 X166.766 Y131.127 E11.52999
G1 X167.133 Y131.434 E11.5459
G1 X167.394 Y131.663 E11.55745
G1 X168.242 Y132.5 E11.59708
G1 X168.352 Y132.622 E11.60254
G1 X168.628 Y132.94 E11.61655
G1 X168.876 Y133.239 E11.62947
G1 X169.554 Y134.157 E11.66742
G1 X169.655 Y134.311 E11.67355
G1 X169.904 Y134.71 E11.68919
G1 X170.091 Y135.026 E11.70141
G1 X170.62 Y136.047 E11.73965
G1 X170.681 Y136.183 E11.74461
G1 X170.841 Y136.56 E11.75823
G1 X170.985 Y136.919 E11.7711
G1 X171.364 Y138.052 E11.81083
G1 X171.41 Y138.222 E11.81669
G1 X171.513 Y138.636 E11.83088
G1 X171.596 Y139.003 E11.84339
G1 X171.785 Y140.132 E11.88147
G1 X171.806 Y140.322 E11.88782
G1 X171.847 Y140.794 E11.90358
G1 X171.869 Y141.139 E11.91508
G1 X171.883 Y141.417 E11.92434
G1 X171.896 Y141.853 E11.93885
G1 X171.9 Y142.261 E11.95242
G1 X171.899 Y157.637 E12.46383
G1 X171.889 Y158.343 E12.48731
G1 X171.88 Y158.653 E12.49762
G1 X171.873 Y158.81 E12.50285
G1 X171.84 Y159.294 E12.51899
G1 X171.804 Y159.684 E12.53201
G1 X171.635 Y160.817 E12.57011
G1 X171.601 Y160.981 E12.57568
G1 X171.508 Y161.384 E12.58944
G1 X171.418 Y161.744 E12.60178
G1 X171.043 Y162.932 E12.64322
G1 X170.978 Y163.101 E12.64924
G1 X170.832 Y163.46 E12.66213
G1 X170.684 Y163.805 E12.67462
G1 X170.156 Y164.862 E12.71391
G1 X170.059 Y165.031 E12.7204
G1 X169.832 Y165.408 E12.73503
G1 X169.651 Y165.694 E12.74629
G1 X168.992 Y166.617 E12.78401
G1 X168.859 Y166.783 E12.79108
G1 X168.561 Y167.138 E12.8065
G1 X168.329 Y167.402 E12.81819
G1 X167.522 Y168.222 E12.85646
G1 X167.403 Y168.33 E12.8618
G1 X167.062 Y168.626 E12.87682
G1 X166.762 Y168.875 E12.88979
G1 X165.828 Y169.564 E12.92839
G1 X165.675 Y169.664 E12.93447
G1 X165.29 Y169.904 E12.94956
G1 X164.974 Y170.091 E12.96177
G1 X163.934 Y170.628 E13.0007
G1 X163.795 Y170.69 E13.00576
G1 X163.433 Y170.844 E13.01885
G1 X163.071 Y170.989 E13.03182
G1 X161.928 Y171.37 E13.07189
G1 X161.757 Y171.416 E13.07778
G1 X161.346 Y171.517 E13.09186
G1 X160.986 Y171.598 E13.10413
G1 X159.868 Y171.785 E13.14183
G1 X159.678 Y171.806 E13.14819
G1 X159.204 Y171.847 E13.16401
G1 X158.858 Y171.869 E13.17554
G1 X158.584 Y171.883 E13.18467
G1 X158.147 Y171.896 E13.19921
G1 X157.74 Y171.9 E13.21275
G1 X142.363 Y171.899 E13.72419
G1 X141.657 Y171.889 E13.74767
G1 X141.347 Y171.88 E13.75799
G1 X141.19 Y171.873 E13.76321
G1 X140.693 Y171.839 E13.77978
G1 X140.298 Y171.802 E13.79298
G1 X139.176 Y171.633 E13.83072
G1 X139.017 Y171.6 E13.83612
G1 X138.585 Y171.501 E13.85086
G1 X138.214 Y171.407 E13.86359
G1 X137.045 Y171.034 E13.9044
G1 X136.887 Y170.973 E13.91003
G1 X136.54 Y170.832 E13.92249
G1 X136.195 Y170.684 E13.93498
