;FLAVOR:Marlin
;TIME:1597
;Filament used: 0.51379m
;Layer height: 0.2
;MINX:131.402
;MINY:131.048
;MINZ:0.2
;MAXX:168.602
;MAXY:168.95
;MAXZ:23.4
;Generated with Creality Slicer 4.8.2-191
M140 S50
M105
M190 S50
M104 S200
M105
M109 S200
M82 ;absolute extrusion mode

G28 ;Home

G92 E0 ;Reset Extruder
G1 Z2.0 F3000 ;Move Z Axis up
G1 X10.1 Y20 Z0.28 F5000.0 ;Move to start position
G1 X10.1 Y200.0 Z0.28 F1500.0 E15 ;Draw the first line
G1 X10.4 Y200.0 Z0.28 F5000.0 ;Move to side a little
G1 X10.4 Y20 Z0.28 F1500.0 E30 ;Draw the second line
G92 E0 ;Reset Extruder
G1 Z2.0 F3000 ;Move Z Axis up

G92 E0
G92 E0
G1 F2700 E-5
;LAYER_COUNT:117
;LAYER:0
M107
G0 F6000 X142.172 Y135.625 Z0.2
;TYPE:SKIRT
G1 F2700 E0
G1 F1200 X142.817 Y134.989 E0.03013
G1 X143.025 Y134.8 E0.03948
G1 X143.797 Y134.16 E0.07283
G1 X144.651 Y133.517 E0.10838
G1 X145.101 Y133.188 E0.12692
G1 X145.881 Y132.667 E0.15812
G1 X146.702 Y132.215 E0.18929
G1 X147.559 Y131.834 E0.22049
G1 X148.446 Y131.528 E0.2517
G1 X149.355 Y131.298 E0.28288
G1 X150.318 Y131.142 E0.31533
G1 X150.438 Y131.128 E0.31935
G1 X151.575 Y131.055 E0.35724
G1 X152.205 Y131.048 E0.3782
G1 X154.07 Y131.051 E0.44023
G1 X154.78 Y131.062 E0.46384
G1 X155.717 Y131.117 E0.49506
G1 X156.645 Y131.251 E0.52625
G1 X157.558 Y131.463 E0.55742
G1 X158.132 Y131.64 E0.5774
G1 X159.231 Y132.011 E0.61598
G1 X159.887 Y132.223 E0.63891
G1 X160.986 Y132.593 E0.67748
G1 X161.861 Y132.93 E0.70867
G1 X162.704 Y133.34 E0.73984
G1 X163.51 Y133.821 E0.77106
G1 X164.271 Y134.368 E0.80223
G1 X165.185 Y135.171 E0.8427
G1 X165.299 Y135.283 E0.84801
G1 X165.939 Y135.969 E0.87922
G1 X166.519 Y136.706 E0.91041
G1 X167.034 Y137.49 E0.94161
G1 X167.48 Y138.315 E0.9728
G1 X167.854 Y139.175 E1.00399
G1 X168.154 Y140.063 E1.03517
G1 X168.377 Y140.974 E1.06636
G1 X168.521 Y141.901 E1.09757
G1 X168.584 Y142.764 E1.12635
G1 X168.594 Y143.137 E1.13876
G1 X168.602 Y143.889 E1.16377
G1 X168.6 Y145.148 E1.20564
G1 X168.599 Y153.89 E1.4964
G1 X168.589 Y154.603 E1.52012
G1 X168.579 Y154.939 E1.5313
G1 X168.572 Y155.096 E1.53653
G1 X168.536 Y155.617 E1.5539
G1 X168.5 Y156.007 E1.56692
G1 X168.318 Y157.229 E1.60802
G1 X168.284 Y157.393 E1.61359
G1 X168.185 Y157.828 E1.62843
G1 X168.095 Y158.188 E1.64077
G1 X167.69 Y159.469 E1.68545
G1 X167.625 Y159.638 E1.69148
G1 X167.467 Y160.026 E1.70541
G1 X167.319 Y160.371 E1.7179
G1 X166.75 Y161.51 E1.76024
G1 X166.653 Y161.679 E1.76672
G1 X166.408 Y162.085 E1.7825
G1 X166.227 Y162.371 E1.79375
G1 X165.517 Y163.367 E1.83444
G1 X165.384 Y163.533 E1.84151
G1 X165.062 Y163.916 E1.85815
G1 X164.83 Y164.18 E1.86984
G1 X163.96 Y165.065 E1.91112
G1 X163.841 Y165.173 E1.91646
G1 X163.473 Y165.491 E1.93264
G1 X163.173 Y165.74 E1.94561
G1 X162.166 Y166.484 E1.98725
G1 X162.013 Y166.584 E1.99333
G1 X161.597 Y166.843 E2.00963
G1 X161.281 Y167.03 E2.02184
G1 X160.16 Y167.609 E2.0638
G1 X160.021 Y167.671 E2.06887
G1 X159.63 Y167.836 E2.08298
G1 X159.268 Y167.981 E2.09595
G1 X158.035 Y168.392 E2.13918
G1 X157.864 Y168.438 E2.14507
G1 X157.422 Y168.548 E2.16022
G1 X157.062 Y168.629 E2.17249
G1 X155.855 Y168.83 E2.21319
G1 X155.665 Y168.851 E2.21955
G1 X155.155 Y168.896 E2.23658
G1 X154.809 Y168.918 E2.24811
G1 X154.513 Y168.933 E2.25797
G1 X154.349 Y168.939 E2.26342
G1 X154.055 Y168.945 E2.2732
G1 X153.54 Y168.95 E2.29033
G1 X146.451 Y168.949 E2.52612
G1 X145.745 Y168.939 E2.5496
G1 X145.411 Y168.929 E2.56071
G1 X145.254 Y168.922 E2.56594
G1 X144.718 Y168.885 E2.58381
G1 X144.323 Y168.848 E2.59701
G1 X143.114 Y168.666 E2.63767
G1 X142.955 Y168.633 E2.64307
G1 X142.488 Y168.526 E2.65901
G1 X142.117 Y168.432 E2.67174
G1 X140.857 Y168.031 E2.71571
G1 X140.699 Y167.97 E2.72135
G1 X140.324 Y167.817 E2.73482
G1 X139.979 Y167.669 E2.7473
G1 X138.84 Y167.1 E2.78965
G1 X138.671 Y167.003 E2.79613
G1 X138.265 Y166.758 E2.8119
G1 X137.979 Y166.577 E2.82316
G1 X136.983 Y165.867 E2.86384
G1 X136.817 Y165.734 E2.87092
G1 X136.429 Y165.408 E2.88777
G1 X136.163 Y165.174 E2.89956
G1 X135.277 Y164.301 E2.94093
G1 X135.171 Y164.184 E2.94618
G1 X134.861 Y163.826 E2.96193
G1 X134.611 Y163.525 E2.97494
G1 X133.865 Y162.515 E3.01671
G1 X133.765 Y162.362 E3.02279
G1 X133.499 Y161.933 E3.03957
G1 X133.312 Y161.616 E3.05182
G1 X132.746 Y160.521 E3.09281
G1 X132.682 Y160.378 E3.09802
G1 X132.511 Y159.974 E3.11261
G1 X132.368 Y159.617 E3.12541
G1 X131.94 Y158.323 E3.17074
G1 X131.894 Y158.148 E3.17676
G1 X131.799 Y157.757 E3.19014
G1 X131.719 Y157.4 E3.20231
G1 X131.519 Y156.197 E3.24287
G1 X131.498 Y156.006 E3.24926
G1 X131.453 Y155.484 E3.26669
G1 X131.431 Y155.129 E3.27852
G1 X131.413 Y154.731 E3.29177
G1 X131.404 Y154.393 E3.30301
G1 X131.402 Y154.164 E3.31063
G1 X131.403 Y153.913 E3.31898
G1 X131.411 Y153.345 E3.33787
G1 X131.421 Y153.007 E3.34912
G1 X131.428 Y152.851 E3.35431
G1 X131.465 Y152.321 E3.37198
G1 X131.502 Y151.925 E3.38521
G1 X131.697 Y150.648 E3.42818
G1 X131.731 Y150.489 E3.43358
G1 X131.818 Y150.114 E3.44639
G1 X131.91 Y149.747 E3.45897
G1 X132.315 Y148.469 E3.50356
G1 X132.377 Y148.308 E3.5093
G1 X132.533 Y147.924 E3.52309
G1 X132.681 Y147.579 E3.53557
G1 X133.25 Y146.44 E3.57792
G1 X133.347 Y146.271 E3.5844
G1 X133.592 Y145.865 E3.60017
G1 X133.773 Y145.579 E3.61143
G1 X134.483 Y144.583 E3.65211
G1 X134.616 Y144.417 E3.65919
G1 X134.951 Y144.019 E3.67649
G1 X135.19 Y143.748 E3.68851
G1 X135.383 Y143.535 E3.69807
G1 X136.166 Y142.693 E3.73631
G1 X137.91 Y140.764 E3.8228
G1 X139.561 Y138.83 E3.90738
G1 X141.213 Y136.782 E3.99489
G1 X141.562 Y136.338 E4.01368
G1 X142.172 Y135.625 E4.04489
G0 F6000 X142.476 Y135.886
G1 F1200 X143.086 Y135.285 E4.07337
G1 X143.294 Y135.096 E4.08272
G1 X144.038 Y134.479 E4.11486
G1 X144.887 Y133.84 E4.15021
G1 X145.337 Y133.511 E4.16875
G1 X146.103 Y133 E4.19937
G1 X146.911 Y132.558 E4.23001
G1 X147.753 Y132.188 E4.26059
G1 X148.625 Y131.892 E4.29122
G1 X149.519 Y131.673 E4.32184
G1 X150.365 Y131.539 E4.35033
G1 X150.485 Y131.525 E4.35434
G1 X151.58 Y131.455 E4.39084
G1 X152.204 Y131.448 E4.41159
G1 X154.064 Y131.451 E4.47346
G1 X154.774 Y131.462 E4.49708
G1 X155.693 Y131.516 E4.52769
G1 X156.604 Y131.65 E4.55832
G1 X157.5 Y131.863 E4.58895
G1 X158.004 Y132.019 E4.6065
G1 X159.047 Y132.372 E4.64312
G1 X159.759 Y132.602 E4.66801
G1 X160.858 Y132.972 E4.70658
G1 X161.717 Y133.303 E4.7372
G1 X162.544 Y133.708 E4.76782
G1 X163.333 Y134.183 E4.79845
G1 X164.077 Y134.724 E4.82905
G1 X164.905 Y135.457 E4.86583
G1 X165.019 Y135.569 E4.87115
G1 X165.647 Y136.242 E4.90176
G1 X166.214 Y136.967 E4.93237
G1 X166.716 Y137.738 E4.96297
G1 X167.15 Y138.551 E4.99363
G1 X167.511 Y139.397 E5.02422
G1 X167.798 Y140.272 E5.05485
G1 X168.007 Y141.169 E5.08548
G1 X168.138 Y142.08 E5.11609
G1 X168.184 Y142.777 E5.13932
G1 X168.194 Y143.142 E5.15147
G1 X168.202 Y143.892 E5.17642
G1 X168.2 Y145.147 E5.21816
G1 X168.199 Y153.885 E5.50878
G1 X168.189 Y154.598 E5.5325
G1 X168.179 Y154.921 E5.54325
G1 X168.172 Y155.078 E5.54848
G1 X168.138 Y155.58 E5.56521
G1 X168.102 Y155.97 E5.57824
G1 X167.926 Y157.148 E5.61785
G1 X167.892 Y157.312 E5.62342
G1 X167.797 Y157.731 E5.63771
G1 X167.707 Y158.091 E5.65006
G1 X167.316 Y159.325 E5.69311
G1 X167.251 Y159.494 E5.69913
G1 X167.099 Y159.868 E5.71256
G1 X166.951 Y160.213 E5.72505
G1 X166.403 Y161.311 E5.76586
G1 X166.306 Y161.48 E5.77234
G1 X166.07 Y161.872 E5.78756
G1 X165.889 Y162.158 E5.79882
G1 X165.204 Y163.117 E5.83802
G1 X165.071 Y163.283 E5.84509
G1 X164.761 Y163.652 E5.86112
G1 X164.529 Y163.916 E5.87281
G1 X163.691 Y164.768 E5.91256
G1 X163.572 Y164.876 E5.9179
G1 X163.218 Y165.184 E5.93351
G1 X162.918 Y165.433 E5.94648
G1 X161.947 Y166.149 E5.9866
G1 X161.794 Y166.249 E5.99268
G1 X161.393 Y166.498 E6.00838
G1 X161.077 Y166.685 E6.02059
G1 X159.997 Y167.244 E6.06104
G1 X159.858 Y167.306 E6.0661
G1 X159.481 Y167.465 E6.07971
G1 X159.119 Y167.61 E6.09268
G1 X157.932 Y168.006 E6.1343
G1 X157.761 Y168.052 E6.14019
G1 X157.334 Y168.157 E6.15481
G1 X156.974 Y168.238 E6.16709
G1 X155.811 Y168.433 E6.20631
G1 X155.621 Y168.454 E6.21267
G1 X155.13 Y168.497 E6.22906
G1 X154.784 Y168.519 E6.24059
G1 X154.335 Y168.539 E6.25554
G1 X154.051 Y168.545 E6.26499
G1 X153.54 Y168.55 E6.28199
G1 X146.457 Y168.549 E6.51757
G1 X145.751 Y168.539 E6.54105
G1 X145.429 Y168.529 E6.55177
G1 X145.272 Y168.522 E6.55699
G1 X144.755 Y168.487 E6.57423
G1 X144.36 Y168.45 E6.58742
G1 X143.195 Y168.275 E6.62661
G1 X143.036 Y168.242 E6.63201
G1 X142.587 Y168.138 E6.64734
G1 X142.216 Y168.044 E6.66007
G1 X141.001 Y167.658 E6.70247
G1 X140.843 Y167.597 E6.7081
G1 X140.482 Y167.449 E6.72108
G1 X140.137 Y167.301 E6.73356
G1 X139.039 Y166.753 E6.77438
G1 X138.87 Y166.656 E6.78086
G1 X138.478 Y166.42 E6.79608
G1 X138.192 Y166.239 E6.80733
G1 X137.233 Y165.554 E6.84653
G1 X137.067 Y165.421 E6.85361
G1 X136.694 Y165.108 E6.8698
G1 X136.428 Y164.874 E6.88159
G1 X135.573 Y164.032 E6.9215
G1 X135.467 Y163.915 E6.92675
G1 X135.169 Y163.571 E6.94189
G1 X134.919 Y163.27 E6.9549
G1 X134.2 Y162.296 E6.99517
G1 X134.1 Y162.143 E7.00125
G1 X133.843 Y161.73 E7.01742
G1 X133.656 Y161.413 E7.02967
G1 X133.111 Y160.357 E7.06919
G1 X133.047 Y160.214 E7.0744
G1 X132.882 Y159.825 E7.08845
G1 X132.739 Y159.468 E7.10125
G1 X132.327 Y158.222 E7.14489
G1 X132.281 Y158.047 E7.15091
G1 X132.19 Y157.67 E7.16381
G1 X132.11 Y157.313 E7.17598
G1 X131.916 Y156.153 E7.2151
G1 X131.895 Y155.962 E7.22149
G1 X131.852 Y155.46 E7.23825
G1 X131.83 Y155.105 E7.25008
G1 X131.812 Y154.715 E7.26306
G1 X131.804 Y154.39 E7.27387
G1 X131.803 Y153.919 E7.28954
G1 X131.811 Y153.351 E7.30843
G1 X131.821 Y153.025 E7.31928
G1 X131.828 Y152.869 E7.32448
G1 X131.863 Y152.358 E7.34151
G1 X131.9 Y151.962 E7.35474
G1 X132.088 Y150.731 E7.39616
G1 X132.122 Y150.572 E7.40157
G1 X132.206 Y150.212 E7.41386
G1 X132.298 Y149.845 E7.42645
G1 X132.688 Y148.613 E7.46943
G1 X132.75 Y148.452 E7.47516
G1 X132.901 Y148.082 E7.48846
G1 X133.049 Y147.737 E7.50094
G1 X133.597 Y146.639 E7.54176
G1 X133.694 Y146.47 E7.54824
G1 X133.93 Y146.078 E7.56346
G1 X134.111 Y145.792 E7.57471
G1 X134.796 Y144.833 E7.61391
G1 X134.929 Y144.667 E7.62099
G1 X135.251 Y144.284 E7.63763
G1 X135.49 Y144.013 E7.64965
G1 X135.676 Y143.808 E7.65885
G1 X136.473 Y142.951 E7.69778
G1 X138.195 Y141.046 E7.78319
G1 X139.879 Y139.074 E7.86944
G1 X141.483 Y137.086 E7.9544
G1 X141.876 Y136.585 E7.97558
G1 X142.476 Y135.886 E8.00622
G0 F6000 X142.78 Y136.147
G1 F1200 X143.355 Y135.581 E8.03305
G1 X143.563 Y135.392 E8.0424
G1 X144.279 Y134.799 E8.07332
G1 X145.123 Y134.163 E8.10847
G1 X145.573 Y133.834 E8.12701
G1 X146.325 Y133.334 E8.15705
G1 X147.118 Y132.902 E8.18708
G1 X147.946 Y132.542 E8.21711
G1 X148.803 Y132.257 E8.24715
G1 X149.682 Y132.049 E8.27719
G1 X150.411 Y131.937 E8.30172
G1 X150.531 Y131.923 E8.30574
G1 X151.585 Y131.855 E8.34087
G1 X152.204 Y131.848 E8.36146
G1 X154.058 Y131.851 E8.42312
G1 X154.768 Y131.862 E8.44674
G1 X155.67 Y131.916 E8.4768
G1 X156.563 Y132.05 E8.50683
G1 X157.441 Y132.262 E8.53687
G1 X157.876 Y132.398 E8.55203
G1 X158.943 Y132.759 E8.58949
G1 X159.632 Y132.981 E8.61357
G1 X160.731 Y133.351 E8.65214
G1 X161.573 Y133.677 E8.68217
G1 X162.383 Y134.076 E8.7122
G1 X163.155 Y134.545 E8.74225
G1 X163.882 Y135.081 E8.77229
G1 X164.624 Y135.742 E8.80534
G1 X164.738 Y135.854 E8.81065
G1 X165.354 Y136.515 E8.84071
G1 X165.909 Y137.227 E8.87073
G1 X166.398 Y137.986 E8.90076
G1 X166.819 Y138.786 E8.93083
G1 X167.167 Y139.619 E8.96086
G1 X167.44 Y140.48 E8.9909
G1 X167.636 Y141.361 E9.02092
G1 X167.753 Y142.257 E9.05097
G1 X167.784 Y142.79 E9.06873
G1 X167.794 Y143.147 E9.08061
G1 X167.802 Y143.895 E9.10549
G1 X167.8 Y145.146 E9.1471
G1 X167.799 Y153.879 E9.43756
G1 X167.789 Y154.592 E9.46127
G1 X167.78 Y154.903 E9.47162
G1 X167.773 Y155.06 E9.47685
G1 X167.74 Y155.544 E9.49298
G1 X167.704 Y155.934 E9.50601
G1 X167.535 Y157.067 E9.54411
G1 X167.501 Y157.231 E9.54968
G1 X167.408 Y157.634 E9.56344
G1 X167.318 Y157.994 E9.57578
G1 X166.943 Y159.182 E9.61721
G1 X166.878 Y159.351 E9.62324
G1 X166.732 Y159.71 E9.63613
G1 X166.584 Y160.055 E9.64861
G1 X166.056 Y161.112 E9.68791
G1 X165.959 Y161.281 E9.69439
G1 X165.732 Y161.658 E9.70903
G1 X165.551 Y161.944 E9.72029
G1 X164.892 Y162.867 E9.75801
G1 X164.759 Y163.033 E9.76508
G1 X164.461 Y163.388 E9.7805
G1 X164.229 Y163.652 E9.79219
G1 X163.422 Y164.472 E9.83045
G1 X163.303 Y164.58 E9.8358
G1 X162.962 Y164.876 E9.85082
G1 X162.662 Y165.125 E9.86378
G1 X161.728 Y165.814 E9.90239
G1 X161.575 Y165.914 E9.90847
G1 X161.19 Y166.154 E9.92356
G1 X160.874 Y166.341 E9.93577
G1 X159.834 Y166.878 E9.9747
G1 X159.695 Y166.94 E9.97976
G1 X159.333 Y167.094 E9.99284
G1 X158.971 Y167.239 E10.00581
G1 X157.828 Y167.62 E10.04589
G1 X157.657 Y167.666 E10.05178
G1 X157.246 Y167.767 E10.06585
G1 X156.886 Y167.848 E10.07813
G1 X155.768 Y168.035 E10.11583
G1 X155.578 Y168.056 E10.12219
G1 X155.104 Y168.097 E10.13801
G1 X154.758 Y168.119 E10.14954
G1 X154.484 Y168.133 E10.15867
G1 X154.047 Y168.146 E10.17321
G1 X153.64 Y168.15 E10.18674
G1 X146.463 Y168.149 E10.42545
G1 X145.757 Y168.139 E10.44894
G1 X145.447 Y168.13 E10.45925
G1 X145.29 Y168.123 E10.46448
G1 X144.793 Y168.089 E10.48105
G1 X144.398 Y168.052 E10.49424
G1 X143.276 Y167.883 E10.53198
G1 X143.117 Y167.85 E10.53738
G1 X142.685 Y167.751 E10.55212
G1 X142.314 Y167.657 E10.56485
G1 X141.145 Y167.284 E10.60567
G1 X140.987 Y167.223 E10.6113
G1 X140.64 Y167.082 E10.62376
G1 X140.295 Y166.934 E10.63624
G1 X139.238 Y166.406 E10.67554
G1 X139.069 Y166.309 E10.68202
G1 X138.692 Y166.082 E10.69666
G1 X138.406 Y165.901 E10.70792
G1 X137.483 Y165.242 E10.74564
G1 X137.317 Y165.109 E10.75271
G1 X136.958 Y164.807 E10.76831
G1 X136.692 Y164.573 E10.7801
G1 X135.87 Y163.763 E10.81848
G1 X135.764 Y163.646 E10.82373
G1 X135.476 Y163.315 E10.83832
G1 X135.226 Y163.014 E10.85134
G1 X134.535 Y162.077 E10.89006
G1 X134.435 Y161.924 E10.89614
G1 X134.188 Y161.527 E10.91169
G1 X134.001 Y161.21 E10.92393
G1 X133.476 Y160.194 E10.96197
G1 X133.412 Y160.051 E10.96718
G1 X133.253 Y159.677 E10.9807
G1 X133.11 Y159.32 E10.99349
G1 X132.714 Y158.12 E11.03552
G1 X132.668 Y157.945 E11.04154
G1 X132.58 Y157.582 E11.05396
G1 X132.5 Y157.225 E11.06613
G1 X132.314 Y156.11 E11.10373
G1 X132.293 Y155.919 E11.11012
G1 X132.252 Y155.435 E11.12627
G1 X132.218 Y154.851 E11.14573
G1 X132.212 Y154.699 E11.15079
G1 X132.204 Y154.386 E11.1612
G1 X132.203 Y153.924 E11.17657
G1 X132.211 Y153.356 E11.19546
G1 X132.22 Y153.043 E11.20588
G1 X132.227 Y152.887 E11.21107
G1 X132.261 Y152.395 E11.22747
G1 X132.298 Y151.999 E11.2407
G1 X132.479 Y150.815 E11.28054
G1 X132.513 Y150.656 E11.28595
G1 X132.594 Y150.309 E11.2978
G1 X132.686 Y149.942 E11.31038
G1 X133.061 Y148.756 E11.35175
G1 X133.123 Y148.595 E11.35749
G1 X133.268 Y148.24 E11.37025
G1 X133.416 Y147.895 E11.38273
G1 X133.944 Y146.838 E11.42203
G1 X134.041 Y146.669 E11.42851
G1 X134.268 Y146.292 E11.44315
G1 X134.449 Y146.006 E11.45441
G1 X135.108 Y145.083 E11.49213
G1 X135.241 Y144.917 E11.4992
G1 X135.551 Y144.548 E11.51523
G1 X135.79 Y144.277 E11.52725
G1 X135.969 Y144.08 E11.5361
G1 X136.743 Y143.247 E11.57392
G1 X138.53 Y141.271 E11.66253
G1 X140.161 Y139.361 E11.74607
G1 X141.826 Y137.297 E11.83427
G1 X142.191 Y136.832 E11.85393
G1 X142.78 Y136.147 E11.88398
G0 F6000 X152.192 Y142.648
G1 F1200 X154.009 Y142.65 E11.94441
G1 X154.049 Y142.943 E11.95425
G1 X154.185 Y143.152 E11.96254
G1 X154.396 Y143.363 E11.97247
G1 X151.802 Y143.364 E12.05874
G1 X152.01 Y143.159 E12.06846
G1 X152.136 Y142.98 E12.07574
G1 X152.192 Y142.648 E12.08694
G0 F6000 X151.79 Y142.735
G1 F1200 X151.8 Y142.248 E12.10314
G1 X154.409 Y142.25 E12.18991
G1 X154.409 Y142.728 E12.20581
G1 X154.468 Y142.869 E12.2109
G1 X154.75 Y143.151 E12.22416
G1 X154.891 Y143.21 E12.22924
G1 X157.4 Y143.21 E12.31269
G1 X157.4 Y143.763 E12.33109
G1 X150.4 Y143.764 E12.56391
G1 X150.401 Y143.211 E12.5823
G1 X151.305 Y143.211 E12.61237
G1 X151.445 Y143.154 E12.6174
G1 X151.73 Y142.874 E12.63068
G1 X151.79 Y142.735 E12.63572
G1 F2700 E7.63572
;MESH:90???2X2??????.STL
G0 F6000 X151.79 Y145.064
G0 X150.528 Y145.092
G0 X150.476 Y146.914
G0 X147.804 Y150.681
;TYPE:WALL-INNER
G1 F2700 E12.63572
G1 F1200 X147.658 Y150.6 E12.64127
