; HEADER_BLOCK_START
; generated by OrcaSlicer 2.1.1 on 2025-02-02 at 22:18:49
; total layer number: 125
; filament_density: 1.27
; filament_diameter: 1.75
; max_z_height: 39.88
; HEADER_BLOCK_END

; THUMBNAIL_BLOCK_START

;
; THUMBNAIL_BLOCK_END







; external perimeters extrusion width = 0.40mm
; perimeters extrusion width = 0.45mm
; infill extrusion width = 0.45mm
; solid infill extrusion width = 0.45mm
; top infill extrusion width = 0.38mm
; first layer extrusion width = 0.42mm

; EXECUTABLE_BLOCK_START
EXCLUDE_OBJECT_DEFINE NAME=围栏固定器1.STL_id_0_copy_0 CENTER=117.5,115 POLYGON=[[92.5,107.5],[142.5,107.5],[142.5,122.5],[92.5,122.5],[92.5,107.5]]
M73 P0 R26
;TYPE:Custom
;ELEGOO NEPTUNE 4 PRO
M220 S100 ;Set the feed speed to 100%
M221 S100 ;Set the flow rate to 100%
M104 S140
M190 S70
G90
G28 ;home
G1 Z10 F300
G1 X67.5 Y0 F6000
G1 Z0 F300
M109 S240
G92 E0 ;Reset Extruder
G1 X67.5 Y0 Z0.4 F300 ;Move to start position
G1 X167.5 E30 F400 ;Draw the first line
G1 Z0.6 F120.0 ;Move to side a little
M73 P1 R25
G1 X162.5 F3000
G92 E0 ;Reset Extruder
G90
G21
M83 ; use relative distances for extrusion
; filament start gcode
M106 S0
;LAYER_CHANGE
;Z:0.2
;HEIGHT:0.2
;BEFORE_LAYER_CHANGE
G92 E0
;0.2


G1 E-.8 F3600
;AFTER_LAYER_CHANGE
;0.2
;_SET_FAN_SPEED_CHANGING_LAYER
SET_VELOCITY_LIMIT ACCEL=1000 ACCEL_TO_DECEL=500
SET_VELOCITY_LIMIT SQUARE_CORNER_VELOCITY=7
; printing object 围栏固定器1.STL id:0 copy 0
EXCLUDE_OBJECT_START NAME=围栏固定器1.STL_id_0_copy_0
G1 X102.234 Y118.54 F21000
G1 Z.4
G1 Z.2
G1 E.8 F2700
;TYPE:Inner wall
;WIDTH:0.419999
G1 F3000
G1 X102.379 Y118.564 E.00436
G1 X132.752 Y118.564 E.90471
G1 X133.187 Y118.376 E.01414
G1 X133.376 Y118.187 E.00794
G1 X133.492 Y117.984 E.00697
G1 X133.564 Y117.621 E.01101
G1 X133.564 Y108.564 E.26979
G1 X141.436 Y108.564 E.23447
G1 X141.436 Y121.436 E.3834
G1 X93.564 Y121.436 E1.42593
G1 X93.564 Y108.564 E.3834
G1 X101.436 Y108.564 E.23447
G1 X101.436 Y117.756 E.2738
G1 X101.624 Y118.187 E.01401
G1 X101.813 Y118.376 E.00794
G1 X102.073 Y118.513 E.00876
G1 X102.195 Y118.533 E.00368
G1 X102.306 Y118.175 F21000
G1 F3000
G1 X102.379 Y118.187 E.00218
G1 X132.7 Y118.187 E.90316
G1 X132.961 Y118.074 E.00848
G1 X133.144 Y117.839 E.00887
G1 X133.187 Y117.621 E.00661
G1 X133.187 Y108.187 E.28102
G1 X141.813 Y108.187 E.25693
G1 X141.813 Y121.813 E.40587
G1 X93.187 Y121.813 E1.4484
G1 X93.187 Y108.187 E.40587
G1 X101.813 Y108.187 E.25693
G1 X101.813 Y117.702 E.28342
G1 X101.926 Y117.961 E.00841
G1 X102.195 Y118.157 E.00991
G1 X102.267 Y118.168 E.00217
G1 X102.379 Y117.81 F21000
;TYPE:Outer wall
G1 F3000
G1 X132.621 Y117.81 E.90083
G1 X132.735 Y117.772 E.00355
G1 X132.81 Y117.621 E.00502
G1 X132.81 Y107.81 E.29225
G1 X142.19 Y107.81 E.2794
G1 X142.19 Y122.19 E.42833
G1 X92.81 Y122.19 E1.47086
G1 X92.81 Y107.81 E.42833
G1 X102.19 Y107.81 E.2794
G1 X102.19 Y117.621 E.29225
G1 X102.228 Y117.735 E.00355
G1 X102.343 Y117.792 E.00383
G1 E-.68 F3600
;WIPE_START
G1 F3000
G1 X103.343 Y117.793 E-.12
;WIPE_END
G1 X110.797 Y116.153 Z.6 F21000
G1 X141.323 Y109.441 Z.6
G1 Z.2
G1 E.8 F2700
;TYPE:Bottom surface
;WIDTH:0.420667
G1 F4800
G1 X140.729 Y108.847 E.02507
G1 X140.195 Y108.847 E.01594
G1 X141.153 Y109.805 E.04045
G1 X141.153 Y110.34 E.01594
G1 X139.66 Y108.847 E.06299
G1 X139.126 Y108.847 E.01594
M73 P2 R25
G1 X141.153 Y110.874 E.08554
G1 X141.153 Y111.408 E.01594
G1 X138.592 Y108.847 E.10808
G1 X138.058 Y108.847 E.01594
G1 X141.153 Y111.942 E.13062
G1 X141.153 Y112.477 E.01594
G1 X137.523 Y108.847 E.15317
G1 X136.989 Y108.847 E.01594
G1 X141.153 Y113.011 E.17571
G1 X141.153 Y113.545 E.01594
G1 X136.455 Y108.847 E.19825
G1 X135.921 Y108.847 E.01594
G1 X141.153 Y114.079 E.2208
G1 X141.153 Y114.613 E.01594
G1 X135.387 Y108.847 E.24334
G1 X134.852 Y108.847 E.01594
G1 X141.153 Y115.148 E.26588
G1 X141.153 Y115.682 E.01594
G1 X134.318 Y108.847 E.28843
G1 X133.847 Y108.847 E.01406
G1 X133.847 Y108.91 E.00188
G1 X141.153 Y116.216 E.30831
G1 X141.153 Y116.75 E.01594
G1 X133.847 Y109.444 E.30831
G1 X133.847 Y109.978 E.01594
G1 X141.153 Y117.285 E.30831
G1 X141.153 Y117.819 E.01594
G1 X133.847 Y110.513 E.30831
G1 X133.847 Y111.047 E.01594
G1 X141.153 Y118.353 E.30831
G1 X141.153 Y118.887 E.01594
G1 X133.847 Y111.581 E.30831
G1 X133.847 Y112.115 E.01594
G1 X141.153 Y119.421 E.30831
G1 X141.153 Y119.956 E.01594
G1 X133.847 Y112.65 E.30831
G1 X133.847 Y113.184 E.01594
G1 X141.153 Y120.49 E.30831
G1 X141.153 Y121.024 E.01594
G1 X133.847 Y113.718 E.30831
G1 X133.847 Y114.252 E.01594
G1 X140.748 Y121.153 E.29121
G1 X140.214 Y121.153 E.01594
G1 X133.847 Y114.786 E.26867
G1 X133.847 Y115.321 E.01594
G1 X139.679 Y121.153 E.24612
G1 X139.145 Y121.153 E.01594
G1 X133.847 Y115.855 E.22358
G1 X133.847 Y116.389 E.01594
G1 X138.611 Y121.153 E.20104
G1 X138.077 Y121.153 E.01594
G1 X133.847 Y116.923 E.17849
G1 X133.847 Y117.457 E.01594
G1 X137.543 Y121.153 E.15595
G1 X137.008 Y121.153 E.01594
G1 X133.798 Y117.942 E.13548
G1 X133.753 Y118.094 E.00471
G1 X133.63 Y118.309 E.00739
G1 X136.474 Y121.153 E.12002
G1 X135.94 Y121.153 E.01594
G1 X133.373 Y118.587 E.1083
G1 X133.029 Y118.777 E.01173
G1 X135.406 Y121.153 E.10028
G1 X134.871 Y121.153 E.01594
G1 X132.565 Y118.847 E.09731
G1 X132.031 Y118.847 E.01594
G1 X134.337 Y121.153 E.09731
G1 X133.803 Y121.153 E.01594
G1 X131.497 Y118.847 E.09731
G1 X130.963 Y118.847 E.01594
G1 X133.269 Y121.153 E.09731
G1 X132.735 Y121.153 E.01594
G1 X130.429 Y118.847 E.09731
G1 X129.894 Y118.847 E.01594
G1 X132.2 Y121.153 E.09731
G1 X131.666 Y121.153 E.01594
G1 X129.36 Y118.847 E.09731
G1 X128.826 Y118.847 E.01594
G1 X131.132 Y121.153 E.09731
G1 X130.598 Y121.153 E.01594
G1 X128.292 Y118.847 E.09731
G1 X127.757 Y118.847 E.01594
G1 X130.064 Y121.153 E.09731
G1 X129.529 Y121.153 E.01594
G1 X127.223 Y118.847 E.09731
G1 X126.689 Y118.847 E.01594
G1 X128.995 Y121.153 E.09731
G1 X128.461 Y121.153 E.01594
G1 X126.155 Y118.847 E.09731
G1 X125.621 Y118.847 E.01594
G1 X127.927 Y121.153 E.09731
G1 X127.392 Y121.153 E.01594
G1 X125.086 Y118.847 E.09731
G1 X124.552 Y118.847 E.01594
G1 X126.858 Y121.153 E.09731
G1 X126.324 Y121.153 E.01594
G1 X124.018 Y118.847 E.09731
G1 X123.484 Y118.847 E.01594
G1 X125.79 Y121.153 E.09731
G1 X125.256 Y121.153 E.01594
G1 X122.95 Y118.847 E.09731
G1 X122.415 Y118.847 E.01594
G1 X124.721 Y121.153 E.09731
G1 X124.187 Y121.153 E.01594
G1 X121.881 Y118.847 E.09731
G1 X121.347 Y118.847 E.01594
G1 X123.653 Y121.153 E.09731
G1 X123.119 Y121.153 E.01594
G1 X120.813 Y118.847 E.09731
G1 X120.278 Y118.847 E.01594
G1 X122.585 Y121.153 E.09731
G1 X122.05 Y121.153 E.01594
G1 X119.744 Y118.847 E.09731
G1 X119.21 Y118.847 E.01594
G1 X121.516 Y121.153 E.09731
G1 X120.982 Y121.153 E.01594
G1 X118.676 Y118.847 E.09731
G1 X118.142 Y118.847 E.01594
G1 X120.448 Y121.153 E.09731
G1 X119.913 Y121.153 E.01594
G1 X117.607 Y118.847 E.09731
G1 X117.073 Y118.847 E.01594
G1 X119.379 Y121.153 E.09731
G1 X118.845 Y121.153 E.01594
G1 X116.539 Y118.847 E.09731
G1 X116.005 Y118.847 E.01594
G1 X118.311 Y121.153 E.09731
G1 X117.777 Y121.153 E.01594
G1 X115.471 Y118.847 E.09731
G1 X114.936 Y118.847 E.01594
G1 X117.242 Y121.153 E.09731
G1 X116.708 Y121.153 E.01594
G1 X114.402 Y118.847 E.09731
G1 X113.868 Y118.847 E.01594
G1 X116.174 Y121.153 E.09731
G1 X115.64 Y121.153 E.01594
G1 X113.334 Y118.847 E.09731
G1 X112.799 Y118.847 E.01594
G1 X115.106 Y121.153 E.09731
G1 X114.571 Y121.153 E.01594
G1 X112.265 Y118.847 E.09731
G1 X111.731 Y118.847 E.01594
G1 X114.037 Y121.153 E.09731
G1 X113.503 Y121.153 E.01594
G1 X111.197 Y118.847 E.09731
G1 X110.663 Y118.847 E.01594
G1 X112.969 Y121.153 E.09731
G1 X112.434 Y121.153 E.01594
G1 X110.128 Y118.847 E.09731
G1 X109.594 Y118.847 E.01594
G1 X111.9 Y121.153 E.09731
G1 X111.366 Y121.153 E.01594
G1 X109.06 Y118.847 E.09731
G1 X108.526 Y118.847 E.01594
G1 X110.832 Y121.153 E.09731
G1 X110.298 Y121.153 E.01594
G1 X107.992 Y118.847 E.09731
G1 X107.457 Y118.847 E.01594
G1 X109.763 Y121.153 E.09731
G1 X109.229 Y121.153 E.01594
G1 X106.923 Y118.847 E.09731
G1 X106.389 Y118.847 E.01594
G1 X108.695 Y121.153 E.09731
G1 X108.161 Y121.153 E.01594
G1 X105.855 Y118.847 E.09731
G1 X105.32 Y118.847 E.01594
G1 X107.627 Y121.153 E.09731
G1 X107.092 Y121.153 E.01594
G1 X104.786 Y118.847 E.09731
G1 X104.252 Y118.847 E.01594
G1 X106.558 Y121.153 E.09731
G1 X106.024 Y121.153 E.01594
G1 X103.718 Y118.847 E.09731
G1 X103.184 Y118.847 E.01594
G1 X105.49 Y121.153 E.09731
G1 X104.955 Y121.153 E.01594
G1 X102.48 Y118.677 E.10447
G1 E-.68 F3600
;WIPE_START
G1 F4800
G1 X103.187 Y119.384 E-.12
;WIPE_END
G1 X101.771 Y111.884 Z.6 F21000
G1 X101.323 Y109.507 Z.6
G1 Z.2
G1 E.8 F2700
G1 F4800
G1 X100.663 Y108.847 E.02786
G1 X100.128 Y108.847 E.01594
G1 X101.153 Y109.872 E.04324
G1 X101.153 Y110.406 E.01594
G1 X99.594 Y108.847 E.06578
G1 X99.06 Y108.847 E.01594
G1 X101.153 Y110.94 E.08833
G1 X101.153 Y111.474 E.01594
G1 X98.526 Y108.847 E.11087
G1 X97.992 Y108.847 E.01594
G1 X101.153 Y112.008 E.13341
G1 X101.153 Y112.543 E.01594
G1 X97.457 Y108.847 E.15596
G1 X96.923 Y108.847 E.01594
G1 X101.153 Y113.077 E.1785
G1 X101.153 Y113.611 E.01594
G1 X96.389 Y108.847 E.20104
G1 X95.855 Y108.847 E.01594
G1 X101.153 Y114.145 E.22359
G1 X101.153 Y114.68 E.01594
G1 X95.32 Y108.847 E.24613
G1 X94.786 Y108.847 E.01594
G1 X101.153 Y115.214 E.26867
G1 X101.153 Y115.748 E.01594
G1 X94.252 Y108.847 E.29122
G1 X93.847 Y108.847 E.01209
M73 P3 R25
G1 X93.847 Y108.976 E.00385
G1 X101.153 Y116.282 E.30831
G1 X101.153 Y116.816 E.01594
G1 X93.847 Y109.51 E.30831
G1 X93.847 Y110.045 E.01594
G1 X101.323 Y117.52 E.31547
G1 E-.68 F3600
;WIPE_START
G1 F4800
G1 X100.616 Y116.813 E-.12
;WIPE_END
G1 X104.591 Y121.323 Z.6 F21000
G1 Z.2
G1 E.8 F2700
G1 F4800
G1 X93.847 Y110.579 E.45339
G1 X93.847 Y111.113 E.01594
G1 X103.887 Y121.153 E.42368
G1 X103.353 Y121.153 E.01594
G1 X93.847 Y111.647 E.40114
G1 X93.847 Y112.181 E.01594
G1 X102.819 Y121.153 E.37859
G1 X102.284 Y121.153 E.01594
G1 X93.847 Y112.716 E.35605
G1 X93.847 Y113.25 E.01594
G1 X101.75 Y121.153 E.33351
G1 X101.216 Y121.153 E.01594
G1 X93.847 Y113.784 E.31096
G1 X93.847 Y114.318 E.01594
G1 X100.682 Y121.153 E.28842
G1 X100.148 Y121.153 E.01594
G1 X93.847 Y114.852 E.26588
G1 X93.847 Y115.387 E.01594
G1 X99.613 Y121.153 E.24333
G1 X99.079 Y121.153 E.01594
G1 X93.847 Y115.921 E.22079
G1 X93.847 Y116.455 E.01594
G1 X98.545 Y121.153 E.19825
G1 X98.011 Y121.153 E.01594
G1 X93.847 Y116.989 E.1757
G1 X93.847 Y117.524 E.01594
G1 X97.476 Y121.153 E.15316
G1 X96.942 Y121.153 E.01594
G1 X93.847 Y118.058 E.13062
G1 X93.847 Y118.592 E.01594
G1 X96.408 Y121.153 E.10807
G1 X95.874 Y121.153 E.01594
G1 X93.847 Y119.126 E.08553
G1 X93.847 Y119.66 E.01594
G1 X95.34 Y121.153 E.06299
G1 X94.805 Y121.153 E.01594
G1 X93.847 Y120.195 E.04044
G1 X93.847 Y120.729 E.01594
G1 X94.441 Y121.323 E.02506
; stop printing object 围栏固定器1.STL id:0 copy 0
;LAYER_CHANGE
;Z:0.52
;HEIGHT:0.32
;BEFORE_LAYER_CHANGE
G92 E0
;0.52


G1 E-.68 F3600
;WIPE_START
G1 F4800
G1 X93.847 Y120.729 E-.10078
G1 X93.847 Y120.569 E-.01922
;WIPE_END
EXCLUDE_OBJECT_END NAME=围栏固定器1.STL_id_0_copy_0
;AFTER_LAYER_CHANGE
;0.52
;_SET_FAN_SPEED_CHANGING_LAYER
SET_VELOCITY_LIMIT ACCEL=5000 ACCEL_TO_DECEL=2500
SET_VELOCITY_LIMIT SQUARE_CORNER_VELOCITY=9
M140 S70 ; set bed temperature
; printing object 围栏固定器1.STL id:0 copy 0
EXCLUDE_OBJECT_START NAME=围栏固定器1.STL_id_0_copy_0
G1 X101.244 Y118.689 Z.6 F21000
G1 X102.324 Y118.414 Z.6
G1 Z.52
G1 E.8 F2700
SET_VELOCITY_LIMIT ACCEL=3000 ACCEL_TO_DECEL=1500 SQUARE_CORNER_VELOCITY=7
;TYPE:Inner wall
;WIDTH:0.45
G1 F4917.04
G1 X102.466 Y118.438 E.00691
G1 X132.659 Y118.438 E1.45518
G1 X133.076 Y118.257 E.02192
G1 X133.257 Y118.076 E.01231
G1 X133.368 Y117.882 E.0108
G1 X133.438 Y117.534 E.01708
G1 X133.438 Y108.438 E.43842
G1 X141.562 Y108.438 E.39157
G1 X141.562 Y121.562 E.63255
G1 X93.438 Y121.562 E2.31939
G1 X93.438 Y108.438 E.63255
G1 X101.562 Y108.438 E.39157
G1 X101.562 Y117.663 E.44464
G1 X101.743 Y118.076 E.02172
G1 X101.924 Y118.257 E.01231
G1 X102.173 Y118.389 E.01358
G1 X102.285 Y118.408 E.00548
SET_VELOCITY_LIMIT ACCEL=5000 ACCEL_TO_DECEL=2500 SQUARE_CORNER_VELOCITY=9
G1 X102.397 Y118.045 F21000
SET_VELOCITY_LIMIT ACCEL=3000 ACCEL_TO_DECEL=1500 SQUARE_CORNER_VELOCITY=7
G1 F4917.04
G1 X102.466 Y118.056 E.00334
G1 X132.606 Y118.056 E1.45264
G1 X132.848 Y117.952 E.01266
G1 X133.016 Y117.735 E.01324
G1 X133.056 Y117.534 E.00987
G1 X133.056 Y108.056 E.4568
G1 X141.944 Y108.056 E.42833
G1 X141.944 Y121.944 E.66931
G1 X93.056 Y121.944 E2.35614
G1 X93.056 Y108.056 E.66931
G1 X101.944 Y108.056 E.42833
G1 X101.944 Y117.609 E.46039
G1 X102.048 Y117.848 E.01255
G1 X102.296 Y118.028 E.0148
G1 X102.358 Y118.038 E.00301
SET_VELOCITY_LIMIT ACCEL=5000 ACCEL_TO_DECEL=2500 SQUARE_CORNER_VELOCITY=9
G1 X102.466 Y117.7 F21000
SET_VELOCITY_LIMIT ACCEL=3000 ACCEL_TO_DECEL=1500 SQUARE_CORNER_VELOCITY=7
;TYPE:Outer wall
;WIDTH:0.4
G1 F5659.062
G1 X132.534 Y117.7 E1.25915
G1 X132.634 Y117.667 E.00439
G1 X132.7 Y117.534 E.0062
G1 X132.7 Y107.7 E.41182
G1 X142.3 Y107.7 E.40201
G1 X142.3 Y122.3 E.61139
G1 X92.7 Y122.3 E2.07705
G1 X92.7 Y107.7 E.61139
G1 X102.3 Y107.7 E.40201
G1 X102.3 Y117.5 E.41038
G1 X102.333 Y117.634 E.00577
G1 X102.43 Y117.682 E.00453
SET_VELOCITY_LIMIT ACCEL=5000 ACCEL_TO_DECEL=2500 SQUARE_CORNER_VELOCITY=9
G1 E-.68 F3600
;WIPE_START
G1 F5659.062
G1 X103.43 Y117.683 E-.12
;WIPE_END
G1 X102.118 Y119.981 Z.92 F21000
G1 Z.52
G1 E.8 F2700
;TYPE:Internal solid infill
;WIDTH:0.524562
G1 F4112.84
G1 X102.466 Y120 E.02004
G1 X129.969 Y120 E1.58474
G1 X130.538 Y121.142 F21000
;WIDTH:0.45
G1 F4917.04
G1 X132.921 Y118.758 E.16243
G1 X132.534 Y118.819 E.01885
G1 X102.466 Y118.819 E1.44917
G1 X102.014 Y118.733 E.02215
G1 X101.796 Y118.605 E.01219
G1 X99.22 Y121.181 E.17556
G1 X130.537 Y121.181 E1.50934
G1 X130.341 Y120.8 F21000
G1 F4917.04
G1 X131.94 Y119.2 E.10901
G1 X102.466 Y119.2 E1.42052
G1 X102.017 Y119.133 E.02187
G1 X101.863 Y119.078 E.00788
G1 X100.141 Y120.8 E.11738
G1 X130.301 Y120.8 E1.45355
G1 X130.183 Y120.418 F21000
G1 F4917.04
G1 X131.019 Y119.582 E.05703
G1 X102.466 Y119.582 E1.37615
G1 X101.968 Y119.512 E.02421
G1 X101.062 Y120.418 E.06179
G1 X130.143 Y120.418 E1.40157
G1 X133.25 Y118.521 F21000
;WIDTH:0.408673
G1 F5514.706
G1 X133.355 Y118.417 E.00634
G1 X140.53 Y121.448 F21000
;WIDTH:0.452119
G1 F4889.867
G1 X141.276 Y120.702 E.05114
G1 X141.276 Y120.16 E.02628
G1 X140.177 Y121.259 E.07533
G1 X139.635 Y121.259 E.02628
G1 X141.276 Y119.617 E.1125
G1 X141.276 Y119.075 E.02628
G1 X139.093 Y121.259 E.14966
G1 X138.55 Y121.259 E.02628
G1 X141.276 Y118.533 E.18683
G1 X141.276 Y117.99 E.02628
G1 X138.008 Y121.259 E.22399
G1 X137.466 Y121.259 E.02628
G1 X141.276 Y117.448 E.26116
G1 X141.276 Y116.906 E.02628
G1 X136.924 Y121.259 E.29833
G1 X136.381 Y121.259 E.02628
G1 X141.276 Y116.364 E.33549
G1 X141.276 Y115.821 E.02628
G1 X135.839 Y121.259 E.37266
G1 X135.297 Y121.259 E.02628
G1 X141.276 Y115.279 E.40982
G1 X141.276 Y114.737 E.02628
G1 X134.755 Y121.259 E.44699
G1 X134.212 Y121.259 E.02628
G1 X141.276 Y114.195 E.48416
G1 X141.276 Y113.652 E.02628
G1 X133.67 Y121.259 E.52132
G1 X133.128 Y121.259 E.02628
G1 X141.276 Y113.11 E.55849
G1 X141.276 Y112.568 E.02628
G1 X132.585 Y121.259 E.59565
G1 X132.043 Y121.259 E.02628
M73 P4 R25
G1 X141.276 Y112.025 E.63282
G1 X141.276 Y111.483 E.02628
G1 X131.501 Y121.259 E.66999
G1 X130.959 Y121.259 E.02628
G1 X141.276 Y110.941 E.70715
G1 X141.276 Y110.399 E.02628
G1 X133.631 Y118.044 E.52401
G1 X133.741 Y117.569 E.02365
G1 X133.741 Y117.391 E.00861
G1 X141.276 Y109.856 E.51643
G1 X141.276 Y109.314 E.02628
G1 X133.741 Y116.849 E.51643
G1 X133.741 Y116.307 E.02628
G1 X141.276 Y108.772 E.51643
G1 X141.276 Y108.724 E.00233
G1 X140.782 Y108.724 E.02395
G1 X133.741 Y115.765 E.48256
G1 X133.741 Y115.222 E.02628
G1 X140.24 Y108.724 E.4454
G1 X139.698 Y108.724 E.02628
G1 X133.741 Y114.68 E.40823
G1 X133.741 Y114.138 E.02628
G1 X139.155 Y108.724 E.37106
G1 X138.613 Y108.724 E.02628
G1 X133.741 Y113.595 E.3339
G1 X133.741 Y113.053 E.02628
G1 X138.071 Y108.724 E.29673
G1 X137.529 Y108.724 E.02628
G1 X133.741 Y112.511 E.25957
G1 X133.741 Y111.969 E.02628
