; HEADER_BLOCK_START
; generated by OrcaSlicer 2.1.1 on 2025-02-02 at 20:50:46
; total layer number: 88
; filament_density: 1.27
; filament_diameter: 1.75
; max_z_height: 28.04
; HEADER_BLOCK_END

; THUMBNAIL_BLOCK_START

;
; THUMBNAIL_BLOCK_END







; external perimeters extrusion width = 0.40mm
; perimeters extrusion width = 0.45mm
; infill extrusion width = 0.45mm
; solid infill extrusion width = 0.45mm
; top infill extrusion width = 0.38mm
; first layer extrusion width = 0.42mm

; EXECUTABLE_BLOCK_START
EXCLUDE_OBJECT_DEFINE NAME=围栏固定器.STL_id_0_copy_0 CENTER=117.5,115 POLYGON=[[74.78,85],[160.22,85],[160.22,145],[74.78,145],[74.78,85]]
M73 P0 R76
;TYPE:Custom
;ELEGOO NEPTUNE 4 PRO
M220 S100 ;Set the feed speed to 100%
M221 S100 ;Set the flow rate to 100%
M104 S140
M190 S70
G90
G28 ;home
G1 Z10 F300
G1 X67.5 Y0 F6000
G1 Z0 F300
M109 S240
G92 E0 ;Reset Extruder
G1 X67.5 Y0 Z0.4 F300 ;Move to start position
G1 X167.5 E30 F400 ;Draw the first line
G1 Z0.6 F120.0 ;Move to side a little
M73 P0 R75
G1 X162.5 F3000
G92 E0 ;Reset Extruder
G90
G21
M83 ; use relative distances for extrusion
; filament start gcode
M106 S0
;LAYER_CHANGE
;Z:0.2
;HEIGHT:0.2
;BEFORE_LAYER_CHANGE
G92 E0
;0.2


G1 E-.8 F3600
;AFTER_LAYER_CHANGE
;0.2
;_SET_FAN_SPEED_CHANGING_LAYER
SET_VELOCITY_LIMIT ACCEL=1000 ACCEL_TO_DECEL=500
SET_VELOCITY_LIMIT SQUARE_CORNER_VELOCITY=7
; printing object 围栏固定器.STL id:0 copy 0
EXCLUDE_OBJECT_START NAME=围栏固定器.STL_id_0_copy_0
G1 X159.118 Y143.936 F21000
G1 Z.4
G1 Z.2
G1 E.8 F2700
;TYPE:Inner wall
;WIDTH:0.419999
G1 F3000
G1 X76.111 Y143.936 E2.47251
G1 X76.111 Y86.064 E1.7238
G1 X159.118 Y86.064 E2.47251
G1 X159.118 Y143.896 E1.72261
G1 X159.495 Y144.313 F21000
G1 F3000
G1 X75.734 Y144.313 E2.49497
G1 X75.734 Y85.687 E1.74626
G1 X159.495 Y85.687 E2.49497
G1 X159.495 Y144.273 E1.74507
G1 X159.873 Y144.69 F21000
;TYPE:Outer wall
G1 F3000
G1 X75.357 Y144.69 E2.51744
G1 X75.357 Y85.31 E1.76872
G1 X159.873 Y85.31 E2.51744
G1 X159.873 Y144.65 E1.76753
G1 E-.68 F3600
;WIPE_START
G1 F3000
G1 X158.873 Y144.65 E-.12
;WIPE_END
G1 X158.89 Y137.018 Z.6 F21000
G1 X159.005 Y86.941 Z.6
G1 Z.2
G1 E.8 F2700
;TYPE:Bottom surface
;WIDTH:0.420676
G1 F4800
G1 X158.411 Y86.347 E.02507
G1 X157.877 Y86.347 E.01594
G1 X158.836 Y87.306 E.04045
G1 X158.836 Y87.84 E.01594
G1 X157.343 Y86.347 E.063
G1 X156.809 Y86.347 E.01594
G1 X158.836 Y88.374 E.08554
G1 X158.836 Y88.908 E.01594
G1 X156.274 Y86.347 E.10808
G1 X155.74 Y86.347 E.01594
G1 X158.836 Y89.442 E.13063
G1 X158.836 Y89.977 E.01594
G1 X155.206 Y86.347 E.15317
G1 X154.672 Y86.347 E.01594
G1 X158.836 Y90.511 E.17572
G1 X158.836 Y91.045 E.01594
G1 X154.137 Y86.347 E.19826
G1 X153.603 Y86.347 E.01594
G1 X158.836 Y91.579 E.22081
G1 X158.836 Y92.114 E.01594
G1 X153.069 Y86.347 E.24335
G1 X152.535 Y86.347 E.01594
G1 X158.836 Y92.648 E.2659
G1 X158.836 Y93.182 E.01594
G1 X152 Y86.347 E.28844
G1 X151.466 Y86.347 E.01594
G1 X158.836 Y93.716 E.31099
G1 X158.836 Y94.25 E.01594
G1 X150.932 Y86.347 E.33353
G1 X150.398 Y86.347 E.01594
G1 X158.836 Y94.785 E.35607
G1 X158.836 Y95.319 E.01594
G1 X149.864 Y86.347 E.37862
G1 X149.329 Y86.347 E.01594
G1 X158.836 Y95.853 E.40116
G1 X158.836 Y96.387 E.01594
G1 X148.795 Y86.347 E.42371
G1 X148.261 Y86.347 E.01594
G1 X158.836 Y96.922 E.44625
G1 X158.836 Y97.456 E.01594
G1 X147.727 Y86.347 E.4688
G1 X147.192 Y86.347 E.01594
G1 X158.836 Y97.99 E.49134
G1 X158.836 Y98.524 E.01594
G1 X146.658 Y86.347 E.51389
G1 X146.124 Y86.347 E.01594
G1 X158.836 Y99.059 E.53643
G1 X158.836 Y99.593 E.01594
G1 X145.59 Y86.347 E.55897
G1 X145.056 Y86.347 E.01594
G1 X158.836 Y100.127 E.58152
G1 X158.836 Y100.661 E.01594
G1 X144.521 Y86.347 E.60406
G1 X143.987 Y86.347 E.01594
G1 X158.836 Y101.195 E.62661
G1 X158.836 Y101.73 E.01594
G1 X143.453 Y86.347 E.64915
M73 P1 R75
G1 X142.919 Y86.347 E.01594
G1 X158.836 Y102.264 E.6717
G1 X158.836 Y102.798 E.01594
G1 X142.384 Y86.347 E.69424
G1 X141.85 Y86.347 E.01594
G1 X158.836 Y103.332 E.71679
G1 X158.836 Y103.867 E.01594
G1 X141.316 Y86.347 E.73933
G1 X140.782 Y86.347 E.01594
G1 X158.836 Y104.401 E.76188
G1 X158.836 Y104.935 E.01594
G1 X140.247 Y86.347 E.78442
G1 X139.713 Y86.347 E.01594
G1 X158.836 Y105.469 E.80696
G1 X158.836 Y106.003 E.01594
G1 X139.179 Y86.347 E.82951
G1 X138.645 Y86.347 E.01594
G1 X158.836 Y106.538 E.85205
G1 X158.836 Y107.072 E.01594
G1 X138.111 Y86.347 E.8746
G1 X137.576 Y86.347 E.01594
G1 X158.836 Y107.606 E.89714
G1 X158.836 Y108.14 E.01594
G1 X137.042 Y86.347 E.91969
G1 X136.508 Y86.347 E.01594
G1 X158.836 Y108.675 E.94223
G1 X158.836 Y109.209 E.01594
G1 X135.974 Y86.347 E.96478
G1 X135.439 Y86.347 E.01594
G1 X158.836 Y109.743 E.98732
G1 X158.836 Y110.277 E.01594
G1 X134.905 Y86.347 E1.00986
G1 X134.371 Y86.347 E.01594
G1 X158.836 Y110.812 E1.03241
G1 X158.836 Y111.346 E.01594
G1 X133.837 Y86.347 E1.05495
G1 X133.303 Y86.347 E.01594
G1 X158.836 Y111.88 E1.0775
G1 X158.836 Y112.414 E.01594
G1 X132.768 Y86.347 E1.10004
G1 X132.234 Y86.347 E.01594
G1 X158.836 Y112.948 E1.12259
G1 X158.836 Y113.483 E.01594
G1 X131.7 Y86.347 E1.14513
G1 X131.166 Y86.347 E.01594
G1 X158.836 Y114.017 E1.16768
G1 X158.836 Y114.551 E.01594
G1 X130.631 Y86.347 E1.19022
G1 X130.097 Y86.347 E.01594
G1 X158.836 Y115.085 E1.21276
G1 X158.836 Y115.62 E.01594
G1 X129.563 Y86.347 E1.23531
G1 X129.029 Y86.347 E.01594
G1 X158.836 Y116.154 E1.25785
G1 X158.836 Y116.688 E.01594
G1 X128.494 Y86.347 E1.2804
G1 X127.96 Y86.347 E.01594
G1 X158.836 Y117.222 E1.30294
G1 X158.836 Y117.757 E.01594
G1 X127.426 Y86.347 E1.32549
G1 X126.892 Y86.347 E.01594
G1 X158.836 Y118.291 E1.34803
G1 X158.836 Y118.825 E.01594
G1 X126.358 Y86.347 E1.37058
G1 X125.823 Y86.347 E.01594
G1 X158.836 Y119.359 E1.39312
G1 X158.836 Y119.893 E.01594
G1 X125.289 Y86.347 E1.41567
G1 X124.755 Y86.347 E.01594
G1 X158.836 Y120.428 E1.43821
G1 X158.836 Y120.962 E.01594
G1 X124.221 Y86.347 E1.46075
G1 X123.686 Y86.347 E.01594
G1 X158.836 Y121.496 E1.4833
G1 X158.836 Y122.03 E.01594
G1 X123.152 Y86.347 E1.50584
G1 X122.618 Y86.347 E.01594
M73 P1 R74
G1 X158.836 Y122.565 E1.52839
G1 X158.836 Y123.099 E.01594
G1 X122.084 Y86.347 E1.55093
G1 X121.55 Y86.347 E.01594
G1 X158.836 Y123.633 E1.57348
G1 X158.836 Y124.167 E.01594
G1 X121.015 Y86.347 E1.59602
G1 X120.481 Y86.347 E.01594
G1 X158.836 Y124.701 E1.61857
G1 X158.836 Y125.236 E.01594
G1 X119.947 Y86.347 E1.64111
G1 X119.413 Y86.347 E.01594
G1 X158.836 Y125.77 E1.66365
G1 X158.836 Y126.304 E.01594
G1 X118.878 Y86.347 E1.6862
G1 X118.344 Y86.347 E.01594
G1 X158.836 Y126.838 E1.70874
G1 X158.836 Y127.373 E.01594
G1 X117.81 Y86.347 E1.73129
G1 X117.276 Y86.347 E.01594
G1 X158.836 Y127.907 E1.75383
G1 X158.836 Y128.441 E.01594
G1 X116.741 Y86.347 E1.77638
G1 X116.207 Y86.347 E.01594
G1 X158.836 Y128.975 E1.79892
G1 X158.836 Y129.51 E.01594
G1 X115.673 Y86.347 E1.82147
G1 X115.139 Y86.347 E.01594
G1 X158.836 Y130.044 E1.84401
G1 X158.836 Y130.578 E.01594
G1 X114.605 Y86.347 E1.86656
G1 X114.07 Y86.347 E.01594
G1 X158.836 Y131.112 E1.8891
G1 X158.836 Y131.646 E.01594
G1 X113.536 Y86.347 E1.91164
G1 X113.002 Y86.347 E.01594
G1 X158.836 Y132.181 E1.93419
G1 X158.836 Y132.715 E.01594
G1 X112.468 Y86.347 E1.95673
G1 X111.933 Y86.347 E.01594
G1 X158.836 Y133.249 E1.97928
G1 X158.836 Y133.783 E.01594
G1 X111.399 Y86.347 E2.00182
G1 X110.865 Y86.347 E.01594
G1 X158.836 Y134.318 E2.02437
G1 X158.836 Y134.852 E.01594
G1 X110.331 Y86.347 E2.04691
G1 X109.797 Y86.347 E.01594
G1 X158.836 Y135.386 E2.06946
G1 X158.836 Y135.92 E.01594
G1 X109.262 Y86.347 E2.092
G1 X108.728 Y86.347 E.01594
G1 X158.836 Y136.454 E2.11454
G1 X158.836 Y136.989 E.01594
G1 X108.194 Y86.347 E2.13709
G1 X107.66 Y86.347 E.01594
G1 X158.836 Y137.523 E2.15963
G1 X158.836 Y138.057 E.01594
M73 P2 R74
G1 X107.125 Y86.347 E2.18218
G1 X106.591 Y86.347 E.01594
G1 X158.836 Y138.591 E2.20472
G1 X158.836 Y139.126 E.01594
G1 X106.057 Y86.347 E2.22727
G1 X105.523 Y86.347 E.01594
G1 X158.836 Y139.66 E2.24981
G1 X158.836 Y140.194 E.01594
G1 X104.988 Y86.347 E2.27236
G1 X104.454 Y86.347 E.01594
G1 X158.836 Y140.728 E2.2949
G1 X158.836 Y141.263 E.01594
G1 X103.92 Y86.347 E2.31744
G1 X103.386 Y86.347 E.01594
G1 X158.836 Y141.797 E2.33999
G1 X158.836 Y142.331 E.01594
G1 X102.852 Y86.347 E2.36253
G1 X102.317 Y86.347 E.01594
G1 X158.836 Y142.865 E2.38508
G1 X158.836 Y143.399 E.01594
G1 X101.783 Y86.347 E2.40762
G1 X101.249 Y86.347 E.01594
G1 X158.555 Y143.653 E2.41832
G1 X158.021 Y143.653 E.01594
G1 X100.715 Y86.347 E2.41832
G1 X100.18 Y86.347 E.01594
G1 X157.486 Y143.653 E2.41832
G1 X156.952 Y143.653 E.01594
G1 X99.646 Y86.347 E2.41832
G1 X99.112 Y86.347 E.01594
G1 X156.418 Y143.653 E2.41832
G1 X155.884 Y143.653 E.01594
G1 X98.578 Y86.347 E2.41832
G1 X98.043 Y86.347 E.01594
G1 X155.35 Y143.653 E2.41832
G1 X154.815 Y143.653 E.01594
G1 X97.509 Y86.347 E2.41832
G1 X96.975 Y86.347 E.01594
G1 X154.281 Y143.653 E2.41832
G1 X153.747 Y143.653 E.01594
G1 X96.441 Y86.347 E2.41832
G1 X95.907 Y86.347 E.01594
G1 X153.213 Y143.653 E2.41832
G1 X152.678 Y143.653 E.01594
G1 X95.372 Y86.347 E2.41832
G1 X94.838 Y86.347 E.01594
G1 X152.144 Y143.653 E2.41832
G1 X151.61 Y143.653 E.01594
G1 X94.304 Y86.347 E2.41832
G1 X93.77 Y86.347 E.01594
G1 X151.076 Y143.653 E2.41832
G1 X150.542 Y143.653 E.01594
G1 X93.235 Y86.347 E2.41832
G1 X92.701 Y86.347 E.01594
G1 X150.007 Y143.653 E2.41832
G1 X149.473 Y143.653 E.01594
G1 X92.167 Y86.347 E2.41832
G1 X91.633 Y86.347 E.01594
G1 X148.939 Y143.653 E2.41832
G1 X148.405 Y143.653 E.01594
G1 X91.099 Y86.347 E2.41832
G1 X90.564 Y86.347 E.01594
G1 X147.87 Y143.653 E2.41832
G1 X147.336 Y143.653 E.01594
M73 P2 R73
G1 X90.03 Y86.347 E2.41832
G1 X89.496 Y86.347 E.01594
G1 X146.802 Y143.653 E2.41832
G1 X146.268 Y143.653 E.01594
G1 X88.962 Y86.347 E2.41832
G1 X88.427 Y86.347 E.01594
G1 X145.733 Y143.653 E2.41832
G1 X145.199 Y143.653 E.01594
G1 X87.893 Y86.347 E2.41832
G1 X87.359 Y86.347 E.01594
G1 X144.665 Y143.653 E2.41832
G1 X144.131 Y143.653 E.01594
G1 X86.825 Y86.347 E2.41832
G1 X86.29 Y86.347 E.01594
G1 X143.597 Y143.653 E2.41832
G1 X143.062 Y143.653 E.01594
G1 X85.756 Y86.347 E2.41832
G1 X85.222 Y86.347 E.01594
M73 P3 R73
G1 X142.528 Y143.653 E2.41832
G1 X141.994 Y143.653 E.01594
G1 X84.688 Y86.347 E2.41832
G1 X84.154 Y86.347 E.01594
G1 X141.46 Y143.653 E2.41832
G1 X140.925 Y143.653 E.01594
G1 X83.619 Y86.347 E2.41832
G1 X83.085 Y86.347 E.01594
G1 X140.391 Y143.653 E2.41832
G1 X139.857 Y143.653 E.01594
G1 X82.551 Y86.347 E2.41832
G1 X82.017 Y86.347 E.01594
G1 X139.323 Y143.653 E2.41832
G1 X138.789 Y143.653 E.01594
G1 X81.482 Y86.347 E2.41832
G1 X80.948 Y86.347 E.01594
G1 X138.254 Y143.653 E2.41832
G1 X137.72 Y143.653 E.01594
G1 X80.414 Y86.347 E2.41832
G1 X79.88 Y86.347 E.01594
G1 X137.186 Y143.653 E2.41832
G1 X136.652 Y143.653 E.01594
G1 X79.346 Y86.347 E2.41832
G1 X78.811 Y86.347 E.01594
G1 X136.117 Y143.653 E2.41832
G1 X135.583 Y143.653 E.01594
G1 X78.277 Y86.347 E2.41832
G1 X77.743 Y86.347 E.01594
G1 X135.049 Y143.653 E2.41832
G1 X134.515 Y143.653 E.01594
G1 X77.209 Y86.347 E2.41832
G1 X76.674 Y86.347 E.01594
G1 X133.98 Y143.653 E2.41832
G1 X133.446 Y143.653 E.01594
G1 X76.394 Y86.6 E2.40763
G1 X76.394 Y87.135 E.01594
G1 X132.912 Y143.653 E2.38508
G1 X132.378 Y143.653 E.01594
G1 X76.394 Y87.669 E2.36254
G1 X76.394 Y88.203 E.01594
G1 X131.844 Y143.653 E2.34
G1 X131.309 Y143.653 E.01594
G1 X76.394 Y88.737 E2.31745
G1 X76.394 Y89.272 E.01594
G1 X130.775 Y143.653 E2.29491
G1 X130.241 Y143.653 E.01594
G1 X76.394 Y89.806 E2.27236
G1 X76.394 Y90.34 E.01594
G1 X129.707 Y143.653 E2.24982
G1 X129.172 Y143.653 E.01594
G1 X76.394 Y90.874 E2.22727
G1 X76.394 Y91.408 E.01594
G1 X128.638 Y143.653 E2.20473
G1 X128.104 Y143.653 E.01594
G1 X76.394 Y91.943 E2.18218
G1 X76.394 Y92.477 E.01594
G1 X127.57 Y143.653 E2.15964
G1 X127.036 Y143.653 E.01594
G1 X76.394 Y93.011 E2.1371
G1 X76.394 Y93.545 E.01594
G1 X126.501 Y143.653 E2.11455
G1 X125.967 Y143.653 E.01594
G1 X76.394 Y94.08 E2.09201
G1 X76.394 Y94.614 E.01594
G1 X125.433 Y143.653 E2.06946
G1 X124.899 Y143.653 E.01594
G1 X76.394 Y95.148 E2.04692
G1 X76.394 Y95.682 E.01594
G1 X124.364 Y143.653 E2.02437
G1 X123.83 Y143.653 E.01594
G1 X76.394 Y96.217 E2.00183
G1 X76.394 Y96.751 E.01594
G1 X123.296 Y143.653 E1.97928
G1 X122.762 Y143.653 E.01594
G1 X76.394 Y97.285 E1.95674
G1 X76.394 Y97.819 E.01594
G1 X122.227 Y143.653 E1.9342
G1 X121.693 Y143.653 E.01594
G1 X76.394 Y98.353 E1.91165
G1 X76.394 Y98.888 E.01594
G1 X121.159 Y143.653 E1.88911
G1 X120.625 Y143.653 E.01594
G1 X76.394 Y99.422 E1.86656
G1 X76.394 Y99.956 E.01594
G1 X120.091 Y143.653 E1.84402
G1 X119.556 Y143.653 E.01594
G1 X76.394 Y100.49 E1.82147
G1 X76.394 Y101.025 E.01594
G1 X119.022 Y143.653 E1.79893
G1 X118.488 Y143.653 E.01594
M73 P4 R73
G1 X76.394 Y101.559 E1.77638
G1 X76.394 Y102.093 E.01594
G1 X117.954 Y143.653 E1.75384
G1 X117.419 Y143.653 E.01594
G1 X76.394 Y102.627 E1.73129
G1 X76.394 Y103.161 E.01594
G1 X116.885 Y143.653 E1.70875
G1 X116.351 Y143.653 E.01594
G1 X76.394 Y103.696 E1.68621
G1 X76.394 Y104.23 E.01594
M73 P4 R72
G1 X115.817 Y143.653 E1.66366
G1 X115.282 Y143.653 E.01594
G1 X76.394 Y104.764 E1.64112
G1 X76.394 Y105.298 E.01594
G1 X114.748 Y143.653 E1.61857
G1 X114.214 Y143.653 E.01594
G1 X76.394 Y105.833 E1.59603
G1 X76.394 Y106.367 E.01594
G1 X113.68 Y143.653 E1.57348
G1 X113.146 Y143.653 E.01594
G1 X76.394 Y106.901 E1.55094
G1 X76.394 Y107.435 E.01594
G1 X112.611 Y143.653 E1.52839
G1 X112.077 Y143.653 E.01594
G1 X76.394 Y107.97 E1.50585
G1 X76.394 Y108.504 E.01594
G1 X111.543 Y143.653 E1.48331
G1 X111.009 Y143.653 E.01594
G1 X76.394 Y109.038 E1.46076
G1 X76.394 Y109.572 E.01594
G1 X110.474 Y143.653 E1.43822
G1 X109.94 Y143.653 E.01594
G1 X76.394 Y110.106 E1.41567
G1 X76.394 Y110.641 E.01594
G1 X109.406 Y143.653 E1.39313
G1 X108.872 Y143.653 E.01594
G1 X76.394 Y111.175 E1.37058
G1 X76.394 Y111.709 E.01594
G1 X108.338 Y143.653 E1.34804
G1 X107.803 Y143.653 E.01594
G1 X76.394 Y112.243 E1.32549
G1 X76.394 Y112.778 E.01594
G1 X107.269 Y143.653 E1.30295
G1 X106.735 Y143.653 E.01594
G1 X76.394 Y113.312 E1.28041
G1 X76.394 Y113.846 E.01594
G1 X106.201 Y143.653 E1.25786
G1 X105.666 Y143.653 E.01594
G1 X76.394 Y114.38 E1.23532
G1 X76.394 Y114.914 E.01594
G1 X105.132 Y143.653 E1.21277
G1 X104.598 Y143.653 E.01594
G1 X76.394 Y115.449 E1.19023
G1 X76.394 Y115.983 E.01594
G1 X104.064 Y143.653 E1.16768
G1 X103.529 Y143.653 E.01594
G1 X76.394 Y116.517 E1.14514
G1 X76.394 Y117.051 E.01594
G1 X102.995 Y143.653 E1.12259
G1 X102.461 Y143.653 E.01594
G1 X76.394 Y117.586 E1.10005
G1 X76.394 Y118.12 E.01594
G1 X101.927 Y143.653 E1.0775
G1 X101.393 Y143.653 E.01594
G1 X76.394 Y118.654 E1.05496
G1 X76.394 Y119.188 E.01594
G1 X100.858 Y143.653 E1.03242
G1 X100.324 Y143.653 E.01594
G1 X76.394 Y119.723 E1.00987
G1 X76.394 Y120.257 E.01594
G1 X99.79 Y143.653 E.98733
G1 X99.256 Y143.653 E.01594
G1 X76.394 Y120.791 E.96478
G1 X76.394 Y121.325 E.01594
G1 X98.721 Y143.653 E.94224
G1 X98.187 Y143.653 E.01594
G1 X76.394 Y121.859 E.91969
G1 X76.394 Y122.394 E.01594
G1 X97.653 Y143.653 E.89715
G1 X97.119 Y143.653 E.01594
G1 X76.394 Y122.928 E.8746
G1 X76.394 Y123.462 E.01594
G1 X96.585 Y143.653 E.85206
G1 X96.05 Y143.653 E.01594
G1 X76.394 Y123.996 E.82952
G1 X76.394 Y124.531 E.01594
G1 X95.516 Y143.653 E.80697
G1 X94.982 Y143.653 E.01594
G1 X76.394 Y125.065 E.78443
G1 X76.394 Y125.599 E.01594
G1 X94.448 Y143.653 E.76188
G1 X93.913 Y143.653 E.01594
G1 X76.394 Y126.133 E.73934
G1 X76.394 Y126.667 E.01594
G1 X93.379 Y143.653 E.71679
G1 X92.845 Y143.653 E.01594
G1 X76.394 Y127.202 E.69425
G1 X76.394 Y127.736 E.01594
G1 X92.311 Y143.653 E.6717
G1 X91.776 Y143.653 E.01594
G1 X76.394 Y128.27 E.64916
G1 X76.394 Y128.804 E.01594
G1 X91.242 Y143.653 E.62661
G1 X90.708 Y143.653 E.01594
G1 X76.394 Y129.339 E.60407
G1 X76.394 Y129.873 E.01594
G1 X90.174 Y143.653 E.58153
G1 X89.64 Y143.653 E.01594
G1 X76.394 Y130.407 E.55898
G1 X76.394 Y130.941 E.01594
G1 X89.105 Y143.653 E.53644
G1 X88.571 Y143.653 E.01594
G1 X76.394 Y131.476 E.51389
G1 X76.394 Y132.01 E.01594
G1 X88.037 Y143.653 E.49135
G1 X87.503 Y143.653 E.01594
G1 X76.394 Y132.544 E.4688
G1 X76.394 Y133.078 E.01594
G1 X86.968 Y143.653 E.44626
