; HEADER_BLOCK_START
; generated by OrcaSlicer 2.1.1 on 2024-11-17 at 19:15:31
; total layer number: 61
; filament_density: 1.24
; filament_diameter: 1.75
; max_z_height: 5.00
; HEADER_BLOCK_END

; THUMBNAIL_BLOCK_START

;
; THUMBNAIL_BLOCK_END







; external perimeters extrusion width = 0.40mm
; perimeters extrusion width = 0.45mm
; infill extrusion width = 0.45mm
; solid infill extrusion width = 0.45mm
; top infill extrusion width = 0.38mm
; first layer extrusion width = 0.42mm

; EXECUTABLE_BLOCK_START
EXCLUDE_OBJECT_DEFINE NAME=单层模0_5齿20厚5孔3紧_电机轴.STL_id_0_copy_0 CENTER=117.5,115 POLYGON=[[112.038,114.353],[112.105,113.928],[112.506,112.697],[112.701,112.313],[113.462,111.266],[113.766,110.962],[114.813,110.201],[115.197,110.006],[116.428,109.605],[116.853,109.538],[118.147,109.538],[118.572,109.605],[119.803,110.006],[120.187,110.201],[121.234,110.962],[121.538,111.266],[122.299,112.313],[122.494,112.697],[122.895,113.928],[122.962,114.353],[122.962,115.647],[122.895,116.072],[122.494,117.303],[122.299,117.687],[121.538,118.734],[121.234,119.038],[120.187,119.799],[119.803,119.994],[118.572,120.395],[118.147,120.462],[116.853,120.462],[116.428,120.395],[115.197,119.994],[114.813,119.799],[113.766,119.038],[113.462,118.734],[112.701,117.687],[112.506,117.303],[112.105,116.072],[112.038,115.647],[112.038,114.353]]
M73 P0 R9
;TYPE:Custom
;ELEGOO NEPTUNE 4 PRO
M220 S100 ;Set the feed speed to 100%
M221 S100 ;Set the flow rate to 100%
M104 S140
M190 S60
G90
G28 ;home
G1 Z10 F300
G1 X67.5 Y0 F6000
G1 Z0 F300
M109 S210
G92 E0 ;Reset Extruder
G1 X67.5 Y0 Z0.4 F300 ;Move to start position
G1 X167.5 E30 F400 ;Draw the first line
G1 Z0.6 F120.0 ;Move to side a little
M73 P3 R8
G1 X162.5 F3000
G92 E0 ;Reset Extruder
G90
G21
M83 ; use relative distances for extrusion
; filament start gcode
M106 S0
;LAYER_CHANGE
;Z:0.2
;HEIGHT:0.2
;BEFORE_LAYER_CHANGE
G92 E0
;0.2


G1 E-.8 F3600
;AFTER_LAYER_CHANGE
;0.2
;_SET_FAN_SPEED_CHANGING_LAYER
SET_VELOCITY_LIMIT ACCEL=1000 ACCEL_TO_DECEL=500
SET_VELOCITY_LIMIT SQUARE_CORNER_VELOCITY=7
; printing object 单层模0_5齿20厚5孔3紧 电机轴.STL id:0 copy 0
EXCLUDE_OBJECT_START NAME=单层模0_5齿20厚5孔3紧_电机轴.STL_id_0_copy_0
G1 X116.956 Y111.563 F21000
G1 Z.4
G1 Z.2
G1 E.8 F2700
;TYPE:Inner wall
;WIDTH:0.419999
G1 F1566
G1 X117.444 Y111.625 E.01513
G1 X118.044 Y111.563 E.01855
G1 X118.506 Y111.78 E.01568
G1 X119.08 Y111.9 E.018
G1 X119.469 Y112.262 E.01634
G1 X119.961 Y112.539 E.01735
G1 X120.218 Y113.002 E.01627
G1 X120.599 Y113.421 E.0174
G1 X120.685 Y113.875 E.01419
G1 X120.936 Y114.456 E.01945
G1 X120.873 Y114.999 E.01679
G1 X120.936 Y115.544 E.01687
G1 X120.739 Y115.958 E.01408
G1 X120.599 Y116.579 E.01956
G1 X120.181 Y117.055 E.01945
G1 X119.961 Y117.461 E.0142
G1 X119.469 Y117.738 E.01735
G1 X119.08 Y118.1 E.01633
G1 X118.506 Y118.22 E.018
G1 X118.044 Y118.437 E.01568
G1 X117.456 Y118.374 E.01818
G1 X116.956 Y118.437 E.0155
G1 X116.44 Y118.202 E.01742
G1 X115.92 Y118.1 E.01627
G1 X115.523 Y117.732 E.01665
G1 X115.039 Y117.461 E.01703
G1 X114.788 Y117.006 E.01596
G1 X114.4 Y116.58 E.01772
G1 X114.307 Y116.094 E.0152
G1 X114.063 Y115.544 E.01848
G1 X114.127 Y115.017 E.01634
G1 X114.063 Y114.456 E.01735
G1 X114.303 Y113.921 E.01802
G1 X114.4 Y113.42 E.01566
G1 X114.496 Y113.336 E.00394
G1 X114.819 Y112.945 E.01556
G1 X115.04 Y112.54 E.0142
G1 X115.158 Y112.489 E.00395
G1 X115.588 Y112.215 E.01566
G1 X115.92 Y111.9 E.01409
G1 X116.39 Y111.812 E.01467
G1 X116.919 Y111.579 E.01777
G1 X116.923 Y111.11 F21000
G1 F1566
G1 X116.994 Y111.188 E.00323
G1 X117.467 Y111.249 E.01466
G1 X118.008 Y111.187 E.01673
G1 X118.124 Y111.058 E.00534
G1 X118.195 Y111.217 E.00534
G1 X118.637 Y111.426 E.01501
G1 X119.16 Y111.531 E.01641
G1 X119.312 Y111.444 E.00537
G1 X119.331 Y111.618 E.00537
G1 X119.696 Y111.96 E.01538
G1 X120.153 Y112.214 E.01606
G1 X120.322 Y112.178 E.00531
G1 X120.286 Y112.347 E.00531
G1 X120.528 Y112.787 E.01542
G1 X120.87 Y113.161 E.01557
G1 X121.064 Y113.184 E.006
G1 X120.969 Y113.355 E.006
G1 X121.053 Y113.792 E.01367
M73 P4 R8
G1 X121.273 Y114.292 E.01679
G1 X121.451 Y114.374 E.00601
G1 X121.308 Y114.507 E.00601
G1 X121.252 Y114.946 E.01357
G1 X121.308 Y115.493 E.01689
G1 X121.467 Y115.628 E.00643
G1 X121.273 Y115.708 E.00643
G1 X121.085 Y116.108 E.01357
G1 X120.969 Y116.645 E.01689
G1 X121.078 Y116.823 E.00642
G1 X120.87 Y116.839 E.00642
G1 X120.568 Y117.162 E.01358
G1 X120.286 Y117.653 E.01739
G1 X120.332 Y117.832 E.00569
G1 X120.153 Y117.786 E.00569
G1 X119.696 Y118.04 E.01606
G1 X119.331 Y118.382 E.01538
G1 X119.319 Y118.569 E.00576
G1 X119.16 Y118.469 E.00576
G1 X118.708 Y118.553 E.01413
G1 X118.195 Y118.783 E.01727
G1 X118.127 Y118.956 E.00573
G1 X118.008 Y118.813 E.00573
G1 X117.554 Y118.752 E.01405
G1 X116.992 Y118.813 E.01738
G1 X116.873 Y118.956 E.00571
G1 X116.805 Y118.783 E.00571
G1 X116.331 Y118.563 E.01606
G1 X115.838 Y118.469 E.0154
G1 X115.682 Y118.569 E.0057
G1 X115.67 Y118.383 E.0057
G1 X115.299 Y118.036 E.0156
G1 X114.848 Y117.786 E.01586
G1 X114.668 Y117.832 E.00571
G1 X114.714 Y117.652 E.00571
G1 X114.476 Y117.218 E.01522
G1 X114.117 Y116.83 E.01623
G1 X113.931 Y116.818 E.00572
G1 X114.031 Y116.661 E.00572
G1 X113.943 Y116.189 E.01475
G1 X113.717 Y115.696 E.01667
G1 X113.544 Y115.627 E.00574
G1 X113.687 Y115.507 E.00574
G1 X113.75 Y115.01 E.01539
G1 X113.688 Y114.493 E.01601
G1 X113.558 Y114.376 E.00538
G1 X113.718 Y114.304 E.00538
G1 X113.915 Y113.892 E.01403
G1 X114.031 Y113.34 E.01733
G1 X113.943 Y113.188 E.0054
G1 X114.118 Y113.169 E.0054
G1 X114.432 Y112.838 E.01402
G1 X114.713 Y112.35 E.01732
G1 X114.677 Y112.177 E.00541
G1 X114.85 Y112.213 E.00541
G1 X115.254 Y111.994 E.01414
G1 X115.669 Y111.618 E.01719
G1 X115.688 Y111.443 E.00541
G1 X115.841 Y111.531 E.00541
G1 X116.3 Y111.445 E.01435
G1 X116.803 Y111.218 E.01698
G1 X116.876 Y111.057 E.0054
G1 X116.896 Y111.08 E.00095
G1 X117.12 Y110.832 F21000
;TYPE:Outer wall
G1 F1566
G1 X117.484 Y110.872 E.01124
G1 X117.834 Y110.843 E.0108
G1 X117.995 Y110.699 E.00662
;WIDTH:0.411421
G1 X118.087 Y110.123 E.01754
;WIDTH:0.409498
G1 X118.272 Y109.841 E.01006
G1 X118.36 Y109.855 E.00265
G1 X118.456 Y110.135 E.00884
;WIDTH:0.410019
G1 X118.36 Y110.741 E.01836
;WIDTH:0.419999
G1 X118.426 Y110.919 E.00582
G1 X118.758 Y111.068 E.01117
G1 X119.102 Y111.149 E.01088
G1 X119.3 Y111.063 E.00663
;WIDTH:0.41142
G1 X119.565 Y110.543 E.01754
;WIDTH:0.409498
G1 X119.829 Y110.332 E.01006
G1 X119.908 Y110.373 E.00265
G1 X119.913 Y110.669 E.00884
;WIDTH:0.410018
G1 X119.634 Y111.215 E.01836
;WIDTH:0.419999
G1 X119.642 Y111.405 E.00583
G1 X119.911 Y111.649 E.01116
G1 X120.214 Y111.833 E.01088
G1 X120.429 Y111.812 E.00663
;WIDTH:0.41142
G1 X120.842 Y111.399 E.01754
;WIDTH:0.409499
G1 X121.157 Y111.28 E.01006
G1 X121.22 Y111.343 E.00265
G1 X121.133 Y111.626 E.00884
;WIDTH:0.410018
G1 X120.699 Y112.06 E.01836
;WIDTH:0.419999
G1 X120.648 Y112.242 E.00581
G1 X120.808 Y112.524 E.00996
G1 X121.06 Y112.827 E.01209
G1 X121.27 Y112.873 E.00662
;WIDTH:0.41142
G1 X121.791 Y112.608 E.01754
;WIDTH:0.409498
G1 X122.127 Y112.592 E.01006
G1 X122.168 Y112.672 E.00265
G1 X121.998 Y112.914 E.00884
;WIDTH:0.410018
G1 X121.451 Y113.193 E.01836
;WIDTH:0.419999
G1 X121.346 Y113.356 E.00596
G1 X121.382 Y113.536 E.00564
G1 X121.557 Y114.033 E.01621
G1 X121.743 Y114.142 E.00662
;WIDTH:0.41142
G1 X122.32 Y114.051 E.01754
;WIDTH:0.4095
G1 X122.645 Y114.14 E.01006
G1 X122.659 Y114.228 E.00265
G1 X122.422 Y114.406 E.00884
;WIDTH:0.410019
G1 X121.816 Y114.502 E.01836
;WIDTH:0.419999
G1 X121.666 Y114.625 E.00596
G1 X121.628 Y114.981 E.01101
G1 X121.657 Y115.334 E.01088
G1 X121.816 Y115.498 E.00701
;WIDTH:0.41002
G1 X122.377 Y115.587 E.017
;WIDTH:0.409498
G1 X122.623 Y115.745 E.00874
G1 X122.645 Y115.86 E.00348
G1 X122.365 Y115.956 E.00884
;WIDTH:0.41002
G1 X121.759 Y115.86 E.01836
;WIDTH:0.419999
G1 X121.578 Y115.931 E.00596
G1 X121.432 Y116.258 E.01101
G1 X121.351 Y116.602 E.01088
G1 X121.451 Y116.807 E.00701
;WIDTH:0.410019
G1 X121.957 Y117.065 E.017
;WIDTH:0.409497
G1 X122.168 Y117.329 E.01006
G1 X122.127 Y117.408 E.00265
G1 X121.831 Y117.413 E.00884
;WIDTH:0.41002
G1 X121.285 Y117.134 E.01836
;WIDTH:0.419999
G1 X121.091 Y117.145 E.00596
G1 X120.851 Y117.411 E.01101
G1 X120.665 Y117.717 E.01099
G1 X120.699 Y117.94 E.00693
;WIDTH:0.410018
G1 X121.101 Y118.342 E.017
;WIDTH:0.409499
G1 X121.22 Y118.657 E.01006
G1 X121.157 Y118.72 E.00265
G1 X120.874 Y118.633 E.00884
;WIDTH:0.410018
G1 X120.44 Y118.199 E.01836
;WIDTH:0.419999
G1 X120.258 Y118.148 E.00581
G1 X120.036 Y118.273 E.00782
G1 X119.673 Y118.56 E.01421
G1 X119.634 Y118.785 E.00701
;WIDTH:0.410019
G1 X119.892 Y119.291 E.017
;WIDTH:0.409497
G1 X119.908 Y119.627 E.01006
G1 X119.829 Y119.668 E.00265
G1 X119.586 Y119.498 E.00884
;WIDTH:0.410019
G1 X119.307 Y118.951 E.01836
;WIDTH:0.419999
G1 X119.149 Y118.846 E.00583
G1 X118.791 Y118.921 E.01125
G1 X118.467 Y119.057 E.0108
G1 X118.36 Y119.259 E.00701
;WIDTH:0.410018
G1 X118.449 Y119.82 E.017
;WIDTH:0.409499
G1 X118.36 Y120.145 E.01006
G1 X118.272 Y120.159 E.00265
G1 X118.094 Y119.922 E.00884
;WIDTH:0.410018
G1 X117.998 Y119.316 E.01836
;WIDTH:0.419999
G1 X117.88 Y119.168 E.00582
G1 X117.519 Y119.128 E.01117
G1 X117.166 Y119.157 E.01088
G1 X117.002 Y119.316 E.00701
;WIDTH:0.410019
G1 X116.913 Y119.877 E.017
;WIDTH:0.4095
G1 X116.728 Y120.159 E.01006
G1 X116.64 Y120.145 E.00265
G1 X116.544 Y119.865 E.00884
;WIDTH:0.41002
G1 X116.64 Y119.259 E.01836
;WIDTH:0.419999
G1 X116.574 Y119.081 E.00582
G1 X116.242 Y118.932 E.01117
G1 X115.898 Y118.851 E.01088
G1 X115.693 Y118.951 E.00701
;WIDTH:0.410019
G1 X115.435 Y119.457 E.017
;WIDTH:0.409497
G1 X115.172 Y119.668 E.01006
G1 X115.092 Y119.627 E.00265
G1 X115.087 Y119.331 E.00884
;WIDTH:0.41002
G1 X115.366 Y118.785 E.01836
;WIDTH:0.419999
G1 X115.358 Y118.595 E.00582
G1 X115.187 Y118.437 E.00715
G1 X114.786 Y118.167 E.01486
G1 X114.56 Y118.199 E.00701
;WIDTH:0.410019
G1 X114.158 Y118.601 E.017
;WIDTH:0.409498
G1 X113.843 Y118.72 E.01006
G1 X113.78 Y118.657 E.00265
G1 X113.867 Y118.374 E.00884
;WIDTH:0.410019
G1 X114.301 Y117.94 E.01836
;WIDTH:0.419999
G1 X114.352 Y117.757 E.00582
G1 X114.199 Y117.487 E.00954
G1 X113.94 Y117.173 E.0125
G1 X113.715 Y117.134 E.00701
;WIDTH:0.410018
G1 X113.209 Y117.392 E.017
;WIDTH:0.409497
G1 X112.873 Y117.408 E.01006
G1 X112.832 Y117.329 E.00265
G1 X113.002 Y117.086 E.00884
;WIDTH:0.410018
G1 X113.549 Y116.807 E.01836
;WIDTH:0.419999
G1 X113.654 Y116.65 E.00582
G1 X113.616 Y116.453 E.00614
G1 X113.443 Y115.967 E.01587
G1 X113.241 Y115.86 E.00701
;WIDTH:0.410019
G1 X112.68 Y115.949 E.017
;WIDTH:0.409499
G1 X112.355 Y115.86 E.01006
G1 X112.341 Y115.772 E.00265
G1 X112.578 Y115.594 E.00884
;WIDTH:0.410019
G1 X113.184 Y115.498 E.01836
;WIDTH:0.419999
G1 X113.332 Y115.38 E.00582
G1 X113.361 Y115.137 E.00752
G1 X113.343 Y114.666 E.01449
G1 X113.199 Y114.505 E.00663
;WIDTH:0.411421
G1 X112.623 Y114.413 E.01754
;WIDTH:0.409499
G1 X112.341 Y114.228 E.01006
G1 X112.355 Y114.14 E.00265
G1 X112.635 Y114.044 E.00884
;WIDTH:0.41002
G1 X113.241 Y114.14 E.01836
;WIDTH:0.419999
G1 X113.419 Y114.074 E.00583
G1 X113.539 Y113.812 E.00885
G1 X113.649 Y113.398 E.01317
G1 X113.563 Y113.2 E.00663
;WIDTH:0.411421
G1 X113.043 Y112.935 E.01754
;WIDTH:0.409498
G1 X112.832 Y112.671 E.01006
G1 X112.873 Y112.592 E.00265
G1 X113.169 Y112.587 E.00884
;WIDTH:0.410019
G1 X113.715 Y112.866 E.01836
;WIDTH:0.419999
G1 X113.905 Y112.858 E.00583
G1 X114.018 Y112.738 E.00505
G1 X114.333 Y112.286 E.01693
G1 X114.312 Y112.072 E.00663
;WIDTH:0.41142
G1 X113.899 Y111.658 E.01754
;WIDTH:0.409499
G1 X113.78 Y111.343 E.01006
G1 X113.843 Y111.28 E.00265
G1 X114.126 Y111.367 E.00884
;WIDTH:0.410018
G1 X114.56 Y111.801 E.01836
;WIDTH:0.419999
G1 X114.743 Y111.852 E.00583
G1 X114.956 Y111.732 E.00748
G1 X115.327 Y111.44 E.01452
G1 X115.373 Y111.23 E.00662
;WIDTH:0.411422
G1 X115.108 Y110.709 E.01754
;WIDTH:0.409499
G1 X115.092 Y110.373 E.01006
G1 X115.172 Y110.332 E.00265
G1 X115.414 Y110.502 E.00884
;WIDTH:0.410019
G1 X115.693 Y111.049 E.01836
;WIDTH:0.419999
G1 X115.851 Y111.154 E.00583
G1 X116.169 Y111.089 E.00997
G1 X116.533 Y110.943 E.01205
G1 X116.642 Y110.757 E.00663
;WIDTH:0.411419
G1 X116.551 Y110.18 E.01752
;WIDTH:0.40951
G1 X116.64 Y109.855 E.01008
G1 X116.727 Y109.841 E.00264
G1 X116.906 Y110.078 E.00886
;WIDTH:0.410018
G1 X117.002 Y110.684 E.01835
;WIDTH:0.419999
G1 X117.095 Y110.801 E.0046
G1 E-.68 F3600
;WIPE_START
G1 F3000
G1 X117.484 Y110.872 E-.04739
G1 X117.834 Y110.843 E-.0422
G1 X117.995 Y110.699 E-.02586
G1 X118.001 Y110.662 E-.00455
;WIPE_END
G1 X119.386 Y113.29 Z.6 F21000
G1 Z.2
G1 E.8 F2700
;TYPE:Inner wall
G1 F1566
G1 X119.477 Y113.426 E.00504
G1 X119.564 Y113.821 E.01243
G1 X119.564 Y116.179 E.07244
G1 X119.517 Y116.473 E.00916
G1 X119.319 Y116.812 E.01207
G1 X118.927 Y117.128 E.01548
G1 X118.374 Y117.388 E.01876
G1 X117.932 Y117.523 E.01422
G1 X117.416 Y117.548 E.01586
G1 X117.03 Y117.512 E.01192
G1 X116.503 Y117.354 E.0169
G1 X116.217 Y117.211 E.00982
G1 X115.774 Y116.885 E.0169
G1 X115.521 Y116.609 E.01152
G1 X115.215 Y116.156 E.01678
G1 X115.053 Y115.685 E.0153
G1 X114.941 Y115.131 E.01738
G1 X114.984 Y114.593 E.0166
G1 X115.072 Y114.2 E.01235
G1 X115.3 Y113.699 E.0169
G1 X115.479 Y113.435 E.00982
G1 X115.861 Y113.039 E.0169
G1 X116.119 Y112.849 E.00982
G1 X116.801 Y112.533 E.0231
G1 X117.426 Y112.448 E.0194
G1 X117.936 Y112.477 E.01568
G1 X118.374 Y112.612 E.01411
G1 X118.906 Y112.856 E.01796
G1 X119.307 Y113.175 E.01575
G1 X119.363 Y113.257 E.00306
G1 X119.049 Y113.477 F21000
G1 F1566
G1 X119.135 Y113.584 E.00422
G1 X119.187 Y113.821 E.00746
G1 X119.187 Y116.179 E.07244
G1 X119.108 Y116.467 E.00919
M73 P5 R8
G1 X118.872 Y116.698 E.01015
G1 X118.527 Y116.918 E.01256
G1 X118.037 Y117.118 E.01626
G1 X117.398 Y117.171 E.0197
G1 X117.139 Y117.151 E.00799
G1 X116.612 Y116.993 E.0169
G1 X116.131 Y116.679 E.01766
G1 X115.864 Y116.443 E.01094
G1 X115.555 Y115.988 E.0169
G1 X115.417 Y115.59 E.01294
G1 X115.32 Y115.09 E.01565
G1 X115.367 Y114.542 E.01691
G1 X115.576 Y114.003 E.01775
G1 X115.751 Y113.697 E.01085
G1 X116.133 Y113.3 E.0169
G1 X116.512 Y113.075 E.01355
G1 X116.962 Y112.886 E.01503
G1 X117.508 Y112.818 E.0169
G1 X118.037 Y112.882 E.01636
G1 X118.527 Y113.082 E.01626
G1 X118.961 Y113.369 E.016
G1 X119.024 Y113.446 E.00304
G1 X118.756 Y113.706 F21000
;TYPE:Outer wall
G1 F1566
G1 X118.787 Y113.73 E.00119
G1 X118.81 Y114.285 E.01705
G1 X118.81 Y116.179 E.0582
G1 X118.756 Y116.311 E.00438
G1 X118.384 Y116.569 E.01392
G1 X117.913 Y116.761 E.01562
G1 X117.38 Y116.795 E.01642
G1 X117.047 Y116.73 E.01043
G1 X116.664 Y116.603 E.0124
G1 X116.22 Y116.277 E.0169
G1 X115.867 Y115.776 E.01884
G1 X115.702 Y115.188 E.01876
G1 X115.736 Y114.657 E.01637
G1 X115.787 Y114.45 E.00655
G1 X115.997 Y113.991 E.01551
G1 X116.404 Y113.562 E.01816
G1 X117.009 Y113.26 E.02077
G1 X117.551 Y113.193 E.0168
G1 X117.923 Y113.242 E.01152
G1 X118.432 Y113.451 E.01691
G1 X118.725 Y113.682 E.01145
G1 E-.68 F3600
;WIPE_START
G1 F3000
G1 X118.787 Y113.73 E-.00944
G1 X118.81 Y114.285 E-.0666
G1 X118.81 Y114.651 E-.04396
;WIPE_END
G1 X118.997 Y112.004 Z.6 F21000
G1 Z.2
G1 E.8 F2700
;TYPE:Bottom surface
;WIDTH:0.440003
G1 F1566
G1 X119.755 Y112.763 E.03471
G1 X119.986 Y113.165 E.01502
G1 X120.333 Y113.555 E.0169
G1 X120.428 Y113.998 E.01464
G1 X118.192 Y111.761 E.10235
G1 X118.351 Y112.482 F21000
G1 F1566
G1 X117.757 Y111.888 E.02716
G1 X117.429 Y111.908 E.01064
G1 X117.194 Y111.886 E.00763
G1 X117.47 Y112.162 E.01262
G1 X116.972 Y112.226 E.01625
G1 X116.731 Y111.985 E.01103
G1 X116.459 Y112.086 E.00939
G1 X116.302 Y112.118 E.00517
G1 X116.519 Y112.334 E.00991
G1 X116.144 Y112.521 E.01355
G1 X115.918 Y112.295 E.01034
G1 X115.61 Y112.548 E.01291
G1 X115.791 Y112.73 E.00831
G1 X115.504 Y113.005 E.01285
G1 X115.252 Y112.752 E.01157
G1 X115.048 Y113.11 E.01333
G1 X115.231 Y113.293 E.00839
G1 X115.128 Y113.425 E.00542
G1 X115.017 Y113.64 E.00785
G1 X114.795 Y113.418 E.01017
G1 X114.667 Y113.557 E.00611
G1 X114.616 Y113.801 E.00808
G1 X114.847 Y114.031 E.01053
G1 X114.756 Y114.239 E.00732
G1 X114.714 Y114.46 E.0073
G1 X114.478 Y114.225 E.01078
