; HEADER_BLOCK_START
; generated by OrcaSlicer 2.1.1 on 2025-01-25 at 16:17:21
; total layer number: 61
; filament_density: 1.27
; filament_diameter: 1.75
; max_z_height: 5.00
; HEADER_BLOCK_END

; THUMBNAIL_BLOCK_START

;
; THUMBNAIL_BLOCK_END







; external perimeters extrusion width = 0.40mm
; perimeters extrusion width = 0.45mm
; infill extrusion width = 0.45mm
; solid infill extrusion width = 0.45mm
; top infill extrusion width = 0.38mm
; first layer extrusion width = 0.42mm

; EXECUTABLE_BLOCK_START
EXCLUDE_OBJECT_DEFINE NAME=单层模0_5齿21厚5孔3紧_电机轴.STL_id_0_copy_0 CENTER=117.5,115 POLYGON=[[111.868,114.738],[112.042,113.586],[112.196,113.086],[112.701,112.037],[112.996,111.605],[113.789,110.75],[114.198,110.424],[115.207,109.842],[115.694,109.651],[116.829,109.391],[117.351,109.352],[118.513,109.439],[119.023,109.556],[120.107,109.981],[120.561,110.243],[121.471,110.969],[121.827,111.353],[122.484,112.315],[122.711,112.787],[123.054,113.9],[123.132,114.417],[123.132,115.583],[123.054,116.1],[122.711,117.213],[122.484,117.685],[121.827,118.647],[121.471,119.031],[120.561,119.757],[120.107,120.019],[119.023,120.444],[118.513,120.561],[117.351,120.648],[116.829,120.609],[115.694,120.349],[115.207,120.158],[114.198,119.576],[113.789,119.25],[112.996,118.395],[112.701,117.963],[112.196,116.914],[112.042,116.414],[111.868,115.262],[111.868,114.738]]
M73 P0 R9
;TYPE:Custom
;ELEGOO NEPTUNE 4 PRO
M220 S100 ;Set the feed speed to 100%
M221 S100 ;Set the flow rate to 100%
M104 S140
M190 S70
G90
G28 ;home
G1 Z10 F300
G1 X67.5 Y0 F6000
G1 Z0 F300
M109 S240
G92 E0 ;Reset Extruder
G1 X67.5 Y0 Z0.4 F300 ;Move to start position
G1 X167.5 E30 F400 ;Draw the first line
G1 Z0.6 F120.0 ;Move to side a little
M73 P3 R9
G1 X162.5 F3000
G92 E0 ;Reset Extruder
G90
G21
M83 ; use relative distances for extrusion
; filament start gcode
M106 S0
;LAYER_CHANGE
;Z:0.2
;HEIGHT:0.2
;BEFORE_LAYER_CHANGE
G92 E0
;0.2


G1 E-.8 F3600
;AFTER_LAYER_CHANGE
;0.2
;_SET_FAN_SPEED_CHANGING_LAYER
SET_VELOCITY_LIMIT ACCEL=1000 ACCEL_TO_DECEL=500
SET_VELOCITY_LIMIT SQUARE_CORNER_VELOCITY=7
; printing object 单层模0_5齿21厚5孔3紧 电机轴.STL id:0 copy 0
EXCLUDE_OBJECT_START NAME=单层模0_5齿21厚5孔3紧_电机轴.STL_id_0_copy_0
G1 X113.783 Y115.004 F21000
G1 Z.4
G1 Z.2
G1 E.8 F2700
;TYPE:Inner wall
;WIDTH:0.419999
G1 F1684
G1 X113.781 Y115 E.00014
G1 X113.937 Y114.411 E.01813
G1 X113.947 Y113.9 E.01522
G1 X114.258 Y113.408 E.01735
G1 X114.429 Y112.898 E.01601
G1 X114.846 Y112.548 E.01619
G1 X115.186 Y112.083 E.01717
G1 X115.652 Y111.89 E.01503
G1 X116.149 Y111.527 E.01833
G1 X116.73 Y111.463 E.0174
G1 X117.233 Y111.28 E.01597
G1 X117.803 Y111.389 E.01728
G1 X118.342 Y111.363 E.01608
G1 X118.821 Y111.623 E.01623
G1 X119.377 Y111.769 E.01713
G1 X119.793 Y112.186 E.01752
G1 X120.247 Y112.462 E.01584
G1 X120.491 Y112.939 E.01595
G1 X120.873 Y113.381 E.01742
G1 X120.887 Y113.531 E.00449
G1 X121.004 Y114.018 E.0149
G1 X121.201 Y114.444 E.01399
G1 X121.134 Y114.999 E.01664
G1 X121.201 Y115.556 E.01672
G1 X121.127 Y115.688 E.00451
G1 X120.95 Y116.159 E.01497
G1 X120.873 Y116.619 E.01389
G1 X120.764 Y116.723 E.00449
G1 X120.457 Y117.118 E.0149
G1 X120.247 Y117.538 E.01399
G1 X119.791 Y117.816 E.01592
G1 X119.377 Y118.231 E.01744
G1 X118.823 Y118.376 E.01706
G1 X118.342 Y118.637 E.0163
G1 X117.807 Y118.61 E.01597
G1 X117.233 Y118.72 E.01739
G1 X116.746 Y118.541 E.01545
G1 X116.149 Y118.473 E.01791
G1 X115.665 Y118.117 E.01788
G1 X115.186 Y117.917 E.01548
G1 X115.109 Y117.787 E.00449
G1 X114.792 Y117.4 E.0149
G1 X114.43 Y117.102 E.01399
G1 X114.277 Y116.637 E.01457
G1 X113.947 Y116.1 E.01878
G1 X113.935 Y115.573 E.01569
G1 X113.793 Y115.043 E.01635
G1 X113.355 Y115.074 F21000
G1 F1684
G1 X113.231 Y115 E.0043
G1 X113.424 Y114.885 E.00669
G1 X113.547 Y114.457 E.01326
G1 X113.572 Y113.905 E.01646
G1 X113.443 Y113.745 E.00611
G1 X113.639 Y113.686 E.00611
G1 X113.883 Y113.312 E.01328
G1 X114.07 Y112.792 E.01647
G1 X113.994 Y112.601 E.0061
G1 X114.199 Y112.603 E.0061
G1 X114.574 Y112.287 E.01461
G1 X114.874 Y111.875 E.01516
G1 X114.857 Y111.671 E.00611
G1 X115.053 Y111.732 E.00611
G1 X115.483 Y111.552 E.01391
G1 X115.911 Y111.237 E.01583
G1 X115.956 Y111.036 E.00614
G1 X116.126 Y111.153 E.00614
G1 X116.566 Y111.111 E.01318
G1 X117.091 Y110.933 E.01652
G1 X117.194 Y110.753 E.00616
G1 X117.322 Y110.915 E.00616
G1 X117.754 Y111.005 E.01316
G1 X118.31 Y110.989 E.01656
G1 X118.46 Y110.849 E.0061
G1 X118.533 Y111.04 E.0061
G1 X118.964 Y111.274 E.0146
G1 X119.457 Y111.402 E.01517
G1 X119.641 Y111.312 E.00611
G1 X119.655 Y111.517 E.00611
G1 X119.965 Y111.838 E.01328
G1 X120.431 Y112.135 E.01647
G1 X120.634 Y112.104 E.00611
G1 X120.587 Y112.303 E.00611
G1 X120.808 Y112.735 E.01446
G1 X121.145 Y113.122 E.01527
G1 X121.349 Y113.152 E.00616
G1 X121.245 Y113.331 E.00616
G1 X121.319 Y113.766 E.01316
G1 X121.537 Y114.276 E.01652
G1 X121.723 Y114.365 E.00616
G1 X121.571 Y114.505 E.00616
G1 X121.514 Y114.943 E.01316
G1 X121.571 Y115.494 E.01649
G1 X121.746 Y115.638 E.00675
G1 X121.536 Y115.724 E.00675
G1 X121.352 Y116.128 E.01322
G1 X121.245 Y116.669 E.01643
G1 X121.369 Y116.857 E.00671
G1 X121.145 Y116.878 E.00671
G1 X120.85 Y117.207 E.01316
G1 X120.587 Y117.697 E.01656
G1 X120.649 Y117.911 E.00666
G1 X120.431 Y117.865 E.00666
G1 X120.017 Y118.117 E.01444
G1 X119.655 Y118.483 E.01533
G1 X119.652 Y118.707 E.00666
G1 X119.457 Y118.598 E.00666
G1 X119.027 Y118.704 E.0132
G1 X118.533 Y118.96 E.01656
G1 X118.464 Y119.173 E.00665
M73 P4 R9
G1 X118.31 Y119.011 E.00665
G1 X117.825 Y118.987 E.01448
G1 X117.321 Y119.085 E.01529
G1 X117.192 Y119.268 E.00666
G1 X117.092 Y119.068 E.00666
G1 X116.647 Y118.905 E.01413
G1 X116.126 Y118.847 E.01561
G1 X115.948 Y118.985 E.0067
G1 X115.911 Y118.763 E.0067
G1 X115.56 Y118.494 E.01317
G1 X115.054 Y118.268 E.01652
G1 X114.843 Y118.347 E.00671
G1 X114.873 Y118.124 E.00671
G1 X114.617 Y117.763 E.01318
G1 X114.2 Y117.398 E.0165
G1 X113.975 Y117.411 E.00671
G1 X114.07 Y117.207 E.00671
G1 X113.926 Y116.775 E.01356
G1 X113.64 Y116.315 E.01612
G1 X113.421 Y116.262 E.00671
G1 X113.572 Y116.094 E.00671
G1 X113.56 Y115.617 E.01423
G1 X113.424 Y115.115 E.01547
G1 X113.39 Y115.095 E.0012
G1 X113.103 Y115.326 F21000
;TYPE:Outer wall
G1 F1684
G1 X112.916 Y115.186 E.00695
;WIDTH:0.423487
G1 X112.538 Y115.19 E.01139
G1 X112.16 Y115.065 E.01196
G1 X112.16 Y114.935 E.00388
G1 X112.467 Y114.822 E.00985
G1 X112.916 Y114.814 E.0135
;WIDTH:0.419999
G1 X113.088 Y114.713 E.00593
G1 X113.181 Y114.365 E.01075
G1 X113.203 Y114.012 E.01052
G1 X113.085 Y113.829 E.00648
;WIDTH:0.423487
G1 X112.703 Y113.716 E.012
G1 X112.379 Y113.484 E.01196
G1 X112.417 Y113.361 E.00388
G1 X112.744 Y113.343 E.00985
G1 X113.175 Y113.468 E.0135
;WIDTH:0.419999
G1 X113.369 Y113.422 E.00593
G1 X113.561 Y113.116 E.01076
G1 X113.686 Y112.786 E.01052
G1 X113.627 Y112.576 E.00648
;WIDTH:0.423488
G1 X113.295 Y112.355 E.012
G1 X113.054 Y112.038 E.01196
G1 X113.126 Y111.932 E.00388
G1 X113.444 Y112.011 E.00985
G1 X113.82 Y112.257 E.0135
;WIDTH:0.419999
G1 X114.018 Y112.271 E.00592
G1 X114.237 Y112.084 E.00857
G1 X114.508 Y111.756 E.01268
G1 X114.514 Y111.539 E.00648
;WIDTH:0.423488
G1 X114.262 Y111.23 E.012
G1 X114.125 Y110.856 E.01196
G1 X114.226 Y110.776 E.00388
G1 X114.506 Y110.945 E.00985
G1 X114.792 Y111.291 E.0135
;WIDTH:0.419999
G1 X114.978 Y111.363 E.00593
G1 X115.174 Y111.279 E.00634
G1 X115.596 Y111.016 E.01482
G1 X115.667 Y110.809 E.00653
;WIDTH:0.423488
G1 X115.518 Y110.439 E.012
G1 X115.497 Y110.042 E.01196
G1 X115.617 Y109.995 E.00388
G1 X115.835 Y110.239 E.00985
G1 X116.006 Y110.654 E.0135
;WIDTH:0.419999
G1 X116.163 Y110.777 E.00593
G1 X116.443 Y110.747 E.00841
G1 X116.857 Y110.628 E.01283
G1 X116.984 Y110.451 E.00648
;WIDTH:0.423487
G1 X116.951 Y110.054 E.012
G1 X117.048 Y109.668 E.01196
G1 X117.176 Y109.658 E.00388
G1 X117.313 Y109.956 E.00985
G1 X117.354 Y110.403 E.0135
;WIDTH:0.419999
G1 X117.467 Y110.567 E.00594
G1 X117.806 Y110.631 E.01026
G1 X118.175 Y110.629 E.011
G1 X118.349 Y110.498 E.00648
;WIDTH:0.423487
G1 X118.433 Y110.108 E.012
G1 X118.64 Y109.768 E.01196
G1 X118.766 Y109.797 E.00388
G1 X118.808 Y110.122 E.00985
G1 X118.716 Y110.561 E.0135
;WIDTH:0.419999
G1 X118.776 Y110.751 E.00592
G1 X119.019 Y110.881 E.00823
G1 X119.434 Y111.019 E.01301
G1 X119.638 Y110.945 E.00648
;WIDTH:0.423487
G1 X119.834 Y110.597 E.012
G1 X120.132 Y110.333 E.01196
G1 X120.244 Y110.397 E.00388
G1 X120.189 Y110.72 E.00985
G1 X119.971 Y111.113 E.0135
;WIDTH:0.419999
G1 X119.972 Y111.312 E.00593
G1 X120.167 Y111.509 E.00826
G1 X120.522 Y111.762 E.01299
G1 X120.739 Y111.752 E.00648
;WIDTH:0.423488
G1 X121.029 Y111.477 E.012
G1 X121.391 Y111.313 E.01196
G1 X121.479 Y111.407 E.00388
G1 X121.331 Y111.7 E.00985
G1 X121.007 Y112.011 E.0135
;WIDTH:0.419999
G1 X120.95 Y112.201 E.00593
G1 X121.094 Y112.474 E.0092
G1 X121.343 Y112.793 E.01206
G1 X121.553 Y112.847 E.00648
;WIDTH:0.423487
G1 X121.911 Y112.67 E.012
G1 X122.306 Y112.62 E.01196
G1 X122.362 Y112.736 E.00388
G1 X122.134 Y112.972 E.00985
G1 X121.733 Y113.174 E.0135
;WIDTH:0.419999
G1 X121.622 Y113.339 E.00594
G1 X121.657 Y113.536 E.00595
G1 X121.823 Y114.02 E.01526
G1 X122.008 Y114.134 E.00648
;WIDTH:0.423487
G1 X122.402 Y114.07 E.012
G1 X122.794 Y114.139 E.01196
G1 X122.814 Y114.266 E.00388
G1 X122.527 Y114.425 E.00985
G1 X122.084 Y114.499 E.0135
;WIDTH:0.419999
G1 X121.929 Y114.624 E.00594
G1 X121.889 Y114.98 E.01067
G1 X121.92 Y115.335 E.01059
G1 X122.084 Y115.501 E.00696
;WIDTH:0.423487
G1 X122.459 Y115.553 E.01139
G1 X122.814 Y115.734 E.01196
G1 X122.794 Y115.861 E.00388
G1 X122.474 Y115.928 E.00985
G1 X122.029 Y115.869 E.0135
;WIDTH:0.419999
G1 X121.843 Y115.943 E.00594
G1 X121.7 Y116.274 E.01074
G1 X121.626 Y116.619 E.01052
G1 X121.733 Y116.826 E.00695
;WIDTH:0.423487
G1 X122.076 Y116.987 E.01139
G1 X122.362 Y117.264 E.01196
G1 X122.306 Y117.38 E.00388
G1 X121.98 Y117.35 E.00985
G1 X121.572 Y117.162 E.0135
;WIDTH:0.419999
G1 X121.373 Y117.178 E.00594
G1 X121.14 Y117.449 E.01067
G1 X120.966 Y117.76 E.01059
G1 X121.007 Y117.989 E.00696
;WIDTH:0.423486
G1 X121.288 Y118.244 E.01139
G1 X121.479 Y118.593 E.01196
G1 X121.391 Y118.687 E.00388
G1 X121.089 Y118.562 E.00985
G1 X120.754 Y118.262 E.0135
;WIDTH:0.419999
G1 X120.56 Y118.219 E.00593
G1 X120.254 Y118.411 E.01076
G1 X119.999 Y118.655 E.01052
G1 X119.971 Y118.887 E.00695
;WIDTH:0.423487
G1 X120.164 Y119.213 E.01139
G1 X120.244 Y119.603 E.01196
G1 X120.132 Y119.667 E.00388
G1 X119.88 Y119.458 E.00985
G1 X119.649 Y119.073 E.0135
;WIDTH:0.419999
G1 X119.476 Y118.974 E.00593
G1 X119.297 Y119.02 E.00551
G1 X118.811 Y119.226 E.01571
G1 X118.716 Y119.439 E.00696
;WIDTH:0.423487
G1 X118.804 Y119.807 E.01139
G1 X118.766 Y120.203 E.01196
G1 X118.64 Y120.232 E.00388
G1 X118.461 Y119.958 E.00985
G1 X118.353 Y119.522 E.0135
;WIDTH:0.419999
G1 X118.217 Y119.377 E.00592
G1 X117.906 Y119.365 E.00929
G1 X117.508 Y119.421 E.01197
G1 X117.354 Y119.597 E.00695
;WIDTH:0.423488
G1 X117.33 Y119.975 E.01139
G1 X117.176 Y120.342 E.01196
G1 X117.048 Y120.332 E.00388
G1 X116.957 Y120.017 E.00985
G1 X116.983 Y119.569 E.0135
;WIDTH:0.419999
G1 X116.896 Y119.39 E.00593
G1 X116.681 Y119.313 E.00679
G1 X116.205 Y119.223 E.01444
G1 X116.006 Y119.346 E.00696
;WIDTH:0.423488
G1 X115.872 Y119.7 E.01139
G1 X115.617 Y120.005 E.01196
G1 X115.497 Y119.958 E.00388
G1 X115.503 Y119.631 E.00985
G1 X115.66 Y119.21 E.0135
;WIDTH:0.419999
G1 X115.629 Y119.013 E.00593
G1 X115.392 Y118.837 E.00879
G1 X115.018 Y118.65 E.01245
G1 X114.792 Y118.709 E.00696
;WIDTH:0.423488
G1 X114.559 Y119.008 E.01139
G1 X114.226 Y119.224 E.01196
G1 X114.125 Y119.144 E.00388
G1 X114.227 Y118.833 E.00985
G1 X114.501 Y118.477 E.0135
;WIDTH:0.419999
G1 X114.53 Y118.28 E.00594
G1 X114.417 Y118.123 E.00576
G1 X114.053 Y117.753 E.01545
G1 X113.82 Y117.743 E.00695
;WIDTH:0.423487
G1 X113.509 Y117.959 E.01139
G1 X113.126 Y118.068 E.01196
G1 X113.054 Y117.962 E.00388
G1 X113.243 Y117.694 E.00985
G1 X113.61 Y117.435 E.0135
;WIDTH:0.419999
G1 X113.696 Y117.255 E.00594
G1 X113.589 Y116.95 E.00964
G1 X113.395 Y116.611 E.01161
G1 X113.175 Y116.532 E.00696
;WIDTH:0.423487
G1 X112.815 Y116.648 E.01139
G1 X112.417 Y116.639 E.01196
G1 X112.379 Y116.516 E.00388
G1 X112.639 Y116.316 E.00985
G1 X113.066 Y116.177 E.0135
;WIDTH:0.419999
G1 X113.2 Y116.03 E.00594
G1 X113.187 Y115.672 E.01067
G1 X113.113 Y115.365 E.0094
G1 E-.68 F3600
;WIPE_START
G1 F3000
G1 X112.916 Y115.186 E-.03187
G1 X112.538 Y115.19 E-.04545
G1 X112.2 Y115.078 E-.04268
;WIPE_END
G1 X119.46 Y113.41 Z.6 F21000
G1 Z.2
G1 E.8 F2700
;TYPE:Inner wall
G1 F1684
G1 X119.542 Y113.57 E.00534
G1 X119.576 Y113.98 E.01226
G1 X119.576 Y116.179 E.06549
G1 X119.542 Y116.43 E.00756
G1 X119.365 Y116.774 E.01151
G1 X118.939 Y117.128 E.0165
G1 X118.414 Y117.377 E.01731
G1 X118.005 Y117.515 E.01285
G1 X117.359 Y117.551 E.01927
G1 X117.042 Y117.512 E.00952
G1 X116.515 Y117.354 E.01639
G1 X116.166 Y117.164 E.01184
G1 X115.705 Y116.819 E.01715
G1 X115.255 Y116.2 E.0228
G1 X115.123 Y115.909 E.00952
G1 X114.984 Y115.376 E.01639
G1 X114.958 Y115.047 E.00985
G1 X115.004 Y114.51 E.01605
G1 X115.084 Y114.2 E.00952
G1 X115.312 Y113.699 E.01639
G1 X115.542 Y113.382 E.01169
G1 X115.932 Y112.982 E.01663
G1 X116.342 Y112.744 E.01411
G1 X116.812 Y112.533 E.01536
G1 X117.348 Y112.46 E.01612
G1 X117.707 Y112.445 E.01069
G1 X118.221 Y112.544 E.01559
G1 X118.73 Y112.753 E.01639
G1 X119.155 Y113.034 E.01518
G1 X119.367 Y113.23 E.0086
G1 X119.442 Y113.375 E.00486
G1 X119.106 Y113.532 F21000
G1 F1684
G1 X119.155 Y113.603 E.00259
G1 X119.199 Y113.821 E.00663
G1 X119.199 Y116.179 E.07022
G1 X119.13 Y116.45 E.00835
G1 X118.926 Y116.666 E.00883
G1 X118.587 Y116.898 E.01224
G1 X118.078 Y117.107 E.01639
G1 X117.551 Y117.165 E.01579
G1 X117.151 Y117.151 E.01193
G1 X116.624 Y116.993 E.01639
G1 X116.132 Y116.671 E.01751
G1 X115.876 Y116.443 E.01021
G1 X115.567 Y115.988 E.01639
G1 X115.453 Y115.679 E.00982
G1 X115.332 Y115.09 E.0179
G1 X115.379 Y114.542 E.01639
G1 X115.585 Y114.01 E.01699
G1 X115.763 Y113.697 E.01073
G1 X116.145 Y113.3 E.01639
G1 X116.51 Y113.082 E.01269
G1 X116.975 Y112.886 E.01501
G1 X117.515 Y112.819 E.01623
G1 X117.994 Y112.866 E.01432
G1 X118.587 Y113.102 E.01902
G1 X119.018 Y113.407 E.01574
G1 X119.083 Y113.499 E.00334
G1 X118.803 Y113.761 F21000
;TYPE:Outer wall
G1 F1684
G1 X118.822 Y114.304 E.01621
G1 X118.822 Y116.179 E.05583
G1 X118.751 Y116.326 E.00487
G1 X118.444 Y116.549 E.0113
G1 X117.935 Y116.758 E.01639
G1 X117.323 Y116.798 E.01827
G1 X116.755 Y116.638 E.01757
G1 X116.232 Y116.277 E.01893
G1 X115.879 Y115.776 E.01827
G1 X115.738 Y115.277 E.01545
G1 X115.709 Y115.111 E.00503
G1 X115.755 Y114.574 E.01605
G1 X115.975 Y114.064 E.01654
G1 X116.287 Y113.696 E.01438
G1 X116.468 Y113.524 E.00744
G1 X117.021 Y113.26 E.01825
G1 X117.562 Y113.193 E.01623
G1 X117.935 Y113.242 E.01122
G1 X118.444 Y113.451 E.01639
G1 X118.789 Y113.727 E.01316
G1 E-.68 F3600
;WIPE_START
G1 F3000
G1 X118.822 Y114.304 E-.06946
G1 X118.822 Y114.726 E-.05054
;WIPE_END
G1 X118.314 Y111.482 Z.6 F21000
M73 P5 R9
G1 Z.2
G1 E.8 F2700
;TYPE:Bottom surface
;WIDTH:0.423508
G1 F1684
G1 X120.66 Y113.828 E.09977
G1 X120.742 Y114.124 E.00921
G1 X120.907 Y114.489 E.01205
G1 X120.894 Y114.601 E.00337
G1 X119.82 Y113.526 E.04568
G1 X119.709 Y113.234 E.0094
G1 X119.588 Y113.052 E.00655
G1 X119.467 Y112.923 E.00534
G1 X119.106 Y112.643 E.01373
G1 X118.907 Y112.522 E.007
G1 X118.757 Y112.463 E.00485
G1 X117.959 Y111.666 E.03391
G1 X117.788 Y111.672 E.00516
G1 X117.361 Y111.606 E.01298
G1 X117.951 Y112.195 E.02507
G1 X117.738 Y112.164 E.00646
G1 X117.387 Y112.17 E.01056
G1 X116.914 Y111.697 E.0201
G1 X116.798 Y111.738 E.00371
G1 X116.459 Y111.78 E.01028
G1 X116.908 Y112.229 E.01911
G1 X116.679 Y112.276 E.00702
G1 X116.502 Y112.361 E.00592
G1 X116.08 Y111.939 E.01791
G1 X115.755 Y112.153 E.01169
G1 X116.136 Y112.534 E.01621
G1 X116 Y112.599 E.00455
G1 X115.798 Y112.734 E.0073
G1 X115.378 Y112.314 E.01786
G1 X115.145 Y112.619 E.01154
G1 X115.523 Y112.997 E.0161
G1 X115.26 Y113.272 E.01144
G1 X114.879 Y112.891 E.01619
G1 X114.676 Y113.066 E.00807
G1 X114.634 Y113.185 E.00378
G1 X115.047 Y113.598 E.01756
