; HEADER_BLOCK_START
; generated by OrcaSlicer 2.1.1 on 2024-11-17 at 19:38:52
; total layer number: 91
; filament_density: 1.24
; filament_diameter: 1.75
; max_z_height: 7.40
; HEADER_BLOCK_END

; THUMBNAIL_BLOCK_START

;
; THUMBNAIL_BLOCK_END







; external perimeters extrusion width = 0.40mm
; perimeters extrusion width = 0.45mm
; infill extrusion width = 0.45mm
; solid infill extrusion width = 0.45mm
; top infill extrusion width = 0.38mm
; first layer extrusion width = 0.42mm

; EXECUTABLE_BLOCK_START
EXCLUDE_OBJECT_DEFINE NAME=单层模0_5齿20厚5孔3紧_推杆轴.STL_id_0_copy_0 CENTER=117.5,115 POLYGON=[[112.038,114.353],[112.105,113.928],[112.506,112.697],[112.701,112.313],[113.462,111.266],[113.766,110.962],[114.813,110.201],[115.197,110.006],[116.428,109.605],[116.853,109.538],[118.147,109.538],[118.572,109.605],[119.803,110.006],[120.187,110.201],[121.234,110.962],[121.538,111.266],[122.299,112.313],[122.494,112.697],[122.895,113.928],[122.962,114.353],[122.962,115.647],[122.895,116.072],[122.494,117.303],[122.299,117.687],[121.538,118.734],[121.234,119.038],[120.187,119.799],[119.803,119.994],[118.572,120.395],[118.147,120.462],[116.853,120.462],[116.428,120.395],[115.197,119.994],[114.813,119.799],[113.766,119.038],[113.462,118.734],[112.701,117.687],[112.506,117.303],[112.105,116.072],[112.038,115.647],[112.038,114.353]]
M73 P0 R11
;TYPE:Custom
;ELEGOO NEPTUNE 4 PRO
M220 S100 ;Set the feed speed to 100%
M221 S100 ;Set the flow rate to 100%
M104 S140
M190 S60
G90
G28 ;home
G1 Z10 F300
G1 X67.5 Y0 F6000
G1 Z0 F300
M109 S210
G92 E0 ;Reset Extruder
G1 X67.5 Y0 Z0.4 F300 ;Move to start position
G1 X167.5 E30 F400 ;Draw the first line
G1 Z0.6 F120.0 ;Move to side a little
M73 P2 R10
G1 X162.5 F3000
G92 E0 ;Reset Extruder
G90
G21
M83 ; use relative distances for extrusion
; filament start gcode
M106 S0
;LAYER_CHANGE
;Z:0.2
;HEIGHT:0.2
;BEFORE_LAYER_CHANGE
G92 E0
;0.2


G1 E-.8 F3600
;AFTER_LAYER_CHANGE
;0.2
;_SET_FAN_SPEED_CHANGING_LAYER
SET_VELOCITY_LIMIT ACCEL=1000 ACCEL_TO_DECEL=500
SET_VELOCITY_LIMIT SQUARE_CORNER_VELOCITY=7
; printing object 单层模0_5齿20厚5孔3紧 推杆轴.STL id:0 copy 0
EXCLUDE_OBJECT_START NAME=单层模0_5齿20厚5孔3紧_推杆轴.STL_id_0_copy_0
M73 P3 R10
G1 X114.081 Y114.596 F21000
G1 Z.4
G1 Z.2
G1 E.8 F2700
;TYPE:Inner wall
;WIDTH:0.419999
G1 F1630
G1 X114.064 Y114.456 E.00434
G1 X114.302 Y113.926 E.01783
G1 X114.401 Y113.421 E.01583
G1 X114.79 Y112.991 E.01783
G1 X115.04 Y112.54 E.01583
G1 X115.546 Y112.25 E.0179
G1 X115.921 Y111.901 E.01575
G1 X116.489 Y111.782 E.01783
G1 X116.956 Y111.565 E.01583
G1 X117.535 Y111.627 E.0179
G1 X118.044 Y111.564 E.01575
G1 X118.574 Y111.802 E.01783
G1 X119.079 Y111.901 E.01583
G1 X119.509 Y112.29 E.01783
G1 X119.96 Y112.54 E.01583
G1 X120.25 Y113.045 E.01789
G1 X120.599 Y113.421 E.01576
G1 X120.719 Y113.991 E.01791
G1 X120.936 Y114.456 E.01575
G1 X120.873 Y115.033 E.01783
G1 X120.936 Y115.544 E.01583
G1 X120.698 Y116.074 E.01783
G1 X120.599 Y116.579 E.01583
G1 X120.21 Y117.009 E.01783
G1 X119.96 Y117.46 E.01583
G1 X119.455 Y117.75 E.01789
G1 X119.079 Y118.099 E.01576
G1 X118.509 Y118.219 E.01791
G1 X118.044 Y118.436 E.01575
G1 X117.467 Y118.373 E.01783
G1 X116.956 Y118.436 E.01583
G1 X116.426 Y118.198 E.01783
G1 X115.921 Y118.099 E.01583
G1 X115.491 Y117.71 E.01783
G1 X115.04 Y117.46 E.01583
G1 X114.75 Y116.955 E.01789
G1 X114.401 Y116.579 E.01576
G1 X114.281 Y116.009 E.01791
G1 X114.064 Y115.544 E.01575
G1 X114.127 Y114.967 E.01783
G1 X114.086 Y114.636 E.01026
G1 X113.614 Y114.435 F21000
G1 F1630
G1 X113.549 Y114.374 E.00273
G1 X113.727 Y114.292 E.00601
G1 X113.927 Y113.862 E.01458
G1 X114.031 Y113.355 E.01589
G1 X113.936 Y113.184 E.00601
G1 X114.13 Y113.16 E.00601
G1 X114.453 Y112.813 E.01458
G1 X114.709 Y112.364 E.01587
G1 X114.671 Y112.171 E.00604
G1 X114.864 Y112.209 E.00604
G1 X115.28 Y111.977 E.01463
G1 X115.66 Y111.63 E.01582
G1 X115.684 Y111.436 E.00601
G1 X115.855 Y111.531 E.00601
G1 X116.321 Y111.44 E.01457
G1 X116.791 Y111.227 E.01587
G1 X116.874 Y111.049 E.00604
G1 X117.008 Y111.193 E.00604
G1 X117.481 Y111.25 E.01463
G1 X117.992 Y111.192 E.01582
G1 X118.126 Y111.049 E.00601
G1 X118.208 Y111.227 E.00601
G1 X118.638 Y111.427 E.01457
G1 X119.145 Y111.531 E.0159
G1 X119.316 Y111.436 E.00601
G1 X119.34 Y111.63 E.00601
G1 X119.687 Y111.953 E.01458
G1 X120.136 Y112.209 E.01587
G1 X120.329 Y112.171 E.00604
G1 X120.291 Y112.364 E.00604
G1 X120.523 Y112.78 E.01463
G1 X120.87 Y113.16 E.01582
G1 X121.064 Y113.184 E.00601
G1 X120.969 Y113.355 E.00601
G1 X121.061 Y113.823 E.01465
G1 X121.273 Y114.292 E.01582
G1 X121.451 Y114.374 E.00601
G1 X121.308 Y114.508 E.00601
G1 X121.25 Y114.978 E.01457
G1 X121.308 Y115.493 E.0159
G1 X121.467 Y115.628 E.00643
G1 X121.273 Y115.708 E.00643
G1 X121.073 Y116.139 E.01458
G1 X120.969 Y116.645 E.01589
G1 X121.078 Y116.823 E.00643
G1 X120.87 Y116.84 E.00643
G1 X120.547 Y117.187 E.01458
G1 X120.291 Y117.636 E.01587
G1 X120.34 Y117.84 E.00646
G1 X120.136 Y117.791 E.00646
G1 X119.72 Y118.023 E.01463
G1 X119.34 Y118.37 E.01582
G1 X119.323 Y118.578 E.00643
G1 X119.145 Y118.469 E.00643
G1 X118.677 Y118.561 E.01465
G1 X118.208 Y118.773 E.01582
G1 X118.128 Y118.967 E.00643
G1 X117.992 Y118.808 E.00643
G1 X117.522 Y118.75 E.01457
G1 X117.007 Y118.808 E.0159
G1 X116.872 Y118.967 E.00643
G1 X116.792 Y118.773 E.00643
G1 X116.362 Y118.573 E.01458
G1 X115.855 Y118.469 E.01589
G1 X115.677 Y118.578 E.00643
G1 X115.66 Y118.37 E.00643
G1 X115.313 Y118.047 E.01458
G1 X114.864 Y117.791 E.01587
G1 X114.66 Y117.84 E.00646
G1 X114.709 Y117.636 E.00646
G1 X114.477 Y117.22 E.01463
G1 X114.13 Y116.84 E.01582
G1 X113.922 Y116.823 E.00643
G1 X114.031 Y116.645 E.00643
G1 X113.939 Y116.177 E.01465
G1 X113.727 Y115.708 E.01582
G1 X113.533 Y115.628 E.00643
G1 X113.692 Y115.492 E.00643
G1 X113.75 Y115.022 E.01457
G1 X113.692 Y114.507 E.0159
G1 X113.644 Y114.462 E.00205
G1 X113.199 Y114.505 F21000
;TYPE:Outer wall
;WIDTH:0.411421
G1 F1630
G1 X112.622 Y114.413 E.01757
;WIDTH:0.409314
G1 X112.341 Y114.228 E.01004
G1 X112.355 Y114.14 E.00267
G1 X112.634 Y114.044 E.00882
;WIDTH:0.410018
G1 X113.241 Y114.14 E.01839
;WIDTH:0.419999
G1 X113.422 Y114.069 E.00596
G1 X113.568 Y113.742 E.01101
G1 X113.649 Y113.398 E.01088
G1 X113.563 Y113.2 E.00663
;WIDTH:0.41142
G1 X113.042 Y112.934 E.01757
;WIDTH:0.409313
G1 X112.832 Y112.672 E.01004
G1 X112.872 Y112.592 E.00267
G1 X113.168 Y112.587 E.00882
;WIDTH:0.410019
G1 X113.716 Y112.866 E.01839
;WIDTH:0.419999
G1 X113.909 Y112.855 E.00596
G1 X114.149 Y112.589 E.01101
G1 X114.333 Y112.286 E.01088
G1 X114.312 Y112.072 E.00663
;WIDTH:0.41142
G1 X113.898 Y111.657 E.01757
;WIDTH:0.409312
G1 X113.78 Y111.343 E.01004
G1 X113.843 Y111.28 E.00267
G1 X114.125 Y111.366 E.00882
;WIDTH:0.410018
G1 X114.56 Y111.801 E.01839
;WIDTH:0.419999
G1 X114.748 Y111.85 E.00597
G1 X115.061 Y111.67 E.01108
G1 X115.327 Y111.44 E.0108
G1 X115.373 Y111.23 E.00662
;WIDTH:0.41142
G1 X115.108 Y110.708 E.01757
;WIDTH:0.409314
G1 X115.092 Y110.372 E.01004
G1 X115.172 Y110.332 E.00267
G1 X115.413 Y110.501 E.00882
;WIDTH:0.410018
G1 X115.693 Y111.049 E.01839
;WIDTH:0.419999
G1 X115.856 Y111.154 E.00596
G1 X116.206 Y111.08 E.01101
G1 X116.533 Y110.943 E.01088
G1 X116.642 Y110.757 E.00663
;WIDTH:0.411418
G1 X116.551 Y110.179 E.01756
;WIDTH:0.409325
G1 X116.64 Y109.855 E.01005
G1 X116.728 Y109.841 E.00266
G1 X116.906 Y110.077 E.00884
;WIDTH:0.410016
G1 X117.002 Y110.684 E.01838
;WIDTH:0.419999
G1 X117.125 Y110.834 E.00597
G1 X117.484 Y110.872 E.01108
G1 X117.834 Y110.843 E.0108
G1 X117.995 Y110.699 E.00662
;WIDTH:0.411421
G1 X118.087 Y110.122 E.01757
;WIDTH:0.409315
G1 X118.272 Y109.841 E.01003
G1 X118.36 Y109.855 E.00268
G1 X118.456 Y110.134 E.0088
;WIDTH:0.410018
G1 X118.36 Y110.741 E.01839
;WIDTH:0.419999
G1 X118.431 Y110.922 E.00596
G1 X118.758 Y111.068 E.01101
G1 X119.102 Y111.149 E.01088
G1 X119.3 Y111.063 E.00663
;WIDTH:0.411421
G1 X119.566 Y110.542 E.01757
;WIDTH:0.409314
G1 X119.828 Y110.332 E.01004
G1 X119.908 Y110.372 E.00267
G1 X119.913 Y110.668 E.00882
;WIDTH:0.410019
G1 X119.634 Y111.216 E.01839
;WIDTH:0.419999
G1 X119.645 Y111.409 E.00596
G1 X119.911 Y111.649 E.01101
G1 X120.214 Y111.833 E.01088
G1 X120.429 Y111.812 E.00663
;WIDTH:0.411418
G1 X120.843 Y111.398 E.01757
;WIDTH:0.409311
G1 X121.157 Y111.28 E.01004
G1 X121.22 Y111.343 E.00267
G1 X121.134 Y111.625 E.00882
;WIDTH:0.410016
G1 X120.699 Y112.06 E.01839
;WIDTH:0.419999
G1 X120.65 Y112.248 E.00597
G1 X120.83 Y112.561 E.01108
G1 X121.059 Y112.826 E.01077
G1 X121.27 Y112.873 E.00665
;WIDTH:0.41142
G1 X121.792 Y112.608 E.01757
;WIDTH:0.409314
G1 X122.128 Y112.592 E.01004
G1 X122.168 Y112.672 E.00267
G1 X121.999 Y112.913 E.00882
;WIDTH:0.410018
G1 X121.451 Y113.193 E.01839
;WIDTH:0.419999
G1 X121.346 Y113.356 E.00596
G1 X121.42 Y113.705 E.01098
G1 X121.557 Y114.033 E.01092
G1 X121.743 Y114.142 E.00662
;WIDTH:0.411419
G1 X122.321 Y114.051 E.01757
;WIDTH:0.409314
G1 X122.645 Y114.14 E.01004
G1 X122.659 Y114.228 E.00267
G1 X122.423 Y114.406 E.00882
;WIDTH:0.410017
G1 X121.816 Y114.502 E.01839
;WIDTH:0.419999
G1 X121.666 Y114.625 E.00596
G1 X121.628 Y114.981 E.01101
G1 X121.657 Y115.334 E.01088
G1 X121.816 Y115.498 E.00701
;WIDTH:0.410019
G1 X122.378 Y115.587 E.01703
;WIDTH:0.409313
G1 X122.624 Y115.745 E.0087
G1 X122.645 Y115.86 E.0035
G1 X122.366 Y115.956 E.00882
;WIDTH:0.410019
G1 X121.759 Y115.86 E.01839
;WIDTH:0.419999
G1 X121.578 Y115.931 E.00596
G1 X121.432 Y116.258 E.01101
G1 X121.351 Y116.602 E.01088
G1 X121.451 Y116.807 E.00701
;WIDTH:0.410018
G1 X121.958 Y117.066 E.01703
;WIDTH:0.409314
G1 X122.168 Y117.328 E.01004
G1 X122.128 Y117.408 E.00267
G1 X121.832 Y117.413 E.00882
;WIDTH:0.410017
G1 X121.284 Y117.134 E.01839
;WIDTH:0.419999
G1 X121.091 Y117.145 E.00596
G1 X120.851 Y117.411 E.01101
G1 X120.667 Y117.714 E.01088
G1 X120.699 Y117.94 E.00701
;WIDTH:0.410017
G1 X121.102 Y118.343 E.01703
;WIDTH:0.40931
G1 X121.22 Y118.657 E.01004
G1 X121.157 Y118.72 E.00267
G1 X120.875 Y118.634 E.00882
;WIDTH:0.410017
G1 X120.44 Y118.199 E.01839
;WIDTH:0.419999
G1 X120.252 Y118.15 E.00597
G1 X119.939 Y118.33 E.01108
G1 X119.674 Y118.559 E.01077
G1 X119.634 Y118.784 E.00704
;WIDTH:0.410017
G1 X119.892 Y119.292 E.01703
;WIDTH:0.409312
G1 X119.908 Y119.628 E.01004
G1 X119.828 Y119.668 E.00267
G1 X119.587 Y119.499 E.00882
;WIDTH:0.410017
G1 X119.307 Y118.951 E.01839
;WIDTH:0.419999
G1 X119.144 Y118.846 E.00596
G1 X118.795 Y118.92 E.01098
G1 X118.467 Y119.057 E.01092
G1 X118.36 Y119.259 E.00701
;WIDTH:0.410017
G1 X118.449 Y119.821 E.01703
;WIDTH:0.409313
G1 X118.36 Y120.145 E.01004
G1 X118.272 Y120.159 E.00267
G1 X118.094 Y119.923 E.00882
;WIDTH:0.410017
G1 X117.998 Y119.316 E.01839
;WIDTH:0.419999
G1 X117.875 Y119.166 E.00596
G1 X117.519 Y119.128 E.01101
G1 X117.166 Y119.157 E.01088
G1 X117.002 Y119.316 E.00701
;WIDTH:0.410019
G1 X116.913 Y119.879 E.01703
;WIDTH:0.409313
G1 X116.728 Y120.159 E.01004
G1 X116.64 Y120.145 E.00267
G1 X116.544 Y119.866 E.00882
;WIDTH:0.410019
G1 X116.64 Y119.259 E.01839
;WIDTH:0.419999
G1 X116.569 Y119.078 E.00596
G1 X116.242 Y118.932 E.01101
G1 X115.898 Y118.851 E.01088
G1 X115.693 Y118.951 E.00701
;WIDTH:0.410018
G1 X115.434 Y119.458 E.01703
;WIDTH:0.409312
G1 X115.172 Y119.668 E.01004
G1 X115.092 Y119.628 E.00267
G1 X115.087 Y119.332 E.00882
;WIDTH:0.410019
G1 X115.366 Y118.784 E.01839
;WIDTH:0.419999
G1 X115.355 Y118.591 E.00596
G1 X115.089 Y118.351 E.01101
G1 X114.786 Y118.167 E.01088
G1 X114.56 Y118.199 E.00701
;WIDTH:0.410018
G1 X114.157 Y118.602 E.01703
;WIDTH:0.409311
G1 X113.843 Y118.72 E.01004
G1 X113.78 Y118.657 E.00267
G1 X113.866 Y118.375 E.00882
;WIDTH:0.410018
G1 X114.301 Y117.94 E.01839
;WIDTH:0.419999
G1 X114.35 Y117.752 E.00597
G1 X114.17 Y117.439 E.01108
G1 X113.941 Y117.174 E.01077
G1 X113.716 Y117.134 E.00704
;WIDTH:0.410017
G1 X113.208 Y117.392 E.01703
;WIDTH:0.409313
G1 X112.872 Y117.408 E.01004
G1 X112.832 Y117.328 E.00267
G1 X113.001 Y117.087 E.00882
;WIDTH:0.410017
G1 X113.549 Y116.807 E.01839
;WIDTH:0.419999
G1 X113.654 Y116.644 E.00596
G1 X113.58 Y116.295 E.01097
G1 X113.443 Y115.967 E.01092
G1 X113.241 Y115.86 E.00701
;WIDTH:0.410018
G1 X112.679 Y115.949 E.01703
;WIDTH:0.409313
G1 X112.355 Y115.86 E.01004
G1 X112.341 Y115.772 E.00267
G1 X112.577 Y115.594 E.00882
;WIDTH:0.410018
G1 X113.184 Y115.498 E.01839
;WIDTH:0.419999
G1 X113.334 Y115.375 E.00596
G1 X113.372 Y115.019 E.01101
G1 X113.343 Y114.666 E.01088
G1 X113.226 Y114.535 E.0054
G1 E-.68 F3600
;WIPE_START
G1 F3000
M73 P4 R10
G1 X112.622 Y114.413 E-.074
G1 X112.341 Y114.228 E-.04034
G1 X112.348 Y114.182 E-.00566
;WIPE_END
G1 X119.954 Y113.548 Z.6 F21000
G1 X120.496 Y113.503 Z.6
G1 Z.2
G1 E.8 F2700
;TYPE:Bottom surface
;WIDTH:0.440044
G1 F1630
G1 X119.737 Y112.744 E.03472
G1 X119.315 Y112.5 E.01578
G1 X118.944 Y112.166 E.01614
G1 X118.508 Y112.076 E.01442
G1 X120.428 Y113.997 E.08788
G1 X120.641 Y114.502 E.01776
G1 X120.616 Y114.746 E.00793
G1 X117.754 Y111.884 E.13098
G1 X117.501 Y111.911 E.00823
G1 X117.186 Y111.878 E.01025
G1 X120.622 Y115.314 E.15727
G1 X120.641 Y115.498 E.00596
G1 X120.519 Y115.773 E.00974
G1 X116.727 Y111.981 E.17353
G1 X116.544 Y112.062 E.00648
G1 X116.299 Y112.114 E.00811
G1 X120.386 Y116.201 E.18702
G1 X120.334 Y116.444 E.00804
G1 X120.208 Y116.584 E.00611
G1 X115.916 Y112.292 E.19642
G1 X115.685 Y112.5 E.01004
G1 X115.607 Y112.545 E.00292
G1 X119.955 Y116.893 E.19899
G1 X119.749 Y117.249 E.0133
G1 X115.251 Y112.751 E.20584
G1 X115.045 Y113.107 E.0133
G1 X119.393 Y117.455 E.19899
G1 X119.315 Y117.5 E.00292
G1 X119.084 Y117.708 E.01005
G1 X114.792 Y113.416 E.19642
G1 X114.666 Y113.556 E.00611
G1 X114.614 Y113.799 E.00804
G1 X118.701 Y117.886 E.18702
G1 X118.454 Y117.939 E.00818
G1 X118.273 Y118.019 E.00642
G1 X114.481 Y114.227 E.17352
G1 X114.359 Y114.502 E.00974
G1 X114.378 Y114.686 E.00597
G1 X117.814 Y118.122 E.15726
G1 X117.501 Y118.089 E.01018
G1 X117.246 Y118.116 E.00829
G1 X114.384 Y115.254 E.13098
G1 X114.359 Y115.498 E.00793
G1 X114.572 Y116.003 E.01777
G1 X116.497 Y117.928 E.08807
G1 X116.056 Y117.834 E.01457
G1 X115.685 Y117.5 E.01616
G1 X115.262 Y117.255 E.01579
G1 X114.504 Y116.497 E.03471
; stop printing object 单层模0_5齿20厚5孔3紧 推杆轴.STL id:0 copy 0
M106 S255
;LAYER_CHANGE
;Z:0.28
;HEIGHT:0.08
;BEFORE_LAYER_CHANGE
G92 E0
;0.28


G1 E-.68 F3600
;WIPE_START
G1 F4800
G1 X115.211 Y117.204 E-.12
;WIPE_END
EXCLUDE_OBJECT_END NAME=单层模0_5齿20厚5孔3紧_推杆轴.STL_id_0_copy_0
;AFTER_LAYER_CHANGE
;0.28
;_SET_FAN_SPEED_CHANGING_LAYER
SET_VELOCITY_LIMIT ACCEL=5000 ACCEL_TO_DECEL=2500
SET_VELOCITY_LIMIT SQUARE_CORNER_VELOCITY=9
M104 S205 ; set nozzle temperature
M140 S60 ; set bed temperature
; printing object 单层模0_5齿20厚5孔3紧 推杆轴.STL id:0 copy 0
EXCLUDE_OBJECT_START NAME=单层模0_5齿20厚5孔3紧_推杆轴.STL_id_0_copy_0
G1 X114.143 Y114.468 Z.6 F21000
G1 Z.28
G1 E.8 F2700
SET_VELOCITY_LIMIT ACCEL=3000 ACCEL_TO_DECEL=1500 SQUARE_CORNER_VELOCITY=7
;TYPE:Inner wall
;WIDTH:0.449999
G1 F1409
G1 X114.338 Y113.973 E.00751
G1 X114.472 Y113.457 E.00751
G1 X114.811 Y113.046 E.00751
G1 X115.097 Y112.597 E.00751
G1 X115.546 Y112.311 E.00751
G1 X115.957 Y111.972 E.00751
G1 X116.473 Y111.838 E.00751
G1 X116.968 Y111.643 E.00751
G1 X117.5 Y111.676 E.00751
G1 X118.032 Y111.643 E.00751
G1 X118.527 Y111.838 E.00752
G1 X119.043 Y111.972 E.00751
G1 X119.454 Y112.311 E.00751
G1 X119.903 Y112.597 E.00751
G1 X120.189 Y113.046 E.00751
G1 X120.528 Y113.457 E.00751
G1 X120.662 Y113.973 E.00751
G1 X120.857 Y114.468 E.00751
G1 X120.824 Y115 E.00751
G1 X120.857 Y115.532 E.00751
G1 X120.662 Y116.027 E.00751
G1 X120.528 Y116.543 E.00751
G1 X120.189 Y116.954 E.00751
G1 X119.903 Y117.403 E.00751
G1 X119.454 Y117.689 E.00751
G1 X119.043 Y118.028 E.00751
G1 X118.527 Y118.162 E.00751
G1 X118.032 Y118.357 E.00751
G1 X117.5 Y118.324 E.00751
G1 X116.968 Y118.357 E.00751
G1 X116.473 Y118.162 E.00751
G1 X115.957 Y118.028 E.00751
G1 X115.546 Y117.689 E.00751
G1 X115.097 Y117.403 E.00751
G1 X114.811 Y116.954 E.00751
G1 X114.472 Y116.543 E.00751
G1 X114.338 Y116.027 E.00751
G1 X114.143 Y115.532 E.00751
G1 X114.176 Y115 E.00751
G1 X114.146 Y114.508 E.00695
SET_VELOCITY_LIMIT ACCEL=5000 ACCEL_TO_DECEL=2500 SQUARE_CORNER_VELOCITY=9
G1 X113.613 Y114.384 F21000
