; HEADER_BLOCK_START
; generated by OrcaSlicer 2.1.1 on 2024-12-08 at 16:10:45
; total layer number: 361
; filament_density: 1.27
; filament_diameter: 1.75
; max_z_height: 29.00
; HEADER_BLOCK_END

; THUMBNAIL_BLOCK_START

;
; THUMBNAIL_BLOCK_END







; external perimeters extrusion width = 0.40mm
; perimeters extrusion width = 0.45mm
; infill extrusion width = 0.45mm
; solid infill extrusion width = 0.45mm
; top infill extrusion width = 0.38mm
; first layer extrusion width = 0.42mm

; EXECUTABLE_BLOCK_START
EXCLUDE_OBJECT_DEFINE NAME=固定杆_-_30mm.STL_id_0_copy_0 CENTER=117.5,115 POLYGON=[[112.5,109],[122.5,109],[122.5,121],[112.5,121],[112.5,109]]
M73 P0 R53
;TYPE:Custom
;ELEGOO NEPTUNE 4 PRO
M220 S100 ;Set the feed speed to 100%
M221 S100 ;Set the flow rate to 100%
M104 S140
M190 S70
G90
G28 ;home
G1 Z10 F300
G1 X67.5 Y0 F6000
G1 Z0 F300
M109 S240
G92 E0 ;Reset Extruder
G1 X67.5 Y0 Z0.4 F300 ;Move to start position
G1 X167.5 E30 F400 ;Draw the first line
G1 Z0.6 F120.0 ;Move to side a little
G1 X162.5 F3000
G92 E0 ;Reset Extruder
G90
G21
M83 ; use relative distances for extrusion
; filament start gcode
M106 S0
;LAYER_CHANGE
;Z:0.2
;HEIGHT:0.2
;BEFORE_LAYER_CHANGE
G92 E0
;0.2


G1 E-.8 F3600
;AFTER_LAYER_CHANGE
;0.2
;_SET_FAN_SPEED_CHANGING_LAYER
SET_VELOCITY_LIMIT ACCEL=1000 ACCEL_TO_DECEL=500
SET_VELOCITY_LIMIT SQUARE_CORNER_VELOCITY=7
; printing object 固定杆 - 30mm.STL id:0 copy 0
EXCLUDE_OBJECT_START NAME=固定杆_-_30mm.STL_id_0_copy_0
G1 X113.658 Y118.001 F21000
G1 Z.4
G1 Z.2
G1 E.8 F2700
;TYPE:Inner wall
;WIDTH:0.60727
G1 F1956
G1 X113.732 Y118.107 E.00577
;WIDTH:0.560453
G1 X113.806 Y118.213 E.00529
;WIDTH:0.513635
G1 X113.88 Y118.319 E.00481
;WIDTH:0.466817
G1 X113.954 Y118.425 E.00433
;WIDTH:0.419999
G1 X114.384 Y118.717 E.01548
G1 X114.679 Y118.764 E.00888
G1 X120.321 Y118.764 E.16808
G1 X120.616 Y118.717 E.00888
G1 X121.046 Y118.425 E.01548
;WIDTH:0.466817
G1 X121.12 Y118.319 E.00433
;WIDTH:0.513635
G1 X121.194 Y118.213 E.00481
;WIDTH:0.560453
G1 X121.268 Y118.107 E.00529
;WIDTH:0.60727
G1 X121.342 Y118.001 E.00577
G1 X121.366 Y118.142 E.00639
;WIDTH:0.560453
G1 X121.389 Y118.283 E.00586
;WIDTH:0.513635
G1 X121.412 Y118.425 E.00533
;WIDTH:0.466817
G1 X121.436 Y118.566 E.0048
;WIDTH:0.419999
G1 X121.436 Y119.936 E.0408
G1 X113.564 Y119.936 E.23447
G1 X113.564 Y118.566 E.0408
;WIDTH:0.466817
G1 X113.588 Y118.425 E.0048
;WIDTH:0.513635
G1 X113.611 Y118.283 E.00533
;WIDTH:0.560453
G1 X113.634 Y118.142 E.00586
;WIDTH:0.60727
G1 X113.651 Y118.04 E.00461
G1 E-.68 F3600
;WIPE_START
G1 F3000
G1 X113.732 Y118.107 E-.01255
G1 X113.806 Y118.213 E-.01553
G1 X113.88 Y118.319 E-.01553
G1 X113.954 Y118.425 E-.01553
G1 X114.374 Y118.71 E-.06085
;WIPE_END
G1 X113.82 Y111.841 Z.6 F21000
G1 Z.2
G1 E.8 F2700
;WIDTH:0.505842
G1 F1956
G1 X113.802 Y111.877 E.00147
;WIDTH:0.548763
G1 X113.726 Y112.028 E.00675
;WIDTH:0.591684
G1 X113.65 Y112.179 E.00732
G1 X113.629 Y111.992 E.00812
;WIDTH:0.548763
G1 X113.607 Y111.806 E.00749
;WIDTH:0.505842
G1 X113.586 Y111.62 E.00685
;WIDTH:0.462921
G1 X113.564 Y111.434 E.00622
;WIDTH:0.419999
G1 X113.564 Y110.064 E.0408
G1 X121.436 Y110.064 E.23447
G1 X121.436 Y111.434 E.0408
;WIDTH:0.462921
G1 X121.414 Y111.62 E.00622
;WIDTH:0.505842
G1 X121.393 Y111.806 E.00685
;WIDTH:0.548763
G1 X121.371 Y111.992 E.00749
;WIDTH:0.591684
G1 X121.35 Y112.179 E.00812
G1 X121.274 Y112.028 E.00732
;WIDTH:0.548763
G1 X121.198 Y111.877 E.00675
;WIDTH:0.505842
G1 X121.122 Y111.726 E.00618
;WIDTH:0.462921
G1 X121.046 Y111.575 E.00561
;WIDTH:0.419999
G1 X120.616 Y111.283 E.01548
G1 X120.321 Y111.236 E.00888
G1 X114.679 Y111.236 E.16808
G1 X114.384 Y111.283 E.00888
G1 X113.954 Y111.575 E.01548
;WIDTH:0.462921
G1 X113.878 Y111.726 E.00561
;WIDTH:0.505842
G1 X113.838 Y111.805 E.00324
G1 X114.157 Y112.058 F21000
;WIDTH:0.419999
G1 F1956
G1 X114.244 Y111.816 E.00765
G1 X114.596 Y111.613 E.0121
G1 X120.321 Y111.613 E.17056
G1 X120.498 Y111.641 E.00533
G1 X120.756 Y111.816 E.00929
G1 X120.887 Y112.179 E.01147
G1 X120.887 Y117.821 E.16808
G1 X120.879 Y117.919 E.00292
G1 X120.756 Y118.184 E.00868
G1 X120.405 Y118.387 E.0121
G1 X114.679 Y118.387 E.17056
G1 X114.502 Y118.359 E.00533
G1 X114.244 Y118.184 E.00929
G1 X114.113 Y117.901 E.00928
G1 X114.113 Y112.179 E.17045
G1 X114.143 Y112.095 E.00263
G1 X114.49 Y112.179 F21000
;TYPE:Outer wall
G1 F1956
G1 X114.534 Y112.058 E.00382
G1 X114.679 Y111.99 E.00476
G1 X120.321 Y111.99 E.16808
G1 X120.466 Y112.058 E.00476
G1 X120.51 Y112.179 E.00382
G1 X120.51 Y117.821 E.16808
G1 X120.466 Y117.942 E.00382
G1 X120.321 Y118.01 E.00476
G1 X114.679 Y118.01 E.16808
G1 X114.534 Y117.942 E.00476
G1 X114.49 Y117.821 E.00382
G1 X114.49 Y112.219 E.16689
G1 E-.68 F3600
;WIPE_START
G1 F3000
G1 X114.534 Y112.058 E-.01998
G1 X114.679 Y111.99 E-.01919
G1 X115.352 Y111.99 E-.08082
;WIPE_END
G1 X113.658 Y118.001 Z.6 F21000
G1 Z.2
G1 E.8 F2700
;TYPE:Inner wall
;WIDTH:0.60727
G1 F1956
G1 X113.65 Y117.821 E.00799
;WIDTH:0.591684
G1 X113.65 Y112.179 E.24461
G1 E-.68 F3600
;WIPE_START
G1 F3000
G1 X113.65 Y113.179 E-.12
;WIPE_END
G1 X121.219 Y112.196 Z.6 F21000
G1 X121.35 Y112.179 Z.6
G1 Z.2
G1 E.8 F2700
G1 F1956
G1 X121.35 Y117.821 E.24461
;WIDTH:0.60727
G1 X121.342 Y118.001 E.00799
G1 E-.68 F3600
;WIPE_START
G1 F3000
G1 X121.35 Y117.821 E-.02151
G1 X121.35 Y117.001 E-.09849
;WIPE_END
G1 X121.813 Y120.313 Z.6 F21000
G1 Z.2
G1 E.8 F2700
;WIDTH:0.419999
G1 F1956
G1 X113.187 Y120.313 E.25693
G1 X113.187 Y109.687 E.31651
G1 X121.813 Y109.687 E.25693
G1 X121.813 Y120.273 E.31532
G1 X122.19 Y120.69 F21000
;TYPE:Outer wall
G1 F1956
G1 X112.81 Y120.69 E.2794
G1 X112.81 Y109.31 E.33897
G1 X122.19 Y109.31 E.2794
G1 X122.19 Y120.65 E.33778
G1 E-.68 F3600
;WIPE_START
G1 F3000
G1 X121.19 Y120.654 E-.12
;WIPE_END
G1 X120.872 Y118.671 Z.6 F21000
G1 Z.2
G1 E.8 F2700
;TYPE:Bottom surface
;WIDTH:0.425412
G1 F1956
G1 X121.153 Y118.952 E.01201
G1 X121.153 Y119.493 E.01634
G1 X120.658 Y118.998 E.02116
G1 X120.533 Y119.029 E.0039
G1 X120.166 Y119.047 E.01108
G1 X120.772 Y119.653 E.0259
G1 X120.231 Y119.653 E.01634
G1 X119.625 Y119.047 E.0259
G1 X119.084 Y119.047 E.01634
G1 X119.69 Y119.653 E.0259
G1 X119.15 Y119.653 E.01634
G1 X118.543 Y119.047 E.0259
G1 X118.003 Y119.047 E.01634
G1 X118.609 Y119.653 E.0259
G1 X118.068 Y119.653 E.01634
G1 X117.462 Y119.047 E.0259
G1 X116.921 Y119.047 E.01634
G1 X117.527 Y119.653 E.0259
G1 X116.986 Y119.653 E.01634
G1 X116.38 Y119.047 E.0259
G1 X115.839 Y119.047 E.01634
G1 X116.445 Y119.653 E.0259
G1 X115.904 Y119.653 E.01634
G1 X115.298 Y119.047 E.0259
G1 X114.757 Y119.047 E.01634
G1 X115.363 Y119.653 E.0259
G1 X114.822 Y119.653 E.01634
G1 X113.847 Y118.685 E.04152
G1 X113.847 Y119.219 E.01613
G1 X114.451 Y119.823 E.02581
G1 E-.68 F3600
;WIPE_START
G1 F4800
G1 X113.847 Y119.219 E-.10249
G1 X113.847 Y119.073 E-.01751
;WIPE_END
G1 X118.44 Y112.977 Z.6 F21000
G1 X120.549 Y110.177 Z.6
G1 Z.2
G1 E.8 F2700
G1 F1956
G1 X121.153 Y110.781 E.02581
G1 X121.153 Y111.315 E.01612
G1 X120.178 Y110.347 E.04152
G1 X119.637 Y110.347 E.01634
G1 X120.243 Y110.953 E.0259
M73 P0 R52
G1 X119.702 Y110.953 E.01634
G1 X119.096 Y110.347 E.0259
G1 X118.555 Y110.347 E.01634
G1 X119.161 Y110.953 E.0259
G1 X118.62 Y110.953 E.01634
G1 X118.014 Y110.347 E.0259
G1 X117.473 Y110.347 E.01634
G1 X118.079 Y110.953 E.0259
G1 X117.538 Y110.953 E.01634
G1 X116.932 Y110.347 E.0259
G1 X116.391 Y110.347 E.01634
G1 X116.997 Y110.953 E.0259
G1 X116.456 Y110.953 E.01634
G1 X115.85 Y110.347 E.0259
G1 X115.309 Y110.347 E.01634
G1 X115.915 Y110.953 E.0259
G1 X115.375 Y110.953 E.01634
G1 X114.768 Y110.347 E.0259
G1 X114.228 Y110.347 E.01634
G1 X114.834 Y110.953 E.0259
G1 X114.467 Y110.971 E.01108
G1 X114.342 Y111.002 E.0039
G1 X113.847 Y110.507 E.02116
G1 X113.847 Y111.048 E.01634
G1 X114.128 Y111.329 E.01201
; stop printing object 固定杆 - 30mm.STL id:0 copy 0
;LAYER_CHANGE
;Z:0.28
;HEIGHT:0.08
;BEFORE_LAYER_CHANGE
G92 E0
;0.28


G1 E-.68 F3600
;WIPE_START
G1 F4800
G1 X113.847 Y111.048 E-.04769
G1 X113.847 Y110.507 E-.06491
G1 X113.891 Y110.551 E-.0074
;WIPE_END
EXCLUDE_OBJECT_END NAME=固定杆_-_30mm.STL_id_0_copy_0
;AFTER_LAYER_CHANGE
;0.28
;_SET_FAN_SPEED_CHANGING_LAYER
SET_VELOCITY_LIMIT ACCEL=5000 ACCEL_TO_DECEL=2500
SET_VELOCITY_LIMIT SQUARE_CORNER_VELOCITY=9
M140 S70 ; set bed temperature
; printing object 固定杆 - 30mm.STL id:0 copy 0
EXCLUDE_OBJECT_START NAME=固定杆_-_30mm.STL_id_0_copy_0
G1 X113.659 Y117.907 Z.6 F21000
G1 Z.28
G1 E.8 F2700
SET_VELOCITY_LIMIT ACCEL=3000 ACCEL_TO_DECEL=1500 SQUARE_CORNER_VELOCITY=7
;TYPE:Inner wall
;WIDTH:0.685972
G1 F1738
G1 X113.723 Y117.996 E.00232
;WIDTH:0.638778
G1 X113.788 Y118.084 E.00215
;WIDTH:0.591583
G1 X113.853 Y118.172 E.00199
;WIDTH:0.544388
G1 X113.918 Y118.261 E.00183
;WIDTH:0.497194
G1 X113.982 Y118.349 E.00166
;WIDTH:0.449999
G1 X114.433 Y118.676 E.00761
G1 X114.791 Y118.741 E.00498
G1 X120.209 Y118.741 E.07409
G1 X120.567 Y118.676 E.00498
G1 X121.018 Y118.349 E.00761
;WIDTH:0.497193
G1 X121.082 Y118.261 E.00166
;WIDTH:0.544388
G1 X121.147 Y118.172 E.00183
;WIDTH:0.591582
G1 X121.212 Y118.084 E.00199
;WIDTH:0.638776
G1 X121.277 Y117.996 E.00215
;WIDTH:0.68597
G1 X121.341 Y117.907 E.00232
G1 X121.365 Y118.026 E.00257
;WIDTH:0.638776
G1 X121.389 Y118.146 E.00239
;WIDTH:0.591582
G1 X121.412 Y118.265 E.0022
;WIDTH:0.544388
G1 X121.436 Y118.384 E.00202
;WIDTH:0.497193
G1 X121.459 Y118.503 E.00184
;WIDTH:0.449999
G1 X121.459 Y119.959 E.01992
G1 X113.541 Y119.959 E.1083
G1 X113.541 Y118.503 E.01992
;WIDTH:0.497194
M73 P1 R52
G1 X113.564 Y118.384 E.00184
;WIDTH:0.544388
G1 X113.588 Y118.265 E.00202
;WIDTH:0.591583
G1 X113.611 Y118.146 E.0022
;WIDTH:0.638778
G1 X113.635 Y118.026 E.00239
;WIDTH:0.685972
G1 X113.651 Y117.947 E.00172
SET_VELOCITY_LIMIT ACCEL=5000 ACCEL_TO_DECEL=2500 SQUARE_CORNER_VELOCITY=9
G1 E-.68 F3600
;WIPE_START
G1 F11214.048
G1 X113.723 Y117.996 E-.01051
G1 X113.788 Y118.084 E-.01315
G1 X113.853 Y118.172 E-.01315
G1 X113.918 Y118.261 E-.01315
G1 X113.982 Y118.349 E-.01315
G1 X114.366 Y118.628 E-.0569
;WIPE_END
G1 X114.166 Y111.518 Z.68 F21000
G1 Z.28
G1 E.8 F2700
SET_VELOCITY_LIMIT ACCEL=3000 ACCEL_TO_DECEL=1500 SQUARE_CORNER_VELOCITY=7
;WIDTH:0.449999
G1 F1738
G1 X113.982 Y111.651 E.0031
;WIDTH:0.493735
G1 X113.916 Y111.779 E.00217
;WIDTH:0.53747
G1 X113.849 Y111.907 E.00237
;WIDTH:0.581205
G1 X113.783 Y112.035 E.00257
;WIDTH:0.624941
G1 X113.716 Y112.163 E.00277
;WIDTH:0.668676
G1 X113.65 Y112.291 E.00297
G1 X113.628 Y112.133 E.0033
;WIDTH:0.624941
G1 X113.606 Y111.974 E.00308
;WIDTH:0.581205
G1 X113.584 Y111.815 E.00286
;WIDTH:0.53747
G1 X113.563 Y111.656 E.00264
;WIDTH:0.493735
G1 X113.541 Y111.497 E.00241
;WIDTH:0.449999
G1 X113.541 Y110.041 E.01992
G1 X121.459 Y110.041 E.1083
G1 X121.459 Y111.497 E.01992
;WIDTH:0.493734
G1 X121.437 Y111.656 E.00241
;WIDTH:0.537469
G1 X121.416 Y111.815 E.00264
;WIDTH:0.581204
G1 X121.394 Y111.974 E.00286
;WIDTH:0.624939
G1 X121.372 Y112.133 E.00308
;WIDTH:0.668674
G1 X121.35 Y112.291 E.0033
G1 X121.284 Y112.163 E.00297
;WIDTH:0.624939
G1 X121.217 Y112.035 E.00277
;WIDTH:0.581204
G1 X121.151 Y111.907 E.00257
;WIDTH:0.537469
G1 X121.084 Y111.779 E.00237
;WIDTH:0.493734
G1 X121.018 Y111.651 E.00217
;WIDTH:0.449999
G1 X120.567 Y111.324 E.00761
G1 X120.209 Y111.259 E.00498
G1 X114.791 Y111.259 E.07409
G1 X114.433 Y111.324 E.00498
G1 X114.198 Y111.494 E.00397
SET_VELOCITY_LIMIT ACCEL=5000 ACCEL_TO_DECEL=2500 SQUARE_CORNER_VELOCITY=9
G1 X114.278 Y112.046 F21000
SET_VELOCITY_LIMIT ACCEL=3000 ACCEL_TO_DECEL=1500 SQUARE_CORNER_VELOCITY=7
G1 F1738
G1 X114.322 Y111.919 E.00183
G1 X114.583 Y111.73 E.00442
G1 X114.791 Y111.692 E.00289
G1 X120.209 Y111.692 E.07409
G1 X120.417 Y111.73 E.00289
G1 X120.678 Y111.919 E.00442
G1 X120.808 Y112.291 E.00539
G1 X120.808 Y117.709 E.07409
G1 X120.799 Y117.812 E.00142
G1 X120.678 Y118.081 E.00402
G1 X120.417 Y118.27 E.00442
G1 X120.209 Y118.308 E.00289
G1 X114.791 Y118.308 E.07409
G1 X114.583 Y118.27 E.00289
G1 X114.322 Y118.081 E.00442
G1 X114.192 Y117.792 E.00432
G1 X114.192 Y112.291 E.07523
G1 X114.264 Y112.084 E.00301
SET_VELOCITY_LIMIT ACCEL=5000 ACCEL_TO_DECEL=2500 SQUARE_CORNER_VELOCITY=9
G1 X114.641 Y112.173 F21000
SET_VELOCITY_LIMIT ACCEL=3000 ACCEL_TO_DECEL=1500 SQUARE_CORNER_VELOCITY=7
;TYPE:Outer wall
;WIDTH:0.399999
G1 F1738
G1 X114.791 Y112.1 E.00202
G1 X120.209 Y112.1 E.06553
G1 X120.359 Y112.173 E.00202
G1 X120.4 Y112.291 E.00152
G1 X120.4 Y117.709 E.06553
G1 X120.359 Y117.827 E.00152
G1 X120.209 Y117.9 E.00202
G1 X114.791 Y117.9 E.06553
G1 X114.641 Y117.827 E.00202
G1 X114.6 Y117.709 E.00152
G1 X114.6 Y112.291 E.06553
G1 X114.628 Y112.21 E.00104
SET_VELOCITY_LIMIT ACCEL=5000 ACCEL_TO_DECEL=2500 SQUARE_CORNER_VELOCITY=9
G1 E-.68 F3600
;WIPE_START
G1 F7200
G1 X114.791 Y112.1 E-.02364
G1 X115.594 Y112.1 E-.09636
;WIPE_END
G1 X113.659 Y117.907 Z.68 F21000
G1 Z.28
G1 E.8 F2700
SET_VELOCITY_LIMIT ACCEL=3000 ACCEL_TO_DECEL=1500 SQUARE_CORNER_VELOCITY=7
;TYPE:Inner wall
;WIDTH:0.685972
G1 F1738
G1 X113.65 Y117.709 E.0042
;WIDTH:0.668676
G1 X113.65 Y112.291 E.11152
SET_VELOCITY_LIMIT ACCEL=5000 ACCEL_TO_DECEL=2500 SQUARE_CORNER_VELOCITY=9
G1 E-.68 F3600
;WIPE_START
G1 F11511.755
G1 X113.65 Y113.291 E-.12
;WIPE_END
G1 X121.219 Y112.308 Z.68 F21000
G1 X121.35 Y112.291 Z.68
G1 Z.28
G1 E.8 F2700
SET_VELOCITY_LIMIT ACCEL=3000 ACCEL_TO_DECEL=1500 SQUARE_CORNER_VELOCITY=7
;WIDTH:0.668674
G1 F1738
G1 X121.35 Y117.709 E.11152
;WIDTH:0.68597
G1 X121.341 Y117.907 E.0042
SET_VELOCITY_LIMIT ACCEL=5000 ACCEL_TO_DECEL=2500 SQUARE_CORNER_VELOCITY=9
G1 E-.68 F3600
;WIPE_START
G1 F11214.081
G1 X121.35 Y117.709 E-.02387
G1 X121.35 Y116.907 E-.09613
;WIPE_END
G1 X121.892 Y120.392 Z.68 F21000
G1 Z.28
G1 E.8 F2700
SET_VELOCITY_LIMIT ACCEL=3000 ACCEL_TO_DECEL=1500 SQUARE_CORNER_VELOCITY=7
;WIDTH:0.449999
G1 F1738
G1 X113.108 Y120.392 E.12014
G1 X113.108 Y109.608 E.14749
G1 X121.892 Y109.608 E.12014
G1 X121.892 Y120.352 E.14694
SET_VELOCITY_LIMIT ACCEL=5000 ACCEL_TO_DECEL=2500 SQUARE_CORNER_VELOCITY=9
G1 X122.3 Y120.8 F21000
SET_VELOCITY_LIMIT ACCEL=3000 ACCEL_TO_DECEL=1500 SQUARE_CORNER_VELOCITY=7
;TYPE:Outer wall
;WIDTH:0.399999
G1 F1738
G1 X112.7 Y120.8 E.11613
G1 X112.7 Y109.2 E.14032
G1 X122.3 Y109.2 E.11613
G1 X122.3 Y120.76 E.13983
SET_VELOCITY_LIMIT ACCEL=5000 ACCEL_TO_DECEL=2500 SQUARE_CORNER_VELOCITY=9
G1 E-.68 F3600
;WIPE_START
G1 F7200
G1 X121.3 Y120.764 E-.12
;WIPE_END
G1 X114.791 Y119.154 Z.68 F21000
G1 Z.28
G1 E.8 F2700
;TYPE:Internal solid infill
;WIDTH:0.423285
G1 F1738
G1 X114.536 Y119.121 E.00331
;WIDTH:0.460172
G1 X114.28 Y119.088 E.00361
G1 X113.98 Y118.88 E.00511
G1 X113.98 Y119.52 E.00895
;WIDTH:0.449672
G1 X114.374 Y119.533 E.00539
;WIDTH:0.412614
G1 X114.768 Y119.546 E.00493
G1 X120.209 Y119.546 E.06798
G1 X120.719 Y119.525 E.00639
;WIDTH:0.460127
G1 X121.02 Y119.52 E.00421
G1 X121.02 Y118.88 E.00895
G1 X120.681 Y119.093 E.00561
;WIDTH:0.413532
G1 X120.209 Y119.154 E.00596
G1 X114.831 Y119.154 E.06734
G1 E-.68 F3600
;WIPE_START
G1 F12000
G1 X115.831 Y119.154 E-.12
;WIPE_END
G1 X119.389 Y112.401 Z.68 F21000
G1 X120.209 Y110.846 Z.68
G1 Z.28
G1 E.8 F2700
;WIDTH:0.423285
G1 F1738
G1 X120.464 Y110.879 E.00331
;WIDTH:0.460173
G1 X120.72 Y110.912 E.00361
G1 X121.02 Y111.12 E.00511
G1 X121.02 Y110.48 E.00895
;WIDTH:0.449672
G1 X120.626 Y110.467 E.00539
;WIDTH:0.412614
G1 X120.232 Y110.454 E.00493
G1 X114.791 Y110.454 E.06798
G1 X114.281 Y110.475 E.00639
;WIDTH:0.460127
G1 X113.98 Y110.48 E.00421
G1 X113.98 Y111.12 E.00895
G1 X114.319 Y110.907 E.00561
;WIDTH:0.413532
G1 X114.791 Y110.846 E.00596
G1 X120.169 Y110.846 E.06734
; stop printing object 固定杆 - 30mm.STL id:0 copy 0
;LAYER_CHANGE
;Z:0.36
;HEIGHT:0.08
;BEFORE_LAYER_CHANGE
G92 E0
;0.36


G1 E-.68 F3600
;WIPE_START
G1 F12000
G1 X119.169 Y110.846 E-.12
;WIPE_END
EXCLUDE_OBJECT_END NAME=固定杆_-_30mm.STL_id_0_copy_0
;AFTER_LAYER_CHANGE
;0.36
;_SET_FAN_SPEED_CHANGING_LAYER
; printing object 固定杆 - 30mm.STL id:0 copy 0
EXCLUDE_OBJECT_START NAME=固定杆_-_30mm.STL_id_0_copy_0
G1 X114.473 Y116.864 Z.68 F21000
G1 X113.659 Y117.907 Z.68
G1 Z.36
G1 E.8 F2700
SET_VELOCITY_LIMIT ACCEL=3000 ACCEL_TO_DECEL=1500 SQUARE_CORNER_VELOCITY=7
;TYPE:Inner wall
;WIDTH:0.685972
G1 F1736
