; HEADER_BLOCK_START
; generated by OrcaSlicer 2.1.1 on 2024-11-29 at 19:27:03
; total layer number: 98
; filament_density: 1.24
; filament_diameter: 1.75
; max_z_height: 7.96
; HEADER_BLOCK_END

; THUMBNAIL_BLOCK_START

;
; THUMBNAIL_BLOCK_END







; external perimeters extrusion width = 0.40mm
; perimeters extrusion width = 0.45mm
; infill extrusion width = 0.45mm
; solid infill extrusion width = 0.45mm
; top infill extrusion width = 0.38mm
; first layer extrusion width = 0.42mm

; EXECUTABLE_BLOCK_START
EXCLUDE_OBJECT_DEFINE NAME=固定垫底.STL_id_0_copy_0 CENTER=117.5,115 POLYGON=[[107.5,109],[127.5,109],[127.5,121],[107.5,121],[107.5,109]]
M73 P0 R16
;TYPE:Custom
;ELEGOO NEPTUNE 4 PRO
M220 S100 ;Set the feed speed to 100%
M221 S100 ;Set the flow rate to 100%
M104 S140
M190 S60
G90
G28 ;home
G1 Z10 F300
G1 X67.5 Y0 F6000
G1 Z0 F300
M109 S210
G92 E0 ;Reset Extruder
G1 X67.5 Y0 Z0.4 F300 ;Move to start position
G1 X167.5 E30 F400 ;Draw the first line
G1 Z0.6 F120.0 ;Move to side a little
M73 P2 R15
G1 X162.5 F3000
G92 E0 ;Reset Extruder
G90
G21
M83 ; use relative distances for extrusion
; filament start gcode
M106 S0
;LAYER_CHANGE
;Z:0.2
;HEIGHT:0.2
;BEFORE_LAYER_CHANGE
G92 E0
;0.2


G1 E-.8 F3600
;AFTER_LAYER_CHANGE
;0.2
;_SET_FAN_SPEED_CHANGING_LAYER
SET_VELOCITY_LIMIT ACCEL=1000 ACCEL_TO_DECEL=500
SET_VELOCITY_LIMIT SQUARE_CORNER_VELOCITY=7
; printing object 固定垫底.STL id:0 copy 0
EXCLUDE_OBJECT_START NAME=固定垫底.STL_id_0_copy_0
G1 X117.688 Y120.892 F21000
G1 Z.4
G1 Z.2
G1 E.8 F2700
;TYPE:Outer wall
;WIDTH:0.38292
G1 F3000
G1 X117.298 Y120.89 E.0108
G1 E-.68 F3600
;WIPE_START
G1 F3000
G1 X117.688 Y120.892 E-.12
;WIPE_END
G1 X110.809 Y117.584 Z.6 F21000
G1 X109.502 Y116.956 Z.6
G1 Z.2
G1 E.8 F2700
;TYPE:Inner wall
;WIDTH:0.419999
G1 F3000
G1 X109.611 Y116.842 E.00483
G1 X110.047 Y116.612 E.01516
G1 X110.433 Y116.537 E.01207
G1 X110.807 Y116.568 E.01152
G1 X111.132 Y116.695 E.01073
G1 X111.491 Y116.921 E.01303
G1 X111.786 Y117.327 E.01543
G1 X111.898 Y117.563 E.00801
G1 X111.963 Y118.063 E.01551
G1 X111.857 Y118.552 E.01536
G1 X111.587 Y118.966 E.01519
G1 X111.288 Y119.229 E.01225
;WIDTH:0.455492
G1 X111.064 Y119.343 E.00845
;WIDTH:0.490984
G1 X110.839 Y119.456 E.00918
G1 X110.336 Y119.479 E.01839
;WIDTH:0.490798
G1 X110.162 Y119.456 E.00641
G1 X109.871 Y119.292 E.01218
;WIDTH:0.455399
G1 X109.581 Y119.127 E.01122
;WIDTH:0.419999
G1 X109.305 Y118.839 E.01225
;WIDTH:0.444747
G1 X109.082 Y118.396 E.01626
;WIDTH:0.4672
G1 X109.012 Y118.022 E.01315
;WIDTH:0.483185
G1 X109.034 Y117.724 E.01072
G1 X109.185 Y117.427 E.01195
;WIDTH:0.451592
G1 X109.335 Y117.13 E.01109
;WIDTH:0.419999
G1 X109.474 Y116.985 E.00618
G1 X109.768 Y117.21 F21000
G1 F3000
G1 X109.822 Y117.154 E.00238
G1 X110.142 Y116.977 E.01126
G1 X110.504 Y116.916 E.01126
G1 X110.83 Y116.965 E.01013
G1 X111.269 Y117.231 E.01578
G1 X111.539 Y117.677 E.01599
G1 X111.585 Y118.071 E.01222
G1 X111.469 Y118.486 E.01324
G1 X111.283 Y118.742 E.0097
G1 X110.95 Y118.986 E.0127
G1 X110.596 Y119.08 E.01126
G1 X110.231 Y119.05 E.01123
G1 X110.011 Y118.962 E.0073
G1 X109.717 Y118.754 E.01105
G1 X109.534 Y118.491 E.00985
G1 X109.421 Y118.12 E.01192
G1 X109.44 Y117.776 E.01058
G1 X109.519 Y117.552 E.0073
G1 X109.657 Y117.327 E.00811
G1 X109.741 Y117.239 E.00373
G1 X110.04 Y117.463 F21000
;TYPE:Outer wall
G1 F3000
G1 X110.237 Y117.342 E.00713
G1 X110.526 Y117.296 E.00896
G1 X110.764 Y117.353 E.00752
G1 X111.022 Y117.524 E.00951
G1 X111.186 Y117.823 E.01049
G1 X111.206 Y118.062 E.00736
G1 X111.136 Y118.306 E.00779
G1 X110.92 Y118.571 E.01052
G1 X110.706 Y118.678 E.00736
G1 X110.468 Y118.708 E.00736
G1 X110.222 Y118.649 E.00779
G1 X109.948 Y118.444 E.01052
G1 X109.831 Y118.234 E.00736
G1 X109.791 Y117.998 E.00736
G1 X109.84 Y117.749 E.00779
G1 X110.015 Y117.494 E.00952
G1 E-.68 F3600
;WIPE_START
G1 F3000
G1 X110.237 Y117.342 E-.03234
G1 X110.526 Y117.296 E-.035
G1 X110.764 Y117.353 E-.02938
G1 X110.925 Y117.46 E-.02329
;WIPE_END
G1 X109.041 Y112.175 Z.6 F21000
G1 Z.2
G1 E.8 F2700
;TYPE:Inner wall
;WIDTH:0.4672
G1 F3000
G1 X109.012 Y112.022 E.00537
;WIDTH:0.483242
G1 X109.034 Y111.723 E.01075
G1 X109.136 Y111.494 E.009
;WIDTH:0.451621
G1 X109.238 Y111.265 E.00835
;WIDTH:0.419999
G1 X109.555 Y110.887 E.01513
G1 X109.892 Y110.68 E.01216
;WIDTH:0.448624
G1 X110.09 Y110.601 E.00704
;WIDTH:0.477248
G1 X110.288 Y110.523 E.00754
;WIDTH:0.477934
G1 X110.713 Y110.526 E.01508
G1 X111.016 Y110.663 E.01177
;WIDTH:0.448967
G1 X111.319 Y110.799 E.01099
;WIDTH:0.419999
G1 X111.663 Y111.127 E.01461
G1 X111.898 Y111.563 E.01522
G1 X111.963 Y112.063 E.01551
G1 X111.855 Y112.556 E.0155
G1 X111.476 Y113.091 E.02013
G1 X111.12 Y113.323 E.01305
G1 X110.833 Y113.421 E.00933
G1 X110.409 Y113.46 E.01308
G1 X110.168 Y113.422 E.00753
G1 X109.8 Y113.274 E.01216
G1 X109.581 Y113.127 E.00811
G1 X109.305 Y112.839 E.01225
;WIDTH:0.444747
G1 X109.082 Y112.396 E.01626
;WIDTH:0.4672
G1 X109.048 Y112.214 E.00639
G1 X109.428 Y112.001 F21000
;WIDTH:0.419999
G1 F3000
G1 X109.44 Y111.775 E.00696
G1 X109.575 Y111.435 E.01126
G1 X109.816 Y111.16 E.01123
G1 X110.018 Y111.035 E.0073
G1 X110.456 Y110.914 E.01396
G1 X110.679 Y110.931 E.00687
G1 X110.906 Y111 E.00729
G1 X111.136 Y111.128 E.00808
G1 X111.342 Y111.325 E.00876
G1 X111.539 Y111.677 E.01238
G1 X111.585 Y112.071 E.01222
G1 X111.507 Y112.411 E.01071
G1 X111.161 Y112.863 E.01748
G1 X110.863 Y113.025 E.01043
G1 X110.446 Y113.085 E.01296
G1 X110.231 Y113.05 E.00667
G1 X110.011 Y112.962 E.0073
G1 X109.792 Y112.814 E.00811
G1 X109.534 Y112.491 E.0127
G1 X109.421 Y112.12 E.01192
G1 X109.425 Y112.041 E.00242
G1 X109.797 Y112.033 F21000
;TYPE:Outer wall
G1 F3000
G1 X109.791 Y111.998 E.00107
G1 X109.832 Y111.762 E.00736
G1 X109.983 Y111.521 E.00873
G1 X110.144 Y111.39 E.00637
G1 X110.472 Y111.292 E.01052
G1 X110.722 Y111.33 E.00779
G1 X111.021 Y111.523 E.01093
G1 X111.186 Y111.823 E.01052
G1 X111.206 Y112.062 E.00736
G1 X111.145 Y112.293 E.00733
G1 X110.92 Y112.571 E.011
G1 X110.706 Y112.678 E.00736
G1 X110.468 Y112.708 E.00736
G1 X110.222 Y112.649 E.00779
G1 X109.948 Y112.444 E.01052
G1 X109.831 Y112.234 E.00736
G1 X109.804 Y112.072 E.00506
G1 E-.68 F3600
;WIPE_START
G1 F3000
G1 X109.791 Y111.998 E-.00898
G1 X109.832 Y111.762 E-.02875
G1 X109.983 Y111.521 E-.0341
G1 X110.144 Y111.39 E-.02487
G1 X110.33 Y111.335 E-.0233
;WIPE_END
G1 X117.226 Y109.117 Z.6 F21000
G1 Z.2
G1 E.8 F2700
;WIDTH:0.38292
G1 F3000
G1 X117.607 Y109.103 E.01057
G1 E-.68 F3600
;WIPE_START
G1 F3000
G1 X117.226 Y109.117 E-.12
;WIPE_END
G1 X115.418 Y110.111 Z.6 F21000
G1 Z.2
G1 E.8 F2700
;TYPE:Inner wall
;WIDTH:0.536546
G1 F3000
G1 X115.405 Y110.34 E.00925
G1 X115.519 Y110.896 E.02283
;WIDTH:0.529962
G1 X115.435 Y110.805 E.00493
;WIDTH:0.533193
G1 X115.043 Y110.584 E.01797
G1 X114.749 Y110.548 E.01183
;WIDTH:0.501036
G1 X114.455 Y110.513 E.01105
;WIDTH:0.468878
G1 X114.136 Y110.578 E.01133
;WIDTH:0.448566
G1 X113.555 Y110.887 E.02176
;WIDTH:0.419999
G1 X113.238 Y111.265 E.01514
G1 X113.102 Y111.563 E.01007
G1 X113.039 Y111.94 E.01174
G1 X113.094 Y112.392 E.014
G1 X113.213 Y112.689 E.00982
G1 X113.486 Y113.053 E.01399
G1 X113.97 Y113.365 E.01769
G1 X114.341 Y113.451 E.0117
G1 X114.659 Y113.451 E.00979
G1 X115.102 Y113.332 E.01408
G1 X115.518 Y113.049 E.01547
G1 X115.787 Y112.689 E.01382
G1 X115.92 Y112.313 E.01225
;WIDTH:0.423619
G1 X115.944 Y111.747 E.01756
;WIDTH:0.44161
G1 X115.849 Y111.445 E.01029
G1 X115.934 Y111.555 E.00452
;WIDTH:0.433948
G1 X116.34 Y111.896 E.01687
;WIDTH:0.419999
G1 X116.639 Y112.068 E.01061
G1 X117.231 Y112.245 E.01899
G1 X117.799 Y112.242 E.01745
G1 X118.361 Y112.068 E.01809
G1 X118.64 Y111.912 E.00983
G1 X119.063 Y111.548 E.01713
G1 X119.345 Y111.103 E.0162
G1 X119.467 Y110.771 E.01087
G1 X119.517 Y110.471 E.00936
G1 X119.521 Y110.051 E.01289
G1 X126.436 Y110.064 E.21246
G1 X126.436 Y119.936 E.30335
G1 X119.517 Y119.949 E.21258
G1 X119.535 Y119.553 E.01217
G1 X119.408 Y119.048 E.01601
G1 X119.261 Y118.742 E.01044
G1 X118.914 Y118.296 E.01734
G1 X118.49 Y117.997 E.01595
G1 X118.2 Y117.865 E.00981
G1 X117.689 Y117.744 E.01612
G1 X117.137 Y117.775 E.01699
G1 X116.829 Y117.855 E.0098
G1 X116.358 Y118.081 E.01605
G1 X116.032 Y118.37 E.01338
G1 X115.78 Y118.684 E.01238
;WIDTH:0.415162
G1 X115.896 Y118.426 E.00858
;WIDTH:0.419999
G1 X115.952 Y118.058 E.01146
G1 X115.94 Y117.737 E.00987
G1 X115.795 Y117.339 E.01302
G1 X115.593 Y117.03 E.01134
G1 X115.284 Y116.763 E.01253
G1 X114.807 Y116.568 E.01586
G1 X114.382 Y116.54 E.01308
G1 X113.892 Y116.68 E.01567
G1 X113.624 Y116.827 E.0094
G1 X113.299 Y117.162 E.01432
G1 X113.102 Y117.563 E.01373
G1 X113.037 Y118.063 E.01551
G1 X113.143 Y118.552 E.01537
G1 X113.416 Y118.968 E.01529
G1 X113.713 Y119.23 E.01216
;WIDTH:0.455722
G1 X113.937 Y119.343 E.00844
;WIDTH:0.491445
G1 X114.161 Y119.457 E.00917
G1 X114.5 Y119.489 E.01245
;WIDTH:0.512921
G1 X114.941 Y119.429 E.01706
;WIDTH:0.538683
G1 X115.271 Y119.314 E.01411
G1 X115.509 Y119.109 E.0127
G1 X115.45 Y119.275 E.00709
G1 X115.414 Y119.888 E.02483
G1 X115.109 Y119.896 E.01233
;WIDTH:0.513111
G1 X114.804 Y119.904 E.0117
;WIDTH:0.487539
G1 X114.299 Y119.91 E.01828
;WIDTH:0.476449
G1 X114.002 Y119.924 E.01052
;WIDTH:0.448224
G1 X113.704 Y119.938 E.00984
;WIDTH:0.419999
G1 X111.295 Y119.937 E.07401
;WIDTH:0.447969
G1 X110.998 Y119.923 E.00983
;WIDTH:0.475938
G1 X110.701 Y119.909 E.01051
;WIDTH:0.490798
G1 X110.124 Y119.901 E.02105
G1 X109.861 Y119.919 E.00962
;WIDTH:0.455399
G1 X109.598 Y119.936 E.00886
;WIDTH:0.419999
G1 X108.564 Y119.936 E.03176
G1 X108.564 Y118.873 E.03268
;WIDTH:0.448064
G1 X108.578 Y118.55 E.01066
;WIDTH:0.476129
G1 X108.592 Y118.227 E.0114
;WIDTH:0.483185
G1 X108.58 Y117.436 E.02838
;WIDTH:0.451592
G1 X108.564 Y117.176 E.00868
;WIDTH:0.419999
G1 X108.564 Y113.049 E.12681
;WIDTH:0.444747
G1 X108.577 Y112.45 E.01963
;WIDTH:0.471991
G1 X108.59 Y111.872 E.02021
G1 X108.577 Y111.577 E.01034
;WIDTH:0.445995
G1 X108.564 Y111.281 E.00971
;WIDTH:0.419999
G1 X108.564 Y110.064 E.03741
G1 X109.223 Y110.064 E.02026
;WIDTH:0.448296
G1 X110.049 Y110.078 E.02728
;WIDTH:0.477934
G1 X110.731 Y110.092 E.02418
G1 X110.989 Y110.078 E.00914
;WIDTH:0.448967
G1 X111.247 Y110.063 E.00854
;WIDTH:0.419999
G1 X113.223 Y110.063 E.06073
;WIDTH:0.448566
G1 X114.049 Y110.077 E.02731
;WIDTH:0.478542
G1 X114.732 Y110.091 E.02426
;WIDTH:0.507544
G1 X115.075 Y110.101 E.01297
;WIDTH:0.536546
G1 X115.378 Y110.11 E.01218
G1 X115.981 Y109.634 F21000
;WIDTH:0.419999
G1 F3000
G1 X115.924 Y109.767 E.00444
G1 X115.838 Y110.299 E.01657
G1 X115.905 Y110.709 E.01277
G1 X116.041 Y111.013 E.01023
G1 X116.302 Y111.38 E.01385
G1 X116.764 Y111.713 E.01749
G1 X117.31 Y111.871 E.01747
G1 X117.818 Y111.857 E.01561
G1 X118.3 Y111.685 E.01571
G1 X118.718 Y111.363 E.01622
G1 X119.022 Y110.908 E.01681
G1 X119.095 Y110.709 E.00652
G1 X119.152 Y110.129 E.01792
G1 X119.026 Y109.641 E.01548
G1 X119.999 Y109.685 E.02994
G1 X126.813 Y109.687 E.20936
G1 X126.813 Y120.313 E.32651
G1 X120.575 Y120.315 E.19168
G1 X119.033 Y120.345 E.0474
G1 X119.138 Y119.952 E.01251
G1 X119.145 Y119.512 E.0135
G1 X118.956 Y118.964 E.01782
G1 X118.659 Y118.574 E.01506
G1 X118.226 Y118.277 E.01613
G1 X117.738 Y118.135 E.01563
G1 X117.547 Y118.119 E.00588
G1 X116.984 Y118.199 E.01747
G1 X116.48 Y118.463 E.0175
G1 X116.09 Y118.885 E.01764
G1 X115.878 Y119.361 E.01602
G1 X115.851 Y119.937 E.0177
G1 X115.968 Y120.345 E.01307
G1 X115 Y120.315 E.02974
G1 X108.187 Y120.313 E.20935
G1 X108.187 Y109.687 E.32651
G1 X114.732 Y109.685 E.20112
G1 X115.47 Y109.674 E.02266
G1 X115.941 Y109.637 E.01453
G1 X116.595 Y109.412 F21000
;TYPE:Outer wall
G1 F3000
G1 X116.322 Y109.776 E.01398
G1 X116.226 Y110.163 E.01225
G1 X116.277 Y110.647 E.01498
G1 X116.497 Y111.038 E.01378
G1 X116.814 Y111.31 E.01284
G1 X117.248 Y111.484 E.01435
G1 X117.69 Y111.494 E.01359
G1 X118.11 Y111.357 E.01359
G1 X118.46 Y111.087 E.01359
G1 X118.699 Y110.714 E.01362
G1 X118.784 Y110.284 E.01344
G1 X118.707 Y109.844 E.01373
G1 X118.391 Y109.394 E.01691
G1 X118.17 Y109.21 E.00884
G1 X118.495 Y109.211 E.00999
G1 X119.194 Y109.271 E.02157
G1 X119.999 Y109.308 E.02477
G1 X127.19 Y109.31 E.22095
G1 X127.19 Y120.69 E.34968
G1 X119.729 Y120.698 E.22926
G1 X118.177 Y120.79 E.04778
G1 X118.424 Y120.579 E.01
M73 P3 R15
G1 X118.719 Y120.136 E.01634
G1 X118.787 Y119.68 E.01416
G1 X118.681 Y119.247 E.01371
G1 X118.429 Y118.879 E.0137
G1 X118.068 Y118.622 E.01362
G1 X117.643 Y118.5 E.01359
G1 X117.201 Y118.526 E.01359
G1 X116.794 Y118.699 E.01359
G1 X116.468 Y118.998 E.0136
G1 X116.263 Y119.391 E.01363
G1 X116.221 Y119.836 E.01374
G1 X116.282 Y120.137 E.00942
G1 X116.576 Y120.579 E.01632
G1 X116.823 Y120.79 E.01
G1 X116.454 Y120.785 E.01136
G1 X115.501 Y120.704 E.02938
G1 X115 Y120.692 E.01539
G1 X107.81 Y120.69 E.22094
G1 X107.81 Y109.31 E.34968
G1 X115.005 Y109.308 E.22107
G1 X115.517 Y109.295 E.01576
G1 X116.795 Y109.214 E.03932
G1 X116.623 Y109.383 E.00739
G1 E-.68 F3600
;WIPE_START
G1 F3000
G1 X116.322 Y109.776 E-.05935
G1 X116.226 Y110.163 E-.04783
G1 X116.237 Y110.269 E-.01282
;WIPE_END
G1 X114.54 Y116.926 Z.6 F21000
G1 Z.2
G1 E.8 F2700
;TYPE:Inner wall
G1 F3000
G1 X114.804 Y116.956 E.00818
G1 X115.158 Y117.136 E.01219
G1 X115.405 Y117.4 E.01112
G1 X115.571 Y117.816 E.01376
G1 X115.546 Y118.266 E.01386
G1 X115.443 Y118.529 E.00866
G1 X115.247 Y118.785 E.00991
G1 X114.943 Y118.989 E.01125
G1 X114.5 Y119.088 E.01395
G1 X114.23 Y119.05 E.00836
G1 X113.897 Y118.9 E.01123
G1 X113.719 Y118.744 E.0073
G1 X113.492 Y118.409 E.01242
G1 X113.413 Y118.047 E.01139
G1 X113.461 Y117.677 E.01147
G1 X113.689 Y117.281 E.01402
G1 X113.962 Y117.058 E.01082
G1 X114.436 Y116.914 E.01525
G1 X114.5 Y116.922 E.00196
G1 X114.498 Y117.295 F21000
;TYPE:Outer wall
G1 F3000
G1 X114.709 Y117.323 E.00654
G1 X114.923 Y117.431 E.00736
G1 X115.095 Y117.619 E.00783
G1 X115.204 Y117.963 E.01107
G1 X115.145 Y118.294 E.01033
G1 X115.01 Y118.492 E.00736
G1 X114.766 Y118.647 E.00892
G1 X114.468 Y118.708 E.00933
G1 X114.234 Y118.657 E.00736
G1 X114.021 Y118.519 E.00779
G1 X113.831 Y118.234 E.01054
G1 X113.791 Y117.998 E.00733
G1 X113.832 Y117.762 E.00736
G1 X113.899 Y117.631 E.00453
G1 X114.125 Y117.398 E.00997
G1 X114.459 Y117.296 E.01073
G1 E-.68 F3600
;WIPE_START
G1 F3000
G1 X114.709 Y117.323 E-.03021
G1 X114.923 Y117.431 E-.02874
G1 X115.095 Y117.619 E-.03058
G1 X115.172 Y117.861 E-.03047
;WIPE_END
G1 X115.658 Y118.902 Z.6 F21000
G1 Z.2
G1 E.8 F2700
;TYPE:Inner wall
;WIDTH:0.428396
G1 F3000
G1 X115.78 Y118.684 E.00782
G1 E-.68 F3600
;WIPE_START
G1 F3000
G1 X115.658 Y118.902 E-.12
;WIPE_END
G1 X115.434 Y111.473 Z.6 F21000
G1 Z.2
G1 E.8 F2700
;WIDTH:0.419999
G1 F3000
G1 X115.572 Y111.822 E.01152
G1 X115.528 Y112.35 E.01629
G1 X115.466 Y112.491 E.00474
G1 X115.241 Y112.79 E.01148
G1 X114.837 Y113.034 E.0145
G1 X114.446 Y113.085 E.01214
G1 X114.058 Y112.99 E.01227
G1 X113.666 Y112.697 E.01503
G1 X113.493 Y112.412 E.01025
G1 X113.413 Y112.047 E.01148
G1 X113.461 Y111.677 E.01147
G1 X113.689 Y111.281 E.01402
G1 X114.018 Y111.035 E.01262
G1 X114.456 Y110.914 E.01396
G1 X114.865 Y110.979 E.01273
G1 X115.184 Y111.159 E.01126
G1 X115.404 Y111.397 E.00996
G1 X115.419 Y111.436 E.00129
G1 X115.079 Y111.602 F21000
;TYPE:Outer wall
G1 F3000
G1 X115.094 Y111.618 E.00067
G1 X115.205 Y111.956 E.01094
G1 X115.145 Y112.294 E.01052
G1 X114.998 Y112.5 E.00779
G1 X114.706 Y112.678 E.01052
G1 X114.468 Y112.708 E.00736
G1 X114.222 Y112.649 E.00779
G1 X113.934 Y112.422 E.01124
G1 X113.831 Y112.233 E.00662
G1 X113.791 Y111.998 E.00733
G1 X113.832 Y111.762 E.00736
G1 X113.95 Y111.553 E.00736
G1 X114.144 Y111.39 E.00779
G1 X114.472 Y111.292 E.01052
G1 X114.723 Y111.329 E.00779
G1 X114.923 Y111.431 E.00691
G1 X115.052 Y111.573 E.00589
G1 X115.849 Y111.445 F21000
;TYPE:Inner wall
;WIDTH:0.44161
G1 F3000
G1 X115.656 Y111.102 E.01279
G1 E-.68 F3600
;WIPE_START
G1 F3000
G1 X115.849 Y111.445 E-.12
;WIPE_END
G1 X109.055 Y110.177 Z.6 F21000
G1 Z.2
G1 E.8 F2700
;TYPE:Bottom surface
;WIDTH:0.495415
G1 F4800
G1 X109.483 Y110.605 E.0223
G1 X109.366 Y110.676 E.00505
G1 X109.226 Y110.81 E.00714
G1 X109.151 Y110.913 E.00469
G1 X108.847 Y110.609 E.01584
G1 X108.847 Y111.249 E.0236
