; HEADER_BLOCK_START
; generated by OrcaSlicer 2.1.1 on 2024-11-17 at 20:25:10
; total layer number: 24
; filament_density: 1.24
; filament_diameter: 1.75
; max_z_height: 2.04
; HEADER_BLOCK_END

; THUMBNAIL_BLOCK_START

;
; THUMBNAIL_BLOCK_END







; external perimeters extrusion width = 0.40mm
; perimeters extrusion width = 0.45mm
; infill extrusion width = 0.45mm
; solid infill extrusion width = 0.45mm
; top infill extrusion width = 0.38mm
; first layer extrusion width = 0.42mm

; EXECUTABLE_BLOCK_START
EXCLUDE_OBJECT_DEFINE NAME=固定垫.STL_id_0_copy_0 CENTER=117.5,115 POLYGON=[[107.5,109],[127.5,109],[127.5,121],[107.5,121],[107.5,109]]
M73 P0 R7
;TYPE:Custom
;ELEGOO NEPTUNE 4 PRO
M220 S100 ;Set the feed speed to 100%
M221 S100 ;Set the flow rate to 100%
M104 S140
M190 S60
G90
G28 ;home
G1 Z10 F300
G1 X67.5 Y0 F6000
G1 Z0 F300
M109 S210
G92 E0 ;Reset Extruder
G1 X67.5 Y0 Z0.4 F300 ;Move to start position
M73 P1 R7
G1 X167.5 E30 F400 ;Draw the first line
G1 Z0.6 F120.0 ;Move to side a little
M73 P4 R7
G1 X162.5 F3000
G92 E0 ;Reset Extruder
G90
G21
M83 ; use relative distances for extrusion
; filament start gcode
M106 S0
;LAYER_CHANGE
;Z:0.2
;HEIGHT:0.2
;BEFORE_LAYER_CHANGE
G92 E0
;0.2


G1 E-.8 F3600
;AFTER_LAYER_CHANGE
;0.2
;_SET_FAN_SPEED_CHANGING_LAYER
SET_VELOCITY_LIMIT ACCEL=1000 ACCEL_TO_DECEL=500
SET_VELOCITY_LIMIT SQUARE_CORNER_VELOCITY=7
; printing object 固定垫.STL id:0 copy 0
EXCLUDE_OBJECT_START NAME=固定垫.STL_id_0_copy_0
G1 X108.709 Y112.217 F21000
G1 Z.4
G1 Z.2
G1 E.8 F2700
;TYPE:Inner wall
;WIDTH:0.419999
G1 F3000
G1 X108.819 Y112.292 E.00411
G1 X109.155 Y112.423 E.01108
G1 X109.464 Y112.46 E.00957
G1 X109.791 Y112.43 E.01007
G1 X110.199 Y112.274 E.01341
;WIDTH:0.409313
G1 X110.131 Y112.354 E.00313
;WIDTH:0.419999
G1 X109.774 Y112.707 E.01542
G1 X109.426 Y113.201 E.01856
G1 X109.166 Y113.746 E.01856
;WIDTH:0.451213
G1 X108.986 Y114.326 E.02018
G1 X108.939 Y114.929 E.02012
;WIDTH:0.434006
G1 X108.973 Y115.543 E.01961
G1 X109.129 Y116.147 E.01988
;WIDTH:0.419999
G1 X109.356 Y116.675 E.01765
G1 X109.729 Y117.232 E.0206
;WIDTH:0.455967
G1 X110.075 Y117.637 E.01793
G1 X109.906 Y117.587 E.00595
;WIDTH:0.439384
G1 X109.339 Y117.546 E.01836
;WIDTH:0.419999
G1 X108.931 Y117.655 E.01297
G1 X108.564 Y117.883 E.01327
G1 X108.564 Y116.062 E.05594
;WIDTH:0.436333
G1 X108.563 Y114.889 E.03762
;WIDTH:0.451213
G1 X108.58 Y114.3 E.0196
G1 X108.564 Y113.656 E.02142
;WIDTH:0.419999
G1 X108.564 Y112.119 E.04723
G1 X108.675 Y112.194 E.00413
G1 X108.892 Y111.882 F21000
G1 F3000
G1 X108.689 Y111.719 E.00802
G1 X108.509 Y111.402 E.0112
;WIDTH:0.392053
G1 X108.459 Y110.891 E.01461
;WIDTH:0.383558
G1 X108.502 Y110.725 E.00475
;WIDTH:0.417233
G1 X108.546 Y110.56 E.00522
;WIDTH:0.450907
G1 X108.589 Y110.394 E.00569
;WIDTH:0.490435
G1 X108.653 Y110.283 E.00468
;WIDTH:0.529963
G1 X108.718 Y110.172 E.0051
G1 X108.848 Y110.118 E.00557
;WIDTH:0.483621
G1 X108.978 Y110.065 E.00504
;WIDTH:0.437278
G1 X109.107 Y110.011 E.00451
;WIDTH:0.390935
G1 X109.591 Y109.954 E.01381
;WIDTH:0.399934
G1 X109.945 Y110.023 E.01049
;WIDTH:0.419999
G1 X110.253 Y110.22 E.01123
;WIDTH:0.44138
G1 X110.479 Y110.511 E.01199
;WIDTH:0.444741
G1 X110.586 Y110.84 E.01133
G1 X110.577 Y111.155 E.01029
;WIDTH:0.421348
G1 X110.417 Y111.581 E.01403
;WIDTH:0.419999
G1 X110.121 Y111.893 E.01322
G1 X109.598 Y112.083 E.01711
G1 X109.24 Y112.056 E.01102
G1 X108.975 Y111.948 E.00882
G1 X108.924 Y111.907 E.00201
G1 X109.135 Y111.598 F21000
;TYPE:Outer wall
G1 F3000
G1 X109.077 Y111.569 E.00201
G1 X108.912 Y111.395 E.00736
G1 X108.813 Y111.162 E.00779
G1 X108.821 Y110.806 E.01093
G1 X108.99 Y110.508 E.01052
G1 X109.198 Y110.362 E.00783
G1 X109.533 Y110.292 E.0105
G1 X109.766 Y110.343 E.00733
G1 X109.97 Y110.469 E.00736
G1 X110.12 Y110.656 E.00736
G1 X110.199 Y110.882 E.00736
G1 X110.193 Y111.135 E.00779
G1 X110.05 Y111.447 E.01052
G1 X109.875 Y111.602 E.0072
G1 X109.528 Y111.708 E.01114
G1 X109.291 Y111.677 E.00736
G1 X109.171 Y111.616 E.00413
G1 E-.68 F3600
;WIPE_START
G1 F3000
G1 X109.077 Y111.569 E-.01263
G1 X108.912 Y111.395 E-.02874
G1 X108.813 Y111.162 E-.03041
G1 X108.821 Y110.806 E-.0427
G1 X108.844 Y110.766 E-.0055
;WIPE_END
G1 X111.033 Y110.913 Z.6 F21000
G1 Z.2
G1 E.8 F2700
;TYPE:Inner wall
;WIDTH:0.444741
G1 F3000
G1 X111.15 Y111.233 E.01116
;WIDTH:0.419999
G1 X111.452 Y111.625 E.01522
G1 X111.846 Y111.886 E.01453
G1 X111.394 Y112.012 E.01445
G1 X110.905 Y112.242 E.0166
G1 X110.461 Y112.552 E.0166
G1 X110.077 Y112.931 E.0166
G1 X109.762 Y113.371 E.0166
G1 X109.526 Y113.857 E.0166
G1 X109.376 Y114.376 E.0166
G1 X109.315 Y114.913 E.0166
G1 X109.348 Y115.458 E.01679
G1 X109.479 Y116.006 E.01732
G1 X109.677 Y116.477 E.01569
G1 X109.967 Y116.933 E.0166
G1 X110.33 Y117.333 E.0166
G1 X110.756 Y117.666 E.0166
G1 X111.36 Y117.968 E.02073
G1 X111.863 Y118.111 E.01609
G1 X111.614 Y118.25 E.00879
G1 X111.267 Y118.596 E.01505
;WIDTH:0.439786
G1 X111.071 Y118.947 E.01302
;WIDTH:0.442913
G1 X110.975 Y119.278 E.01122
G1 X111.007 Y119.808 E.01732
;WIDTH:0.419999
G1 X111.133 Y120.132 E.01066
G1 X111.27 Y120.339 E.00765
G1 X110.105 Y120.323 E.03581
;WIDTH:0.414388
G1 X109.81 Y120.339 E.00896
;WIDTH:0.381788
G1 X109.514 Y120.354 E.00817
;WIDTH:0.38061
G1 X109.237 Y120.338 E.00764
;WIDTH:0.412032
G1 X108.959 Y120.321 E.00836
;WIDTH:0.459289
G1 X108.724 Y120.297 E.00802
;WIDTH:0.506546
G1 X108.489 Y120.272 E.00893
;WIDTH:0.553802
G1 X108.254 Y120.248 E.00984
G1 X108.254 Y119.993 E.0106
G1 X108.234 Y119.865 E.00539
;WIDTH:0.514032
G1 X108.214 Y119.738 E.00497
;WIDTH:0.474261
G1 X108.194 Y119.61 E.00455
;WIDTH:0.434491
G1 X108.174 Y119.482 E.00413
;WIDTH:0.39472
G1 X108.152 Y118.891 E.01695
;WIDTH:0.384941
G1 X108.17 Y118.597 E.00821
;WIDTH:0.419999
G1 X108.187 Y118.303 E.00905
G1 X108.187 Y112.109 E.1903
G1 X108.173 Y111.482 E.01929
;WIDTH:0.392053
G1 X108.152 Y110.891 E.01682
;WIDTH:0.383558
G1 X108.169 Y110.695 E.00546
;WIDTH:0.417233
G1 X108.186 Y110.499 E.006
;WIDTH:0.450907
G1 X108.203 Y110.303 E.00654
;WIDTH:0.484439
G1 X108.219 Y110.119 E.00664
;WIDTH:0.517971
G1 X108.236 Y109.935 E.00715
;WIDTH:0.551502
G1 X108.253 Y109.751 E.00765
G1 X108.497 Y109.729 E.01015
;WIDTH:0.509703
G1 X108.741 Y109.708 E.00932
;WIDTH:0.467904
G1 X108.993 Y109.687 E.00878
;WIDTH:0.427582
G1 X109.246 Y109.666 E.00794
;WIDTH:0.38726
G1 X109.498 Y109.645 E.00711
;WIDTH:0.373436
G1 X109.767 Y109.657 E.00725
;WIDTH:0.399934
G1 X110.036 Y109.67 E.00783
;WIDTH:0.419999
G1 X110.633 Y109.678 E.01835
G1 X111.268 Y109.661 E.0195
G1 X111.051 Y110.05 E.01367
;WIDTH:0.44138
G1 X110.974 Y110.432 E.01267
;WIDTH:0.444741
G1 X110.981 Y110.772 E.01111
M73 P5 R7
G1 X111.019 Y110.875 E.00362
G1 X110.66 Y110.023 F21000
;WIDTH:0.442448
G1 F3000
G1 X110.585 Y110.066 E.00282
G1 X110.66 Y110.11 E.00282
G1 X110.685 Y110.066 E.00163
G1 E-.68 F3600
;WIPE_START
G1 F3000
G1 X110.66 Y110.11 E-.02688
G1 X110.585 Y110.066 E-.04656
G1 X110.66 Y110.023 E-.04656
;WIPE_END
G1 X110.256 Y112.242 Z.6 F21000
G1 Z.2
G1 E.8 F2700
;WIDTH:0.435471
G1 F3000
G1 X110.468 Y112.076 E.00861
;WIDTH:0.46957
G1 X110.68 Y111.909 E.00936
;WIDTH:0.511209
G1 X110.733 Y111.859 E.00281
;WIDTH:0.552847
G1 X110.786 Y111.808 E.00306
;WIDTH:0.594486
G1 X110.84 Y111.757 E.00331
;WIDTH:0.636124
G1 X110.893 Y111.706 E.00356
G1 E-.68 F3600
;WIPE_START
G1 F3000
G1 X110.84 Y111.757 E-.01061
G1 X110.786 Y111.808 E-.01061
G1 X110.733 Y111.859 E-.01061
G1 X110.68 Y111.909 E-.01061
G1 X110.468 Y112.076 E-.03877
G1 X110.256 Y112.242 E-.03877
;WIPE_END
G1 X108.574 Y119.511 Z.6 F21000
G1 Z.2
G1 E.8 F2700
;WIDTH:0.436469
G1 F3000
G1 X108.56 Y119.468 E.00147
;WIDTH:0.396252
G1 X108.468 Y119.177 E.00876
;WIDTH:0.381583
G1 X108.479 Y118.909 E.00742
;WIDTH:0.407131
G1 X108.49 Y118.64 E.00798
;WIDTH:0.419999
G1 X108.603 Y118.401 E.00811
G1 X108.89 Y118.104 E.0127
G1 X109.268 Y117.938 E.0127
G1 X109.588 Y117.92 E.00984
G1 X109.947 Y118.012 E.0114
G1 X110.298 Y118.261 E.01321
G1 X110.515 Y118.635 E.01327
;WIDTH:0.453275
G1 X110.598 Y119.012 E.01293
G1 X110.551 Y119.279 E.00905
;WIDTH:0.437411
G1 X110.347 Y119.681 E.01449
;WIDTH:0.419999
G1 X110.024 Y119.945 E.01283
;WIDTH:0.414388
G1 X109.851 Y119.991 E.00544
;WIDTH:0.385651
G1 X109.677 Y120.037 E.00502
;WIDTH:0.36738
G1 X109.278 Y120.029 E.01056
;WIDTH:0.414046
G1 X109.114 Y119.977 E.0052
;WIDTH:0.460711
G1 X108.95 Y119.925 E.00586
;WIDTH:0.507376
G1 X108.786 Y119.872 E.00651
;WIDTH:0.528014
G1 X108.651 Y119.758 E.00699
;WIDTH:0.436469
G1 X108.586 Y119.55 E.00701
G1 X108.927 Y119.411 F21000
;TYPE:Outer wall
;WIDTH:0.419999
G1 F3000
G1 X108.912 Y119.395 E.00068
G1 X108.813 Y119.162 E.00779
G1 X108.821 Y118.806 E.01093
G1 X108.99 Y118.508 E.01052
G1 X109.183 Y118.366 E.00736
G1 X109.412 Y118.297 E.00736
G1 X109.668 Y118.314 E.0079
G1 X109.873 Y118.397 E.0068
G1 X110.059 Y118.569 E.00779
G1 X110.199 Y118.882 E.01052
G1 X110.193 Y119.135 E.00779
G1 X110.05 Y119.447 E.01052
G1 X109.87 Y119.604 E.00736
G1 X109.648 Y119.693 E.00736
G1 X109.394 Y119.698 E.00779
G1 X109.077 Y119.569 E.01052
G1 X108.955 Y119.44 E.00545
G1 E-.68 F3600
;WIPE_START
G1 F3000
G1 X108.912 Y119.395 E-.00744
G1 X108.813 Y119.162 E-.03041
G1 X108.821 Y118.806 E-.0427
G1 X108.983 Y118.52 E-.03944
;WIPE_END
G1 X110.665 Y119.892 Z.6 F21000
G1 Z.2
G1 E.8 F2700
;TYPE:Inner wall
;WIDTH:0.441052
G1 F3000
G1 X110.59 Y119.935 E.0028
G1 X110.665 Y119.978 E.0028
G1 X110.69 Y119.935 E.00161
G1 E-.68 F3600
;WIPE_START
G1 F3000
G1 X110.665 Y119.978 E-.02688
G1 X110.59 Y119.935 E-.04656
G1 X110.665 Y119.892 E-.04656
;WIPE_END
G1 X110.886 Y118.294 Z.6 F21000
G1 Z.2
G1 E.8 F2700
;WIDTH:0.635486
G1 F3000
G1 X110.805 Y118.221 E.0053
;WIDTH:0.58946
G1 X110.723 Y118.147 E.00489
;WIDTH:0.543434
G1 X110.642 Y118.074 E.00447
;WIDTH:0.497407
G1 X110.56 Y118 E.00406
;WIDTH:0.451381
G1 X110.479 Y117.927 E.00365
;WIDTH:0.43102
G1 X110.28 Y117.784 E.00773
;WIDTH:0.456686
G1 X110.082 Y117.641 E.00825
G1 E-.68 F3600
;WIPE_START
G1 F3000
G1 X110.28 Y117.784 E-.02935
G1 X110.479 Y117.927 E-.02935
G1 X110.56 Y118 E-.01317
G1 X110.642 Y118.074 E-.01317
G1 X110.723 Y118.147 E-.01317
G1 X110.805 Y118.221 E-.01317
G1 X110.858 Y118.269 E-.00864
;WIPE_END
G1 X118.479 Y117.854 Z.6 F21000
G1 X122.32 Y117.646 Z.6
G1 Z.2
G1 E.8 F2700
;WIDTH:0.425786
G1 F3000
G1 X122.077 Y117.619 E.00762
;WIDTH:0.422802
G1 X121.553 Y117.481 E.01678
;WIDTH:0.419999
G1 X121.182 Y117.296 E.01274
G1 X120.716 Y116.977 E.01735
G1 X120.301 Y116.466 E.02023
G1 X120.087 Y116.126 E.01232
G1 X119.891 Y115.495 E.0203
G1 X119.85 Y115.179 E.00979
G1 X119.875 Y114.597 E.0179
G1 X119.942 Y114.286 E.00979
G1 X120.159 Y113.746 E.01788
G1 X120.374 Y113.42 E.01201
G1 X120.711 Y113.037 E.01564
G1 X120.959 Y112.837 E.00979
G1 X121.467 Y112.553 E.01788
G1 X121.845 Y112.434 E.0122
;WIDTH:0.422731
G1 X122.392 Y112.34 E.01716
;WIDTH:0.430912
G1 X122.863 Y112.357 E.01493
G1 X123.654 Y112.608 E.02622
;WIDTH:0.419999
G1 X123.932 Y112.763 E.00979
G1 X124.385 Y113.129 E.01788
G1 X124.628 Y113.421 E.01168
G1 X124.9 Y113.864 E.01597
G1 X125.019 Y114.159 E.00979
G1 X125.142 Y114.728 E.01788
G1 X125.155 Y115.047 E.00979
G1 X125.081 Y115.624 E.01788
G1 X124.988 Y115.929 E.00979
G1 X124.726 Y116.448 E.01788
G1 X124.537 Y116.704 E.00979
G1 X124.117 Y117.107 E.01788
G1 X123.853 Y117.286 E.00979
G1 X123.322 Y117.525 E.01788
G1 X122.965 Y117.61 E.01128
;WIDTH:0.425786
G1 X122.431 Y117.658 E.01672
G1 X122.36 Y117.65 E.00224
G1 X122.334 Y117.267 F21000
;WIDTH:0.419999
G1 F3000
G1 X122.002 Y117.209 E.01037
G1 X121.487 Y117.046 E.01658
G1 X121 Y116.717 E.01807
G1 X120.729 Y116.411 E.01255
G1 X120.437 Y115.986 E.01586
G1 X120.251 Y115.385 E.01933
G1 X120.232 Y115.071 E.00967
G1 X120.268 Y114.5 E.01756
G1 X120.474 Y113.974 E.01737
G1 X120.609 Y113.724 E.00875
G1 X120.994 Y113.287 E.01788
G1 X121.305 Y113.076 E.01155
G1 X121.83 Y112.819 E.01795
G1 X122.389 Y112.722 E.01745
G1 X122.95 Y112.76 E.01728
G1 X123.528 Y112.963 E.01882
G1 X123.951 Y113.264 E.01594
G1 X124.274 Y113.566 E.01359
G1 X124.579 Y114.061 E.01788
G1 X124.773 Y114.808 E.02369
G1 X124.781 Y114.999 E.00587
G1 X124.707 Y115.576 E.01788
G1 X124.651 Y115.759 E.00587
G1 X124.389 Y116.279 E.01788
G1 X124.276 Y116.432 E.00587
G1 X123.856 Y116.835 E.01788
G1 X123.461 Y117.049 E.0138
G1 X122.981 Y117.23 E.01574
G1 X122.399 Y117.279 E.01795
G1 X122.374 Y117.274 E.0008
G1 X122.404 Y116.9 F21000
;TYPE:Outer wall
G1 F3000
G1 X122.368 Y116.903 E.00111
G1 X121.743 Y116.751 E.01975
G1 X121.211 Y116.405 E.01952
G1 X120.811 Y115.887 E.0201
G1 X120.612 Y115.274 E.0198
G1 X120.624 Y114.731 E.01669
G1 X120.642 Y114.567 E.00508
G1 X120.859 Y114.027 E.01788
G1 X121.277 Y113.536 E.01982
G1 X121.834 Y113.212 E.01982
G1 X122.454 Y113.094 E.01937
G1 X122.853 Y113.125 E.01232
G1 X123.403 Y113.319 E.01792
G1 X123.911 Y113.716 E.01979
G1 X124.258 Y114.259 E.01982
G1 X124.405 Y114.887 E.01982
G1 X124.333 Y115.528 E.01982
G1 X124.053 Y116.109 E.01982
G1 X123.638 Y116.521 E.01796
G1 X123.305 Y116.705 E.0117
G1 X122.902 Y116.858 E.01326
G1 X122.444 Y116.897 E.01412
G1 E-.68 F3600
;WIPE_START
G1 F3000
G1 X122.368 Y116.903 E-.00914
G1 X121.743 Y116.751 E-.07712
G1 X121.508 Y116.598 E-.03374
;WIPE_END
G1 X124.647 Y110.152 Z.6 F21000
G1 Z.2
G1 E.8 F2700
;TYPE:Inner wall
;WIDTH:0.601293
G1 F3000
G1 X124.61 Y110.325 E.00808
G1 X124.624 Y110.715 E.01771
;WIDTH:0.570857
G1 X124.689 Y110.851 E.0065
;WIDTH:0.533143
G1 X124.754 Y110.987 E.00604
;WIDTH:0.495428
G1 X124.819 Y111.124 E.00557
;WIDTH:0.457714
G1 X124.884 Y111.26 E.00511
;WIDTH:0.419999
G1 X125.23 Y111.68 E.01672
G1 X125.65 Y111.925 E.01494
G1 X126.042 Y112.036 E.01253
G1 X126.44 Y112.024 E.01222
G1 X126.44 Y117.96 E.18239
G1 X126.222 Y117.957 E.00668
G1 X125.858 Y118 E.01128
G1 X125.659 Y118.064 E.00641
G1 X125.305 Y118.273 E.01265
G1 X124.99 Y118.58 E.0135
G1 X124.769 Y119.014 E.01499
;WIDTH:0.464718
G1 X124.727 Y119.139 E.00451
;WIDTH:0.509437
G1 X124.686 Y119.263 E.00498
;WIDTH:0.554156
G1 X124.645 Y119.388 E.00546
;WIDTH:0.598875
G1 X124.603 Y119.512 E.00594
G1 X124.643 Y119.851 E.01545
;WIDTH:0.596483
G1 X124.006 Y119.85 E.02873
;WIDTH:0.598875
G1 X124.048 Y119.514 E.01535
G1 X124.004 Y119.384 E.00623
;WIDTH:0.554156
G1 X123.961 Y119.253 E.00573
;WIDTH:0.509437
G1 X123.917 Y119.123 E.00523
;WIDTH:0.464718
G1 X123.874 Y118.993 E.00472
;WIDTH:0.419999
G1 X123.631 Y118.57 E.01498
G1 X123.347 Y118.311 E.01182
G1 X123.069 Y118.155 E.00979
;WIDTH:0.431711
G1 X122.588 Y118.037 E.01568
G1 X122.126 Y118.085 E.01474
;WIDTH:0.423641
G1 X121.699 Y118.276 E.0145
;WIDTH:0.419999
G1 X121.349 Y118.603 E.01471
G1 X121.154 Y118.95 E.01222
;WIDTH:0.463839
G1 X121.103 Y119.075 E.00464
;WIDTH:0.507679
G1 X121.051 Y119.2 E.00513
;WIDTH:0.551519
G1 X121 Y119.325 E.00561
;WIDTH:0.595359
G1 X120.948 Y119.45 E.0061
;WIDTH:0.596122
M73 P6 R7
G1 X120.999 Y119.85 E.01816
G1 X120.357 Y119.85 E.02891
G1 X120.396 Y119.458 E.01776
;WIDTH:0.595359
G1 X120.353 Y119.342 E.00555
;WIDTH:0.551519
G1 X120.31 Y119.227 E.00511
;WIDTH:0.507679
G1 X120.268 Y119.111 E.00467
;WIDTH:0.463839
G1 X120.225 Y118.996 E.00423
;WIDTH:0.419999
G1 X119.98 Y118.536 E.01599
G1 X119.684 Y118.255 E.01255
G1 X119.367 Y118.068 E.01131
G1 X118.895 Y117.945 E.015
G1 X118.387 Y117.98 E.01565
G1 X117.969 Y118.158 E.01394
G1 X117.711 Y118.331 E.00955
G1 X117.411 Y118.69 E.01435
G1 X117.26 Y119.037 E.01164
G1 X117.191 Y119.539 E.01557
G1 X117.257 Y119.938 E.01241
G1 X114.351 Y119.942 E.08929
G1 X114.391 Y119.272 E.02064
G1 X114.325 Y118.95 E.01007
G1 X114.229 Y118.686 E.00867
G1 X113.949 Y118.253 E.01582
G1 X114.56 Y117.906 E.02162
G1 X115.093 Y117.435 E.02183
G1 X115.435 Y117.014 E.01667
G1 X115.716 Y116.532 E.01716
G1 X115.914 Y116.023 E.01678
G1 X116.022 Y115.532 E.01546
;WIDTH:0.419718
G1 X116.049 Y115.19 E.01051
;WIDTH:0.419611
G1 X116.133 Y115.511 E.01017
;WIDTH:0.419999
G1 X116.381 Y115.938 E.01516
G1 X116.712 Y116.227 E.01352
G1 X117.042 Y116.387 E.01127
G1 X117.575 Y116.462 E.01652
G1 X117.953 Y116.388 E.01183
G1 X118.32 Y116.205 E.01262
G1 X118.619 Y115.938 E.01233
G1 X118.871 Y115.501 E.01547
G1 X118.943 Y115.174 E.01029
G1 X118.943 Y114.778 E.01216
G1 X118.811 Y114.353 E.01368
G1 X118.479 Y113.913 E.01695
