; HEADER_BLOCK_START
; generated by OrcaSlicer 2.1.1 on 2024-11-17 at 20:00:17
; total layer number: 105
; filament_density: 1.24
; filament_diameter: 1.75
; max_z_height: 8.52
; HEADER_BLOCK_END

; THUMBNAIL_BLOCK_START

;
; THUMBNAIL_BLOCK_END







; external perimeters extrusion width = 0.40mm
; perimeters extrusion width = 0.45mm
; infill extrusion width = 0.45mm
; solid infill extrusion width = 0.45mm
; top infill extrusion width = 0.38mm
; first layer extrusion width = 0.42mm

; EXECUTABLE_BLOCK_START
EXCLUDE_OBJECT_DEFINE NAME=固定垫层.STL_id_0_copy_0 CENTER=117.5,112 POLYGON=[[107.5,106],[127.5,106],[127.5,118],[107.5,118],[107.5,106]]
M73 P0 R16
;TYPE:Custom
;ELEGOO NEPTUNE 4 PRO
M220 S100 ;Set the feed speed to 100%
M221 S100 ;Set the flow rate to 100%
M104 S140
M190 S60
G90
G28 ;home
G1 Z10 F300
G1 X67.5 Y0 F6000
G1 Z0 F300
M109 S210
G92 E0 ;Reset Extruder
G1 X67.5 Y0 Z0.4 F300 ;Move to start position
G1 X167.5 E30 F400 ;Draw the first line
G1 Z0.6 F120.0 ;Move to side a little
M73 P1 R16
G1 X162.5 F3000
G92 E0 ;Reset Extruder
G90
G21
M83 ; use relative distances for extrusion
; filament start gcode
M106 S0
;LAYER_CHANGE
;Z:0.2
;HEIGHT:0.2
;BEFORE_LAYER_CHANGE
G92 E0
;0.2


G1 E-.8 F3600
;AFTER_LAYER_CHANGE
;0.2
;_SET_FAN_SPEED_CHANGING_LAYER
SET_VELOCITY_LIMIT ACCEL=1000 ACCEL_TO_DECEL=500
SET_VELOCITY_LIMIT SQUARE_CORNER_VELOCITY=7
; printing object 固定垫层.STL id:0 copy 0
EXCLUDE_OBJECT_START NAME=固定垫层.STL_id_0_copy_0
G1 X126.436 Y109.244 F21000
G1 Z.4
M73 P2 R16
G1 Z.2
G1 E.8 F2700
;TYPE:Inner wall
;WIDTH:0.419999
G1 F3000
G1 X126.436 Y114.773 E.16988
G1 X126.236 Y114.625 E.00764
G1 X125.737 Y114.459 E.01617
G1 X125.25 Y114.458 E.01496
;WIDTH:0.437949
G1 X124.785 Y114.599 E.01562
G1 X124.511 Y114.791 E.01077
;WIDTH:0.420861
G1 X124.266 Y115.057 E.01115
G1 X124 Y115.557 E.01742
;WIDTH:0.419999
G1 X123.936 Y115.997 E.01369
G1 X124.008 Y116.449 E.01405
G1 X124.27 Y116.936 E.01699
G1 X113.956 Y116.936 E.31691
G1 X114.02 Y116.523 E.01283
G1 X113.985 Y116.277 E.00766
G1 X114.339 Y116.165 E.0114
G1 X115.001 Y115.815 E.023
G1 X115.582 Y115.364 E.0226
G1 X116.086 Y114.82 E.02279
G1 X116.526 Y114.135 E.02503
G1 X116.851 Y113.417 E.02421
G1 X117.228 Y113.529 E.01208
G1 X117.769 Y113.541 E.01663
G1 X118.281 Y113.342 E.01689
G1 X118.596 Y113.11 E.01203
G1 X118.877 Y112.739 E.0143
;WIDTH:0.435407
G1 X119.046 Y112.286 E.01546
G1 X119.056 Y111.791 E.01581
;WIDTH:0.430197
G1 X118.968 Y111.478 E.01029
;WIDTH:0.420847
G1 X118.813 Y111.159 E.01089
;WIDTH:0.419999
G1 X118.493 Y110.794 E.01493
G1 X118.115 Y110.574 E.01344
G1 X117.736 Y110.459 E.01217
G1 X117.267 Y110.455 E.0144
G1 X116.835 Y110.592 E.01393
G1 X116.589 Y109.976 E.0204
G1 X116.211 Y109.346 E.02256
G1 X115.737 Y108.785 E.02256
G1 X115.176 Y108.306 E.02267
G1 X114.517 Y107.914 E.02355
G1 X114 Y107.717 E.01703
G1 X114.026 Y107.447 E.00832
G1 X113.958 Y107.064 E.01196
G1 X124.255 Y107.067 E.31638
G1 X124.099 Y107.33 E.00938
G1 X123.97 Y107.699 E.01202
G1 X123.943 Y107.907 E.00644
G1 X123.952 Y108.199 E.00898
G1 X124.077 Y108.648 E.01432
;WIDTH:0.449146
G1 X124.344 Y109.059 E.01623
G1 X124.711 Y109.34 E.01529
;WIDTH:0.422376
G1 X125.183 Y109.532 E.01576
;WIDTH:0.419999
G1 X125.668 Y109.554 E.01491
G1 X126.117 Y109.432 E.01432
G1 X126.401 Y109.264 E.01013
G1 E-.68 F3600
;WIPE_START
G1 F3000
G1 X126.408 Y110.264 E-.12
;WIPE_END
G1 X126.739 Y108.241 Z.6 F21000
G1 Z.2
G1 E.8 F2700
;WIDTH:0.568714
G1 F3000
G1 X126.763 Y108.409 E.00729
;WIDTH:0.519143
G1 X126.788 Y108.577 E.0066
;WIDTH:0.469571
G1 X126.813 Y108.746 E.00592
;WIDTH:0.419999
G1 X126.813 Y115.218 E.19888
;WIDTH:0.459703
G1 X126.793 Y115.346 E.00441
;WIDTH:0.499407
G1 X126.773 Y115.475 E.00483
;WIDTH:0.539111
G1 X126.753 Y115.603 E.00525
;WIDTH:0.578814
G1 X126.734 Y115.731 E.00566
G1 X126.683 Y115.637 E.00468
;WIDTH:0.536631
G1 X126.632 Y115.542 E.00431
;WIDTH:0.494447
G1 X126.451 Y115.326 E.01036
;WIDTH:0.457223
G1 X126.271 Y115.11 E.00951
;WIDTH:0.419999
G1 X125.89 Y114.883 E.01364
G1 X125.495 Y114.817 E.01229
G1 X125.059 Y114.899 E.01364
G1 X124.687 Y115.135 E.01355
G1 X124.423 Y115.523 E.01442
G1 X124.344 Y115.747 E.0073
G1 X124.327 Y116.152 E.01245
G1 X124.474 Y116.58 E.01391
G1 X124.657 Y116.824 E.00937
G1 X124.878 Y117 E.00867
;WIDTH:0.464705
G1 X125.05 Y117.082 E.00657
;WIDTH:0.509411
G1 X125.223 Y117.164 E.00726
;WIDTH:0.554116
G1 X125.396 Y117.246 E.00796
G1 X125.201 Y117.268 E.00818
;WIDTH:0.509411
G1 X125.006 Y117.291 E.00746
;WIDTH:0.464705
G1 X124.811 Y117.313 E.00675
;WIDTH:0.419999
G1 X113.334 Y117.313 E.35263
G1 X113.477 Y117.145 E.00676
G1 X113.614 Y116.78 E.01198
G1 X113.648 Y116.404 E.01162
G1 X113.487 Y116.014 E.01296
G1 X114.169 Y115.828 E.02173
G1 X114.775 Y115.513 E.02096
G1 X115.31 Y115.103 E.02072
G1 X115.774 Y114.608 E.02084
G1 X116.186 Y113.973 E.02326
G1 X116.464 Y113.322 E.02175
G1 X116.61 Y112.793 E.01688
G1 X116.839 Y112.981 E.0091
G1 X117.181 Y113.142 E.01163
G1 X117.658 Y113.176 E.01469
G1 X118.16 Y112.981 E.01654
G1 X118.454 Y112.7 E.01251
G1 X118.633 Y112.342 E.01229
G1 X118.682 Y111.945 E.01229
G1 X118.596 Y111.554 E.01229
G1 X118.359 Y111.181 E.01359
G1 X117.931 Y110.904 E.01566
G1 X117.704 Y110.834 E.0073
G1 X117.389 Y110.817 E.00967
G1 X116.954 Y110.947 E.01397
G1 X116.606 Y111.237 E.01391
G1 X116.508 Y110.792 E.01402
G1 X116.262 Y110.165 E.0207
G1 X115.919 Y109.585 E.0207
G1 X115.487 Y109.068 E.0207
G1 X114.976 Y108.625 E.02077
G1 X114.383 Y108.266 E.0213
G1 X113.851 Y108.063 E.01751
G1 X113.502 Y108.007 E.01084
G1 X113.583 Y107.846 E.00553
G1 X113.649 Y107.438 E.01269
G1 X113.531 Y106.965 E.01499
G1 X113.335 Y106.687 E.01044
G1 X124.834 Y106.687 E.35332
;WIDTH:0.465648
G1 X125.002 Y106.71 E.00584
;WIDTH:0.511296
G1 X125.17 Y106.733 E.00647
;WIDTH:0.556944
G1 X125.338 Y106.756 E.0071
G1 X125.199 Y106.826 E.00652
;WIDTH:0.511296
G1 X125.06 Y106.897 E.00594
;WIDTH:0.465648
G1 X124.922 Y106.968 E.00536
;WIDTH:0.419999
G1 X124.58 Y107.264 E.01391
G1 X124.421 Y107.525 E.00937
G1 X124.317 Y107.955 E.01357
G1 X124.375 Y108.366 E.01275
G1 X124.474 Y108.58 E.00725
G1 X124.788 Y108.949 E.01488
G1 X125.164 Y109.129 E.01281
G1 X125.396 Y109.179 E.0073
G1 X125.794 Y109.146 E.01226
G1 X126.159 Y108.983 E.01229
G1 X126.472 Y108.665 E.01373
;WIDTH:0.469571
G1 X126.561 Y108.524 E.0058
;WIDTH:0.519143
G1 X126.65 Y108.382 E.00648
;WIDTH:0.568714
G1 X126.717 Y108.275 E.00544
G1 X126.733 Y107.725 F21000
;WIDTH:0.580632
G1 F3000
G1 X126.649 Y107.521 E.00964
;WIDTH:0.544571
G1 X126.352 Y107.129 E.02012
;WIDTH:0.515638
G1 X126.1 Y106.925 E.01248
;WIDTH:0.541593
G1 X125.906 Y106.843 E.00858
;WIDTH:0.567548
G1 X125.711 Y106.761 E.00903
G1 X125.926 Y106.748 E.00921
;WIDTH:0.541593
G1 X126.141 Y106.735 E.00876
;WIDTH:0.515638
G1 X126.765 Y106.735 E.02403
G1 X126.765 Y107.206 E.01814
;WIDTH:0.548135
G1 X126.749 Y107.465 E.01071
;WIDTH:0.580632
G1 X126.735 Y107.685 E.00964
G1 X126.303 Y107.92 F21000
;TYPE:Outer wall
;WIDTH:0.419999
G1 F3000
G1 X126.305 Y107.929 E.00029
G1 X126.277 Y108.215 E.00883
G1 X126.085 Y108.558 E.01206
G1 X125.866 Y108.721 E.0084
G1 X125.605 Y108.802 E.0084
G1 X125.323 Y108.787 E.00869
G1 X124.959 Y108.598 E.0126
G1 X124.743 Y108.282 E.01175
G1 X124.691 Y108.003 E.00874
G1 X124.744 Y107.721 E.0088
G1 X124.956 Y107.403 E.01175
G1 X125.196 Y107.251 E.00874
G1 X125.463 Y107.192 E.0084
G1 X125.734 Y107.226 E.0084
G1 X125.988 Y107.359 E.0088
G1 X126.23 Y107.655 E.01175
G1 X126.292 Y107.881 E.00721
G1 X126.733 Y107.725 F21000
;TYPE:Inner wall
;WIDTH:0.580632
G1 F3000
G1 X126.739 Y108.241 E.0226
G1 E-.68 F3600
;WIPE_START
G1 F3000
G1 X126.733 Y107.725 E-.12
;WIPE_END
G1 X125.338 Y106.756 Z.6 F21000
G1 Z.2
G1 E.8 F2700
;WIDTH:0.567548
G1 F3000
G1 X125.711 Y106.761 E.01596
G1 E-.68 F3600
;WIPE_START
G1 F3000
G1 X125.338 Y106.756 E-.12
;WIPE_END
G1 X120.96 Y113.007 Z.6 F21000
G1 X120.233 Y114.045 Z.6
G1 Z.2
G1 E.8 F2700
;WIDTH:0.419999
G1 F3000
G1 X119.991 Y113.756 E.01158
G1 X119.731 Y113.307 E.01596
G1 X119.55 Y112.82 E.01596
;WIDTH:0.435407
G1 X119.446 Y112.31 E.01665
G1 X119.44 Y111.79 E.01664
;WIDTH:0.430197
G1 X119.495 Y111.406 E.01223
;WIDTH:0.419999
G1 X119.653 Y110.868 E.01723
G1 X119.91 Y110.362 E.01744
G1 X120.255 Y109.918 E.01728
G1 X120.639 Y109.568 E.01596
G1 X121.077 Y109.289 E.01596
G1 X121.556 Y109.087 E.01596
G1 X122.061 Y108.969 E.01596
G1 X122.56 Y108.939 E.01534
G1 X123.096 Y108.996 E.01656
G1 X123.595 Y109.14 E.01597
;WIDTH:0.449146
G1 X124.067 Y109.352 E.0171
G1 X124.486 Y109.668 E.01739
;WIDTH:0.422376
G1 X124.851 Y110.038 E.01606
;WIDTH:0.419999
G1 X125.149 Y110.463 E.01596
G1 X125.37 Y110.933 E.01596
G1 X125.509 Y111.433 E.01596
G1 X125.562 Y111.95 E.01596
G1 X125.526 Y112.468 E.01596
G1 X125.404 Y112.973 E.01596
G1 X125.2 Y113.446 E.01582
G1 X124.914 Y113.885 E.0161
;WIDTH:0.437949
G1 X124.566 Y114.272 E.01676
G1 X124.149 Y114.583 E.01674
;WIDTH:0.423898
G1 X123.692 Y114.821 E.016
;WIDTH:0.419999
G1 X123.208 Y114.98 E.01565
G1 X122.68 Y115.057 E.0164
G1 X122.161 Y115.043 E.01596
G1 X121.651 Y114.942 E.01596
G1 X121.166 Y114.757 E.01596
G1 X120.72 Y114.491 E.01596
G1 X120.324 Y114.155 E.01596
G1 X120.258 Y114.076 E.00315
G1 X120.524 Y113.807 F21000
G1 F3000
G1 X120.312 Y113.558 E.01003
G1 X120.078 Y113.159 E.01423
G1 X119.899 Y112.651 E.01654
G1 X119.824 Y112.155 E.01542
G1 X119.842 Y111.655 E.01539
G1 X120.02 Y110.971 E.02171
G1 X120.238 Y110.551 E.01452
G1 X120.516 Y110.19 E.01401
G1 X120.85 Y109.88 E.014
G1 X121.232 Y109.632 E.014
G1 X121.651 Y109.452 E.014
G1 X122.093 Y109.345 E.014
G1 X122.53 Y109.315 E.01346
G1 X123.062 Y109.377 E.01645
G1 X123.44 Y109.484 E.01206
G1 X123.852 Y109.679 E.014
G1 X124.236 Y109.952 E.01448
G1 X124.548 Y110.262 E.01351
G1 X124.838 Y110.684 E.01573
G1 X125.01 Y111.043 E.01225
G1 X125.135 Y111.481 E.014
G1 X125.185 Y111.934 E.014
G1 X125.158 Y112.389 E.014
G1 X125.054 Y112.832 E.014
G1 X124.783 Y113.404 E.01943
G1 X124.455 Y113.835 E.01667
G1 X124.078 Y114.17 E.01547
G1 X123.565 Y114.466 E.01821
G1 X122.948 Y114.642 E.01971
G1 X122.32 Y114.68 E.01933
G1 X121.777 Y114.587 E.01693
G1 X121.35 Y114.427 E.014
G1 X120.956 Y114.198 E.014
G1 X120.607 Y113.906 E.014
G1 X120.55 Y113.838 E.00274
G1 X120.811 Y113.565 F21000
;TYPE:Outer wall
G1 F3000
G1 X120.633 Y113.361 E.0083
G1 X120.349 Y112.824 E.01865
G1 X120.211 Y112.309 E.01639
G1 X120.193 Y111.886 E.01302
G1 X120.239 Y111.524 E.01123
G1 X120.358 Y111.138 E.01238
G1 X120.541 Y110.776 E.01249
G1 X120.777 Y110.462 E.01205
G1 X121.061 Y110.193 E.01204
G1 X121.387 Y109.976 E.01204
G1 X121.746 Y109.817 E.01204
G1 X122.125 Y109.721 E.01204
G1 X122.501 Y109.691 E.01157
G1 X122.967 Y109.742 E.01442
G1 X123.511 Y109.93 E.01769
G1 X123.939 Y110.193 E.01541
G1 X124.244 Y110.486 E.01302
G1 X124.501 Y110.854 E.01377
G1 X124.649 Y111.154 E.01029
G1 X124.761 Y111.529 E.01204
G1 X124.808 Y111.918 E.01204
G1 X124.789 Y112.309 E.01204
G1 X124.704 Y112.692 E.01204
G1 X124.462 Y113.206 E.01747
G1 X124.11 Y113.656 E.01757
G1 X123.78 Y113.923 E.01302
G1 X123.437 Y114.111 E.01204
G1 X122.884 Y114.271 E.01767
G1 X122.32 Y114.303 E.01736
G1 X121.903 Y114.231 E.01302
G1 X121.534 Y114.098 E.01204
G1 X121.193 Y113.905 E.01204
G1 X120.89 Y113.656 E.01204
G1 X120.837 Y113.595 E.00251
G1 E-.68 F3600
;WIPE_START
G1 F3000
G1 X120.633 Y113.361 E-.03723
G1 X120.349 Y112.824 E-.07283
G1 X120.328 Y112.744 E-.00995
;WIPE_END
G1 X116.726 Y111.795 Z.6 F21000
G1 Z.2
G1 E.8 F2700
;WIDTH:0.432838
G1 F3000
G1 X116.731 Y111.73 E.00209
G1 X116.881 Y111.484 E.00914
;WIDTH:0.419999
G1 X117.195 Y111.251 E.01204
G1 X117.463 Y111.192 E.00842
G1 X117.748 Y111.233 E.00883
G1 X118.082 Y111.439 E.01206
G1 X118.246 Y111.699 E.00944
G1 X118.305 Y111.929 E.00731
G1 X118.283 Y112.201 E.0084
G1 X118.171 Y112.451 E.0084
G1 X117.969 Y112.655 E.00883
G1 X117.591 Y112.801 E.01245
G1 X117.212 Y112.755 E.01175
G1 X116.968 Y112.609 E.00874
;WIDTH:0.421999
G1 X116.794 Y112.397 E.00846
;WIDTH:0.429708
G1 X116.699 Y112.131 E.0089
;WIDTH:0.432838
G1 X116.723 Y111.835 E.00943
G1 E-.68 F3600
;WIPE_START
G1 F3000
G1 X116.731 Y111.73 E-.01268
G1 X116.881 Y111.484 E-.03451
G1 X117.195 Y111.251 E-.04703
G1 X117.405 Y111.205 E-.02578
;WIPE_END
G1 X112.24 Y115.769 Z.6 F21000
G1 Z.2
G1 E.8 F2700
;WIDTH:0.561258
G1 F3000
G1 X112.605 Y115.749 E.01544
G1 E-.68 F3600
;WIPE_START
G1 F3000
G1 X112.24 Y115.769 E-.12
;WIPE_END
G1 X108.564 Y114.819 Z.6 F21000
G1 Z.2
G1 E.8 F2700
;TYPE:Inner wall
;WIDTH:0.419999
G1 F3000
G1 X108.564 Y114.314 E.01552
G1 X109.015 Y114.944 E.0238
G1 X109.533 Y115.465 E.02259
G1 X110.14 Y115.902 E.023
G1 X110.661 Y116.165 E.01791
G1 X111.015 Y116.277 E.0114
G1 X110.975 Y116.391 E.00372
G1 X111.044 Y116.936 E.01688
G1 X108.564 Y116.936 E.07619
G1 X108.564 Y114.859 E.06382
G1 X108.187 Y115.125 F21000
G1 F3000
G1 X108.187 Y113.496 E.05006
;WIDTH:0.461744
G1 X108.208 Y113.365 E.00453
;WIDTH:0.503488
G1 X108.229 Y113.234 E.00498
;WIDTH:0.545232
G1 X108.25 Y113.103 E.00544
;WIDTH:0.586976
G1 X108.271 Y112.971 E.00589
;WIDTH:0.62872
G1 X108.291 Y112.84 E.00634
G1 X108.326 Y112.906 E.00353
;WIDTH:0.5904
G1 X108.395 Y113.061 E.00758
;WIDTH:0.5478
G1 X108.464 Y113.216 E.00699
;WIDTH:0.5052
G1 X108.533 Y113.371 E.0064
;WIDTH:0.4626
G1 X108.602 Y113.527 E.00581
;WIDTH:0.419999
G1 X108.898 Y114.132 E.0207
G1 X109.287 Y114.682 E.0207
G1 X109.759 Y115.164 E.02072
G1 X110.31 Y115.566 E.02097
G1 X110.95 Y115.872 E.02179
G1 X111.513 Y116.014 E.01785
G1 X111.352 Y116.404 E.01297
G1 X111.39 Y116.793 E.01201
G1 X111.525 Y117.148 E.01169
G1 X111.665 Y117.313 E.00666
G1 X108.187 Y117.313 E.10688
G1 X108.187 Y115.165 E.06599
G1 E-.68 F3600
;WIPE_START
G1 F3000
G1 X108.187 Y114.165 E-.12
;WIPE_END
G1 X108.564 Y109.711 Z.6 F21000
G1 Z.2
G1 E.8 F2700
G1 F3000
G1 X108.564 Y107.064 E.08134
G1 X111.038 Y107.064 E.076
G1 X110.983 Y107.367 E.00947
G1 X110.995 Y107.719 E.0108
G1 X110.318 Y107.996 E.02248
G1 X109.699 Y108.399 E.02268
G1 X109.158 Y108.895 E.02256
G1 X108.789 Y109.346 E.01791
G1 X108.585 Y109.677 E.01195
G1 E-.68 F3600
;WIPE_START
G1 F3000
G1 X108.577 Y108.677 E-.12
;WIPE_END
G1 X108.187 Y110.851 Z.6 F21000
G1 Z.2
G1 E.8 F2700
G1 F3000
G1 X108.187 Y106.687 E.12794
G1 X111.672 Y106.687 E.10709
G1 X111.518 Y106.883 E.00765
G1 X111.405 Y107.137 E.00857
G1 X111.355 Y107.431 E.00916
G1 X111.366 Y107.672 E.00742
G1 X111.515 Y107.995 E.01092
G1 X111.161 Y108.059 E.01104
G1 X110.518 Y108.316 E.02128
G1 X109.949 Y108.681 E.02077
G1 X109.45 Y109.133 E.0207
G1 X109.029 Y109.66 E.0207
G1 X108.699 Y110.247 E.0207
G1 X108.467 Y110.879 E.0207
;WIDTH:0.461237
G1 X108.418 Y111.018 E.00502
;WIDTH:0.502475
G1 X108.368 Y111.157 E.00551
;WIDTH:0.543713
G1 X108.319 Y111.295 E.00601
;WIDTH:0.58495
G1 X108.27 Y111.434 E.0065
G1 X108.249 Y111.288 E.0065
;WIDTH:0.543713
G1 X108.228 Y111.142 E.00601
;WIDTH:0.502475
G1 X108.208 Y110.997 E.00551
;WIDTH:0.461237
G1 X108.193 Y110.891 E.00365
G1 E-.68 F3600
;WIPE_START
G1 F3000
G1 X108.191 Y109.891 E-.12
;WIPE_END
G1 X112.605 Y115.749 Z.6 F21000
G1 Z.2
M73 P3 R16
G1 E.8 F2700
;TYPE:Outer wall
;WIDTH:0.52086
G1 F3000
G1 X112.717 Y115.802 E.00483
;WIDTH:0.486554
G1 X112.83 Y115.855 E.00448
;WIDTH:0.452247
G1 X113.012 Y116.01 E.00799
;WIDTH:0.419999
G1 X113.234 Y116.31 E.01148
G1 X113.271 Y116.443 E.00422
G1 X113.222 Y116.8 E.01107
G1 X113.071 Y117.061 E.00928
;WIDTH:0.421975
G1 X112.741 Y117.269 E.01202
;WIDTH:0.42477
G1 X112.464 Y117.309 E.00871
G1 X112.187 Y117.238 E.0089
;WIDTH:0.420171
G1 X111.865 Y116.987 E.01256
;WIDTH:0.419999
G1 X111.764 Y116.75 E.00791
G1 X111.728 Y116.416 E.01031
G1 X111.869 Y116.171 E.00867
;WIDTH:0.453374
G1 X111.963 Y116.057 E.00497
;WIDTH:0.486749
G1 X112.057 Y115.942 E.00537
;WIDTH:0.520123
G1 X112.151 Y115.827 E.00578
;WIDTH:0.552831
G1 X112.217 Y115.765 E.00373
G1 X112.022 Y115.727 E.00823
;WIDTH:0.508554
G1 X111.828 Y115.688 E.00752
;WIDTH:0.464277
G1 X111.633 Y115.65 E.0068
;WIDTH:0.419999
G1 X111.04 Y115.506 E.01876
G1 X110.48 Y115.229 E.0192
G1 X109.985 Y114.862 E.01893
G1 X109.559 Y114.421 E.01885
G1 X109.208 Y113.918 E.01884
G1 X108.943 Y113.365 E.01884
G1 X108.77 Y112.777 E.01884
G1 X108.694 Y112.169 E.01884
G1 X108.716 Y111.556 E.01884
G1 X108.836 Y110.955 E.01884
