;FLAVOR:Marlin
;TIME:10296
;Filament used:9.94905m
;Layer height: 0.2
;MINX:42.649
;MINY:67.199
;MINZ:0.24
;MAXX:177.35
;MAXY:152.8
;MAXZ:5.89
                               
;Creality Print GCode Generated by CXEngine:NO_MAGE_VERSION_GIT_HEAD_BRANCH
;CXEngine Release Time:2022-09-30 09:53:04
;Gcode Generated Time:2023-06-23 00:08:37
;----------Machine Config--------------
;Machine Name:Ender-3 V2
;Machine Height:250
;Machine Width:220
;Machine Depth:220
;Material name:PLA
;Number of Extruders:1
;ExtruderParams[0] Nozzle Diameter1000
;----------Profile Config---------------
;Engine Version:275f99b
;Engine Release Time:2022-09-30 09:42:18
;Layer Height:0.2
;Wall Thickness:0.8
;Top/Bottom Thickness:1
;Out Wall Line Width:0.4
;Inner Wall Line Width:0.4
;Inital Layer Height:200
;Wall Line Count:2
;Infill Line Distance:4
;Infill Pattern:grid
;Infill Sparse Density:20
;Infill Wipe Distance:0
;Print Temperature:200
;Bed Temperature:60
;Support Enable:true
;Support Density:0
;Support Angle:60
;Adhesion Type:simpleraft
;machine is belt:false
;machine belt offset:10
;machine belt offset Y:0
;Raft Base Line Spacing:1.6
;Wait Heatup Sync:true
;----------Shell Config----------------
;Outer Wall Wipe Distance:200
;Outer Inset First:false
;Infill Before Walls:false
;Infill Overlap:0.16
;Fill Gaps Between Walls:everywhere
;Minimum Infill Area:1
;Top Surface Skin Layer:0
;Top Layers:3
;Z Seam Alignment:sharpest_corner
;Seam Corner Preference:z_seam_corner_inner
;Z Seam X:110
;Z Seam Y:110
;Horizontal Expansion:0
;Top/Bottom Pattern:zigzag
;Ironing Pattern:zigzag
;Vase Model:false
;----------Support Config----------------
;Support Type:everywhere
;Support Pattern:zigzag
;Support Infill Layer Thickness:0.2
;Minimum Support Area:5
;Enable Support Roof:false
;Support Roof Thickness:0.8
;Support Roof Pattern:lines
;Connect Support Lines:0
;Connect Support ZigZags:1
;Minimum Support X/Y Distance:0.2
;Support Line Distance:0
; ---------PrintSpeed & Travel----------
;Enable Print Cool:true
;Avoid Printed Parts Traveling:true
;Enable Retraction:true
;Retraction Distance:8
;Retraction Speed:100
;Retraction Prime Speed:100
;Maximum Retraction Count:100
;Minimum Extrusion Distance Window:1
;Z Hop When Retracted:false
;Z Hop Height:0.2
;Retract Before Outer Wall:true
;Print Speed:50
;Infill Speed:50

;Prime Tower Speed:50
;Travel Speed:120
;Initial Layer Speed:25
;Skirt/Brim Speed:25
;Combing Mode:infill
; --------SpecialModel&Mesh Fixes--------
;Union Overlapping Volum:true
;Remove All Holes:false
;Maximum Travel Resolution:0.6
;Maximum Deviation:0.05
;Maximum Model Angle:0.872665
;IS Mold Print:false
;Make Overhang Printable:false
;Enable Coasting:false
;Coasting Volumes:0.06
;Coasting Speed:0.9
;Raft AirGap:0.25
;Layer0 ZOverLap:0.13
;---------------------End of Head--------------------------
M140 S60
M105
M104 S200
M105
M109 S200
M105
M190 S60
M82 ;absolute extrusion mode
M220 S100 ;Reset Feedrate
M221 S100 ;Reset Flowrate

G28 ;Home

G92 E0 ;Reset Extruder
G1 Z2.0 F3000 ;Move Z Axis up
G1 X10.1 Y20 Z0.28 F5000.0 ;Move to start position
G1 X10.1 Y145.0 Z0.28 F1500.0 E15 ;Draw the first line
G1 X10.4 Y145.0 Z0.28 F5000.0 ;Move to side a little
G1 X10.4 Y20 Z0.28 F1500.0 E30 ;Draw the second line
G92 E0  ;Reset Extruder
G1 E-1.0000 F1800 ;Retract a bit
G1 Z2.0 F3000 ;Move Z Axis up
G1 E0.0000 F1800 

G92 E0
G92 E0
G1 F6000 E-8

;LAYER_COUNT:25

;LAYER:-4
M107
G0 F7200 X46.4 Y70.193 Z0.24
;TYPE:SUPPORT-INTERFACE
G1 F6000 E0
G1 F1200 X46.4 Y149.817 E6.99153
G1 X45.953 Y149.395 E7.0455
G1 X45.322 Y148.69 E7.12858
G1 X44.836 Y148.038 E7.19999
G1 X44.8 Y147.979 E7.20605
G1 X44.8 Y72.032 E13.87471
G1 X45.069 Y71.635 E13.91682
G1 X45.569 Y71.017 E13.98662
G1 X46.061 Y70.497 E14.04948
G1 X46.76 Y69.872 E14.13181
G1 X47.412 Y69.386 E14.20322
G1 X48 Y69.024 E14.26385
G1 X48 Y150.97 E21.45926
G1 X48.513 Y151.252 E21.51066
G1 X49.258 Y151.579 E21.5821
G1 X49.6 Y151.693 E21.61376
G1 X49.6 Y68.298 E28.9364
G1 X49.628 Y68.288 E28.93901
G1 X50.41 Y68.062 E29.01049
G1 X51.2 Y67.908 E29.08116
G1 X51.2 Y152.083 E36.4723
G1 X51.651 Y152.15 E36.51233
G1 X52.663 Y152.2 E36.6013
G1 X52.8 Y152.2 E36.61333
G1 X52.8 Y67.8 E44.02422
G1 X54.4 Y67.8 E44.16471
G1 X54.4 Y152.2 E51.5756
G1 X56 Y152.2 E51.71609
G1 X56 Y67.8 E59.12698
G1 X57.6 Y67.8 E59.26747
G1 X57.6 Y152.2 E66.67836
G1 X59.2 Y152.2 E66.81886
G1 X59.2 Y67.8 E74.22975
G1 X60.8 Y67.8 E74.37024
G1 X60.8 Y152.2 E81.78113
G1 X62.4 Y152.2 E81.92162
G1 X62.4 Y67.8 E89.33251
G1 X64 Y67.8 E89.473
G1 X64 Y152.2 E96.88389
G1 X65.6 Y152.2 E97.02438
G1 X65.6 Y67.8 E104.43527
G1 X67.2 Y67.8 E104.57576
G1 X67.2 Y152.2 E111.98665
G1 X68.8 Y152.2 E112.12714
G1 X68.8 Y67.8 E119.53803
G1 X70.4 Y67.8 E119.67853
G1 X70.4 Y152.2 E127.08942
G1 X72 Y152.2 E127.22991
G1 X72 Y67.8 E134.6408
G1 X73.6 Y67.8 E134.78129
G1 X73.6 Y152.2 E142.19218
G1 X75.2 Y152.2 E142.33267
G1 X75.2 Y67.8 E149.74356
G1 X76.8 Y67.8 E149.88405
G1 X76.8 Y152.2 E157.29494
G1 X78.4 Y152.2 E157.43543
G1 X78.4 Y67.8 E164.84632
G1 X80 Y67.8 E164.98681
G1 X80 Y152.2 E172.3977
G1 X81.6 Y152.2 E172.5382
G1 X81.6 Y67.8 E179.94909
G1 X83.2 Y67.8 E180.08958
G1 X83.2 Y152.2 E187.50047
G1 X84.8 Y152.2 E187.64096
G1 X84.8 Y67.8 E195.05185
G1 X86.4 Y67.8 E195.19234
G1 X86.4 Y152.2 E202.60323
G1 X88 Y152.2 E202.74372
G1 X88 Y67.8 E210.15461
G1 X89.6 Y67.8 E210.2951
G1 X89.6 Y152.2 E217.70599
G1 X91.2 Y152.2 E217.84648
G1 X91.2 Y67.8 E225.25737
G1 X92.8 Y67.8 E225.39787
G1 X92.8 Y152.2 E232.80876
G1 X94.4 Y152.2 E232.94925
G1 X94.4 Y67.8 E240.36014
G1 X96 Y67.8 E240.50063
G1 X96 Y152.2 E247.91152
G1 X97.6 Y152.2 E248.05201
G1 X97.6 Y67.8 E255.4629
G1 X99.2 Y67.8 E255.60339
G1 X99.2 Y152.2 E263.01428
G1 X100.8 Y152.2 E263.15477
G1 X100.8 Y67.8 E270.56566
G1 X102.4 Y67.8 E270.70615
G1 X102.4 Y152.2 E278.11704
G1 X104 Y152.2 E278.25754
G1 X104 Y67.8 E285.66843
G1 X105.6 Y67.8 E285.80892
G1 X105.6 Y152.2 E293.21981
G1 X107.2 Y152.2 E293.3603
G1 X107.2 Y67.8 E300.77119
G1 X108.8 Y67.8 E300.91168
G1 X108.8 Y152.2 E308.32257
G1 X110.4 Y152.2 E308.46306
G1 X110.4 Y67.8 E315.87395
G1 X112 Y67.8 E316.01444
G1 X112 Y152.2 E323.42533
G1 X113.6 Y152.2 E323.56582
G1 X113.6 Y67.8 E330.97671
G1 X115.2 Y67.8 E331.11721
G1 X115.2 Y152.2 E338.5281
G1 X116.8 Y152.2 E338.66859
G1 X116.8 Y67.8 E346.07948
G1 X118.4 Y67.8 E346.21997
G1 X118.4 Y152.2 E353.63086
G1 X120 Y152.2 E353.77135
G1 X120 Y67.8 E361.18224
G1 X121.6 Y67.8 E361.32273
G1 X121.6 Y152.2 E368.73362
G1 X123.2 Y152.2 E368.87411
G1 X123.2 Y67.8 E376.285
G1 X124.8 Y67.8 E376.42549
G1 X124.8 Y152.2 E383.83638
G1 X126.4 Y152.2 E383.97688
G1 X126.4 Y67.8 E391.38777
G1 X128 Y67.8 E391.52826
G1 X128 Y152.2 E398.93915
G1 X129.6 Y152.2 E399.07964
G1 X129.6 Y67.8 E406.49053
G1 X131.2 Y67.8 E406.63102
G1 X131.2 Y152.2 E414.04191
G1 X132.8 Y152.2 E414.1824
G1 X132.8 Y67.8 E421.59329
G1 X134.4 Y67.8 E421.73378
G1 X134.4 Y152.2 E429.14467
G1 X136 Y152.2 E429.28516
G1 X136 Y67.8 E436.69605
G1 X137.6 Y67.8 E436.83655
G1 X137.6 Y152.2 E444.24744
G1 X139.2 Y152.2 E444.38793
G1 X139.2 Y67.8 E451.79882
G1 X140.8 Y67.8 E451.93931
G1 X140.8 Y152.2 E459.3502
G1 X142.4 Y152.2 E459.49069
G1 X142.4 Y67.8 E466.90158
G1 X144 Y67.8 E467.04207
G1 X144 Y152.2 E474.45296
G1 X145.6 Y152.2 E474.59345
G1 X145.6 Y67.8 E482.00434
G1 X147.2 Y67.8 E482.14483
G1 X147.2 Y152.2 E489.55572
G1 X148.8 Y152.2 E489.69622
G1 X148.8 Y67.8 E497.10711
G1 X150.4 Y67.8 E497.2476
G1 X150.4 Y152.2 E504.65849
G1 X152 Y152.2 E504.79898
G1 X152 Y67.8 E512.20987
G1 X153.6 Y67.8 E512.35036
G1 X153.6 Y152.2 E519.76125
G1 X155.2 Y152.2 E519.90174
G1 X155.2 Y67.8 E527.31263
G1 X156.8 Y67.8 E527.45312
G1 X156.8 Y152.2 E534.86401
G1 X158.4 Y152.2 E535.0045
G1 X158.4 Y67.8 E542.41539
G1 X160 Y67.8 E542.55589
G1 X160 Y152.2 E549.96678
G1 X161.6 Y152.2 E550.10727
G1 X161.6 Y67.8 E557.51816
G1 X163.2 Y67.8 E557.65865
G1 X163.2 Y152.2 E565.06954
G1 X164.8 Y152.2 E565.21003
G1 X164.8 Y67.8 E572.62092
G1 X166.4 Y67.8 E572.76141
G1 X166.4 Y152.2 E580.1723
G1 X167.382 Y152.2 E580.25853
G1 X167.989 Y152.179 E580.31186
G1 X168 Y152.178 E580.31283
G1 X168 Y67.833 E587.71889
G1 X168.349 Y67.85 E587.74957
G1 X169.174 Y67.972 E587.8228
G1 X169.6 Y68.074 E587.86126
G1 X169.6 Y151.936 E595.22491
G1 X170.372 Y151.712 E595.29549
G1 X171.165 Y151.404 E595.37019
G1 X171.2 Y151.387 E595.37361
G1 X171.2 Y68.622 E602.64094
G1 X171.483 Y68.746 E602.66807
G1 X172.232 Y69.157 E602.74308
G1 X172.8 Y69.542 E602.80334
G1 X172.8 Y150.456 E609.90813
G1 X173.244 Y150.124 E609.95681
G1 X173.94 Y149.502 E610.03877
G1 X174.431 Y148.983 E610.10151
G1 X174.931 Y148.365 E610.17131
G1 X175.393 Y147.682 E610.24371
G1 X175.804 Y146.933 E610.31873
G1 X176 Y146.487 E610.36151
G1 X176 Y73.504 E616.76991
G1 X175.954 Y73.385 E616.78111
G1 X175.593 Y72.661 E616.85215
G1 X175.164 Y71.962 E616.92416
G1 X174.678 Y71.31 E616.99557
G1 X174.4 Y71 E617.03213
G1 X174.4 Y149.016 E623.88246
;;retract;;
G1 F6000 E615.88246
G0 F600 X174.4 Y149.016 Z0.47
G0 F7200 X176.179 Y72.942
;TIME_ELAPSED:363.867102

;LAYER:-3
;TYPE:SUPPORT
G1 F6000 E623.88246
G1 F1800 X171.597 Y68.36 E624.37816
G1 X171.667 Y68.39 E624.38399
G1 X172.432 Y68.81 E624.45075
G1 X173.159 Y69.301 E624.51786
G1 X173.798 Y69.818 E624.58074
G1 X174.338 Y70.329 E624.63761
G1 X174.989 Y71.057 E624.71232
G1 X175.497 Y71.74 E624.77744
G1 X175.94 Y72.46 E624.84211
G1 X176.322 Y73.227 E624.90766
G1 X176.641 Y74.049 E624.97511
G1 X176.88 Y74.878 E625.04111
G1 X176.922 Y75.098 E625.05824
G1 X169.45 Y67.626 E625.8666
G1 X169.247 Y67.578 E625.88255
G1 X168.385 Y67.451 E625.94921
G1 X167.833 Y67.424 E625.99149
G1 X177.135 Y76.726 E626.99782
G1 X177.15 Y77.147 E627.03005
G1 X177.149 Y78.154 E627.10708
G1 X166.394 Y67.4 E628.27056
G1 X164.98 Y67.4 E628.37873
G1 X177.149 Y79.568 E629.69517
G1 X177.149 Y80.982 E629.80334
G1 X163.566 Y67.4 E631.27277
G1 X162.152 Y67.4 E631.38093
G1 X177.149 Y82.397 E633.00338
G1 X177.149 Y83.811 E633.11155
G1 X160.738 Y67.4 E634.88697
G1 X159.323 Y67.4 E634.99522
G1 X177.149 Y85.225 E636.92367
G1 X177.149 Y86.639 E637.03184
G1 X157.909 Y67.4 E639.11326
G1 X156.495 Y67.4 E639.22143
G1 X177.149 Y88.053 E641.45583
G1 X177.149 Y89.468 E641.56408
G1 X155.081 Y67.4 E643.9515
G1 X153.667 Y67.4 E644.05967
G1 X177.149 Y90.882 E646.60007
G1 X177.149 Y92.296 E646.70824
G1 X152.252 Y67.4 E649.40166
G1 X150.838 Y67.4 E649.50983
G1 X177.149 Y93.71 E652.35623
G1 X177.149 Y95.124 E652.4644
G1 X149.424 Y67.4 E655.46377
G1 X148.01 Y67.4 E655.57194
G1 X177.149 Y96.539 E658.72434
G1 X177.149 Y97.953 E658.83251
G1 X146.595 Y67.4 E662.13794
G1 X145.181 Y67.4 E662.24611
G1 X177.149 Y99.367 E665.70451
G1 X177.149 Y100.781 E665.81268
G1 X143.767 Y67.4 E669.42406
G1 X142.353 Y67.4 E669.53223
G1 X177.149 Y102.196 E673.29663
G1 X177.149 Y103.61 E673.4048
G1 X140.939 Y67.4 E677.32218
G1 X139.524 Y67.4 E677.43042
G1 X177.149 Y105.024 E681.50082
G1 X177.149 Y106.438 E681.60899
G1 X138.11 Y67.4 E685.83237
G1 X136.696 Y67.4 E685.94054
G1 X177.149 Y107.852 E690.31689
G1 X177.149 Y109.267 E690.42514
G1 X135.282 Y67.4 E694.95452
G1 X133.868 Y67.4 E695.06268
G1 X177.149 Y110.681 E699.74504
G1 X177.149 Y112.095 E699.85321
G1 X132.453 Y67.4 E704.68859
G1 X131.039 Y67.4 E704.79675
G1 X177.149 Y113.509 E709.78511
G1 X177.149 Y114.923 E709.89328
G1 X129.625 Y67.4 E715.0346
G1 X128.211 Y67.4 E715.14277
G1 X177.149 Y116.338 E720.43713
G1 X177.149 Y117.752 E720.5453
G1 X126.796 Y67.4 E725.99268
G1 X125.382 Y67.4 E726.10085
G1 X177.149 Y119.166 E731.7012
G1 X177.149 Y120.58 E731.80937
G1 X123.968 Y67.4 E737.5627
G1 X122.554 Y67.4 E737.67087
G1 X177.149 Y121.995 E743.57723
G1 X177.149 Y123.409 E743.6854
G1 X121.14 Y67.4 E749.74473
G1 X119.725 Y67.4 E749.85297
G1 X177.149 Y124.823 E756.06533
G1 X177.149 Y126.237 E756.1735
G1 X118.311 Y67.4 E762.53883
G1 X116.897 Y67.4 E762.647
G1 X177.149 Y127.651 E769.16531
G1 X177.149 Y129.066 E769.27355
G1 X115.483 Y67.4 E775.94488
G1 X114.069 Y67.4 E776.05305
G1 X177.149 Y130.48 E782.87736
G1 X177.149 Y131.894 E782.98553
G1 X112.654 Y67.4 E789.96286
G1 X111.24 Y67.4 E790.07103
G1 X177.149 Y133.308 E797.20134
G1 X177.149 Y134.722 E797.30951
G1 X109.826 Y67.4 E804.59279
G1 X108.412 Y67.4 E804.70096
G1 X177.149 Y136.137 E812.13727
G1 X177.149 Y137.551 E812.24543
G1 X106.997 Y67.4 E819.83477
G1 X105.583 Y67.4 E819.94294
G1 X177.149 Y138.965 E827.68525
G1 X177.149 Y140.379 E827.79342
G1 X104.169 Y67.4 E835.6887
G1 X102.755 Y67.4 E835.79687
G1 X177.149 Y141.794 E843.84518
G1 X177.15 Y142.788 E843.92122
G1 X177.13 Y143.189 E843.95193
G1 X101.341 Y67.4 E852.15116
G1 X99.926 Y67.4 E852.25941
G1 X177.003 Y144.476 E860.59793
G1 X176.972 Y144.695 E860.61485
G1 X176.776 Y145.519 E860.67964
G1 X176.739 Y145.627 E860.68837
G1 X98.512 Y67.4 E869.15136
G1 X97.098 Y67.4 E869.25952
G1 X176.36 Y146.661 E877.83443
G1 X176.16 Y147.117 E877.87252
G1 X175.891 Y147.607 E877.91528
G1 X95.684 Y67.4 E886.59247
G1 X94.27 Y67.4 E886.70064
G1 X175.341 Y148.471 E895.4713
G1 X175.249 Y148.609 E895.48399
G1 X174.732 Y149.248 E895.54686
G1 X174.718 Y149.262 E895.54838
G1 X92.855 Y67.4 E904.40467
G1 X91.441 Y67.4 E904.51284
G1 X174.013 Y149.971 E913.44583
G1 X173.497 Y150.435 E913.49892
G1 X173.247 Y150.62 E913.52271
G1 X90.027 Y67.4 E922.52586
G1 X88.613 Y67.4 E922.63403
G1 X172.407 Y151.194 E931.69928
G1 X172.096 Y151.387 E931.72728
G1 X171.488 Y151.689 E931.77921
G1 X87.198 Y67.4 E940.89807
G1 X85.784 Y67.4 E941.00623
G1 X170.481 Y152.096 E950.16912
G1 X169.678 Y152.329 E950.23308
G1 X169.36 Y152.389 E950.25784
G1 X84.37 Y67.4 E959.45242
G1 X82.956 Y67.4 E959.56059
G1 X168.123 Y152.566 E968.77432
G1 X168.016 Y152.579 E968.78257
G1 X167.396 Y152.6 E968.83003
G1 X166.741 Y152.599 E968.88013
G1 X81.542 Y67.4 E978.09738
G1 X80.127 Y67.4 E978.20563
G1 X165.327 Y152.599 E987.42293
G1 X163.913 Y152.599 E987.5311
G1 X78.713 Y67.4 E996.7484
G1 X77.299 Y67.4 E996.85657
G1 X162.498 Y152.599 E1006.07382
G1 X161.084 Y152.599 E1006.18199
G1 X75.885 Y67.4 E1015.39924
G1 X74.471 Y67.4 E1015.50741
G1 X159.67 Y152.599 E1024.72466
G1 X158.256 Y152.599 E1024.83282
G1 X73.056 Y67.4 E1034.05013
G1 X71.642 Y67.4 E1034.1583
G1 X156.841 Y152.599 E1043.37555
G1 X155.427 Y152.599 E1043.48371
G1 X70.228 Y67.4 E1052.70096
G1 X68.814 Y67.4 E1052.80913
G1 X154.013 Y152.599 E1062.02638
G1 X152.599 Y152.599 E1062.13455
G1 X67.4 Y67.4 E1071.3518
G1 X65.985 Y67.4 E1071.46004
G1 X151.185 Y152.599 E1080.67735
G1 X149.77 Y152.599 E1080.78559
G1 X64.571 Y67.4 E1090.00284
G1 X63.157 Y67.4 E1090.11101
G1 X148.356 Y152.599 E1099.32826
G1 X146.942 Y152.599 E1099.43643
G1 X61.743 Y67.4 E1108.65368
G1 X60.328 Y67.4 E1108.76192
G1 X145.528 Y152.599 E1117.97922
G1 X144.114 Y152.599 E1118.08739
G1 X58.914 Y67.4 E1127.3047
G1 X57.5 Y67.4 E1127.41287
G1 X142.699 Y152.599 E1136.63011
G1 X141.285 Y152.599 E1136.73828
G1 X56.086 Y67.4 E1145.95553
G1 X54.672 Y67.4 E1146.0637
G1 X139.871 Y152.599 E1155.28095
G1 X138.457 Y152.599 E1155.38912
G1 X53.257 Y67.4 E1164.60642
G1 X52.604 Y67.4 E1164.65638
G1 X51.984 Y67.421 E1164.70383
G1 X51.876 Y67.432 E1164.71214
G1 X137.042 Y152.599 E1173.92587
G1 X135.628 Y152.599 E1174.03404
G1 X50.638 Y67.609 E1183.22868
G1 X50.322 Y67.671 E1183.25331
G1 X49.517 Y67.902 E1183.31738
G1 X134.214 Y152.599 E1192.48032
G1 X132.8 Y152.599 E1192.58849
G1 X48.511 Y68.31 E1201.70729
G1 X47.904 Y68.613 E1201.75919
G1 X47.591 Y68.805 E1201.78728
G1 X131.386 Y152.599 E1210.85258
G1 X129.971 Y152.599 E1210.96082
G1 X46.751 Y69.379 E1219.96398
G1 X46.507 Y69.561 E1219.98726
G1 X45.985 Y70.027 E1220.04079
G1 X128.557 Y152.599 E1228.97384
G1 X127.143 Y152.599 E1229.08201
G1 X45.28 Y70.736 E1237.93835
G1 X45.268 Y70.752 E1237.93988
G1 X44.751 Y71.391 E1238.00276
G1 X44.657 Y71.527 E1238.01541
G1 X125.729 Y152.599 E1246.78618
G1 X124.315 Y152.599 E1246.89435
G1 X44.107 Y72.392 E1255.57159
G1 X43.84 Y72.883 E1255.61434
G1 X43.639 Y73.337 E1255.65233
G1 X122.9 Y152.599 E1264.22723
G1 X121.486 Y152.599 E1264.3354
G1 X43.259 Y74.372 E1272.79838
G1 X43.224 Y74.481 E1272.80714
G1 X43.028 Y75.303 E1272.87178
G1 X42.995 Y75.522 E1272.88872
G1 X120.072 Y152.599 E1281.2273
G1 X118.658 Y152.599 E1281.33546
G1 X42.868 Y76.809 E1289.5348
