;FLAVOR:Marlin
;TIME:1460
;Filament used:0.921294m
;Layer height: 0.2
;MINX:86.2
;MINY:88.2
;MINZ:0.24
;MAXX:133.8
;MAXY:131.8
;MAXZ:2.89
                                    
;Creality Print GCode Generated by CXEngine:NO_MAGE_VERSION_GIT_HEAD_BRANCH
;CXEngine Release Time:2022-09-30 09:53:04
;Gcode Generated Time:2023-06-23 00:09:31
;----------Machine Config--------------
;Machine Name:Ender-3 V2
;Machine Height:250
;Machine Width:220
;Machine Depth:220
;Material name:PLA
;Number of Extruders:1
;ExtruderParams[0] Nozzle Diameter1000
;----------Profile Config---------------
;Engine Version:275f99b
;Engine Release Time:2022-09-30 09:42:18
;Layer Height:0.2
;Wall Thickness:0.8
;Top/Bottom Thickness:1
;Out Wall Line Width:0.4
;Inner Wall Line Width:0.4
;Inital Layer Height:200
;Wall Line Count:2
;Infill Line Distance:4
;Infill Pattern:grid
;Infill Sparse Density:20
;Infill Wipe Distance:0
;Print Temperature:200
;Bed Temperature:60
;Support Enable:true
;Support Density:0
;Support Angle:60
;Adhesion Type:simpleraft
;machine is belt:false
;machine belt offset:10
;machine belt offset Y:0
;Raft Base Line Spacing:1.6
;Wait Heatup Sync:true
;----------Shell Config----------------
;Outer Wall Wipe Distance:200
;Outer Inset First:false
;Infill Before Walls:false
;Infill Overlap:0.16
;Fill Gaps Between Walls:everywhere
;Minimum Infill Area:1
;Top Surface Skin Layer:0
;Top Layers:3
;Z Seam Alignment:sharpest_corner
;Seam Corner Preference:z_seam_corner_inner
;Z Seam X:110
;Z Seam Y:110
;Horizontal Expansion:0
;Top/Bottom Pattern:zigzag
;Ironing Pattern:zigzag
;Vase Model:false
;----------Support Config----------------
;Support Type:everywhere
;Support Pattern:zigzag
;Support Infill Layer Thickness:0.2
;Minimum Support Area:5
;Enable Support Roof:false
;Support Roof Thickness:0.8
;Support Roof Pattern:lines
;Connect Support Lines:0
;Connect Support ZigZags:1
;Minimum Support X/Y Distance:0.2
;Support Line Distance:0
; ---------PrintSpeed & Travel----------
;Enable Print Cool:true
;Avoid Printed Parts Traveling:true
;Enable Retraction:true
;Retraction Distance:8
;Retraction Speed:100
;Retraction Prime Speed:100
;Maximum Retraction Count:100
;Minimum Extrusion Distance Window:1
;Z Hop When Retracted:false
;Z Hop Height:0.2
;Retract Before Outer Wall:true
;Print Speed:50
;Infill Speed:50

;Prime Tower Speed:50
;Travel Speed:120
;Initial Layer Speed:25
;Skirt/Brim Speed:25
;Combing Mode:infill
; --------SpecialModel&Mesh Fixes--------
;Union Overlapping Volum:true
;Remove All Holes:false
;Maximum Travel Resolution:0.6
;Maximum Deviation:0.05
;Maximum Model Angle:0.872665
;IS Mold Print:false
;Make Overhang Printable:false
;Enable Coasting:false
;Coasting Volumes:0.06
;Coasting Speed:0.9
;Raft AirGap:0.25
;Layer0 ZOverLap:0.13
;---------------------End of Head--------------------------
M140 S60
M105
M104 S200
M105
M109 S200
M105
M190 S60
M82 ;absolute extrusion mode
M220 S100 ;Reset Feedrate
M221 S100 ;Reset Flowrate

G28 ;Home

G92 E0 ;Reset Extruder
G1 Z2.0 F3000 ;Move Z Axis up
G1 X10.1 Y20 Z0.28 F5000.0 ;Move to start position
G1 X10.1 Y145.0 Z0.28 F1500.0 E15 ;Draw the first line
G1 X10.4 Y145.0 Z0.28 F5000.0 ;Move to side a little
G1 X10.4 Y20 Z0.28 F1500.0 E30 ;Draw the second line
G92 E0  ;Reset Extruder
G1 E-1.0000 F1800 ;Retract a bit
G1 Z2.0 F3000 ;Move Z Axis up
G1 E0.0000 F1800 

G92 E0
G92 E0
G1 F6000 E-8

;LAYER_COUNT:10

;LAYER:-4
M107
G0 F7200 X88 Y93.604 Z0.24
;TYPE:SUPPORT-INTERFACE
G1 F6000 E0
G1 F1200 X88 Y126.409 E2.8805
G1 X87.957 Y126.339 E2.88771
G1 X87.596 Y125.615 E2.95875
G1 X87.287 Y124.818 E3.03381
G1 X87.061 Y124.034 E3.10545
G1 X86.904 Y123.227 E3.17764
G1 X86.82 Y122.431 E3.24792
G1 X86.8 Y113.908 E3.9963
G1 X86.845 Y112.687 E4.10359
G1 X86.8 Y111.537 E4.20464
G1 X86.803 Y107.584 E4.55174
G1 X86.845 Y106.487 E4.64814
G1 X86.8 Y105.337 E4.74919
G1 X86.803 Y98.068 E5.38746
G1 X86.848 Y97.219 E5.46211
G1 X86.972 Y96.376 E5.53693
G1 X87.16 Y95.585 E5.60832
G1 X87.417 Y94.816 E5.67951
G1 X87.746 Y94.067 E5.75135
G1 X88.157 Y93.318 E5.82636
G1 X88.619 Y92.635 E5.89877
G1 X89.119 Y92.017 E5.96857
G1 X89.6 Y91.508 E6.03006
G1 X89.6 Y128.486 E9.27698
G1 X90.017 Y128.881 E9.32741
G1 X90.635 Y129.381 E9.39721
G1 X91.2 Y129.763 E9.4571
G1 X91.2 Y90.239 E12.92757
G1 X91.655 Y89.96 E12.97444
G1 X92.385 Y89.596 E13.04607
G1 X92.8 Y89.434 E13.08518
G1 X92.8 Y130.575 E16.69764
G1 X92.808 Y130.579 E16.69843
G1 X93.581 Y130.838 E16.77001
G1 X94.376 Y131.028 E16.84178
G1 X94.4 Y131.031 E16.84391
G1 X94.4 Y88.976 E20.53662
G1 X94.773 Y88.904 E20.56998
G1 X95.561 Y88.821 E20.63955
G1 X96 Y88.805 E20.67812
G1 X96 Y131.193 E24.40008
G1 X96.07 Y131.197 E24.40623
G1 X97.6 Y131.197 E24.54058
G1 X97.6 Y88.801 E28.26323
G1 X99.2 Y88.801 E28.40372
G1 X99.2 Y131.197 E32.12638
G1 X100.8 Y131.197 E32.26687
G1 X100.8 Y88.801 E35.98952
G1 X102.4 Y88.801 E36.13001
G1 X102.4 Y131.197 E39.85267
G1 X104 Y131.197 E39.99316
G1 X104 Y88.801 E43.71582
G1 X105.6 Y88.802 E43.85631
G1 X105.6 Y131.198 E47.57896
G1 X107.2 Y131.198 E47.71945
G1 X107.2 Y88.802 E51.44211
G1 X108.8 Y88.802 E51.5826
G1 X108.8 Y131.198 E55.30525
G1 X110.4 Y131.198 E55.44575
G1 X110.4 Y88.802 E59.1684
G1 X112 Y88.802 E59.30889
G1 X112 Y131.198 E63.03155
G1 X113.6 Y131.198 E63.17204
G1 X113.6 Y88.802 E66.89469
G1 X115.2 Y88.803 E67.03518
G1 X115.2 Y131.199 E70.75784
G1 X116.8 Y131.199 E70.89833
G1 X116.8 Y88.803 E74.62099
G1 X118.4 Y88.803 E74.76148
G1 X118.4 Y131.199 E78.48413
G1 X120 Y131.199 E78.62462
G1 X120 Y88.803 E82.34728
G1 X121.6 Y88.803 E82.48777
G1 X121.6 Y131.199 E86.21042
G1 X123.2 Y131.199 E86.35092
G1 X123.2 Y88.803 E90.07357
G1 X123.93 Y88.803 E90.13767
G1 X124.788 Y88.849 E90.21312
G1 X124.8 Y88.851 E90.21418
G1 X124.8 Y131.141 E93.92753
G1 X125.227 Y131.096 E93.96523
G1 X126.04 Y130.938 E94.03796
G1 X126.4 Y130.834 E94.07086
G1 X126.4 Y89.158 E97.73029
G1 X126.419 Y89.162 E97.732
G1 X127.187 Y89.419 E97.80311
G1 X127.933 Y89.746 E97.87463
G1 X128 Y89.783 E97.88135
G1 X128 Y130.213 E101.43138
G1 X128.345 Y130.04 E101.46527
G1 X129.037 Y129.614 E101.53662
G1 X129.6 Y129.195 E101.59824
G1 X129.6 Y90.81 E104.9687
G1 X129.983 Y91.119 E105.01191
G1 X130.503 Y91.611 E105.07477
G1 X131.128 Y92.31 E105.15711
G1 X131.2 Y92.407 E105.16771
G1 X131.2 Y127.589 E108.25693
G1 X131.381 Y127.365 E108.28222
G1 X131.843 Y126.682 E108.35462
G1 X132.254 Y125.933 E108.42964
G1 X132.583 Y125.184 E108.50147
G1 X132.839 Y124.416 E108.57256
G1 X133.028 Y123.622 E108.64422
G1 X133.152 Y122.781 E108.71887
G1 X133.197 Y121.932 E108.79352
G1 X133.2 Y98.147 E110.882
G1 X133.179 Y97.557 E110.93384
G1 X133.096 Y96.773 E111.00307
G1 X132.939 Y95.966 E111.07526
G1 X132.8 Y95.484 E111.1193
G1 X132.8 Y124.533 E113.67
G0 F600 X132.8 Y124.533 Z0.47
G0 F7200 X133 Y94.816
;TIME_ELAPSED:70.658024

;LAYER:-3
;TYPE:SUPPORT
G1 F1800 X127.178 Y88.995 E114.2998
G1 X127.332 Y89.046 E114.31221
G1 X128.117 Y89.39 E114.37777
G1 X128.882 Y89.81 E114.44453
G1 X129.609 Y90.301 E114.51164
G1 X130.248 Y90.818 E114.57452
G1 X130.788 Y91.329 E114.6314
G1 X131.439 Y92.057 E114.70611
G1 X131.947 Y92.74 E114.77122
G1 X132.39 Y93.46 E114.83589
G1 X132.772 Y94.227 E114.90144
G1 X133.091 Y95.049 E114.96889
G1 X133.33 Y95.878 E115.03489
G1 X133.492 Y96.713 E115.09996
G1 X133.492 Y96.723 E115.10072
G1 X125.287 Y88.517 E115.98843
G1 X124.835 Y88.451 E116.02338
G1 X123.932 Y88.403 E116.09255
G1 X123.758 Y88.403 E116.10586
G1 X133.599 Y98.244 E117.17051
G1 X133.599 Y99.658 E117.27868
G1 X122.344 Y88.403 E118.4963
G1 X120.93 Y88.403 E118.60447
G1 X133.599 Y101.072 E119.97507
G1 X133.599 Y102.486 E120.08323
G1 X119.515 Y88.403 E121.60686
G1 X118.101 Y88.403 E121.71503
G1 X133.599 Y103.9 E123.39162
G1 X133.598 Y105.314 E123.49979
G1 X116.686 Y88.402 E125.32941
G1 X115.272 Y88.402 E125.43758
G1 X133.598 Y106.728 E127.42018
G1 X133.598 Y108.142 E127.52835
G1 X113.858 Y88.402 E129.66392
G1 X112.444 Y88.402 E129.77209
G1 X133.598 Y109.557 E132.06069
G1 X133.597 Y110.97 E132.16878
G1 X111.029 Y88.402 E134.6103
G1 X109.614 Y88.401 E134.71854
G1 X133.597 Y112.384 E137.31314
G1 X133.597 Y113.798 E137.42131
G1 X108.2 Y88.401 E140.16888
G1 X106.786 Y88.401 E140.27705
G1 X133.597 Y115.213 E143.17765
G1 X133.597 Y116.626 E143.28575
G1 X105.372 Y88.401 E146.33927
G1 X103.958 Y88.401 E146.44743
G1 X133.597 Y118.04 E149.65393
G1 X133.597 Y119.455 E149.76217
G1 X102.543 Y88.401 E153.12175
G1 X101.128 Y88.401 E153.22999
G1 X133.597 Y120.869 E156.7426
G1 X133.597 Y121.932 E156.82391
G1 X133.579 Y122.265 E156.84943
G1 X99.714 Y88.401 E160.51305
G1 X98.3 Y88.401 E160.62122
G1 X133.444 Y123.544 E164.42322
G1 X133.422 Y123.695 E164.43489
G1 X133.226 Y124.519 E164.49969
G1 X133.17 Y124.684 E164.51302
G1 X96.886 Y88.401 E168.43835
G1 X96.154 Y88.4 E168.49434
G1 X95.534 Y88.421 E168.5418
G1 X95.496 Y88.425 E168.54472
G1 X132.786 Y125.715 E172.57894
G1 X132.61 Y126.117 E172.61251
G1 X132.313 Y126.656 E172.65959
G1 X94.253 Y88.596 E176.77711
G1 X93.872 Y88.671 E176.80681
G1 X93.128 Y88.886 E176.86605
G1 X131.76 Y127.518 E181.04546
G1 X131.699 Y127.609 E181.05384
G1 X131.182 Y128.248 E181.11671
G1 X131.13 Y128.302 E181.12245
G1 X92.113 Y89.284 E185.34356
G1 X91.454 Y89.613 E185.3999
G1 X91.189 Y89.775 E185.42366
G1 X130.423 Y129.008 E189.66814
G1 X129.947 Y129.435 E189.71705
G1 X129.652 Y129.652 E189.74507
G1 X90.346 Y90.346 E193.99739
G1 X90.057 Y90.561 E194.02494
G1 X89.576 Y90.99 E194.07424
G1 X128.809 Y130.223 E198.31866
G1 X128.546 Y130.387 E198.34238
G1 X127.885 Y130.714 E198.39879
G1 X88.868 Y91.696 E202.6199
G1 X88.818 Y91.752 E202.62564
G1 X88.301 Y92.391 E202.68852
G1 X88.238 Y92.481 E202.69692
G1 X126.87 Y131.113 E206.87632
G1 X126.128 Y131.329 E206.93544
G1 X125.745 Y131.402 E206.96527
G1 X87.685 Y93.342 E211.08279
G1 X87.39 Y93.883 E211.12992
G1 X87.213 Y94.284 E211.16346
G1 X124.503 Y131.574 E215.19767
G1 X124.466 Y131.579 E215.20053
G1 X123.846 Y131.6 E215.24798
G1 X123.112 Y131.598 E215.30413
G1 X86.829 Y95.314 E219.22946
G1 X86.774 Y95.481 E219.24291
G1 X86.578 Y96.303 E219.30756
G1 X86.555 Y96.455 E219.31932
G1 X121.698 Y131.598 E223.12126
G1 X120.284 Y131.598 E223.22943
G1 X86.419 Y97.733 E226.89311
G1 X86.403 Y98.068 E226.91877
G1 X86.402 Y99.13 E227.00001
G1 X118.87 Y131.598 E230.51256
G1 X117.456 Y131.598 E230.62073
G1 X86.401 Y100.543 E233.98041
G1 X86.4 Y101.957 E234.08858
G1 X116.041 Y131.597 E237.29524
G1 X114.626 Y131.597 E237.40348
G1 X86.4 Y103.371 E240.45711
G1 X86.399 Y104.784 E240.5652
G1 X113.212 Y131.597 E243.46597
G1 X111.798 Y131.597 E243.57413
G1 X86.434 Y106.233 E246.31814
G1 X86.445 Y106.487 E246.33759
G1 X86.403 Y107.568 E246.42034
G1 X86.402 Y107.615 E246.42394
G1 X110.384 Y131.597 E249.01843
G1 X108.969 Y131.596 E249.12668
G1 X86.402 Y109.029 E251.56809
G1 X86.4 Y110.442 E251.67618
G1 X107.555 Y131.596 E253.96478
G1 X106.14 Y131.596 E254.07302
G1 X86.411 Y111.867 E256.2074
G1 X86.445 Y112.687 E256.27018
G1 X86.421 Y113.291 E256.31643
G1 X104.726 Y131.596 E258.29675
G1 X103.312 Y131.596 E258.40492
G1 X86.401 Y114.685 E260.23444
G1 X86.404 Y116.103 E260.34291
G1 X101.897 Y131.596 E262.01902
G1 X100.483 Y131.596 E262.12719
G1 X86.407 Y117.52 E263.65
G1 X86.411 Y118.938 E263.75847
G1 X99.069 Y131.596 E265.12788
G1 X97.654 Y131.596 E265.23613
G1 X86.414 Y120.355 E266.45218
G1 X86.417 Y121.772 E266.56058
G1 X96.24 Y131.596 E267.62333
G1 X96.068 Y131.597 E267.63649
G1 X95.165 Y131.549 E267.70566
G1 X94.712 Y131.481 E267.74071
G1 X86.506 Y123.276 E268.62842
G1 X86.508 Y123.287 E268.62927
G1 X86.67 Y124.122 E268.69434
G1 X86.909 Y124.951 E268.76034
G1 X87.228 Y125.773 E268.82779
G1 X87.61 Y126.54 E268.89334
G1 X88.053 Y127.26 E268.95801
G1 X88.561 Y127.943 E269.02313
G1 X89.218 Y128.677 E269.09848
G1 X89.752 Y129.182 E269.15471
G1 X90.391 Y129.699 E269.21759
G1 X91.118 Y130.19 E269.2847
G1 X91.879 Y130.608 E269.35111
G1 X92.662 Y130.952 E269.41654
G1 X92.82 Y131.004 E269.42926
G1 X86.998 Y125.182 E270.05912
G0 F600 X86.998 Y125.182 Z0.62
G0 F7200 X94.186 Y131.6
;TIME_ELAPSED:142.467985

;LAYER:-2
;TYPE:SUPPORT-INTERFACE
G1 F2400 X125.778 Y131.6 E270.84718
G1 X125.328 Y131.688 E270.85862
G1 X124.478 Y131.779 E270.87994
G1 X123.85 Y131.8 E270.89562
G1 X96.059 Y131.797 E271.58887
G1 X95.141 Y131.747 E271.6118
G1 X94.267 Y131.619 E271.63384
G1 X93.411 Y131.414 E271.65579
G1 X92.772 Y131.2 E271.6726
G1 X127.242 Y131.2 E272.53246
G1 X127.865 Y130.95 E272.54921
G1 X128.162 Y130.8 E272.55751
G1 X91.818 Y130.8 E273.46411
G1 X91.781 Y130.783 E273.46513
G1 X91.083 Y130.4 E273.48499
G1 X128.902 Y130.4 E274.42839
G1 X129.381 Y130.107 E274.44239
G1 X129.522 Y130 E274.44681
G1 X90.477 Y130 E275.42079
G1 X90.282 Y129.867 E275.42668
G1 X89.95 Y129.6 E275.4373
G1 X130.059 Y129.6 E276.43783
G1 X130.079 Y129.587 E276.43842
G1 X130.508 Y129.2 E276.45284
G1 X89.478 Y129.2 E277.47633
G1 X89.068 Y128.809 E277.49047
G1 X89.058 Y128.8 E277.4908
G1 X130.933 Y128.8 E278.53538
G1 X131.313 Y128.4 E278.54914
G1 X88.7 Y128.4 E279.61213
G1 X88.413 Y128.079 E279.62287
G1 X88.353 Y128 E279.62534
G1 X131.638 Y128 E280.70509
G1 X131.867 Y127.719 E280.71413
G1 X131.946 Y127.6 E280.7177
G1 X88.055 Y127.6 E281.81256
G1 X87.893 Y127.381 E281.81936
G1 X87.78 Y127.2 E281.82468
G1 X132.216 Y127.2 E282.93314
G1 X132.367 Y126.977 E282.93986
G1 X132.463 Y126.8 E282.94488
G1 X87.534 Y126.8 E284.06564
G1 X87.436 Y126.638 E284.07036
G1 X87.316 Y126.4 E284.07701
G1 X132.683 Y126.4 E285.2087
G1 X132.783 Y126.219 E285.21385
G1 X132.879 Y126 E285.21982
G1 X87.116 Y126 E286.36138
G1 X87.05 Y125.865 E286.36513
G1 X86.945 Y125.6 E286.37224
G1 X133.055 Y125.6 E287.52246
G1 X133.135 Y125.42 E287.52737
G1 X133.208 Y125.2 E287.53315
G1 X86.79 Y125.2 E288.69106
G1 X86.72 Y125.017 E288.69594
G1 X86.656 Y124.8 E288.70159
G1 X133.342 Y124.8 E289.86617
G1 X133.414 Y124.589 E289.87174
G1 X133.458 Y124.4 E289.87658
G1 X86.54 Y124.4 E291.04695
G1 X86.476 Y124.172 E291.05286
G1 X86.441 Y124 E291.05724
G1 X133.554 Y124 E292.23248
G1 X133.621 Y123.724 E292.23956
G1 X133.638 Y123.6 E292.24268
G1 X86.363 Y123.6 E293.42196
G1 X86.312 Y123.328 E293.42887
G1 X86.297 Y123.2 E293.43208
G1 X133.697 Y123.2 E294.61448
G1 X133.748 Y122.855 E294.62318
G1 X133.75 Y122.8 E294.62455
G1 X86.254 Y122.8 E295.80934
G1 X86.221 Y122.478 E295.81742
G1 X86.219 Y122.4 E295.81936
G1 X133.772 Y122.4 E297.00558
G1 X133.793 Y122 E297.01557
G1 X86.218 Y122 E298.20233
G1 X86.217 Y121.6 E298.21231
G1 X133.797 Y121.6 E299.3992
G1 X133.797 Y121.2 E299.40918
G1 X86.216 Y121.2 E300.59609
G1 X86.215 Y120.8 E300.60607
G1 X133.797 Y120.8 E301.79301
G1 X133.797 Y120.4 E301.80298
G1 X86.214 Y120.4 E302.98995
G1 X86.213 Y120 E302.99993
G1 X133.797 Y120 E304.18691
G1 X133.797 Y119.6 E304.19689
G1 X86.212 Y119.6 E305.3839
G1 X86.211 Y119.2 E305.39388
G1 X133.797 Y119.2 E306.58092
G1 X133.797 Y118.8 E306.5909
G1 X86.212 Y118.8 E307.77791
G1 X86.211 Y118.4 E307.78789
G1 X133.797 Y118.4 E308.97493
G1 X133.797 Y118 E308.9849
G1 X86.21 Y118 E310.17197
G1 X86.209 Y117.6 E310.18194
G1 X133.797 Y117.6 E311.36903
G1 X133.797 Y117.2 E311.37901
G1 X86.208 Y117.2 E312.56612
G1 X86.207 Y116.8 E312.5761
G1 X133.797 Y116.8 E313.76324
G1 X133.797 Y116.4 E313.77322
G1 X86.206 Y116.4 E314.96038
G1 X86.205 Y116 E314.97036
G1 X133.797 Y116 E316.15754
G1 X133.797 Y115.6 E316.16752
G1 X86.204 Y115.6 E317.35473
G1 X86.203 Y115.2 E317.36471
G1 X133.797 Y115.2 E318.55195
G1 X133.797 Y114.8 E318.56193
G1 X86.202 Y114.8 E319.74919
G1 X86.201 Y114.4 E319.75917
G1 X133.797 Y114.4 E320.94645
G1 X133.798 Y114 E320.95643
G1 X86.2 Y114 E322.14377
G1 X86.2 Y113.888 E322.14656
G1 X86.211 Y113.6 E322.15375
G1 X133.798 Y113.6 E323.34082
G1 X133.798 Y113.2 E323.35079
G1 X86.226 Y113.2 E324.53748
G1 X86.241 Y112.8 E324.54747
G1 X133.798 Y112.8 E325.73378
G1 X133.798 Y112.4 E325.74376
G1 X86.233 Y112.4 E326.93027
G1 X86.217 Y112 E326.94026
G1 X133.798 Y112 E328.12717
G1 X133.798 Y111.6 E328.13715
G1 X86.201 Y111.6 E329.32446
G1 X86.2 Y111.553 E329.32563
G1 X86.201 Y111.2 E329.33444
G1 X133.798 Y111.2 E330.52175
G1 X133.798 Y110.8 E330.53173
G1 X86.201 Y110.8 E331.71904
G1 X86.201 Y110.4 E331.72902
G1 X133.798 Y110.4 E332.91633
