;FLAVOR:Marlin
;TIME:723
;Filament used:0.499521m
;Layer height: 0.2
;MINX:97.7
;MINY:80.2
;MINZ:0.24
;MAXX:122.3
;MAXY:139.8
;MAXZ:2.89
                                     
;Creality Print GCode Generated by CXEngine:NO_MAGE_VERSION_GIT_HEAD_BRANCH
;CXEngine Release Time:2022-09-30 09:53:04
;Gcode Generated Time:2023-06-23 00:10:17
;----------Machine Config--------------
;Machine Name:Ender-3 V2
;Machine Height:250
;Machine Width:220
;Machine Depth:220
;Material name:PLA
;Number of Extruders:1
;ExtruderParams[0] Nozzle Diameter1000
;----------Profile Config---------------
;Engine Version:275f99b
;Engine Release Time:2022-09-30 09:42:18
;Layer Height:0.2
;Wall Thickness:0.8
;Top/Bottom Thickness:1
;Out Wall Line Width:0.4
;Inner Wall Line Width:0.4
;Inital Layer Height:200
;Wall Line Count:2
;Infill Line Distance:4
;Infill Pattern:grid
;Infill Sparse Density:20
;Infill Wipe Distance:0
;Print Temperature:200
;Bed Temperature:60
;Support Enable:true
;Support Density:0
;Support Angle:60
;Adhesion Type:simpleraft
;machine is belt:false
;machine belt offset:10
;machine belt offset Y:0
;Raft Base Line Spacing:1.6
;Wait Heatup Sync:true
;----------Shell Config----------------
;Outer Wall Wipe Distance:200
;Outer Inset First:false
;Infill Before Walls:false
;Infill Overlap:0.16
;Fill Gaps Between Walls:everywhere
;Minimum Infill Area:1
;Top Surface Skin Layer:0
;Top Layers:3
;Z Seam Alignment:sharpest_corner
;Seam Corner Preference:z_seam_corner_inner
;Z Seam X:110
;Z Seam Y:110
;Horizontal Expansion:0
;Top/Bottom Pattern:zigzag
;Ironing Pattern:zigzag
;Vase Model:false
;----------Support Config----------------
;Support Type:everywhere
;Support Pattern:zigzag
;Support Infill Layer Thickness:0.2
;Minimum Support Area:5
;Enable Support Roof:false
;Support Roof Thickness:0.8
;Support Roof Pattern:lines
;Connect Support Lines:0
;Connect Support ZigZags:1
;Minimum Support X/Y Distance:0.2
;Support Line Distance:0
; ---------PrintSpeed & Travel----------
;Enable Print Cool:true
;Avoid Printed Parts Traveling:true
;Enable Retraction:true
;Retraction Distance:8
;Retraction Speed:100
;Retraction Prime Speed:100
;Maximum Retraction Count:100
;Minimum Extrusion Distance Window:1
;Z Hop When Retracted:false
;Z Hop Height:0.2
;Retract Before Outer Wall:true
;Print Speed:50
;Infill Speed:50

;Prime Tower Speed:50
;Travel Speed:120
;Initial Layer Speed:25
;Skirt/Brim Speed:25
;Combing Mode:infill
; --------SpecialModel&Mesh Fixes--------
;Union Overlapping Volum:true
;Remove All Holes:false
;Maximum Travel Resolution:0.6
;Maximum Deviation:0.05
;Maximum Model Angle:0.872665
;IS Mold Print:false
;Make Overhang Printable:false
;Enable Coasting:false
;Coasting Volumes:0.06
;Coasting Speed:0.9
;Raft AirGap:0.25
;Layer0 ZOverLap:0.13
;---------------------End of Head--------------------------
M140 S60
M105
M104 S200
M105
M109 S200
M105
M190 S60
M82 ;absolute extrusion mode
M220 S100 ;Reset Feedrate
M221 S100 ;Reset Flowrate

G28 ;Home

G92 E0 ;Reset Extruder
G1 Z2.0 F3000 ;Move Z Axis up
G1 X10.1 Y20 Z0.28 F5000.0 ;Move to start position
G1 X10.1 Y145.0 Z0.28 F1500.0 E15 ;Draw the first line
G1 X10.4 Y145.0 Z0.28 F5000.0 ;Move to side a little
G1 X10.4 Y20 Z0.28 F1500.0 E30 ;Draw the second line
G92 E0  ;Reset Extruder
G1 E-1.0000 F1800 ;Retract a bit
G1 Z2.0 F3000 ;Move Z Axis up
G1 E0.0000 F1800 

G92 E0
G92 E0
G1 F6000 E-8

;LAYER_COUNT:10

;LAYER:-4
M107
G0 F7200 X100.8 Y83.825 Z0.24
;TYPE:SUPPORT-INTERFACE
G1 F6000 E0
G1 F1200 X100.8 Y136.168 E4.59607
G1 X100.372 Y135.69 E4.65241
G1 X99.886 Y135.038 E4.72381
G1 X99.457 Y134.339 E4.79583
G1 X99.2 Y133.823 E4.84644
G1 X99.2 Y86.171 E9.03061
G1 X99.246 Y86.067 E9.0406
G1 X99.657 Y85.318 E9.11561
G1 X100.119 Y84.635 E9.18802
G1 X100.619 Y84.017 E9.25782
G1 X101.111 Y83.497 E9.32068
G1 X101.81 Y82.872 E9.40301
G1 X102.4 Y82.432 E9.46764
G1 X102.4 Y137.56 E14.30825
G1 X102.818 Y137.843 E14.35257
G1 X103.563 Y138.252 E14.4272
G1 X104 Y138.443 E14.46907
G1 X104 Y81.551 E19.46458
G1 X104.678 Y81.288 E19.52843
G1 X105.46 Y81.062 E19.59991
G1 X105.6 Y81.034 E19.61244
G1 X105.6 Y138.962 E24.69891
G1 X105.876 Y139.028 E24.72383
G1 X106.701 Y139.15 E24.79706
G1 X107.2 Y139.174 E24.84092
G1 X107.2 Y80.82 E29.9648
G1 X108.8 Y80.814 E30.10529
G1 X108.8 Y139.196 E35.23163
G1 X110.4 Y139.19 E35.37212
G1 X110.4 Y80.807 E40.49854
G1 X112 Y80.801 E40.63903
G1 X112 Y139.183 E45.76537
G1 X112.942 Y139.179 E45.84808
G1 X113.6 Y139.11 E45.90617
G1 X113.6 Y80.895 E51.01785
G1 X114.124 Y80.972 E51.06435
G1 X114.919 Y81.162 E51.13612
G1 X115.2 Y81.257 E51.16217
G1 X115.2 Y138.748 E56.21027
G1 X115.322 Y138.712 E56.22144
G1 X116.115 Y138.404 E56.29613
G1 X116.8 Y138.063 E56.36332
G1 X116.8 Y81.948 E61.2906
G1 X117.182 Y82.157 E61.32883
G1 X117.865 Y82.619 E61.40124
G1 X118.4 Y83.052 E61.46167
G1 X118.4 Y136.94 E66.1934
G1 X118.89 Y136.502 E66.25111
G1 X119.381 Y135.983 E66.31384
G1 X119.881 Y135.365 E66.38365
G1 X120.343 Y134.682 E66.45605
G1 X120.754 Y133.933 E66.53107
G1 X121.083 Y133.184 E66.6029
G1 X121.339 Y132.416 E66.67398
G1 X121.528 Y131.622 E66.74565
G1 X121.6 Y131.134 E66.78896
G1 X121.6 Y88.811 E70.50521
G1 X121.596 Y88.773 E70.50856
G1 X121.439 Y87.966 E70.58075
G1 X121.213 Y87.182 E70.6524
G1 X120.904 Y86.385 E70.72745
G1 X120.543 Y85.661 E70.79849
G1 X120.114 Y84.962 E70.8705
G1 X120 Y84.81 E70.88719
G1 X120 Y135.19 E75.31089
G0 F600 X120 Y135.19 Z0.47
G0 F7200 X98.167 Y132.108
;TIME_ELAPSED:48.233544

;LAYER:-3
;TYPE:SUPPORT
G1 F1800 X105.378 Y139.319 E76.09101
G1 X104.974 Y139.224 E76.12276
G1 X104.162 Y138.952 E76.18827
G1 X103.379 Y138.608 E76.2537
G1 X103.096 Y138.452 E76.27842
G1 X99.036 Y134.392 E76.71765
G1 X98.728 Y133.773 E76.77054
G1 X98.409 Y132.951 E76.83799
G1 X98.17 Y132.122 E76.90399
G1 X98.008 Y131.287 E76.96905
G1 X97.92 Y130.455 E77.03306
G1 X97.919 Y130.446 E77.03375
G1 X107.039 Y139.566 E78.0204
G1 X107.693 Y139.6 E78.07049
G1 X108.482 Y139.595 E78.13085
G1 X97.918 Y129.031 E79.27372
G1 X97.918 Y127.616 E79.38196
G1 X109.891 Y139.589 E80.67726
G1 X111.3 Y139.584 E80.78505
G1 X97.917 Y126.201 E82.23289
G1 X97.916 Y124.786 E82.34113
G1 X112.709 Y139.579 E83.94151
G1 X112.966 Y139.579 E83.96117
G1 X113.787 Y139.492 E84.02433
G1 X113.994 Y139.45 E84.04049
G1 X97.915 Y123.371 E85.77999
G1 X97.915 Y121.956 E85.88824
G1 X115.138 Y139.18 E87.75156
G1 X115.455 Y139.09 E87.77677
G1 X116.179 Y138.807 E87.83623
G1 X97.914 Y120.541 E89.81229
G1 X97.913 Y119.126 E89.92053
G1 X117.124 Y138.337 E91.99887
G1 X117.76 Y137.947 E92.05595
G1 X117.981 Y137.78 E92.07714
G1 X97.913 Y117.712 E94.24819
G1 X97.912 Y116.297 E94.35644
G1 X118.764 Y137.149 E96.61231
G1 X119.172 Y136.787 E96.65403
G1 X119.485 Y136.456 E96.68888
G1 X97.911 Y114.882 E99.02287
G1 X97.91 Y113.467 E99.13111
G1 X120.133 Y135.689 E101.53525
G1 X120.199 Y135.609 E101.54318
G1 X120.69 Y134.882 E101.61029
G1 X120.707 Y134.849 E101.61313
G1 X97.91 Y112.052 E104.07943
G1 X97.909 Y110.637 E104.18767
G1 X121.195 Y133.923 E106.70687
G1 X121.455 Y133.332 E106.75626
G1 X121.596 Y132.909 E106.79037
G1 X97.908 Y109.222 E109.353
G1 X97.908 Y107.807 E109.46124
G1 X121.898 Y131.797 E112.0566
G1 X121.922 Y131.695 E112.06462
G1 X122.05 Y130.828 E112.13166
G1 X122.065 Y130.55 E112.15296
G1 X97.907 Y106.392 E114.76649
G1 X97.906 Y104.977 E114.87473
G1 X122.097 Y129.168 E117.49184
G1 X122.097 Y127.754 E117.6
G1 X97.905 Y103.562 E120.21721
G1 X97.904 Y102.147 E120.32546
G1 X122.097 Y126.34 E122.94278
G1 X122.097 Y124.925 E123.05102
G1 X97.903 Y100.732 E125.6684
G1 X97.903 Y99.317 E125.77664
G1 X122.097 Y123.511 E128.39407
G1 X122.097 Y122.097 E128.50224
G1 X97.902 Y97.902 E131.11977
G1 X97.901 Y96.487 E131.22802
G1 X122.097 Y120.683 E133.84566
G1 X122.098 Y119.269 E133.95383
G1 X97.901 Y95.072 E136.57158
G1 X97.9 Y93.657 E136.67982
G1 X122.098 Y117.855 E139.29768
G1 X122.098 Y116.441 E139.40585
G1 X97.899 Y92.242 E142.02382
G1 X97.898 Y90.827 E142.13206
G1 X122.098 Y115.027 E144.75014
G1 X122.098 Y113.612 E144.85839
G1 X97.934 Y89.449 E147.47251
G1 X97.95 Y89.172 E147.49374
G1 X98.078 Y88.303 E147.56093
G1 X98.101 Y88.201 E147.56893
G1 X122.098 Y112.198 E150.16505
G1 X122.098 Y110.784 E150.27321
G1 X98.403 Y87.089 E152.83666
G1 X98.545 Y86.668 E152.87064
G1 X98.804 Y86.076 E152.92008
G1 X122.098 Y109.371 E155.44019
G1 X122.098 Y107.956 E155.54844
G1 X99.291 Y85.149 E158.01581
G1 X99.31 Y85.118 E158.01859
G1 X99.801 Y84.391 E158.0857
G1 X99.866 Y84.309 E158.09371
G1 X122.098 Y106.542 E160.49893
G1 X122.098 Y105.128 E160.6071
G1 X100.513 Y83.543 E162.94227
G1 X100.829 Y83.212 E162.97728
G1 X101.234 Y82.849 E163.01888
G1 X122.098 Y103.714 E165.27611
G1 X122.098 Y102.299 E165.38435
G1 X102.017 Y82.218 E167.55681
G1 X102.24 Y82.053 E167.57803
G1 X102.874 Y81.661 E167.63506
G1 X122.098 Y100.885 E169.7148
G1 X122.099 Y99.472 E169.8229
G1 X103.819 Y81.192 E171.80052
G1 X104.545 Y80.91 E171.8601
G1 X104.86 Y80.818 E171.8852
G1 X122.099 Y98.058 E173.75025
G1 X122.099 Y96.643 E173.8585
G1 X106.004 Y80.548 E175.59974
G1 X106.213 Y80.508 E175.61601
G1 X107.034 Y80.421 E175.67917
G1 X107.29 Y80.419 E175.69876
G1 X122.099 Y95.229 E177.30092
G1 X122.099 Y93.815 E177.40909
G1 X108.698 Y80.414 E178.85888
G1 X110.107 Y80.409 E178.96666
G1 X122.099 Y92.401 E180.26402
G1 X122.099 Y90.986 E180.37226
G1 X111.516 Y80.403 E181.51718
G1 X112.307 Y80.4 E181.57769
G1 X112.959 Y80.432 E181.62763
G1 X122.079 Y89.552 E182.61428
G1 X122.079 Y89.529 E182.61604
G1 X121.992 Y88.713 E182.67881
G1 X121.83 Y87.878 E182.74388
G1 X121.591 Y87.049 E182.80988
G1 X121.272 Y86.227 E182.87733
G1 X120.962 Y85.607 E182.93036
G1 X116.902 Y81.547 E183.36959
G1 X116.617 Y81.39 E183.39448
G1 X115.832 Y81.046 E183.46004
G1 X115.026 Y80.776 E183.52507
G1 X114.62 Y80.679 E183.557
G1 X121.831 Y87.89 E184.33712
G0 F600 X121.831 Y87.89 Z0.62
G0 F7200 X114.313 Y80.4
;TIME_ELAPSED:99.066242

;LAYER:-2
;TYPE:SUPPORT-INTERFACE
G1 F2400 X105.721 Y80.4 E184.55145
G1 X106.172 Y80.312 E184.56291
G1 X107.022 Y80.221 E184.58424
G1 X112.312 Y80.2 E184.7162
G1 X113.359 Y80.253 E184.74235
G1 X114.233 Y80.381 E184.76438
G1 X115.089 Y80.586 E184.78634
G1 X115.728 Y80.8 E184.80315
G1 X104.278 Y80.8 E185.08877
G1 X103.635 Y81.05 E185.10598
G1 X103.335 Y81.2 E185.11435
G1 X116.681 Y81.2 E185.44727
G1 X116.719 Y81.217 E185.44831
G1 X117.417 Y81.6 E185.46817
G1 X102.596 Y81.6 E185.83788
G1 X102.119 Y81.893 E185.85184
G1 X101.976 Y82 E185.8563
G1 X118.022 Y82 E186.25657
G1 X118.219 Y82.133 E186.26249
G1 X118.55 Y82.4 E186.2731
G1 X101.439 Y82.4 E186.69994
G1 X101.421 Y82.413 E186.70049
G1 X100.99 Y82.8 E186.71494
G1 X119.022 Y82.8 E187.16475
G1 X119.423 Y83.181 E187.17855
G1 X119.441 Y83.2 E187.1792
G1 X100.565 Y83.2 E187.65007
G1 X100.186 Y83.6 E187.66381
G1 X119.8 Y83.6 E188.15309
G1 X120.087 Y83.921 E188.16383
G1 X120.147 Y84 E188.1663
G1 X99.861 Y84 E188.67234
G1 X99.633 Y84.281 E188.68136
G1 X99.553 Y84.4 E188.68494
G1 X120.445 Y84.4 E189.20609
G1 X120.607 Y84.619 E189.21289
G1 X120.719 Y84.8 E189.2182
G1 X99.284 Y84.8 E189.7529
G1 X99.133 Y85.023 E189.75962
G1 X99.036 Y85.2 E189.76465
G1 X120.965 Y85.2 E190.31167
G1 X121.064 Y85.362 E190.31641
G1 X121.184 Y85.6 E190.32306
G1 X98.817 Y85.6 E190.881
G1 X98.717 Y85.781 E190.88616
G1 X98.621 Y86 E190.89213
G1 X121.384 Y86 E191.45995
G1 X121.45 Y86.135 E191.4637
G1 X121.554 Y86.4 E191.4708
G1 X98.445 Y86.4 E192.04726
G1 X98.365 Y86.58 E192.05217
G1 X98.292 Y86.8 E192.05795
G1 X121.71 Y86.8 E192.64212
G1 X121.78 Y86.983 E192.64701
G1 X121.844 Y87.2 E192.65265
G1 X98.157 Y87.2 E193.24352
G1 X98.086 Y87.411 E193.24908
G1 X98.041 Y87.6 E193.25392
G1 X121.959 Y87.6 E193.85056
G1 X122.022 Y87.819 E193.85625
G1 X122.058 Y88 E193.86085
G1 X97.946 Y88 E194.46233
G1 X97.879 Y88.276 E194.46941
G1 X97.861 Y88.4 E194.47254
G1 X122.136 Y88.4 E195.07808
G1 X122.188 Y88.672 E195.08499
G1 X122.202 Y88.8 E195.0882
G1 X97.803 Y88.8 E195.69683
G1 X97.752 Y89.145 E195.70553
G1 X97.75 Y89.2 E195.70691
G1 X122.245 Y89.2 E196.31794
G1 X122.279 Y89.522 E196.32601
G1 X122.282 Y89.6 E196.32796
G1 X97.728 Y89.6 E196.94046
G1 X97.707 Y90 E196.95045
G1 X122.296 Y90 E197.56383
G1 X122.3 Y90.147 E197.5675
G1 X122.299 Y90.4 E197.57381
G1 X97.703 Y90.4 E198.18736
G1 X97.703 Y90.8 E198.19734
G1 X122.299 Y90.8 E198.81089
G1 X122.299 Y91.2 E198.82086
G1 X97.703 Y91.2 E199.43441
G1 X97.703 Y91.6 E199.44439
G1 X122.299 Y91.6 E200.05794
G1 X122.299 Y92 E200.06792
G1 X97.703 Y92 E200.68147
G1 X97.703 Y92.4 E200.69145
G1 X122.299 Y92.4 E201.305
G1 X122.299 Y92.8 E201.31498
G1 X97.703 Y92.8 E201.92853
G1 X97.703 Y93.2 E201.9385
G1 X122.299 Y93.2 E202.55205
G1 X122.299 Y93.6 E202.56203
G1 X97.703 Y93.6 E203.17558
G1 X97.703 Y94 E203.18556
G1 X122.299 Y94 E203.79911
G1 X122.299 Y94.4 E203.80909
G1 X97.703 Y94.4 E204.42264
G1 X97.703 Y94.8 E204.43261
G1 X122.299 Y94.8 E205.04616
G1 X122.299 Y95.2 E205.05614
G1 X97.703 Y95.2 E205.66969
G1 X97.703 Y95.6 E205.67967
G1 X122.299 Y95.6 E206.29322
G1 X122.299 Y96 E206.3032
G1 X97.703 Y96 E206.91675
G1 X97.703 Y96.4 E206.92673
G1 X122.299 Y96.4 E207.54028
G1 X122.299 Y96.8 E207.55025
G1 X97.703 Y96.8 E208.1638
G1 X97.703 Y97.2 E208.17378
G1 X122.299 Y97.2 E208.78733
G1 X122.299 Y97.6 E208.79731
G1 X97.703 Y97.6 E209.41086
G1 X97.703 Y98 E209.42084
G1 X122.299 Y98 E210.03439
G1 X122.299 Y98.4 E210.04436
G1 X97.703 Y98.4 E210.65791
G1 X97.703 Y98.8 E210.66789
G1 X122.299 Y98.8 E211.28144
G1 X122.299 Y99.2 E211.29142
G1 X97.703 Y99.2 E211.90497
G1 X97.703 Y99.6 E211.91495
G1 X122.299 Y99.6 E212.5285
G1 X122.299 Y100 E212.53848
G1 X97.703 Y100 E213.15203
G1 X97.703 Y100.4 E213.162
G1 X122.299 Y100.4 E213.77555
G1 X122.299 Y100.8 E213.78553
G1 X97.703 Y100.8 E214.39908
G1 X97.703 Y101.2 E214.40906
G1 X122.299 Y101.2 E215.02261
G1 X122.299 Y101.6 E215.03259
G1 X97.703 Y101.6 E215.64614
G1 X97.703 Y102 E215.65611
G1 X122.299 Y102 E216.26966
G1 X122.299 Y102.4 E216.27964
G1 X97.703 Y102.4 E216.89319
G1 X97.703 Y102.8 E216.90317
G1 X122.299 Y102.8 E217.51672
G1 X122.299 Y103.2 E217.5267
G1 X97.703 Y103.2 E218.14025
G1 X97.702 Y103.6 E218.15023
G1 X122.298 Y103.6 E218.76378
G1 X122.298 Y104 E218.77375
G1 X97.702 Y104 E219.3873
G1 X97.702 Y104.4 E219.39728
G1 X122.298 Y104.4 E220.01083
G1 X122.298 Y104.8 E220.02081
G1 X97.702 Y104.8 E220.63436
G1 X97.702 Y105.2 E220.64434
G1 X122.298 Y105.2 E221.25789
G1 X122.298 Y105.6 E221.26787
G1 X97.702 Y105.6 E221.88141
G1 X97.702 Y106 E221.89139
G1 X122.298 Y106 E222.50494
G1 X122.298 Y106.4 E222.51492
G1 X97.702 Y106.4 E223.12847
G1 X97.702 Y106.8 E223.13845
G1 X122.298 Y106.8 E223.752
G1 X122.298 Y107.2 E223.76198
G1 X97.702 Y107.2 E224.37553
G1 X97.702 Y107.6 E224.3855
G1 X122.298 Y107.6 E224.99905
G1 X122.298 Y108 E225.00903
G1 X97.702 Y108 E225.62258
G1 X97.702 Y108.4 E225.63256
G1 X122.298 Y108.4 E226.24611
G1 X122.298 Y108.8 E226.25609
G1 X97.702 Y108.8 E226.86964
G1 X97.702 Y109.2 E226.87962
G1 X122.298 Y109.2 E227.49317
G1 X122.298 Y109.6 E227.50314
G1 X97.702 Y109.6 E228.11669
G1 X97.702 Y110 E228.12667
G1 X122.298 Y110 E228.74022
G1 X122.298 Y110.4 E228.7502
G1 X97.702 Y110.4 E229.36375
G1 X97.702 Y110.8 E229.37373
G1 X122.298 Y110.8 E229.98728
G1 X122.298 Y111.2 E229.99725
G1 X97.702 Y111.2 E230.6108
G1 X97.702 Y111.6 E230.62078
G1 X122.298 Y111.6 E231.23433
G1 X122.298 Y112 E231.24431
G1 X97.702 Y112 E231.85786
G1 X97.702 Y112.4 E231.86784
G1 X122.298 Y112.4 E232.48139
G1 X122.298 Y112.8 E232.49137
G1 X97.702 Y112.8 E233.10492
G1 X97.702 Y113.2 E233.11489
G1 X122.298 Y113.2 E233.72844
G1 X122.298 Y113.6 E233.73842
G1 X97.702 Y113.6 E234.35197
G1 X97.702 Y114 E234.36195
G1 X122.298 Y114 E234.9755
G1 X122.298 Y114.4 E234.98548
G1 X97.702 Y114.4 E235.59903
G1 X97.702 Y114.8 E235.609
G1 X122.298 Y114.8 E236.22255
G1 X122.298 Y115.2 E236.23253
G1 X97.702 Y115.2 E236.84608
G1 X97.702 Y115.6 E236.85606
G1 X122.298 Y115.6 E237.46961
G1 X122.298 Y116 E237.47959
G1 X97.702 Y116 E238.09314
G1 X97.702 Y116.4 E238.10312
G1 X122.298 Y116.4 E238.71667
G1 X122.297 Y116.8 E238.72664
G1 X97.701 Y116.8 E239.34019
G1 X97.701 Y117.2 E239.35017
G1 X122.297 Y117.2 E239.96372
G1 X122.297 Y117.6 E239.9737
G1 X97.701 Y117.6 E240.58725
