;FLAVOR:Marlin
;TIME:1342
;Filament used:1.05341m
;Layer height: 0.2
;MINX:73.503
;MINY:90.7
;MINZ:0.24
;MAXX:146.497
;MAXY:129.3
;MAXZ:5.89
                                 
;Creality Print GCode Generated by CXEngine:NO_MAGE_VERSION_GIT_HEAD_BRANCH
;CXEngine Release Time:2022-09-30 09:53:04
;Gcode Generated Time:2023-06-23 00:11:10
;----------Machine Config--------------
;Machine Name:Ender-3 V2
;Machine Height:250
;Machine Width:220
;Machine Depth:220
;Material name:PLA
;Number of Extruders:1
;ExtruderParams[0] Nozzle Diameter1000
;----------Profile Config---------------
;Engine Version:275f99b
;Engine Release Time:2022-09-30 09:42:18
;Layer Height:0.2
;Wall Thickness:0.8
;Top/Bottom Thickness:1
;Out Wall Line Width:0.4
;Inner Wall Line Width:0.4
;Inital Layer Height:200
;Wall Line Count:2
;Infill Line Distance:4
;Infill Pattern:grid
;Infill Sparse Density:20
;Infill Wipe Distance:0
;Print Temperature:200
;Bed Temperature:60
;Support Enable:true
;Support Density:0
;Support Angle:60
;Adhesion Type:simpleraft
;machine is belt:false
;machine belt offset:10
;machine belt offset Y:0
;Raft Base Line Spacing:1.6
;Wait Heatup Sync:true
;----------Shell Config----------------
;Outer Wall Wipe Distance:200
;Outer Inset First:false
;Infill Before Walls:false
;Infill Overlap:0.16
;Fill Gaps Between Walls:everywhere
;Minimum Infill Area:1
;Top Surface Skin Layer:0
;Top Layers:3
;Z Seam Alignment:sharpest_corner
;Seam Corner Preference:z_seam_corner_inner
;Z Seam X:110
;Z Seam Y:110
;Horizontal Expansion:0
;Top/Bottom Pattern:zigzag
;Ironing Pattern:zigzag
;Vase Model:false
;----------Support Config----------------
;Support Type:everywhere
;Support Pattern:zigzag
;Support Infill Layer Thickness:0.2
;Minimum Support Area:5
;Enable Support Roof:false
;Support Roof Thickness:0.8
;Support Roof Pattern:lines
;Connect Support Lines:0
;Connect Support ZigZags:1
;Minimum Support X/Y Distance:0.2
;Support Line Distance:0
; ---------PrintSpeed & Travel----------
;Enable Print Cool:true
;Avoid Printed Parts Traveling:true
;Enable Retraction:true
;Retraction Distance:8
;Retraction Speed:100
;Retraction Prime Speed:100
;Maximum Retraction Count:100
;Minimum Extrusion Distance Window:1
;Z Hop When Retracted:false
;Z Hop Height:0.2
;Retract Before Outer Wall:true
;Print Speed:50
;Infill Speed:50

;Prime Tower Speed:50
;Travel Speed:120
;Initial Layer Speed:25
;Skirt/Brim Speed:25
;Combing Mode:infill
; --------SpecialModel&Mesh Fixes--------
;Union Overlapping Volum:true
;Remove All Holes:false
;Maximum Travel Resolution:0.6
;Maximum Deviation:0.05
;Maximum Model Angle:0.872665
;IS Mold Print:false
;Make Overhang Printable:false
;Enable Coasting:false
;Coasting Volumes:0.06
;Coasting Speed:0.9
;Raft AirGap:0.25
;Layer0 ZOverLap:0.13
;---------------------End of Head--------------------------
M140 S60
M105
M104 S200
M105
M109 S200
M105
M190 S60
M82 ;absolute extrusion mode
M220 S100 ;Reset Feedrate
M221 S100 ;Reset Flowrate

G28 ;Home

G92 E0 ;Reset Extruder
G1 Z2.0 F3000 ;Move Z Axis up
G1 X10.1 Y20 Z0.28 F5000.0 ;Move to start position
G1 X10.1 Y145.0 Z0.28 F1500.0 E15 ;Draw the first line
G1 X10.4 Y145.0 Z0.28 F5000.0 ;Move to side a little
G1 X10.4 Y20 Z0.28 F1500.0 E30 ;Draw the second line
G92 E0  ;Reset Extruder
G1 E-1.0000 F1800 ;Retract a bit
G1 Z2.0 F3000 ;Move Z Axis up
G1 E0.0000 F1800 

G92 E0
G92 E0
G1 F6000 E-8

;LAYER_COUNT:25

;LAYER:-4
M107
G0 F7200 X76.8 Y111.114 Z0.24
;TYPE:SUPPORT-INTERFACE
G1 F6000 E0
G1 F1200 X76.8 Y125.891 E1.29752
G1 X76.172 Y125.19 E1.38016
G1 X75.686 Y124.538 E1.45157
G1 X75.257 Y123.839 E1.52358
G1 X75.2 Y123.724 E1.53485
G1 X75.2 Y113.286 E2.45138
G1 X75.457 Y112.818 E2.49826
G1 X75.919 Y112.135 E2.57066
G1 X76.419 Y111.517 E2.64046
G1 X76.922 Y110.985 E2.70475
G1 X77.722 Y110.196 E2.80341
G1 X78.162 Y109.605 E2.86811
G1 X78.4 Y109.183 E2.91065
G1 X78.4 Y127.195 E4.49223
G1 X78.618 Y127.343 E4.51536
G1 X79.363 Y127.752 E4.58999
G1 X80 Y128.031 E4.65105
G1 X80 Y96.671 E7.40467
G1 X80.046 Y96.567 E7.41466
G1 X80.457 Y95.818 E7.48967
G1 X80.919 Y95.135 E7.56208
G1 X81.419 Y94.517 E7.63188
G1 X81.6 Y94.325 E7.65505
G1 X81.6 Y128.509 E10.65663
G1 X81.676 Y128.528 E10.66351
G1 X82.501 Y128.65 E10.73674
G1 X83.2 Y128.684 E10.79819
G1 X83.2 Y92.932 E13.93746
G1 X83.262 Y92.886 E13.94424
G1 X83.955 Y92.46 E14.01566
G1 X84.685 Y92.096 E14.08729
G1 X84.8 Y92.051 E14.09813
G1 X84.8 Y128.697 E17.3159
G1 X86.4 Y128.693 E17.45639
G1 X86.4 Y91.534 E20.7192
G1 X87.073 Y91.404 E20.77939
G1 X87.861 Y91.321 E20.84896
G1 X88 Y91.316 E20.86118
G1 X88 Y128.689 E24.14278
G1 X89.6 Y128.685 E24.28327
G1 X89.6 Y91.301 E27.56584
G1 X91.2 Y91.301 E27.70633
G1 X91.2 Y128.681 E30.98854
G1 X91.742 Y128.679 E31.03614
G1 X92.527 Y128.596 E31.10545
G1 X92.8 Y128.543 E31.12987
G1 X92.8 Y91.301 E34.39997
G1 X94.4 Y91.301 E34.54046
G1 X94.4 Y128.105 E37.7721
G1 X94.915 Y127.904 E37.82064
G1 X95.645 Y127.54 E37.89227
G1 X96 Y127.322 E37.92884
G1 X96 Y91.301 E41.09173
G1 X97.6 Y91.301 E41.23222
G1 X97.6 Y126.083 E44.28632
G1 X97.69 Y126.002 E44.29695
G1 X98.181 Y125.483 E44.35968
G1 X98.681 Y124.865 E44.42948
G1 X99.143 Y124.182 E44.50189
G1 X99.2 Y124.079 E44.51222
G1 X99.2 Y91.301 E47.39035
G1 X100.8 Y91.301 E47.53085
G1 X100.8 Y116.671 E49.7585
G1 X101.032 Y116.07 E49.81507
G1 X101.38 Y115.426 E49.87935
G1 X101.809 Y114.828 E49.94397
G1 X102.307 Y114.291 E50.00828
G1 X102.4 Y114.214 E50.01888
G1 X102.4 Y91.301 E52.03079
G1 X104 Y91.302 E52.17128
G1 X104 Y113.184 E54.09267
G1 X104.151 Y113.112 E54.10736
G1 X104.847 Y112.883 E54.1717
G1 X105.568 Y112.744 E54.23617
G1 X105.6 Y112.743 E54.23898
G1 X105.6 Y91.302 E56.12165
G1 X107.2 Y91.302 E56.26214
G1 X107.2 Y112.7 E58.14103
G1 X108.8 Y112.7 E58.28152
G1 X108.8 Y91.302 E60.16041
G1 X110.4 Y91.302 E60.3009
G1 X110.4 Y112.7 E62.17979
G1 X112 Y112.7 E62.32028
G1 X112 Y91.302 E64.19917
G1 X113.6 Y91.302 E64.33966
G1 X113.6 Y112.7 E66.21855
G1 X113.736 Y112.7 E66.23049
G1 X114.723 Y112.788 E66.3175
G1 X115.2 Y112.906 E66.36064
G1 X115.2 Y91.302 E68.25762
G1 X116.8 Y91.302 E68.39811
G1 X116.8 Y113.598 E70.35585
G1 X117.372 Y114.009 E70.4177
G1 X117.909 Y114.507 E70.48201
G1 X118.379 Y115.07 E70.5464
G1 X118.4 Y115.102 E70.54976
G1 X118.4 Y91.303 E72.63948
G1 X120 Y91.303 E72.77997
G1 X120 Y122.351 E75.50619
G1 X120.296 Y123.115 E75.57814
G1 X120.657 Y123.839 E75.64917
G1 X121.086 Y124.538 E75.72119
G1 X121.572 Y125.19 E75.79259
G1 X121.6 Y125.221 E75.79626
G1 X121.6 Y91.303 E78.77449
G1 X123.2 Y91.303 E78.91498
G1 X123.2 Y126.771 E82.02931
G1 X123.335 Y126.881 E82.0446
G1 X124.018 Y127.343 E82.117
G1 X124.763 Y127.752 E82.19163
G1 X124.8 Y127.768 E82.19517
G1 X124.8 Y91.303 E85.39704
G1 X126.4 Y91.303 E85.53753
G1 X126.4 Y128.366 E88.79192
G1 X127.076 Y128.528 E88.85295
G1 X127.901 Y128.65 E88.92618
G1 X128 Y128.654 E88.93488
G1 X128 Y91.303 E92.21455
G1 X129.6 Y91.303 E92.35504
G1 X129.6 Y128.699 E95.63866
G1 X131.2 Y128.695 E95.77916
G1 X131.2 Y91.303 E99.06243
G1 X131.63 Y91.303 E99.10018
G1 X132.488 Y91.349 E99.17563
G1 X132.8 Y91.395 E99.20332
G1 X132.8 Y128.691 E102.47816
G1 X134.4 Y128.686 E102.61865
G1 X134.4 Y91.757 E105.86127
G1 X134.887 Y91.919 E105.90634
G1 X135.633 Y92.246 E105.97786
G1 X136 Y92.448 E106.01464
G1 X136 Y128.682 E109.19623
G1 X137.142 Y128.679 E109.29651
G1 X137.6 Y128.631 E109.33694
G1 X137.6 Y93.552 E112.41711
G1 X137.683 Y93.619 E112.42648
G1 X138.203 Y94.111 E112.48934
G1 X138.828 Y94.81 E112.57167
G1 X139.2 Y95.31 E112.62639
G1 X139.2 Y128.306 E115.52367
G1 X139.522 Y128.212 E115.55312
G1 X140.315 Y127.904 E115.62782
G1 X140.8 Y127.663 E115.67537
G1 X140.8 Y99.311 E118.16487
G1 X140.879 Y100.053 E118.23039
G1 X140.9 Y106.458 E118.7928
G1 X140.944 Y107.164 E118.85491
G1 X141.083 Y107.885 E118.91938
G1 X141.312 Y108.581 E118.98372
G1 X141.625 Y109.244 E119.0481
G1 X142.027 Y109.872 E119.11357
G1 X142.4 Y110.293 E119.16296
G1 X142.4 Y126.619 E120.59649
G1 X143.09 Y126.002 E120.67777
G1 X143.581 Y125.483 E120.7405
G1 X144.081 Y124.865 E120.8103
G1 X144.543 Y124.182 E120.8827
G1 X144.954 Y123.433 E120.95772
G1 X145.283 Y122.684 E121.02956
G1 X145.539 Y121.916 E121.10064
G1 X145.6 Y121.66 E121.12375
G1 X145.6 Y115.331 E121.67948
G1 X145.413 Y114.682 E121.73878
G1 X145.104 Y113.885 E121.81384
G1 X144.743 Y113.161 E121.88487
G1 X144.314 Y112.462 E121.95689
G1 X144 Y112.041 E122.00301
G1 X144 Y124.966 E123.13791
G0 F600 X144 Y124.966 Z0.47
G0 F7200 X119.603 Y122.432
;TIME_ELAPSED:76.423501

;LAYER:-3
;TYPE:SUPPORT
G1 F1800 X125.753 Y128.582 E123.80324
G1 X125.362 Y128.452 E123.83477
G1 X124.579 Y128.108 E123.90019
G1 X123.818 Y127.69 E123.96661
G1 X123.091 Y127.199 E124.03372
G1 X122.452 Y126.682 E124.0966
G1 X122.211 Y126.454 E124.12198
G1 X121.783 Y126.026 E124.16828
G1 X121.261 Y125.443 E124.22814
G1 X120.753 Y124.76 E124.29326
G1 X120.31 Y124.04 E124.35793
G1 X119.928 Y123.273 E124.42348
G1 X119.609 Y122.451 E124.49093
G1 X119.37 Y121.622 E124.55693
G1 X119.208 Y120.787 E124.62199
G1 X119.188 Y120.602 E124.63623
G1 X127.593 Y129.008 E125.54558
G1 X127.865 Y129.049 E125.56662
G1 X128.893 Y129.1 E125.64536
G1 X129.098 Y129.098 E125.66104
G1 X119.107 Y119.107 E126.74192
G1 X119.1 Y118.487 E126.78935
G1 X119.058 Y117.819 E126.84055
G1 X119.015 Y117.601 E126.85755
G1 X130.509 Y129.095 E128.10103
G1 X131.919 Y129.091 E128.20889
G1 X117.645 Y114.817 E129.75312
G1 X117.618 Y114.783 E129.75644
G1 X117.536 Y114.708 E129.76494
G1 X93.728 Y90.899 E132.34066
G1 X92.314 Y90.899 E132.44883
G1 X114.592 Y113.178 E134.85903
G1 X113.718 Y113.1 E134.92616
G1 X113.099 Y113.099 E134.97351
G1 X90.899 Y90.899 E137.37521
G1 X89.485 Y90.899 E137.48338
G1 X111.685 Y113.099 E139.88509
G1 X110.271 Y113.099 E139.99326
G1 X88.083 Y90.912 E142.39361
G1 X87.834 Y90.921 E142.41267
G1 X87.013 Y91.008 E142.47583
G1 X86.805 Y91.047 E142.49202
G1 X108.856 Y113.099 E144.87766
G1 X107.442 Y113.099 E144.98583
G1 X85.661 Y91.317 E147.34226
G1 X85.345 Y91.41 E147.36746
G1 X84.62 Y91.691 E147.42694
G1 X106.043 Y113.114 E149.74458
G1 X105.619 Y113.142 E149.77709
G1 X104.948 Y113.271 E149.82936
G1 X104.825 Y113.31 E149.83923
G1 X83.675 Y92.16 E152.12734
G1 X83.04 Y92.553 E152.18447
G1 X82.818 Y92.717 E152.20558
G1 X103.813 Y113.712 E154.47693
G1 X103.682 Y113.776 E154.48808
G1 X103.107 Y114.144 E154.5403
G1 X102.955 Y114.269 E154.55536
G1 X82.034 Y93.348 E156.81869
G1 X81.629 Y93.712 E156.86035
G1 X81.314 Y94.042 E156.89525
G1 X102.232 Y114.96 E159.15826
G1 X102.119 Y115.082 E159.17098
G1 X101.72 Y115.638 E159.22334
G1 X101.641 Y115.783 E159.23597
G1 X80.666 Y94.808 E161.50515
G1 X80.601 Y94.891 E161.51321
G1 X80.11 Y95.618 E161.58032
G1 X80.092 Y95.648 E161.583
G1 X101.196 Y116.753 E163.86619
G1 X101.15 Y116.874 E163.87609
G1 X100.984 Y117.543 E163.92882
G1 X100.95 Y117.921 E163.95785
G1 X79.604 Y96.575 E166.26717
G1 X79.345 Y97.168 E166.31667
G1 X79.203 Y97.588 E166.35059
G1 X100.883 Y119.268 E168.69604
G1 X100.865 Y120.149 E168.76344
G1 X100.803 Y120.602 E168.79842
G1 X78.901 Y98.7 E171.16789
G1 X78.878 Y98.803 E171.17596
G1 X78.75 Y99.672 E171.24316
G1 X78.734 Y99.948 E171.2643
G1 X100.58 Y121.793 E173.62766
G1 X100.526 Y122.019 E173.64543
G1 X100.255 Y122.832 E173.71099
G1 X100.24 Y122.867 E173.7139
G1 X78.7 Y101.328 E176.04415
G1 X78.696 Y102.738 E176.15202
G1 X99.791 Y123.833 E178.43418
G1 X99.49 Y124.382 E178.48207
G1 X99.262 Y124.718 E178.51314
G1 X78.693 Y104.149 E180.73839
G1 X78.688 Y105.559 E180.84626
G1 X98.659 Y125.529 E183.00676
G1 X98.482 Y125.748 E183.0283
G1 X97.987 Y126.271 E183.08339
G1 X78.669 Y106.953 E185.17331
G1 X78.596 Y107.498 E185.21537
G1 X78.428 Y108.126 E185.2651
G1 X97.239 Y126.938 E187.30022
G1 X96.56 Y127.447 E187.36514
G1 X96.419 Y127.532 E187.37773
G1 X77.986 Y109.099 E189.37191
G1 X77.826 Y109.386 E189.39704
G1 X77.419 Y109.933 E189.4492
G1 X77.411 Y109.938 E189.44992
G1 X95.52 Y128.047 E191.40904
G1 X95.073 Y128.272 E191.44733
G1 X94.538 Y128.479 E191.49121
G1 X76.7 Y110.641 E193.42101
G1 X76.631 Y110.71 E193.42848
G1 X76.118 Y111.252 E193.48557
G1 X76.018 Y111.373 E193.49757
G1 X93.462 Y128.817 E195.38475
G1 X93.428 Y128.829 E195.38751
G1 X92.587 Y128.992 E195.45304
G1 X92.256 Y129.026 E195.4785
G1 X75.406 Y112.176 E197.30141
G1 X75.11 Y112.618 E197.34211
G1 X74.869 Y113.053 E197.38015
G1 X90.896 Y129.08 E199.11403
G1 X89.485 Y129.083 E199.22197
G1 X74.413 Y114.011 E200.85253
G1 X74.345 Y114.168 E200.86562
G1 X74.074 Y114.981 E200.93118
G1 X74.053 Y115.066 E200.93788
G1 X88.075 Y129.087 E202.45479
G1 X86.664 Y129.09 E202.56273
G1 X73.812 Y116.239 E203.95307
G1 X73.75 Y116.672 E203.98653
G1 X73.703 Y117.544 E204.05334
G1 X85.253 Y129.094 E205.30287
G1 X83.843 Y129.097 E205.41073
G1 X73.712 Y118.967 E206.5067
G1 X73.72 Y119.955 E206.58229
G1 X73.77 Y120.439 E206.61951
G1 X82.363 Y129.032 E207.54914
G1 X81.603 Y128.922 E207.60789
G1 X80.774 Y128.724 E207.67309
G1 X80.571 Y128.655 E207.68949
G1 X74.144 Y122.227 E208.38485
G1 X74.209 Y122.451 E208.40269
G1 X74.528 Y123.273 E208.47014
G1 X74.91 Y124.04 E208.53569
G1 X75.353 Y124.76 E208.60036
G1 X75.861 Y125.443 E208.66547
G1 X76.518 Y126.177 E208.74083
G1 X77.052 Y126.682 E208.79706
G1 X77.691 Y127.199 E208.85993
G1 X77.721 Y127.219 E208.86269
G1 X75.617 Y125.114 E209.09037
;;retract;;
G1 F6000 E201.09037
G0 F7200 X96.557 Y90.9
G1 F6000 E209.09037
G1 F1800 X134.741 Y129.084 E213.2213
G1 X133.33 Y129.087 E213.32924
G1 X95.142 Y90.899 E217.46061
G1 X97.971 Y90.9 E217.67702
G1 X136.151 Y129.08 E221.80752
G1 X137.166 Y129.079 E221.88517
G1 X137.525 Y129.039 E221.9128
G1 X99.385 Y90.9 E226.03892
G1 X100.8 Y90.9 E226.14717
G1 X138.744 Y128.844 E230.25214
G1 X138.828 Y128.829 E230.25866
G1 X139.655 Y128.59 E230.32452
G1 X139.833 Y128.519 E230.33918
G1 X102.214 Y90.9 E234.40899
G1 X103.629 Y90.901 E234.51723
G1 X140.823 Y128.095 E238.54106
G1 X141.246 Y127.887 E238.57712
G1 X141.729 Y127.587 E238.62062
G1 X105.043 Y90.901 E242.58949
G1 X106.457 Y90.901 E242.69766
G1 X142.556 Y127 E246.60303
G1 X142.647 Y126.935 E246.61158
G1 X143.31 Y126.34 E246.67973
G1 X107.871 Y90.901 E250.5137
G1 X109.286 Y90.901 E250.62194
G1 X143.994 Y125.609 E254.37682
G1 X144.399 Y125.109 E254.42605
G1 X144.604 Y124.805 E254.4541
G1 X110.701 Y90.902 E258.12189
G1 X112.115 Y90.902 E258.23006
G1 X145.14 Y123.926 E261.80281
G1 X145.31 Y123.617 E261.82979
G1 X145.594 Y122.967 E261.88405
G1 X113.529 Y90.902 E265.353
G1 X114.943 Y90.902 E265.46117
G1 X145.951 Y121.909 E268.81572
G1 X146.122 Y121.195 E268.87188
G1 X146.19 Y120.734 E268.90753
G1 X116.357 Y90.902 E272.13496
G1 X117.772 Y90.902 E272.2432
G1 X146.296 Y119.426 E275.32907
G1 X146.285 Y118.001 E275.43808
G1 X119.187 Y90.902 E278.36973
G1 X120.601 Y90.902 E278.4779
G1 X146.224 Y116.526 E281.24998
G1 X146.192 Y116.213 E281.27405
G1 X146.03 Y115.378 E281.33911
G1 X145.842 Y114.73 E281.39073
G1 X122.015 Y90.902 E283.96851
G1 X123.429 Y90.902 E284.07667
G1 X144.295 Y111.768 E286.33406
G1 X144.139 Y111.557 E286.35414
G1 X143.488 Y110.829 E286.42885
G1 X142.999 Y110.365 E286.48041
G1 X142.347 Y109.63 E286.55557
G1 X141.976 Y109.05 E286.60824
G1 X141.684 Y108.433 E286.66046
G1 X141.471 Y107.784 E286.71271
G1 X141.41 Y107.468 E286.73733
G1 X124.844 Y90.903 E288.52947
G1 X126.258 Y90.903 E288.63764
G1 X141.298 Y105.942 E290.26469
G1 X141.294 Y104.524 E290.37316
G1 X127.673 Y90.903 E291.84675
G1 X129.087 Y90.903 E291.95492
G1 X141.289 Y103.105 E293.27499
G1 X141.284 Y101.686 E293.38354
G1 X130.501 Y90.903 E294.5501
G1 X131.632 Y90.903 E294.63662
G1 X131.931 Y90.919 E294.65953
G1 X141.279 Y100.267 E295.67084
G1 X141.279 Y100.029 E295.68905
G1 X141.192 Y99.213 E295.75182
G1 X141.03 Y98.378 E295.81689
G1 X140.791 Y97.549 E295.88289
G1 X140.472 Y96.727 E295.95034
G1 X140.376 Y96.535 E295.96676
G1 X135.663 Y91.822 E296.47664
G1 X135.032 Y91.546 E296.52932
G1 X134.226 Y91.276 E296.59435
G1 X133.537 Y91.111 E296.64855
G1 X141.084 Y98.657 E297.46496
G0 F600 X141.084 Y98.657 Z0.62
G0 F7200 X132.887 Y90.8
;TIME_ELAPSED:158.066626

;LAYER:-2
;TYPE:SUPPORT-INTERFACE
G1 F2400 X87.085 Y90.8 E298.6075
G1 X87.822 Y90.721 E298.62599
G1 X88.45 Y90.7 E298.64166
G1 X131.641 Y90.703 E299.71907
