;FLAVOR:Marlin
;TIME:1821
;Filament used:1.00245m
;Layer height: 0.2
;MINX:74.2
;MINY:95.7
;MINZ:0.24
;MAXX:145.8
;MAXY:124.297
;MAXZ:8.89
                                   
;Creality Print GCode Generated by CXEngine:NO_MAGE_VERSION_GIT_HEAD_BRANCH
;CXEngine Release Time:2022-09-30 09:53:04
;Gcode Generated Time:2023-06-23 00:09:04
;----------Machine Config--------------
;Machine Name:Ender-3 V2
;Machine Height:250
;Machine Width:220
;Machine Depth:220
;Material name:PLA
;Number of Extruders:1
;ExtruderParams[0] Nozzle Diameter1000
;----------Profile Config---------------
;Engine Version:275f99b
;Engine Release Time:2022-09-30 09:42:18
;Layer Height:0.2
;Wall Thickness:0.8
;Top/Bottom Thickness:1
;Out Wall Line Width:0.4
;Inner Wall Line Width:0.4
;Inital Layer Height:200
;Wall Line Count:2
;Infill Line Distance:4
;Infill Pattern:grid
;Infill Sparse Density:20
;Infill Wipe Distance:0
;Print Temperature:200
;Bed Temperature:60
;Support Enable:true
;Support Density:0
;Support Angle:60
;Adhesion Type:simpleraft
;machine is belt:false
;machine belt offset:10
;machine belt offset Y:0
;Raft Base Line Spacing:1.6
;Wait Heatup Sync:true
;----------Shell Config----------------
;Outer Wall Wipe Distance:200
;Outer Inset First:false
;Infill Before Walls:false
;Infill Overlap:0.16
;Fill Gaps Between Walls:everywhere
;Minimum Infill Area:1
;Top Surface Skin Layer:0
;Top Layers:3
;Z Seam Alignment:sharpest_corner
;Seam Corner Preference:z_seam_corner_inner
;Z Seam X:110
;Z Seam Y:110
;Horizontal Expansion:0
;Top/Bottom Pattern:zigzag
;Ironing Pattern:zigzag
;Vase Model:false
;----------Support Config----------------
;Support Type:everywhere
;Support Pattern:zigzag
;Support Infill Layer Thickness:0.2
;Minimum Support Area:5
;Enable Support Roof:false
;Support Roof Thickness:0.8
;Support Roof Pattern:lines
;Connect Support Lines:0
;Connect Support ZigZags:1
;Minimum Support X/Y Distance:0.2
;Support Line Distance:0
; ---------PrintSpeed & Travel----------
;Enable Print Cool:true
;Avoid Printed Parts Traveling:true
;Enable Retraction:true
;Retraction Distance:8
;Retraction Speed:100
;Retraction Prime Speed:100
;Maximum Retraction Count:100
;Minimum Extrusion Distance Window:1
;Z Hop When Retracted:false
;Z Hop Height:0.2
;Retract Before Outer Wall:true
;Print Speed:50
;Infill Speed:50

;Prime Tower Speed:50
;Travel Speed:120
;Initial Layer Speed:25
;Skirt/Brim Speed:25
;Combing Mode:infill
; --------SpecialModel&Mesh Fixes--------
;Union Overlapping Volum:true
;Remove All Holes:false
;Maximum Travel Resolution:0.6
;Maximum Deviation:0.05
;Maximum Model Angle:0.872665
;IS Mold Print:false
;Make Overhang Printable:false
;Enable Coasting:false
;Coasting Volumes:0.06
;Coasting Speed:0.9
;Raft AirGap:0.25
;Layer0 ZOverLap:0.13
;---------------------End of Head--------------------------
M140 S60
M105
M104 S200
M105
M109 S200
M105
M190 S60
M82 ;absolute extrusion mode
M220 S100 ;Reset Feedrate
M221 S100 ;Reset Flowrate

G28 ;Home

G92 E0 ;Reset Extruder
G1 Z2.0 F3000 ;Move Z Axis up
G1 X10.1 Y20 Z0.28 F5000.0 ;Move to start position
G1 X10.1 Y145.0 Z0.28 F1500.0 E15 ;Draw the first line
G1 X10.4 Y145.0 Z0.28 F5000.0 ;Move to side a little
G1 X10.4 Y20 Z0.28 F1500.0 E30 ;Draw the second line
G92 E0  ;Reset Extruder
G1 E-1.0000 F1800 ;Retract a bit
G1 Z2.0 F3000 ;Move Z Axis up
G1 E0.0000 F1800 

G92 E0
G92 E0
G1 F6000 E-8

;LAYER_COUNT:40

;LAYER:-4
M107
G0 F7200 X75.2 Y102.965 Z0.24
;TYPE:SUPPORT-INTERFACE
G1 F6000 E0
G1 F1200 X75.2 Y117.016 E1.23377
G1 X75.061 Y116.534 E1.27782
G1 X74.904 Y115.727 E1.35001
G1 X74.82 Y114.931 E1.42029
G1 X74.8 Y105.713 E2.2297
G1 X74.849 Y104.708 E2.31805
G1 X74.972 Y103.876 E2.3919
G1 X75.16 Y103.085 E2.46329
G1 X75.417 Y102.316 E2.53448
G1 X75.746 Y101.567 E2.60631
G1 X76.157 Y100.818 E2.68133
G1 X76.619 Y100.135 E2.75373
G1 X76.8 Y99.911 E2.77902
G1 X76.8 Y120.093 E4.55114
G1 X76.872 Y120.19 E4.56174
G1 X77.503 Y120.895 E4.64482
G1 X78.017 Y121.381 E4.70694
G1 X78.4 Y121.69 E4.75015
G1 X78.4 Y98.304 E6.80359
G1 X78.962 Y97.886 E6.86509
G1 X79.655 Y97.46 E6.93652
G1 X80 Y97.287 E6.97041
G1 X80 Y122.717 E9.20334
G1 X80.063 Y122.752 E9.20967
G1 X80.808 Y123.079 E9.28111
G1 X81.581 Y123.338 E9.35269
G1 X81.6 Y123.342 E9.35439
G1 X81.6 Y96.666 E11.69673
G1 X81.96 Y96.562 E11.72963
G1 X82.773 Y96.404 E11.80235
G1 X83.2 Y96.359 E11.84005
G1 X83.2 Y123.649 E14.2363
G1 X83.212 Y123.651 E14.23737
G1 X84.07 Y123.697 E14.31281
G1 X84.8 Y123.697 E14.37691
G1 X84.8 Y96.301 E16.78247
G1 X86.4 Y96.301 E16.92296
G1 X86.4 Y123.697 E19.32851
G1 X88 Y123.697 E19.469
G1 X88 Y96.301 E21.87456
G1 X89.6 Y96.301 E22.01505
G1 X89.6 Y123.697 E24.4206
G1 X91.2 Y123.697 E24.56109
G1 X91.2 Y96.301 E26.96665
G1 X92.8 Y96.301 E27.10714
G1 X92.8 Y123.697 E29.51269
G1 X94.4 Y123.697 E29.65318
G1 X94.4 Y96.301 E32.05874
G1 X96 Y96.301 E32.19923
G1 X96 Y123.697 E34.60478
G1 X97.6 Y123.697 E34.74527
G1 X97.6 Y96.301 E37.15083
G1 X99.2 Y96.301 E37.29132
G1 X99.2 Y123.697 E39.69687
G1 X100.8 Y123.697 E39.83736
G1 X100.8 Y96.301 E42.24292
G1 X102.4 Y96.302 E42.38341
G1 X102.4 Y123.697 E44.78887
G1 X104 Y123.697 E44.92936
G1 X104 Y96.302 E47.33483
G1 X105.6 Y96.302 E47.47532
G1 X105.6 Y123.697 E49.88079
G1 X107.2 Y123.697 E50.02128
G1 X107.2 Y96.302 E52.42674
G1 X108.8 Y96.302 E52.56723
G1 X108.8 Y123.697 E54.9727
G1 X110.4 Y123.697 E55.11319
G1 X110.4 Y96.302 E57.51866
G1 X112 Y96.302 E57.65915
G1 X112 Y123.697 E60.06461
G1 X113.6 Y123.697 E60.20511
G1 X113.6 Y96.302 E62.61057
G1 X115.2 Y96.302 E62.75106
G1 X115.2 Y123.697 E65.15653
G1 X116.8 Y123.697 E65.29702
G1 X116.8 Y96.302 E67.70249
G1 X118.4 Y96.302 E67.84298
G1 X118.4 Y123.697 E70.24844
G1 X120 Y123.697 E70.38893
G1 X120 Y96.303 E72.79431
G1 X121.6 Y96.303 E72.9348
G1 X121.6 Y123.697 E75.34018
G1 X123.2 Y123.697 E75.48067
G1 X123.2 Y96.303 E77.88605
G1 X124.8 Y96.303 E78.02654
G1 X124.8 Y123.697 E80.43192
G1 X126.4 Y123.697 E80.57241
G1 X126.4 Y96.303 E82.97779
G1 X128 Y96.303 E83.11828
G1 X128 Y123.697 E85.52366
G1 X129.6 Y123.697 E85.66415
G1 X129.6 Y96.303 E88.06953
G1 X131.2 Y96.303 E88.21002
G1 X131.2 Y123.697 E90.6154
G1 X132.8 Y123.697 E90.75589
G1 X132.8 Y96.303 E93.16126
G1 X134.4 Y96.303 E93.30176
G1 X134.4 Y123.695 E95.70696
G1 X136 Y123.683 E95.84745
G1 X136 Y96.307 E98.25125
G1 X136.788 Y96.349 E98.32054
G1 X137.6 Y96.469 E98.39261
G1 X137.6 Y123.524 E100.76823
G1 X138.04 Y123.438 E100.80759
G1 X138.822 Y123.212 E100.87907
G1 X139.2 Y123.066 E100.91465
G1 X139.2 Y96.925 E103.21
G1 X139.933 Y97.246 E103.28027
G1 X140.682 Y97.657 E103.35529
G1 X140.8 Y97.737 E103.3678
G1 X140.8 Y122.26 E105.52109
G1 X141.037 Y122.114 E105.54553
G1 X141.694 Y121.624 E105.6175
G1 X142.39 Y121.002 E105.69946
G1 X142.881 Y120.483 E105.76219
G1 X143.381 Y119.865 E105.83199
G1 X143.843 Y119.182 E105.9044
G1 X144 Y118.896 E105.93305
G1 X144 Y101.091 E107.49644
G1 X143.614 Y100.462 E107.56125
G1 X143.128 Y99.81 E107.63265
G1 X142.503 Y99.111 E107.71498
G1 X142.4 Y99.014 E107.72741
G1 X142.4 Y120.992 E109.65722
G0 F600 X142.4 Y120.992 Z0.47
G0 F7200 X143.557 Y99.716
;TIME_ELAPSED:68.773932

;LAYER:-3
;TYPE:SUPPORT
G1 F1800 X141.784 Y97.944 E109.84898
G1 X142.248 Y98.318 E109.89457
G1 X142.788 Y98.829 E109.95145
G1 X143.439 Y99.557 E110.02616
G1 X143.947 Y100.24 E110.09127
G1 X144.39 Y100.96 E110.15594
G1 X144.772 Y101.727 E110.22149
G1 X145.091 Y102.549 E110.28894
G1 X145.136 Y102.71 E110.30173
G1 X138.791 Y96.365 E110.98816
G1 X138.526 Y96.276 E111.00955
G1 X137.697 Y96.078 E111.07475
G1 X136.985 Y95.973 E111.1298
G1 X145.523 Y104.511 E112.05349
G1 X145.579 Y105.029 E112.09334
G1 X145.58 Y105.982 E112.16625
G1 X135.501 Y95.903 E113.25664
G1 X134.087 Y95.903 E113.36481
G1 X145.584 Y107.4 E114.60861
G1 X145.586 Y108.817 E114.71701
G1 X132.673 Y95.903 E116.11406
G1 X131.258 Y95.903 E116.2223
G1 X145.59 Y110.235 E117.77281
G1 X145.593 Y111.652 E117.88121
G1 X129.844 Y95.903 E119.58501
G1 X128.43 Y95.903 E119.69318
G1 X145.596 Y113.069 E121.55028
G1 X145.6 Y114.288 E121.64354
G1 X145.59 Y114.477 E121.65801
G1 X127.015 Y95.902 E123.66755
G1 X125.601 Y95.902 E123.77572
G1 X145.482 Y115.783 E125.92654
G1 X145.422 Y116.195 E125.95839
G1 X145.241 Y116.956 E126.01823
G1 X124.187 Y95.902 E128.29596
G1 X122.772 Y95.902 E128.4042
G1 X144.877 Y118.007 E130.79563
G1 X144.61 Y118.617 E130.84657
G1 X144.419 Y118.963 E130.8768
G1 X121.358 Y95.902 E133.37166
G1 X119.944 Y95.902 E133.47983
G1 X143.88 Y119.839 E136.06939
G1 X143.699 Y120.109 E136.09426
G1 X143.268 Y120.64 E136.14658
G1 X118.529 Y95.902 E138.82291
G1 X117.115 Y95.902 E138.93108
G1 X142.581 Y121.367 E141.68606
G1 X141.947 Y121.935 E141.75118
G1 X141.824 Y122.025 E141.76284
G1 X115.701 Y95.902 E144.58896
G1 X114.286 Y95.902 E144.6972
G1 X140.994 Y122.61 E147.5866
G1 X140.546 Y122.887 E147.6269
G1 X140.085 Y123.115 E147.66624
G1 X112.872 Y95.902 E150.61028
G1 X111.458 Y95.902 E150.71845
G1 X139.092 Y123.535 E153.70797
G1 X138.955 Y123.59 E153.71927
G1 X138.128 Y123.829 E153.78512
G1 X137.996 Y123.853 E153.79538
G1 X110.044 Y95.902 E156.81932
G1 X108.629 Y95.901 E156.92756
G1 X136.774 Y124.046 E159.97243
G1 X136.466 Y124.079 E159.99612
G1 X135.4 Y124.086 E160.07767
G1 X107.215 Y95.901 E163.12686
G1 X105.8 Y95.901 E163.23511
G1 X133.995 Y124.095 E166.28533
G1 X132.581 Y124.095 E166.3935
G1 X104.386 Y95.901 E169.44372
G1 X102.972 Y95.901 E169.55189
G1 X131.166 Y124.095 E172.60205
G1 X129.752 Y124.095 E172.71022
G1 X101.558 Y95.901 E175.76039
G1 X100.143 Y95.9 E175.86863
G1 X128.338 Y124.095 E178.91891
G1 X126.924 Y124.095 E179.02708
G1 X98.729 Y95.9 E182.07735
G1 X97.314 Y95.9 E182.1856
G1 X125.51 Y124.095 E185.23593
G1 X124.095 Y124.095 E185.34417
G1 X95.9 Y95.9 E188.39445
G1 X94.486 Y95.9 E188.50261
G1 X122.681 Y124.095 E191.55289
G1 X121.267 Y124.095 E191.66106
G1 X93.072 Y95.9 E194.71133
G1 X91.657 Y95.899 E194.81958
G1 X119.853 Y124.095 E197.86996
G1 X118.438 Y124.095 E197.97821
G1 X90.243 Y95.899 E201.02853
G1 X88.828 Y95.899 E201.13678
G1 X117.024 Y124.095 E204.18716
G1 X115.61 Y124.095 E204.29533
G1 X87.414 Y95.899 E207.34571
G1 X86 Y95.899 E207.45388
G1 X114.196 Y124.095 E210.50426
G1 X112.782 Y124.095 E210.61243
G1 X84.586 Y95.899 E213.66282
G1 X84.154 Y95.9 E213.69586
G1 X83.534 Y95.921 E213.74332
G1 X83.225 Y95.952 E213.76708
G1 X111.367 Y124.095 E216.81167
G1 X109.953 Y124.095 E216.91984
G1 X82.003 Y96.145 E219.94361
G1 X81.872 Y96.171 E219.95383
G1 X81.045 Y96.41 E220.01968
G1 X80.907 Y96.463 E220.03099
G1 X108.539 Y124.095 E223.02035
G1 X107.125 Y124.095 E223.12852
G1 X79.913 Y96.884 E226.0724
G1 X79.454 Y97.113 E226.11164
G1 X79.004 Y97.389 E226.15202
G1 X105.711 Y124.095 E229.04126
G1 X104.296 Y124.095 E229.14951
G1 X78.174 Y97.973 E231.97551
G1 X78.057 Y98.061 E231.98671
G1 X77.418 Y98.631 E232.05222
G1 X102.882 Y124.095 E234.80704
G1 X101.468 Y124.095 E234.91521
G1 X76.73 Y99.358 E237.59143
G1 X76.301 Y99.891 E237.64377
G1 X76.118 Y100.16 E237.66866
G1 X100.054 Y124.095 E240.25812
G1 X98.639 Y124.095 E240.36637
G1 X75.579 Y101.035 E242.86111
G1 X75.39 Y101.383 E242.89141
G1 X75.121 Y101.991 E242.94227
G1 X97.225 Y124.095 E245.33359
G1 X95.811 Y124.095 E245.44176
G1 X74.758 Y103.042 E247.71937
G1 X74.578 Y103.803 E247.77919
G1 X74.516 Y104.214 E247.81099
G1 X94.397 Y124.095 E249.96182
G1 X92.983 Y124.095 E250.06998
G1 X74.407 Y105.52 E252.07957
G1 X74.4 Y105.693 E252.09282
G1 X74.401 Y106.928 E252.18729
G1 X91.568 Y124.095 E254.04451
G1 X90.154 Y124.095 E254.15267
G1 X74.405 Y108.346 E255.85648
G1 X74.408 Y109.763 E255.96488
G1 X88.74 Y124.095 E257.51538
G1 X87.326 Y124.095 E257.62355
G1 X74.411 Y111.181 E259.02071
G1 X74.414 Y112.598 E259.12911
G1 X85.912 Y124.095 E260.37296
G1 X84.497 Y124.095 E260.48121
G1 X74.418 Y114.016 E261.5716
G1 X74.42 Y114.955 E261.64344
G1 X74.476 Y115.488 E261.68443
G1 X83.013 Y124.025 E262.60801
G1 X82.303 Y123.922 E262.66289
G1 X81.474 Y123.724 E262.72809
G1 X81.207 Y123.634 E262.74965
G1 X74.862 Y117.289 E263.43608
G1 X74.909 Y117.451 E263.44898
G1 X75.228 Y118.273 E263.51643
G1 X75.61 Y119.04 E263.58198
G1 X76.053 Y119.76 E263.64665
G1 X76.561 Y120.443 E263.71177
G1 X77.218 Y121.177 E263.78712
G1 X77.752 Y121.682 E263.84335
G1 X78.214 Y122.055 E263.88877
G1 X76.441 Y120.282 E264.08058
G0 F600 X76.441 Y120.282 Z0.62
G0 F7200 X81.769 Y124
;TIME_ELAPSED:140.127920

;LAYER:-2
;TYPE:SUPPORT-INTERFACE
G1 F2400 X138.248 Y124 E265.48946
G1 X138.175 Y124.023 E265.49137
G1 X137.328 Y124.188 E265.51289
G1 X136.478 Y124.279 E265.53422
G1 X134.05 Y124.297 E265.59479
G1 X84.059 Y124.297 E266.84182
G1 X83.141 Y124.247 E266.86475
G1 X82.267 Y124.119 E266.88678
G1 X81.411 Y123.914 E266.90874
G1 X80.58 Y123.635 E266.93061
G1 X80.499 Y123.6 E266.93281
G1 X139.489 Y123.6 E268.40432
G1 X139.865 Y123.45 E268.41442
G1 X140.363 Y123.2 E268.42832
G1 X79.628 Y123.2 E269.94336
G1 X79.015 Y122.862 E269.96082
G1 X78.922 Y122.8 E269.96361
G1 X141.065 Y122.8 E271.51377
G1 X141.381 Y122.607 E271.52301
G1 X141.657 Y122.4 E271.53162
G1 X78.329 Y122.4 E273.11134
G1 X78.282 Y122.367 E273.11277
G1 X77.826 Y122 E273.12737
G1 X142.174 Y122 E274.73254
G1 X142.62 Y121.6 E274.74749
G1 X77.373 Y121.6 E276.37508
G1 X77.068 Y121.309 E276.38559
G1 X76.969 Y121.2 E276.38927
G1 X143.029 Y121.2 E278.03714
G1 X143.323 Y120.891 E278.04778
G1 X143.395 Y120.8 E278.05067
G1 X76.61 Y120.8 E279.71663
G1 X76.413 Y120.579 E279.72402
G1 X76.278 Y120.4 E279.72961
G1 X143.719 Y120.4 E281.41193
G1 X143.867 Y120.219 E281.41777
G1 X144.013 Y120 E281.42433
G1 X75.98 Y120 E283.12142
G1 X75.893 Y119.881 E283.1251
G1 X75.719 Y119.6 E283.13334
G1 X144.283 Y119.6 E284.84368
G1 X144.367 Y119.477 E284.8474
G1 X144.518 Y119.2 E284.85527
G1 X75.473 Y119.2 E286.5776
G1 X75.436 Y119.138 E286.5794
G1 X75.267 Y118.8 E286.58883
G1 X144.737 Y118.8 E288.32176
G1 X144.783 Y118.719 E288.32409
G1 X144.923 Y118.4 E288.33278
G1 X75.067 Y118.4 E290.07534
G1 X75.05 Y118.365 E290.07631
G1 X74.907 Y118 E290.08609
G1 X145.099 Y118 E291.83704
G1 X145.135 Y117.92 E291.83923
G1 X145.242 Y117.6 E291.84764
G1 X74.752 Y117.6 E293.60602
G1 X74.72 Y117.517 E293.60824
G1 X74.628 Y117.2 E293.61648
G1 X145.376 Y117.2 E295.38129
G1 X145.414 Y117.089 E295.38422
G1 X145.482 Y116.8 E295.39163
G1 X74.512 Y116.8 E297.16198
G1 X74.476 Y116.672 E297.1653
G1 X74.423 Y116.4 E297.17221
G1 X145.578 Y116.4 E298.94718
G1 X145.621 Y116.224 E298.9517
G1 X145.653 Y116 E298.95734
G1 X74.345 Y116 E300.73613
G1 X74.312 Y115.828 E300.7405
G1 X74.287 Y115.6 E300.74622
G1 X145.712 Y115.6 E302.52792
G1 X145.748 Y115.355 E302.5341
G1 X145.755 Y115.2 E302.53797
G1 X74.244 Y115.2 E304.32182
G1 X74.221 Y114.978 E304.32739
G1 X74.22 Y114.8 E304.33183
G1 X145.775 Y114.8 E306.11677
G1 X145.794 Y114.4 E306.12676
G1 X74.219 Y114.4 E307.91221
G1 X74.218 Y114 E307.92219
G1 X145.8 Y114 E309.70781
G1 X145.799 Y113.6 E309.71778
G1 X74.217 Y113.6 E311.5034
G1 X74.216 Y113.2 E311.51338
G1 X145.798 Y113.2 E313.299
G1 X145.797 Y112.8 E313.30898
G1 X74.216 Y112.8 E315.09458
G1 X74.215 Y112.4 E315.10455
G1 X145.796 Y112.4 E316.89015
G1 X145.795 Y112 E316.90013
G1 X74.214 Y112 E318.68572
G1 X74.213 Y111.6 E318.6957
G1 X145.794 Y111.6 E320.4813
G1 X145.793 Y111.2 E320.49128
G1 X74.212 Y111.2 E322.27687
G1 X74.211 Y110.8 E322.28685
G1 X145.793 Y110.8 E324.07247
G1 X145.792 Y110.4 E324.08245
G1 X74.21 Y110.4 E325.86807
G1 X74.209 Y110 E325.87805
G1 X145.791 Y110 E327.66367
G1 X145.79 Y109.6 E327.67364
G1 X74.208 Y109.6 E329.45926
G1 X74.207 Y109.2 E329.46924
G1 X145.789 Y109.2 E331.25486
G1 X145.788 Y108.8 E331.26484
G1 X74.207 Y108.8 E333.05044
G1 X74.206 Y108.4 E333.06041
G1 X145.787 Y108.4 E334.84601
G1 X145.786 Y108 E334.85599
G1 X74.205 Y108 E336.64158
G1 X74.204 Y107.6 E336.65156
G1 X145.785 Y107.6 E338.43716
G1 X145.784 Y107.2 E338.44713
G1 X74.203 Y107.2 E340.23273
G1 X74.202 Y106.8 E340.24271
G1 X145.784 Y106.8 E342.02833
G1 X145.783 Y106.4 E342.03831
G1 X74.201 Y106.4 E343.82393
G1 X74.2 Y106 E343.8339
G1 X145.782 Y106 E345.61953
G1 X145.781 Y105.6 E345.6295
G1 X74.205 Y105.6 E347.41497
G1 X74.225 Y105.2 E347.42496
G1 X145.78 Y105.2 E349.20991
G1 X145.779 Y105.022 E349.21435
G1 X145.756 Y104.8 E349.21992
