;FLAVOR:Marlin
;TIME:1593
;Filament used:0.335987m
;Layer height: 0.1
;MINX:103.08
;MINY:103.091
;MINZ:0.1
;MAXX:116.92
;MAXY:116.908
;MAXZ:13.4
                             
;Creality Print GCode Generated by CXEngine:NO_MAGE_VERSION_GIT_HEAD_BRANCH
;CXEngine Release Time:2022-09-30 09:53:04
;Gcode Generated Time:2023-05-11 04:17:53
;----------Machine Config--------------
;Machine Name:Ender-3 V2
;Machine Height:250
;Machine Width:220
;Machine Depth:220
;Material name:PLA
;Number of Extruders:1
;ExtruderParams[0] Nozzle Diameter1000
;----------Profile Config---------------
;Engine Version:275f99b
;Engine Release Time:2022-09-30 09:42:18
;Layer Height:0.1
;Wall Thickness:0.8
;Top/Bottom Thickness:0.5
;Out Wall Line Width:0.4
;Inner Wall Line Width:0.4
;Inital Layer Height:100
;Wall Line Count:2
;Infill Line Distance:4
;Infill Pattern:grid
;Infill Sparse Density:20
;Infill Wipe Distance:0
;Print Temperature:200
;Bed Temperature:60
;Support Enable:true
;Support Density:0
;Support Angle:60
;Adhesion Type:none
;machine is belt:false
;machine belt offset:10
;machine belt offset Y:0
;Raft Base Line Spacing:1.6
;Wait Heatup Sync:true
;----------Shell Config----------------
;Outer Wall Wipe Distance:200
;Outer Inset First:false
;Infill Before Walls:false
;Infill Overlap:0.16
;Fill Gaps Between Walls:everywhere
;Minimum Infill Area:1
;Top Surface Skin Layer:0
;Top Layers:4
;Z Seam Alignment:sharpest_corner
;Seam Corner Preference:z_seam_corner_inner
;Z Seam X:110
;Z Seam Y:110
;Horizontal Expansion:0
;Top/Bottom Pattern:zigzag
;Ironing Pattern:zigzag
;Vase Model:false
;----------Support Config----------------
;Support Type:everywhere
;Support Pattern:zigzag
;Support Infill Layer Thickness:0.1
;Minimum Support Area:5
;Enable Support Roof:false
;Support Roof Thickness:0.8
;Support Roof Pattern:lines
;Connect Support Lines:0
;Connect Support ZigZags:1
;Minimum Support X/Y Distance:0.2
;Support Line Distance:0
; ---------PrintSpeed & Travel----------
;Enable Print Cool:true
;Avoid Printed Parts Traveling:true
;Enable Retraction:true
;Retraction Distance:8
;Retraction Speed:100
;Retraction Prime Speed:100
;Maximum Retraction Count:100
;Minimum Extrusion Distance Window:1
;Z Hop When Retracted:false
;Z Hop Height:0.2
;Retract Before Outer Wall:true
;Print Speed:50
;Infill Speed:50

;Prime Tower Speed:50
;Travel Speed:120
;Initial Layer Speed:25
;Skirt/Brim Speed:25
;Combing Mode:infill
; --------SpecialModel&Mesh Fixes--------
;Union Overlapping Volum:true
;Remove All Holes:false
;Maximum Travel Resolution:0.6
;Maximum Deviation:0.05
;Maximum Model Angle:0.872665
;IS Mold Print:false
;Make Overhang Printable:false
;Enable Coasting:false
;Coasting Volumes:0.06
;Coasting Speed:0.9
;Raft AirGap:0.25
;Layer0 ZOverLap:0.13
;---------------------End of Head--------------------------
M140 S60
M105
M104 S200
M105
M109 S200
M105
M190 S60
M82 ;absolute extrusion mode
M220 S100 ;Reset Feedrate
M221 S100 ;Reset Flowrate

G28 ;Home

G92 E0 ;Reset Extruder
G1 Z2.0 F3000 ;Move Z Axis up
G1 X10.1 Y20 Z0.28 F5000.0 ;Move to start position
G1 X10.1 Y145.0 Z0.28 F1500.0 E15 ;Draw the first line
G1 X10.4 Y145.0 Z0.28 F5000.0 ;Move to side a little
G1 X10.4 Y20 Z0.28 F1500.0 E30 ;Draw the second line
G92 E0  ;Reset Extruder
G1 E-1.0000 F1800 ;Retract a bit
G1 Z2.0 F3000 ;Move Z Axis up
G1 E0.0000 F1800 

G92 E0
G92 E0
G1 F6000 E-8

;LAYER_COUNT:134

;LAYER:0
M107
G0 F3600 X109.824 Y109.984 Z0.1
;TYPE:SUPPORT
G1 F6000 E0
G1 F1500 X109.973 Y109.843 E0.003
G1 X110.135 Y110.011 E0.00642
G1 X109.95 Y110.149 E0.0098
G1 X109.824 Y109.984 E0.01283
;MESH:
G0 F3600 X108.555 Y111.171
;TYPE:WALL-INNER
G1 F600 X109.029 Y111.584 E0.02433
G1 X109.611 Y111.817 E0.0358
G1 X110.239 Y111.844 E0.0473
G1 X110.841 Y111.658 E0.05883
G1 X111.343 Y111.283 E0.07029
G1 X111.695 Y110.763 E0.08178
G1 X111.851 Y110.156 E0.09324
G1 X111.799 Y109.532 E0.1047
G1 X111.539 Y108.956 E0.11626
G1 X111.101 Y108.503 E0.12778
G1 X110.541 Y108.223 E0.13924
G1 X109.918 Y108.142 E0.15073
G1 X109.303 Y108.277 E0.16225
G1 X108.77 Y108.608 E0.17372
G1 X108.376 Y109.095 E0.18518
G1 X108.177 Y109.665 E0.19623
G1 X108.146 Y110.026 E0.20286
G1 X108.248 Y110.621 E0.2139
G1 X108.555 Y111.171 E0.22542
G0 F3600 X108.87 Y110.915
;TYPE:WALL-OUTER
G1 F600 X109.241 Y111.238 E0.23442
G1 X109.696 Y111.42 E0.24338
G1 X110.187 Y111.441 E0.25237
G1 X110.657 Y111.296 E0.26137
G1 X111.05 Y111.003 E0.27034
G1 X111.325 Y110.596 E0.27932
G1 X111.447 Y110.122 E0.28828
G1 X111.406 Y109.634 E0.29724
G1 X111.203 Y109.184 E0.30627
G1 X110.861 Y108.83 E0.31527
G1 X110.423 Y108.611 E0.32423
G1 X109.936 Y108.548 E0.33321
G1 X109.456 Y108.653 E0.3422
G1 X109.039 Y108.912 E0.35118
G1 X108.731 Y109.293 E0.36014
G1 X108.571 Y109.749 E0.36898
G1 X108.549 Y110.009 E0.37376
G1 X108.631 Y110.486 E0.38261
G1 X108.87 Y110.915 E0.39159
G0 F3600 X109.021 Y111.046
G0 X108.732 Y111.378
;;retract;;
G1 F6000 E-7.60841
G0 F3600 X105.497 Y115.24
G0 X104.694 Y114.442
G0 X104.216 Y113.799
G0 X103.816 Y113.103
G0 X103.496 Y112.362
G0 X103.265 Y111.588
G0 X103.126 Y110.798
G0 X103.08 Y109.993
G0 X103.128 Y109.186
G0 X103.268 Y108.4
G0 X103.5 Y107.626
G0 X103.821 Y106.886
G0 X104.223 Y106.189
G0 X104.702 Y105.548
G0 X105.255 Y104.961
G0 X105.87 Y104.447
G0 X106.544 Y104.005
G0 X107.269 Y103.642
G0 X108.018 Y103.37
G0 X108.806 Y103.184
G0 X109.607 Y103.092
G0 X111.127 Y103.177
G0 X110.98 Y104.437
;TYPE:WALL-INNER
G1 F6000 E0.39159
G1 F1500 X111.62 Y104.589 E0.40363
G1 X112.233 Y104.812 E0.41556
G1 X112.83 Y105.11 E0.42777
G1 X113.374 Y105.469 E0.43969
G1 X113.881 Y105.894 E0.45179
G1 X114.325 Y106.366 E0.46364
G1 X114.716 Y106.891 E0.47562
G1 X115.048 Y107.466 E0.48777
G1 X115.308 Y108.068 E0.49976
G1 X115.497 Y108.699 E0.51181
G1 X115.611 Y109.342 E0.52376
G1 X115.649 Y110 E0.53581
G1 X115.612 Y110.654 E0.5478
G1 X115.497 Y111.303 E0.55985
G1 X115.308 Y111.932 E0.57187
G1 X115.048 Y112.534 E0.58386
G1 X114.716 Y113.109 E0.59601
G1 X114.325 Y113.634 E0.60798
G1 X113.881 Y114.106 E0.61984
G1 X113.374 Y114.531 E0.63194
G1 X112.83 Y114.89 E0.64386
G1 X112.233 Y115.188 E0.65607
G1 X111.62 Y115.411 E0.668
G1 X110.98 Y115.563 E0.68004
G1 X110.329 Y115.639 E0.69202
G1 X109.671 Y115.639 E0.70406
G1 X109.02 Y115.563 E0.71605
G1 X108.38 Y115.411 E0.72808
G1 X107.766 Y115.188 E0.74003
G1 X107.171 Y114.89 E0.75221
G1 X106.626 Y114.531 E0.76415
G1 X106.119 Y114.106 E0.77625
G1 X105.675 Y113.634 E0.7881
G1 X105.284 Y113.109 E0.80008
G1 X104.952 Y112.534 E0.81222
G1 X104.692 Y111.932 E0.82422
G1 X104.503 Y111.303 E0.83623
G1 X104.388 Y110.654 E0.84829
G1 X104.351 Y110 E0.86027
G1 X104.389 Y109.342 E0.87233
G1 X104.503 Y108.699 E0.88428
G1 X104.692 Y108.068 E0.89633
G1 X104.952 Y107.466 E0.90832
G1 X105.284 Y106.891 E0.92047
G1 X105.675 Y106.366 E0.93244
G1 X106.119 Y105.894 E0.9443
G1 X106.626 Y105.469 E0.9564
G1 X107.171 Y105.11 E0.96834
G1 X107.766 Y104.812 E0.98051
G1 X108.38 Y104.589 E0.99246
G1 X109.02 Y104.437 E1.00449
G1 X109.671 Y104.361 E1.01648
G1 X110.329 Y104.361 E1.02852
G1 X110.98 Y104.437 E1.04051
G0 F3600 X111.05 Y104.043
;TYPE:WALL-OUTER
G1 F1500 X111.739 Y104.206 E1.05346
G1 X112.392 Y104.444 E1.06617
G1 X113.028 Y104.762 E1.07918
G1 X113.616 Y105.15 E1.09207
G1 X114.152 Y105.599 E1.10486
G1 X114.635 Y106.112 E1.11775
G1 X115.053 Y106.673 E1.13055
G1 X115.404 Y107.282 E1.14341
G1 X115.684 Y107.93 E1.15632
G1 X115.887 Y108.607 E1.16925
G1 X116.008 Y109.293 E1.18199
G1 X116.049 Y110 E1.19495
G1 X116.009 Y110.705 E1.20786
G1 X115.887 Y111.393 E1.22065
G1 X115.684 Y112.07 E1.23357
G1 X115.404 Y112.718 E1.24649
G1 X115.053 Y113.327 E1.25935
G1 X114.635 Y113.888 E1.27214
G1 X114.152 Y114.401 E1.28503
G1 X113.616 Y114.85 E1.29782
G1 X113.028 Y115.238 E1.31071
G1 X112.392 Y115.556 E1.32372
G1 X111.739 Y115.794 E1.33643
G1 X111.05 Y115.957 E1.34938
G1 X110.349 Y116.039 E1.3623
G1 X109.651 Y116.039 E1.37506
G1 X108.95 Y115.957 E1.38797
G1 X108.261 Y115.794 E1.40093
G1 X107.607 Y115.556 E1.41366
G1 X106.973 Y115.238 E1.42663
G1 X106.384 Y114.85 E1.43953
G1 X105.848 Y114.401 E1.45233
G1 X105.365 Y113.888 E1.46521
G1 X104.947 Y113.327 E1.47801
G1 X104.596 Y112.718 E1.49087
G1 X104.316 Y112.07 E1.50378
G1 X104.113 Y111.393 E1.51671
G1 X103.991 Y110.705 E1.5295
G1 X103.951 Y110 E1.54241
G1 X103.992 Y109.293 E1.55537
G1 X104.113 Y108.607 E1.56811
G1 X104.316 Y107.93 E1.58104
G1 X104.596 Y107.282 E1.59395
G1 X104.947 Y106.673 E1.60681
G1 X105.365 Y106.112 E1.61961
G1 X105.848 Y105.599 E1.6325
G1 X106.384 Y105.15 E1.64529
G1 X106.973 Y104.762 E1.65819
G1 X107.607 Y104.444 E1.67117
G1 X108.261 Y104.206 E1.6839
G1 X108.95 Y104.043 E1.69685
G1 X109.651 Y103.961 E1.70976
G1 X110.349 Y103.961 E1.72253
G1 X111.05 Y104.043 E1.73544
G0 F3600 X111.244 Y104.089
G0 X111.142 Y104.516
;;retract;;
G1 F6000 E-6.26456
G0 F3600 X111.443 Y103.243
G0 X112.741 Y103.648
G0 X113.469 Y104.012
G0 X114.14 Y104.455
G0 X114.755 Y104.97
G0 X115.722 Y106.117
G0 X114.511 Y107.017
;TYPE:SKIN
G1 F6000 E1.73544
G1 F600 X114.143 Y106.523 E1.74671
G1 X113.712 Y106.066 E1.7582
G1 X113.231 Y105.662 E1.76969
G1 X112.709 Y105.319 E1.78112
G1 X112.637 Y105.283 E1.78259
G1 X112.139 Y105.034 E1.79277
G1 X111.64 Y104.852 E1.80249
G1 X115.142 Y108.354 E1.89309
G1 X115.261 Y108.753 E1.90071
G1 X115.324 Y109.102 E1.90719
G1 F1500 X110.892 Y104.669 E2.02186
G1 F600 X110.309 Y104.601 E2.0326
G1 X110.258 Y104.601 E2.03353
G1 F1500 X115.392 Y109.735 E2.16635
G1 F600 X115.407 Y109.998 E2.17117
G1 X115.391 Y110.3 E2.1767
G1 F1500 X109.692 Y104.601 E2.32414
G0 F3600 X109.689 Y104.6
G1 F600 X109.185 Y104.66 E2.33342
G1 F1500 X115.34 Y110.814 E2.49264
G1 F600 X115.264 Y111.239 E2.50054
G1 X115.249 Y111.29 E2.50151
G1 F1500 X108.716 Y104.756 E2.67054
G1 F600 X108.447 Y104.82 E2.67559
G1 X108.277 Y104.883 E2.67891
G1 F1500 X115.118 Y111.724 E2.85589
G1 F600 X115.08 Y111.85 E2.8583
G1 X114.959 Y112.13 E2.86388
G1 X111.816 Y108.987 E2.94519
G1 X112.033 Y109.47 E2.95487
G1 X112.06 Y109.797 E2.96088
G1 X114.779 Y112.516 E3.03122
G1 X114.573 Y112.876 E3.0388
G1 X112.046 Y110.349 E3.10418
G1 X111.932 Y110.8 E3.11269
G1 X114.341 Y113.21 E3.17502
G1 X114.143 Y113.475 E3.18107
G1 X114.094 Y113.528 E3.18239
G1 X111.719 Y111.153 E3.24384
G1 X111.518 Y111.45 E3.2504
G1 X111.48 Y111.48 E3.25128
G1 X113.82 Y113.82 E3.31182
G1 X113.712 Y113.933 E3.31468
G1 X113.524 Y114.09 E3.31916
G1 X111.155 Y111.721 E3.38045
G1 X110.95 Y111.874 E3.38512
G1 X110.792 Y111.923 E3.38815
G1 X113.215 Y114.346 E3.45083
G1 X112.874 Y114.571 E3.45831
G1 X110.359 Y112.056 E3.52337
G1 X110.269 Y112.084 E3.5251
G1 X109.801 Y112.064 E3.53367
G1 X112.514 Y114.777 E3.60385
G1 X112.14 Y114.965 E3.61151
G0 F3600 X112.137 Y114.966
G1 F600 X109.004 Y111.832 E3.69257
G0 F3600 X108.902 Y111.791
G1 F600 X108.364 Y111.324 E3.70561
G1 X108.2 Y111.029 E3.71178
G1 X108.019 Y110.701 E3.71863
G1 X107.932 Y110.195 E3.72803
G1 X105.219 Y107.482 E3.79821
G1 X105.426 Y107.123 E3.80579
G1 X107.939 Y109.636 E3.8708
G1 X107.941 Y109.614 E3.87121
G1 X108.081 Y109.213 E3.87898
G1 X105.657 Y106.788 E3.9417
G1 X105.856 Y106.523 E3.94776
G1 X105.904 Y106.47 E3.94907
G1 X108.274 Y108.839 E4.01037
G1 X108.526 Y108.526 E4.01772
G1 X106.179 Y106.179 E4.07844
G1 X106.286 Y106.066 E4.08129
G1 X106.474 Y105.909 E4.08577
G1 X108.844 Y108.278 E4.14707
G1 X109.193 Y108.062 E4.15457
G1 X106.783 Y105.652 E4.21692
G1 X107.124 Y105.427 E4.2244
G1 X109.651 Y107.953 E4.28976
G1 X109.906 Y107.898 E4.29453
G1 X110.198 Y107.935 E4.29991
G1 X107.484 Y105.221 E4.37012
G1 X107.862 Y105.033 E4.37785
G1 X111.024 Y108.195 E4.45965
G0 F3600 X111.244 Y108.306
G1 F600 X111.74 Y108.818 E4.47269
G1 X111.816 Y108.987 E4.47608
G0 F3600 X114.702 Y107.348
G1 F600 X112.637 Y105.283 E4.5295
;;retract;;
G1 F6000 E-3.4705
G0 F3600 X113.311 Y103.933
G0 X112.741 Y103.648
G0 X111.995 Y103.374
G0 X111.206 Y103.187
G0 X110.394 Y103.092
G0 X109.607 Y103.092
G0 X108.806 Y103.184
G0 X108.018 Y103.37
G0 X107.269 Y103.642
G0 X106.544 Y104.005
G0 X105.87 Y104.447
G0 X105.255 Y104.961
G0 X104.702 Y105.548
G0 X104.223 Y106.189
G0 X103.821 Y106.886
G0 X103.5 Y107.626
G0 X103.268 Y108.4
G0 X103.128 Y109.186
G0 X103.08 Y109.993
G0 X103.126 Y110.798
G0 X103.265 Y111.588
G0 X103.451 Y112.214
G0 X104.01 Y113.439
G0 X108.2 Y111.029
G1 F6000 E4.5295
G1 F600 X105.04 Y107.868 E4.61126
G1 X104.918 Y108.151 E4.6169
G1 X104.88 Y108.275 E4.61927
G1 F1500 X111.722 Y115.116 E4.79627
G1 F600 X111.551 Y115.179 E4.7996
G1 X111.283 Y115.242 E4.80464
G1 F1500 X104.75 Y108.709 E4.97365
G1 F600 X104.736 Y108.757 E4.97456
G1 X104.659 Y109.185 E4.98252
G1 F1500 X110.813 Y115.339 E5.14172
G1 F600 X110.31 Y115.398 E5.15099
G0 F3600 X110.306 Y115.397
G1 F1500 X104.608 Y109.699 E5.2984
G1 F600 X104.591 Y110.001 E5.30393
G1 X104.605 Y110.262 E5.30871
G1 F1500 X109.74 Y115.397 E5.44156
G1 F600 X109.689 Y115.397 E5.44249
G1 X109.107 Y115.329 E5.45321
G1 F1500 X104.673 Y110.896 E5.5679
G1 F600 X104.735 Y111.239 E5.57428
G1 X104.857 Y111.645 E5.58203
G1 X108.358 Y115.146 E5.67261
G1 X107.862 Y114.966 E5.68226
G1 X107.362 Y114.716 E5.69248
G1 X107.285 Y114.677 E5.69406
G1 X106.767 Y114.336 E5.70541
G1 X106.286 Y113.933 E5.71689
G1 X105.856 Y113.475 E5.72838
G1 X105.487 Y112.981 E5.73966
G0 F3600 X105.298 Y112.652
G1 F600 X107.362 Y114.716 E5.79306
;MESH:NONMESH
G0 X107.362 Y114.716 Z0.2
G0 F3600 X109.973 Y109.843
;TIME_ELAPSED:30.941237

;LAYER:1
M140 S60
M106 S127.5
;TYPE:SUPPORT
G1 F2250 X110.135 Y110.011 E5.79616
G1 X109.95 Y110.149 E5.79923
G1 X109.824 Y109.984 E5.80199
G1 X109.973 Y109.843 E5.80472
;MESH:
G0 F5400 X108.56 Y111.175
;TYPE:WALL-INNER
G1 F600 X109.035 Y111.586 E5.81517
G1 X109.617 Y111.819 E5.82559
G1 X110.246 Y111.842 E5.83606
G1 X110.845 Y111.655 E5.8465
G1 X111.347 Y111.279 E5.85693
G1 X111.696 Y110.758 E5.86736
G1 X111.851 Y110.154 E5.87773
G1 X111.799 Y109.531 E5.88812
G1 X111.535 Y108.952 E5.8987
G1 X111.097 Y108.5 E5.90917
G1 X110.536 Y108.222 E5.91958
G1 X109.913 Y108.144 E5.93003
G1 X109.298 Y108.279 E5.9405
G1 X108.765 Y108.612 E5.95095
G1 X108.373 Y109.102 E5.96138
G1 X108.175 Y109.67 E5.97139
G1 X108.146 Y110.027 E5.97734
G1 X108.251 Y110.626 E5.98746
G1 X108.56 Y111.175 E5.99793
G0 F5400 X108.874 Y110.918
;TYPE:WALL-OUTER
G1 F600 X109.246 Y111.24 E6.00612
G1 X109.701 Y111.422 E6.01426
G1 X110.192 Y111.44 E6.02244
G1 X110.66 Y111.294 E6.03059
G1 X111.053 Y111 E6.03875
G1 X111.326 Y110.592 E6.04691
G1 X111.447 Y110.12 E6.05502
G1 X111.406 Y109.634 E6.06313
G1 X111.2 Y109.181 E6.0714
G1 X110.858 Y108.828 E6.07958
G1 X110.419 Y108.61 E6.08773
G1 X109.932 Y108.549 E6.09589
G1 X109.451 Y108.655 E6.10408
G1 X109.035 Y108.915 E6.11224
G1 X108.728 Y109.298 E6.1204
G1 X108.57 Y109.753 E6.12841
G1 X108.549 Y110.009 E6.13268
G1 X108.633 Y110.49 E6.1408
G1 X108.874 Y110.918 E6.14897
G0 F5400 X109.025 Y111.048
G0 X108.737 Y111.38
;;retract;;
G1 F6000 E-1.85103
G0 F5400 X105.5 Y115.243
G0 X104.694 Y114.442
G0 X104.216 Y113.799
G0 X103.816 Y113.103
G0 X103.496 Y112.362
G0 X103.265 Y111.588
G0 X103.126 Y110.798
G0 X103.08 Y109.994
G0 X103.127 Y109.188
G0 X103.268 Y108.399
G0 X103.5 Y107.626
G0 X103.821 Y106.886
G0 X104.223 Y106.189
G0 X104.702 Y105.548
G0 X105.255 Y104.961
G0 X105.87 Y104.447
G0 X106.544 Y104.005
G0 X107.269 Y103.642
G0 X108.018 Y103.37
G0 X108.806 Y103.184
G0 X109.607 Y103.092
G0 X111.127 Y103.177
G0 X110.98 Y104.437
;TYPE:WALL-INNER
G1 F6000 E6.14897
G1 F1500 X111.62 Y104.589 E6.15991
G1 X112.233 Y104.812 E6.17076
G1 X112.83 Y105.11 E6.18186
G1 X113.374 Y105.469 E6.1927
G1 X113.881 Y105.894 E6.2037
G1 X114.325 Y106.366 E6.21447
G1 X114.716 Y106.891 E6.22536
G1 X115.048 Y107.466 E6.2364
G1 X115.308 Y108.068 E6.24731
G1 X115.497 Y108.697 E6.25823
G1 X115.612 Y109.346 E6.26919
G1 X115.649 Y110 E6.28008
G1 X115.612 Y110.654 E6.29098
G1 X115.497 Y111.303 E6.30194
G1 X115.308 Y111.932 E6.31286
G1 X115.048 Y112.534 E6.32377
G1 X114.716 Y113.109 E6.33481
G1 X114.325 Y113.634 E6.34569
G1 X113.881 Y114.106 E6.35647
G1 X113.374 Y114.531 E6.36747
G1 X112.83 Y114.89 E6.37831
G1 X112.233 Y115.188 E6.38941
G1 X111.62 Y115.411 E6.40026
G1 X110.98 Y115.563 E6.4112
G1 X110.329 Y115.639 E6.42209
G1 X109.671 Y115.639 E6.43304
