;FLAVOR:Marlin
;TIME:1914
;Filament used:0.481129m
;Layer height: 0.1
;MINX:90.004
;MINY:100.23
;MINZ:0.1
;MAXX:130.509
;MAXY:119.766
;MAXZ:7.7
                              
;Creality Print GCode Generated by CXEngine:NO_MAGE_VERSION_GIT_HEAD_BRANCH
;CXEngine Release Time:2022-09-30 09:53:04
;Gcode Generated Time:2023-05-09 02:01:38
;----------Machine Config--------------
;Machine Name:Ender-3 V2
;Machine Height:250
;Machine Width:220
;Machine Depth:220
;Material name:PLA
;Number of Extruders:1
;ExtruderParams[0] Nozzle Diameter1000
;----------Profile Config---------------
;Engine Version:275f99b
;Engine Release Time:2022-09-30 09:42:18
;Layer Height:0.1
;Wall Thickness:0.8
;Top/Bottom Thickness:0.5
;Out Wall Line Width:0.4
;Inner Wall Line Width:0.4
;Inital Layer Height:100
;Wall Line Count:2
;Infill Line Distance:4
;Infill Pattern:grid
;Infill Sparse Density:20
;Infill Wipe Distance:0
;Print Temperature:200
;Bed Temperature:60
;Support Enable:true
;Support Density:0
;Support Angle:60
;Adhesion Type:none
;machine is belt:false
;machine belt offset:10
;machine belt offset Y:0
;Raft Base Line Spacing:1.6
;Wait Heatup Sync:true
;----------Shell Config----------------
;Outer Wall Wipe Distance:200
;Outer Inset First:false
;Infill Before Walls:false
;Infill Overlap:0.16
;Fill Gaps Between Walls:everywhere
;Minimum Infill Area:1
;Top Surface Skin Layer:0
;Top Layers:4
;Z Seam Alignment:sharpest_corner
;Seam Corner Preference:z_seam_corner_inner
;Z Seam X:110
;Z Seam Y:110
;Horizontal Expansion:0
;Top/Bottom Pattern:zigzag
;Ironing Pattern:zigzag
;Vase Model:false
;----------Support Config----------------
;Support Type:everywhere
;Support Pattern:zigzag
;Support Infill Layer Thickness:0.1
;Minimum Support Area:5
;Enable Support Roof:false
;Support Roof Thickness:0.8
;Support Roof Pattern:lines
;Connect Support Lines:0
;Connect Support ZigZags:1
;Minimum Support X/Y Distance:0.2
;Support Line Distance:0
; ---------PrintSpeed & Travel----------
;Enable Print Cool:true
;Avoid Printed Parts Traveling:true
;Enable Retraction:true
;Retraction Distance:8
;Retraction Speed:100
;Retraction Prime Speed:100
;Maximum Retraction Count:100
;Minimum Extrusion Distance Window:1
;Z Hop When Retracted:false
;Z Hop Height:0.2
;Retract Before Outer Wall:true
;Print Speed:50
;Infill Speed:50

;Prime Tower Speed:50
;Travel Speed:120
;Initial Layer Speed:25
;Skirt/Brim Speed:25
;Combing Mode:infill
; --------SpecialModel&Mesh Fixes--------
;Union Overlapping Volum:true
;Remove All Holes:false
;Maximum Travel Resolution:0.6
;Maximum Deviation:0.05
;Maximum Model Angle:0.872665
;IS Mold Print:false
;Make Overhang Printable:false
;Enable Coasting:false
;Coasting Volumes:0.06
;Coasting Speed:0.9
;Raft AirGap:0.25
;Layer0 ZOverLap:0.13
;---------------------End of Head--------------------------
M140 S60
M105
M104 S200
M105
M109 S200
M105
M190 S60
M82 ;absolute extrusion mode
M220 S100 ;Reset Feedrate
M221 S100 ;Reset Flowrate

G28 ;Home

G92 E0 ;Reset Extruder
G1 Z2.0 F3000 ;Move Z Axis up
G1 X10.1 Y20 Z0.28 F5000.0 ;Move to start position
G1 X10.1 Y145.0 Z0.28 F1500.0 E15 ;Draw the first line
G1 X10.4 Y145.0 Z0.28 F5000.0 ;Move to side a little
G1 X10.4 Y20 Z0.28 F1500.0 E30 ;Draw the second line
G92 E0  ;Reset Extruder
G1 E-1.0000 F1800 ;Retract a bit
G1 Z2.0 F3000 ;Move Z Axis up
G1 E0.0000 F1800 

G92 E0
G92 E0
G1 F6000 E-8

;LAYER_COUNT:77

;LAYER:0
M107
G0 F3600 X92.595 Y102.733 Z0.1
;TYPE:SUPPORT
G1 F6000 E0
G1 F1500 X96.239 Y102.733 E0.05333
G1 X96.581 Y102.981 E0.05951
G1 X97.528 Y102.749 E0.07378
G1 X97.839 Y102.975 E0.07941
G1 X98.777 Y102.749 E0.09353
G1 X99.175 Y103.038 E0.10072
G1 X100.196 Y102.752 E0.11624
G1 X100.533 Y102.997 E0.12234
G1 X101.501 Y102.75 E0.13696
G1 X101.93 Y103.062 E0.14472
G1 X102.983 Y102.753 E0.16078
G1 X103.329 Y103.004 E0.16704
G1 X104.348 Y102.177 E0.18624
G1 X105.303 Y101.296 E0.20526
G1 X105.898 Y101.296 E0.21396
G1 X106.378 Y101.645 E0.22265
G1 X106.523 Y102.733 E0.23871
G1 X108.225 Y102.733 E0.26362
G1 X108.582 Y102.992 E0.27007
G1 X109.543 Y102.75 E0.28458
G1 X109.941 Y103.039 E0.29178
G1 X110.964 Y102.752 E0.30732
G1 X111.255 Y102.964 E0.31259
G1 X112.178 Y102.749 E0.32646
G1 X112.496 Y102.979 E0.33221
G1 X113.388 Y102.207 E0.34947
G1 X113.932 Y101.811 E0.35932
G1 X114.536 Y101.811 E0.36816
G1 X115.028 Y102.169 E0.37706
G1 X115.262 Y102.89 E0.38815
G1 X116.158 Y102.744 E0.40144
G1 X116.489 Y102.983 E0.40741
G1 X117.438 Y102.749 E0.42172
G1 X117.774 Y102.994 E0.4278
G1 X118.738 Y102.75 E0.44236
G1 X119.071 Y102.992 E0.44838
G1 X120.099 Y102.733 E0.46389
G1 X121.066 Y102.733 E0.47805
G1 X121.385 Y102.965 E0.48382
G1 X122.378 Y102.733 E0.49874
G1 X124.521 Y102.733 E0.5301
G1 X125.64 Y102.868 E0.5466
G1 X127.222 Y102.733 E0.56983
G1 X127.81 Y102.733 E0.57844
G1 X128.367 Y103.5 E0.59231
G1 X127.81 Y104.267 E0.60618
G1 X121.791 Y104.267 E0.69427
G1 X121.473 Y104.035 E0.70003
G1 X120.48 Y104.267 E0.71495
G1 X119.512 Y104.267 E0.72912
G1 X119.155 Y104.008 E0.73557
G1 X118.193 Y104.25 E0.75009
G1 X117.858 Y104.006 E0.75616
G1 X116.895 Y104.25 E0.77069
G1 X116.573 Y104.017 E0.77651
G1 X115.624 Y104.251 E0.79081
G1 X115.225 Y103.961 E0.79803
G1 X114.202 Y104.248 E0.81358
G1 X113.813 Y103.966 E0.82061
G1 X112.904 Y104.171 E0.83425
G1 X112.636 Y103.977 E0.83909
G1 X111.635 Y104.249 E0.85427
G1 X111.343 Y104.036 E0.85956
G1 X110.419 Y104.251 E0.87345
G1 X110.019 Y103.961 E0.88068
G1 X108.995 Y104.248 E0.89624
G1 X108.666 Y104.008 E0.9022
G1 X107.705 Y104.25 E0.9167
G1 X107.369 Y104.005 E0.92279
G1 X106.343 Y104.266 E0.93828
G1 X105.269 Y104.211 E0.95402
G1 X104.804 Y103.873 E0.96243
G1 X103.74 Y104.19 E0.97868
G1 X103.441 Y103.973 E0.98408
G1 X102.433 Y104.249 E0.99938
G1 X102.006 Y103.938 E1.00711
G1 X100.953 Y104.247 E1.02317
G1 X100.617 Y104.003 E1.02925
G1 X99.649 Y104.25 E1.04387
G1 X99.253 Y103.962 E1.05103
G1 X98.231 Y104.248 E1.06656
G1 X97.925 Y104.025 E1.0721
G1 X96.987 Y104.251 E1.08622
G1 X96.667 Y104.019 E1.09201
G1 X95.654 Y104.267 E1.10727
G1 X92.595 Y104.267 E1.15204
G1 X92.038 Y103.5 E1.16591
G1 X92.595 Y102.733 E1.17978
;;retract;;
G1 F6000 E-6.82022
G0 F3600 X92.595 Y101.863
G0 X90.971 Y103.5
G0 X90.334 Y105.641
G0 X90.377 Y109.499
G0 X90.803 Y110.665
G0 X91.804 Y112.033
G0 X129.159 Y112.034
G0 X129.666 Y112.541
G0 X129.666 Y114.359
G0 X129.159 Y114.866
G0 X116.271 Y114.851
G0 X114.913 Y114.894
G0 X114.94 Y115.763
G1 F6000 E1.17978
G1 F1500 X115.32 Y116.039 E1.18666
G1 X116.342 Y115.752 E1.20219
G1 X116.634 Y115.965 E1.20748
G1 X117.56 Y115.749 E1.2214
G1 X117.958 Y116.038 E1.22859
G1 X118.98 Y115.752 E1.24412
G1 X119.316 Y115.996 E1.2502
G1 X120.283 Y115.75 E1.2648
G1 X120.679 Y116.038 E1.27197
G1 X121.701 Y115.752 E1.2875
G1 X121.982 Y115.956 E1.29258
G1 X122.896 Y115.748 E1.3063
G1 X123.196 Y115.966 E1.31173
G1 X124.19 Y115.733 E1.32667
G1 X127.772 Y115.733 E1.37909
G1 X128.329 Y116.5 E1.39296
G1 X127.772 Y117.267 E1.40683
G1 X126.558 Y117.267 E1.4246
G1 X125.423 Y117.117 E1.44135
G1 X124.578 Y117.267 E1.45391
G1 X123.603 Y117.267 E1.46818
G1 X123.283 Y117.034 E1.47397
G1 X122.356 Y117.251 E1.48791
G1 X122.07 Y117.044 E1.49307
G1 X121.156 Y117.252 E1.50679
G1 X120.757 Y116.962 E1.51401
G1 X119.735 Y117.248 E1.52954
G1 X119.4 Y117.004 E1.53561
G1 X118.432 Y117.25 E1.55022
G1 X118.036 Y116.962 E1.55739
G1 X117.014 Y117.248 E1.57292
G1 X116.722 Y117.035 E1.57821
G1 X115.797 Y117.251 E1.59211
G1 X115.436 Y116.989 E1.59864
G1 X114.413 Y117.276 E1.61419
G1 X114.166 Y117.097 E1.61865
G1 X113.295 Y118.062 E1.63768
G1 X112.705 Y118.608 E1.64944
G1 X112.12 Y118.608 E1.658
G1 X111.651 Y118.266 E1.6665
G1 X111.517 Y117.144 E1.68303
G1 X110.26 Y117.261 E1.70151
G1 X109.934 Y117.024 E1.70741
G1 X108.794 Y117.392 E1.72494
G1 X108.57 Y118.178 E1.7369
G1 X108.073 Y118.539 E1.74589
G1 X106.681 Y118.59 E1.76627
G1 X106.216 Y118.252 E1.77468
G1 X106.086 Y117.107 E1.79155
G1 X105.013 Y117.258 E1.80741
G1 X104.646 Y116.991 E1.81405
G1 X103.664 Y117.25 E1.82891
G1 X103.284 Y116.974 E1.83578
G1 X102.278 Y117.249 E1.85105
G1 X101.867 Y116.95 E1.85848
G1 X100.829 Y117.248 E1.87429
G1 X100.516 Y117.02 E1.87996
G1 X99.57 Y117.251 E1.89421
G1 X99.156 Y116.95 E1.9017
G1 X98.118 Y117.248 E1.9175
G1 X97.82 Y117.031 E1.9229
G1 X96.89 Y117.251 E1.93688
G1 X96.53 Y116.989 E1.9434
G1 X95.478 Y117.267 E1.95932
G1 X92.424 Y117.267 E2.00402
G1 X91.867 Y116.5 E2.01789
G1 X92.424 Y115.733 E2.03176
G1 X96.065 Y115.733 E2.08504
G1 X96.448 Y116.011 E2.09197
G1 X97.433 Y115.75 E2.10688
G1 X97.734 Y115.969 E2.11233
G1 X98.664 Y115.749 E2.12632
G1 X99.078 Y116.05 E2.13381
G1 X100.116 Y115.752 E2.14961
G1 X100.43 Y115.98 E2.15529
G1 X101.375 Y115.749 E2.16953
G1 X101.789 Y116.05 E2.17702
G1 X102.827 Y115.752 E2.19282
G1 X103.204 Y116.026 E2.19964
G1 X104.21 Y115.751 E2.2149
G1 X104.564 Y116.009 E2.22131
G1 X105.546 Y115.75 E2.23618
G1 X105.856 Y115.975 E2.24178
G1 X106.736 Y115.792 E2.25494
G1 X107.142 Y116.087 E2.26228
G1 X108.007 Y115.914 E2.27519
G1 X108.359 Y116.17 E2.28156
G1 X109.444 Y115.837 E2.29817
G1 X109.747 Y116.056 E2.30364
G1 X110.792 Y115.753 E2.31956
G1 X111.215 Y116.06 E2.32721
G1 X112.196 Y115.815 E2.34201
G1 X112.807 Y116.078 E2.35174
G1 X113.849 Y115.797 E2.36754
G1 X114.94 Y115.763 E2.38351
;;retract;;
G1 F6000 E-5.61649
G0 F3600 X114.913 Y114.894
G0 X116.341 Y114.867
G0 X129.159 Y114.866
G0 X129.666 Y114.359
G0 X129.666 Y112.541
G0 X129.159 Y112.034
G0 X118.015 Y112.032
G0 X115.408 Y111.989
G0 X115.659 Y111.156
G1 F6000 E2.38351
G1 F1500 X114.573 Y110.826 E2.40012
G1 X113.179 Y111.14 E2.42103
G1 X111.902 Y111.081 E2.43974
G1 X111.783 Y111.167 E2.44189
G1 X108.618 Y111.167 E2.48821
G1 X107.619 Y110.926 E2.50325
G1 X106.059 Y111.106 E2.52623
G1 X105.276 Y110.761 E2.53875
G1 X104.223 Y111.166 E2.55526
G1 X102.163 Y111.109 E2.58542
G1 X101.176 Y111.166 E2.59989
G1 X100.154 Y111.002 E2.61504
G1 X99.443 Y111.083 E2.62551
G1 X98.542 Y110.607 E2.64042
G1 X97.985 Y111.083 E2.65114
G1 X97.051 Y110.779 E2.66552
G1 X96.917 Y110.367 E2.67186
G1 X96.341 Y110.367 E2.68029
G1 X95.711 Y111.112 E2.69457
G1 X95.12 Y111.099 E2.70322
G1 X94.028 Y110.807 E2.71976
G1 X92.192 Y111.097 E2.74696
G1 X91.577 Y110.251 E2.76227
G1 X91.349 Y109.633 E2.77191
G1 X91.93 Y108.835 E2.78635
G1 X92.83 Y108.833 E2.79952
G1 X93.675 Y109.391 E2.81434
G1 X95.66 Y108.833 E2.84452
G1 X97.472 Y108.833 E2.87104
G1 X99.08 Y108.915 E2.8946
G1 X99.728 Y108.892 E2.90409
G1 X100.582 Y109.536 E2.91974
G1 X101.141 Y109.556 E2.92793
G1 X101.759 Y108.842 E2.94175
G1 X102.671 Y108.934 E2.95516
G1 X103.519 Y108.841 E2.96765
G1 X104.329 Y109.503 E2.98296
G1 X105.274 Y108.932 E2.99911
G1 X106.275 Y109.258 E3.01452
G1 X106.482 Y109.476 E3.01892
G1 X107.476 Y109.222 E3.03393
G1 X107.77 Y109.43 E3.0392
G1 X108.743 Y108.902 E3.0554
G1 X109.206 Y108.833 E3.06225
G1 X111.293 Y108.833 E3.0928
G1 X111.912 Y109.499 E3.1061
G1 X112.907 Y109.246 E3.12113
G1 X113.561 Y109.666 E3.1325
G1 X114.226 Y108.865 E3.14774
G1 X115.167 Y109.171 E3.16222
G1 X115.404 Y109.526 E3.16847
G1 X115.955 Y109.567 E3.17655
G1 X116.578 Y108.842 E3.19054
G1 X117.291 Y108.91 E3.20102
G1 X117.75 Y109.224 E3.20916
G1 X118.85 Y108.866 E3.22609
G1 X119.522 Y109.694 E3.2417
G1 X120.504 Y109.102 E3.25848
G1 X121.896 Y108.851 E3.27918
G1 X122.537 Y109.64 E3.29405
G1 X123.161 Y109.593 E3.30321
G1 X123.742 Y108.938 E3.31602
G1 X124.657 Y109.236 E3.33011
G1 X124.787 Y109.633 E3.33622
G1 X125.896 Y109.633 E3.35245
G1 X126.545 Y108.833 E3.36753
G1 X127.432 Y108.833 E3.38051
G1 X128.477 Y108.931 E3.39587
G1 X129.044 Y109.711 E3.40998
G1 X128.498 Y110.495 E3.42396
G1 X127.769 Y111.116 E3.43797
G1 X127.539 Y111.167 E3.44142
G1 X124.339 Y111.167 E3.48825
G1 X123.247 Y111.12 E3.50425
G1 X122.274 Y111.165 E3.5185
G1 X121.085 Y110.569 E3.53797
G1 X119.84 Y111.167 E3.55818
G1 X118.92 Y111.167 E3.57164
G1 X117.917 Y110.749 E3.58754
G1 X116.822 Y111.12 E3.60446
G1 X115.659 Y111.156 E3.62149
;;retract;;
G1 F6000 E-4.37851
;MESH:
G0 F3600 X115.686 Y112.025
G0 X128.4 Y112.03
G0 X128.4 Y113.3
;TYPE:WALL-INNER
G1 F6000 E3.62149
G1 F1500 X128.4 Y113.6 E3.62698
G1 X91.6 Y113.6 E4.30017
G1 X91.6 Y113.3 E4.30565
G1 X128.4 Y113.3 E4.81181
G0 F3600 X128.8 Y112.9
;TYPE:WALL-OUTER
G1 F1500 X128.8 Y114 E4.83193
G1 X91.2 Y114 E5.51975
G1 X91.2 Y112.9 E5.53987
G1 X128.8 Y112.9 E6.22769
G0 F3600 X128.8 Y113.1
G0 X128.36 Y113.34
;;retract;;
G1 F6000 E-1.77231
G0 F3600 X128.36 Y112.03
G0 X129.147 Y111.084
G0 X130.102 Y109.7
G0 X128.947 Y108.106
G0 X128.4 Y106.7
;TYPE:WALL-INNER
G1 F6000 E6.22769
G1 F1500 X91.6 Y106.7 E6.90088
G1 X91.6 Y106.4 E6.90636
G1 X128.4 Y106.4 E7.41252
G1 X128.4 Y106.7 E7.41801
G0 F3600 X128.8 Y107.1
;TYPE:WALL-OUTER
G1 F1500 X91.2 Y107.1 E8.10583
G1 X91.2 Y106 E8.12595
G1 X128.8 Y106 E8.81377
G1 X128.8 Y107.1 E8.83389
G0 F3600 X128.6 Y107.1
G0 X128.36 Y106.66
;;retract;;
G1 F6000 E0.83389
;MESH:NONMESH
G0 F600 X128.36 Y106.66 Z0.2
G0 F3600 X128.36 Y107.97
G0 X128.947 Y108.106
G0 X130.102 Y109.7
G0 X129.666 Y114.359
G0 X129.159 Y114.866
G0 X127.855 Y114.863
G0 X127.855 Y115.745
;TIME_ELAPSED:36.390381

;LAYER:1
M140 S60
M106 S127.5
;TYPE:SUPPORT
G1 F6000 E8.83389
G1 F2250 X128.403 Y116.5 E8.8463
G1 X127.852 Y117.259 E8.85878
G1 X126.649 Y117.259 E8.87479
G1 X125.487 Y117.12 E8.89035
G1 X124.667 Y117.259 E8.90142
G1 X122.463 Y117.259 E8.93074
G1 X122.066 Y116.971 E8.93727
G1 X121.073 Y117.241 E8.95096
G1 X120.761 Y117.015 E8.95608
G1 X119.825 Y117.243 E8.9689
G1 X119.395 Y116.931 E8.97597
G1 X118.349 Y117.239 E8.99047
G1 X118.04 Y117.015 E8.99555
G1 X117.104 Y117.243 E9.00837
G1 X116.718 Y116.963 E9.01471
G1 X115.713 Y117.24 E9.02858
G1 X115.397 Y117.012 E9.03377
G1 X114.32 Y117.277 E9.04852
G1 X113.557 Y117.962 E9.06216
G1 X112.651 Y118.652 E9.07731
G1 X112.06 Y118.652 E9.08518
G1 X111.601 Y118.319 E9.09272
G1 X111.527 Y117.008 E9.11019
G1 X110.336 Y117.246 E9.12635
G1 X109.924 Y116.947 E9.13312
G1 X108.777 Y117.304 E9.1491
G1 X108.607 Y118.242 E9.16179
G1 X108.126 Y118.593 E9.16971
G1 X106.618 Y118.63 E9.18978
G1 X106.162 Y118.299 E9.19727
G1 X106.09 Y116.975 E9.21491
G1 X104.933 Y117.244 E9.23072
G1 X104.611 Y117.01 E9.23601
G1 X103.67 Y117.243 E9.24891
G1 X103.241 Y116.931 E9.25597
G1 X102.196 Y117.239 E9.27046
G1 X101.87 Y117.002 E9.27582
G1 X100.918 Y117.242 E9.28889
G1 X100.512 Y116.947 E9.29556
G1 X99.487 Y117.24 E9.30974
G1 X99.159 Y117.002 E9.31514
G1 X98.207 Y117.242 E9.3282
G1 X97.816 Y116.958 E9.33463
G1 X96.806 Y117.24 E9.34858
G1 X96.533 Y117.042 E9.35307
G1 X95.634 Y117.244 E9.36532
G1 X95.304 Y117.004 E9.37075
G1 X94.288 Y117.259 E9.38469
G1 X92.344 Y117.259 E9.41055
G1 X91.793 Y116.5 E9.42303
G1 X92.344 Y115.741 E9.43551
G1 X94.869 Y115.741 E9.4691
G1 X95.22 Y115.996 E9.47487
G1 X96.169 Y115.758 E9.48789
G1 X96.445 Y115.958 E9.49242
G1 X97.344 Y115.756 E9.50468
G1 X97.738 Y116.042 E9.51116
G1 X98.748 Y115.76 E9.52511
G1 X99.075 Y115.998 E9.53049
G1 X100.027 Y115.758 E9.54355
G1 X100.434 Y116.053 E9.55024
G1 X101.458 Y115.76 E9.56441
G1 X101.786 Y115.998 E9.5698
G1 X102.738 Y115.758 E9.58286
G1 X103.165 Y116.069 E9.58989
G1 X104.211 Y115.761 E9.6044
G1 X104.527 Y115.991 E9.6096
G1 X105.47 Y115.757 E9.62252
G1 X105.828 Y116.018 E9.62842
G1 X106.807 Y115.758 E9.64189
G1 X107.151 Y116.008 E9.64755
G1 X108.005 Y115.839 E9.65913
G1 X108.365 Y116.1 E9.66505
G1 X109.451 Y115.762 E9.68018
G1 X109.849 Y116.051 E9.68673
G1 X110.871 Y115.76 E9.70086
G1 X111.229 Y116.02 E9.70675
G1 X112.211 Y115.759 E9.72027
G1 X112.668 Y116.09 E9.72777
G1 X113.704 Y115.789 E9.74213
G1 X114.019 Y116.018 E9.74731
G1 X114.996 Y115.759 E9.76076
G1 X115.312 Y115.988 E9.76595
G1 X116.253 Y115.757 E9.77884
G1 X116.638 Y116.037 E9.78517
G1 X117.643 Y115.76 E9.79904
G1 X117.954 Y115.985 E9.80415
G1 X118.889 Y115.757 E9.81695
G1 X119.319 Y116.069 E9.82402
G1 X120.366 Y115.761 E9.83854
G1 X120.675 Y115.985 E9.84362
G1 X121.611 Y115.757 E9.85643
G1 X121.986 Y116.029 E9.8626
G1 X123.046 Y115.741 E9.87721
G1 X126.297 Y115.741 E9.92046
G1 X127.294 Y115.769 E9.93373
G1 X127.855 Y115.745 E9.9412
;;retract;;
G1 F6000 E1.9412
G0 F5400 X127.818 Y114.877
G0 X129.159 Y114.866
G0 X129.666 Y114.359
G0 X129.666 Y112.541
G0 X129.159 Y112.034
