;FLAVOR:Marlin
;TIME:6745
;Filament used:3.09024m
;Layer height: 0.1
;MINX:80.1
;MINY:79.991
;MINZ:0.24
;MAXX:140.173
;MAXY:139.955
;MAXZ:15.89
                              
;Creality Print GCode Generated by CXEngine:NO_MAGE_VERSION_GIT_HEAD_BRANCH
;CXEngine Release Time:2022-09-30 09:53:04
;Gcode Generated Time:2023-05-14 19:18:23
;----------Machine Config--------------
;Machine Name:Ender-3 V2
;Machine Height:250
;Machine Width:220
;Machine Depth:220
;Material name:PLA
;Number of Extruders:1
;ExtruderParams[0] Nozzle Diameter1000
;----------Profile Config---------------
;Engine Version:275f99b
;Engine Release Time:2022-09-30 09:42:18
;Layer Height:0.1
;Wall Thickness:0.8
;Top/Bottom Thickness:0.5
;Out Wall Line Width:0.4
;Inner Wall Line Width:0.4
;Inital Layer Height:100
;Wall Line Count:2
;Infill Line Distance:4
;Infill Pattern:grid
;Infill Sparse Density:20
;Infill Wipe Distance:0
;Print Temperature:200
;Bed Temperature:60
;Support Enable:true
;Support Density:0
;Support Angle:60
;Adhesion Type:simpleraft
;machine is belt:false
;machine belt offset:10
;machine belt offset Y:0
;Raft Base Line Spacing:1.6
;Wait Heatup Sync:true
;----------Shell Config----------------
;Outer Wall Wipe Distance:200
;Outer Inset First:false
;Infill Before Walls:false
;Infill Overlap:0.16
;Fill Gaps Between Walls:everywhere
;Minimum Infill Area:1
;Top Surface Skin Layer:0
;Top Layers:4
;Z Seam Alignment:sharpest_corner
;Seam Corner Preference:z_seam_corner_inner
;Z Seam X:110
;Z Seam Y:110
;Horizontal Expansion:0
;Top/Bottom Pattern:zigzag
;Ironing Pattern:zigzag
;Vase Model:false
;----------Support Config----------------
;Support Type:everywhere
;Support Pattern:zigzag
;Support Infill Layer Thickness:0.1
;Minimum Support Area:5
;Enable Support Roof:false
;Support Roof Thickness:0.8
;Support Roof Pattern:lines
;Connect Support Lines:0
;Connect Support ZigZags:1
;Minimum Support X/Y Distance:0.2
;Support Line Distance:0
; ---------PrintSpeed & Travel----------
;Enable Print Cool:true
;Avoid Printed Parts Traveling:true
;Enable Retraction:true
;Retraction Distance:8
;Retraction Speed:100
;Retraction Prime Speed:100
;Maximum Retraction Count:100
;Minimum Extrusion Distance Window:1
;Z Hop When Retracted:false
;Z Hop Height:0.2
;Retract Before Outer Wall:true
;Print Speed:50
;Infill Speed:50

;Prime Tower Speed:50
;Travel Speed:120
;Initial Layer Speed:25
;Skirt/Brim Speed:25
;Combing Mode:infill
; --------SpecialModel&Mesh Fixes--------
;Union Overlapping Volum:true
;Remove All Holes:false
;Maximum Travel Resolution:0.6
;Maximum Deviation:0.05
;Maximum Model Angle:0.872665
;IS Mold Print:false
;Make Overhang Printable:false
;Enable Coasting:false
;Coasting Volumes:0.06
;Coasting Speed:0.9
;Raft AirGap:0.25
;Layer0 ZOverLap:0.13
;---------------------End of Head--------------------------
M140 S60
M105
M104 S200
M105
M109 S200
M105
M190 S60
M82 ;absolute extrusion mode
M220 S100 ;Reset Feedrate
M221 S100 ;Reset Flowrate

G28 ;Home

G92 E0 ;Reset Extruder
G1 Z2.0 F3000 ;Move Z Axis up
G1 X10.1 Y20 Z0.28 F5000.0 ;Move to start position
G1 X10.1 Y145.0 Z0.28 F1500.0 E15 ;Draw the first line
G1 X10.4 Y145.0 Z0.28 F5000.0 ;Move to side a little
G1 X10.4 Y20 Z0.28 F1500.0 E30 ;Draw the second line
G92 E0  ;Reset Extruder
G1 E-1.0000 F1800 ;Retract a bit
G1 Z2.0 F3000 ;Move Z Axis up
G1 E0.0000 F1800 

G92 E0
G92 E0
G1 F6000 E-8

;LAYER_COUNT:150

;LAYER:-4
M107
G0 F7200 X81.6 Y102.103 Z0.24
;TYPE:SUPPORT-INTERFACE
G1 F6000 E0
G1 F1200 X81.6 Y116.614 E1.15833
G1 X81.236 Y115.139 E1.2796
G1 X80.865 Y113.047 E1.4492
G1 X80.768 Y112.188 E1.51821
G1 X80.747 Y111.381 E1.58265
G1 X80.849 Y109.3 E1.74896
G1 X80.7 Y107.219 E1.9155
G1 X80.729 Y106.374 E1.98299
G1 X80.842 Y105.464 E2.05619
G1 X81.154 Y103.707 E2.19864
G1 X81.355 Y102.849 E2.26898
G1 X81.607 Y102.082 E2.33342
G1 X81.936 Y101.318 E2.39982
G1 X82.616 Y99.959 E2.52113
G1 X83.2 Y98.053 E2.68025
G1 X83.2 Y121.498 E4.55174
G1 X83.44 Y122.089 E4.60265
G1 X84.32 Y123.958 E4.76756
G1 X84.8 Y124.894 E4.85152
G1 X84.8 Y94.958 E7.24114
G1 X85.293 Y94.219 E7.31206
G1 X86.4 Y92.721 E7.46074
G1 X86.4 Y127.715 E10.25411
G1 X86.419 Y127.746 E10.25701
G1 X87.254 Y128.944 E10.37358
G1 X87.916 Y129.786 E10.45908
G1 X88 Y129.874 E10.46879
G1 X88 Y90.706 E13.59535
G1 X88.339 Y90.358 E13.63413
G1 X89.6 Y89.179 E13.77193
G1 X89.6 Y131.435 E17.14499
G1 X89.649 Y131.481 E17.15035
G1 X90.265 Y132.005 E17.21491
G1 X90.988 Y132.523 E17.28591
G1 X91.2 Y132.658 E17.30597
G1 X91.2 Y87.779 E20.8884
G1 X91.875 Y87.205 E20.95913
G1 X92.8 Y86.49 E21.05246
G1 X92.8 Y133.677 E24.81913
G1 X94.237 Y134.528 E24.95244
G1 X94.4 Y134.61 E24.96701
G1 X94.4 Y85.381 E28.89668
G1 X95.836 Y84.507 E29.03087
G1 X96 Y84.421 E29.04565
G1 X96 Y135.475 E33.121
G1 X96.065 Y135.515 E33.12709
G1 X97.13 Y136.384 E33.23682
G1 X97.6 Y136.715 E33.2827
G1 X97.6 Y83.588 E37.52353
G1 X97.746 Y83.512 E37.53667
G1 X99.057 Y82.927 E37.65126
G1 X99.2 Y82.872 E37.66349
G1 X99.2 Y137.624 E42.03404
G1 X99.606 Y137.831 E42.07041
G1 X100.51 Y138.231 E42.14932
G1 X100.8 Y138.329 E42.17376
G1 X100.8 Y82.306 E46.64576
G1 X102.4 Y81.788 E46.78
G1 X102.4 Y138.746 E51.32664
G1 X103.783 Y138.999 E51.43887
G1 X104 Y139.03 E51.45636
G1 X104 Y81.104 E56.08027
G1 X104.663 Y80.891 E56.13585
G1 X105.459 Y80.72 E56.20084
G1 X105.6 Y80.702 E56.21219
G1 X105.6 Y139.206 E60.88223
G1 X106.536 Y139.291 E60.95726
G1 X107.2 Y139.29 E61.01026
G1 X107.2 Y80.597 E65.69539
G1 X107.892 Y80.633 E65.7507
G1 X108.8 Y80.75 E65.82378
G1 X108.8 Y139.22 E70.49111
G1 X109.312 Y139.22 E70.53198
G1 X110.4 Y139.274 E70.61894
G1 X110.4 Y80.824 E75.28467
G1 X111.591 Y80.783 E75.37979
G1 X112 Y80.755 E75.41252
G1 X112 Y139.355 E80.09022
G1 X112.128 Y139.362 E80.10046
G1 X112.946 Y139.331 E80.1658
G1 X113.6 Y139.251 E80.21839
G1 X113.6 Y80.678 E84.89395
G1 X113.854 Y80.674 E84.91422
G1 X114.672 Y80.735 E84.9797
G1 X115.2 Y80.824 E85.02244
G1 X115.2 Y138.96 E89.66311
G1 X115.879 Y138.83 E89.71829
G1 X116.706 Y138.584 E89.78717
G1 X116.8 Y138.551 E89.79512
G1 X116.8 Y81.261 E94.36826
G1 X118.235 Y81.776 E94.48996
G1 X118.4 Y81.846 E94.50426
G1 X118.4 Y137.976 E98.9848
G1 X120 Y137.358 E99.12172
G1 X120 Y82.52 E103.49913
G1 X121.6 Y83.195 E103.63775
G1 X121.6 Y136.741 E107.91202
G1 X123.101 Y136.161 E108.04047
G1 X123.2 Y136.112 E108.04929
G1 X123.2 Y83.879 E112.21875
G1 X123.891 Y84.221 E112.2803
G1 X124.8 Y84.783 E112.3656
G1 X124.8 Y135.188 E116.38915
G1 X126.4 Y134.085 E116.54428
G1 X126.4 Y85.863 E120.39356
G1 X127.471 Y86.521 E120.4939
G1 X128 Y86.878 E120.54484
G1 X128 Y132.901 E124.2186
G1 X128.712 Y132.35 E124.29047
G1 X129.399 Y131.755 E124.36301
G1 X129.6 Y131.563 E124.3852
G1 X129.6 Y87.988 E127.86355
G1 X129.933 Y88.239 E127.89683
G1 X130.813 Y89.064 E127.99312
G1 X131.2 Y89.483 E128.03865
G1 X131.2 Y130.028 E131.27513
G1 X131.434 Y129.803 E131.30104
G1 X132.225 Y128.946 E131.39414
G1 X132.8 Y128.155 E131.4722
G1 X132.8 Y91.421 E134.40446
G1 X132.887 Y91.546 E134.41662
G1 X133.707 Y92.999 E134.5498
G1 X134.085 Y93.594 E134.60607
G1 X134.4 Y93.969 E134.64516
G1 X134.4 Y126.021 E137.20369
G1 X135.376 Y124.737 E137.33244
G1 X135.802 Y124.051 E137.3969
G1 X136 Y123.662 E137.43174
G1 X136 Y96.111 E139.63098
G1 X136.208 Y96.481 E139.66486
G1 X136.497 Y97.103 E139.71961
G1 X137.289 Y98.999 E139.88363
G1 X137.6 Y99.583 E139.93644
G1 X137.6 Y119.405 E141.51872
G1 X137.61 Y119.367 E141.52186
G1 X137.952 Y118.357 E141.60698
G1 X138.653 Y116.657 E141.75376
G1 X138.902 Y115.866 E141.81996
G1 X139.093 Y115.001 E141.89067
G1 X139.395 Y113.019 E142.05071
G1 X139.441 Y112.109 E142.12344
G1 X139.437 Y110.607 E142.24334
G1 X139.372 Y109.387 E142.34086
G1 X139.387 Y108.379 E142.42133
G1 X139.563 Y106.643 E142.56062
G1 X139.573 Y105.824 E142.626
G1 X139.508 Y104.988 E142.69293
G1 X139.373 Y104.187 E142.75778
G1 X139.2 Y103.528 E142.81216
G1 X139.2 Y114.299 E143.67195
G0 F600 X139.2 Y114.299 Z0.47
G0 F7200 X137.093 Y97.495
;TIME_ELAPSED:95.955570

;LAYER:-3
;TYPE:SUPPORT
G1 F1800 X122.911 Y83.313 E145.20623
G1 X123.237 Y83.45 E145.23328
G1 X124.084 Y83.87 E145.3056
G1 X125.043 Y84.463 E145.39186
G1 X126.31 Y85.338 E145.50965
G1 X126.415 Y85.403 E145.51909
G1 X134.611 Y93.599 E146.40578
G1 X135.665 Y94.85 E146.53092
G1 X136.152 Y95.564 E146.59703
G1 X136.565 Y96.3 E146.66159
G1 X136.86 Y96.934 E146.71509
G1 X137.651 Y98.827 E146.87203
G1 X138.38 Y100.196 E146.99068
G1 X120.466 Y82.282 E148.92871
G1 X118.377 Y81.401 E149.10214
G1 X118.056 Y81.286 E149.12822
G1 X139.309 Y102.539 E151.42748
G1 X139.537 Y103.236 E151.48358
G1 X139.763 Y104.098 E151.55175
G1 X139.824 Y104.469 E151.58051
G1 X115.925 Y80.569 E154.16608
G1 X115.578 Y80.48 E154.19348
G1 X114.724 Y80.338 E154.25971
G1 X114.243 Y80.302 E154.29661
G1 X139.97 Y106.029 E157.07988
G1 X139.963 Y106.665 E157.12854
G1 X139.891 Y107.364 E157.18229
G1 X112.824 Y80.297 E160.11053
G1 X111.57 Y80.383 E160.20669
G1 X111.498 Y80.386 E160.2122
G1 X139.782 Y108.67 E163.2721
G1 X139.772 Y109.379 E163.32635
G1 X139.81 Y110.112 E163.38249
G1 X110.131 Y80.433 E166.59332
G1 X109.622 Y80.451 E166.63228
G1 X108.604 Y80.32 E166.7108
G1 X139.838 Y111.554 E170.08984
G1 X139.841 Y112.108 E170.13222
G1 X139.799 Y112.929 E170.19511
G1 X107.062 Y80.192 E173.73676
G1 X106.243 Y80.221 E173.79945
G1 X105.738 Y80.282 E173.83837
G1 X139.623 Y114.168 E177.50427
G1 X139.484 Y115.087 E177.57537
G1 X139.419 Y115.377 E177.5981
G1 X104.549 Y80.507 E181.37051
G1 X103.543 Y80.831 E181.45136
G1 X103.485 Y80.857 E181.45623
G1 X139.123 Y116.495 E185.31172
G1 X139.031 Y116.789 E185.33529
G1 X138.73 Y117.517 E185.39555
G1 X102.512 Y81.298 E189.31385
G1 X102.263 Y81.412 E189.3348
G1 X101.468 Y81.669 E189.39871
G1 X138.319 Y118.52 E193.38543
G1 X137.993 Y119.483 E193.46321
G1 X137.966 Y119.581 E193.47099
G1 X100.399 Y82.015 E197.53512
G1 X99.881 Y82.183 E197.57677
G1 X99.354 Y82.384 E197.61992
G1 X137.663 Y120.692 E201.76432
G1 X137.412 Y121.475 E201.82722
G1 X137.296 Y121.74 E201.84935
G1 X98.357 Y82.801 E206.06197
G1 X97.561 Y83.157 E206.12867
G1 X97.388 Y83.246 E206.14355
G1 X136.87 Y122.728 E210.41491
G1 X136.572 Y123.419 E210.47248
G1 X136.428 Y123.7 E210.49663
G1 X96.459 Y83.731 E214.82068
G1 X95.64 Y84.158 E214.89133
G1 X95.535 Y84.222 E214.90074
G1 X135.925 Y124.611 E219.27028
G1 X135.709 Y124.959 E219.30161
G1 X135.341 Y125.442 E219.34806
G1 X94.656 Y84.756 E223.74962
G1 X93.795 Y85.281 E223.82676
G1 X93.777 Y85.292 E223.82838
G1 X134.73 Y126.245 E228.25887
G1 X134.12 Y127.049 E228.33608
G1 X92.944 Y85.873 E232.7907
G1 X92.146 Y86.489 E232.86782
G1 X133.511 Y127.854 E237.34289
G1 X132.916 Y128.674 E237.42039
G1 X91.359 Y87.116 E241.91629
G1 X90.595 Y87.767 E241.99307
G1 X132.291 Y129.463 E246.50395
G1 X131.711 Y130.092 E246.5694
G1 X131.605 Y130.191 E246.5805
G1 X89.831 Y88.417 E251.09982
G1 X89.817 Y88.43 E251.10128
G1 X89.099 Y89.099 E251.17635
G1 X130.884 Y130.884 E255.69686
G1 X130.162 Y131.576 E255.77336
G1 X88.369 Y89.783 E260.29474
G1 X88.066 Y90.066 E260.32645
G1 X87.656 Y90.484 E260.37124
G1 X129.428 Y132.256 E264.89035
G1 X128.965 Y132.66 E264.93735
G1 X128.655 Y132.897 E264.9672
G1 X87.001 Y91.244 E269.47349
G1 X86.911 Y91.356 E269.48448
G1 X86.395 Y92.051 E269.55069
G1 X127.857 Y133.514 E274.03631
G1 X127.279 Y133.964 E274.09235
G1 X127.049 Y134.12 E274.11361
G1 X85.794 Y92.865 E278.57678
G1 X85.193 Y93.678 E278.65412
G1 X126.212 Y134.697 E283.09176
G1 X125.375 Y135.275 E283.16957
G1 X84.614 Y94.514 E287.5793
G1 X84.449 Y94.763 E287.60215
G1 X84.073 Y95.387 E287.65788
G1 X124.525 Y135.838 E292.03412
G1 X124.007 Y136.156 E292.08062
G1 X123.619 Y136.347 E292.1137
G1 X83.552 Y96.28 E296.44835
G1 X83.255 Y96.839 E296.49677
G1 X83.086 Y97.228 E296.52922
G1 X122.627 Y136.77 E300.80701
G1 X121.608 Y137.164 E300.89059
G1 X82.715 Y98.271 E305.09823
G1 X82.382 Y99.352 E305.18476
G1 X120.587 Y137.558 E309.31802
G1 X119.567 Y137.952 E309.40166
G1 X81.969 Y100.354 E313.4692
G1 X81.578 Y101.139 E313.53629
G1 X81.506 Y101.305 E313.55013
G1 X118.547 Y138.346 E317.55741
G1 X118.293 Y138.445 E317.57826
G1 X117.509 Y138.722 E317.64187
G1 X81.106 Y102.319 E321.58013
G1 X80.971 Y102.735 E321.61359
G1 X80.806 Y103.434 E321.66853
G1 X116.448 Y139.075 E325.5244
G1 X115.969 Y139.22 E325.56269
G1 X115.303 Y139.345 E325.61452
G1 X80.584 Y104.625 E329.37065
G1 X80.448 Y105.394 E329.43039
G1 X80.391 Y105.847 E329.46532
G1 X114.116 Y139.572 E333.11386
G1 X113.877 Y139.619 E333.13249
G1 X112.975 Y139.73 E333.20201
G1 X112.862 Y139.732 E333.21066
G1 X80.3 Y107.17 E336.73337
G1 X80.299 Y107.224 E336.73751
G1 X80.403 Y108.687 E336.84971
G1 X111.442 Y139.726 E340.20766
G1 X109.953 Y139.652 E340.32171
G1 X80.408 Y110.107 E343.51803
G1 X80.347 Y111.371 E343.61484
G1 X80.349 Y111.461 E343.62172
G1 X108.517 Y139.63 E346.66913
G1 X107.42 Y139.689 E346.75317
G1 X107.161 Y139.688 E346.77298
G1 X80.455 Y112.982 E349.66217
G1 X80.471 Y113.117 E349.67257
G1 X80.749 Y114.69 E349.79477
G1 X105.672 Y139.613 E352.49106
G1 X104.541 Y139.512 E352.57792
G1 X104.091 Y139.446 E352.61272
G1 X81.165 Y116.52 E355.09296
G1 X81.402 Y117.481 E355.16868
G1 X81.719 Y118.489 E355.24952
G1 X102.379 Y139.148 E357.48456
G1 X102.078 Y139.095 E357.50794
G1 X101.192 Y138.884 E357.57762
G1 X100.447 Y138.631 E357.6378
G1 X82.408 Y120.592 E359.58935
G1 X82.469 Y120.763 E359.60324
G1 X83.069 Y122.24 E359.7252
G1 X83.449 Y123.047 E359.79343
G1 X97.613 Y137.211 E361.32576
G1 X97.601 Y137.205 E361.32679
G1 X96.884 Y136.7 E361.39388
G1 X95.833 Y135.842 E361.49767
G1 X95.255 Y135.489 E361.54948
G1 X94.043 Y134.878 E361.65331
G1 X93.606 Y134.618 E361.69221
G1 X84.859 Y125.871 E362.6385
G1 X85.588 Y127.171 E362.75252
G1 X86.091 Y127.975 E362.82507
G1 X86.927 Y129.175 E362.93695
G1 X87.619 Y130.055 E363.02258
G1 X88.28 Y130.75 E363.09596
G1 X88.92 Y131.346 E363.16286
G1 X87.587 Y130.013 E363.30707
G0 F600 X87.587 Y130.013 Z0.62
G0 F7200 X101.656 Y139.2
;TIME_ELAPSED:195.712597

;LAYER:-2
;TYPE:SUPPORT-INTERFACE
G1 F2400 X116.734 Y139.2 E363.68319
G1 X116.005 Y139.418 E363.70217
G1 X115.047 Y139.6 E363.7265
G1 X103.744 Y139.6 E364.00845
G1 X103.682 Y139.591 E364.01001
G1 X102.038 Y139.291 E364.0517
G1 X101.134 Y139.075 E364.07489
G1 X100.317 Y138.8 E364.09639
G1 X117.89 Y138.8 E364.53475
G1 X118.358 Y138.635 E364.54713
G1 X118.965 Y138.4 E364.56337
G1 X99.407 Y138.4 E365.05124
G1 X99.348 Y138.373 E365.05286
G1 X98.614 Y138 E365.0734
G1 X120 Y138 E365.60687
G1 X121.036 Y137.6 E365.63458
G1 X97.885 Y137.6 E366.21208
G1 X97.48 Y137.365 E366.22376
G1 X97.244 Y137.2 E366.23094
G1 X122.071 Y137.2 E366.85026
G1 X123.107 Y136.8 E366.87796
G1 X96.689 Y136.8 E367.53696
G1 X96.199 Y136.4 E367.55274
G1 X123.964 Y136.4 E368.24534
G1 X124.112 Y136.327 E368.24945
G1 X124.646 Y136 E368.26507
G1 X95.707 Y136 E368.98696
G1 X95.159 Y135.665 E369.00298
G1 X95.029 Y135.6 E369.00661
G1 X125.258 Y135.6 E369.76067
G1 X125.838 Y135.2 E369.77825
G1 X94.236 Y135.2 E370.56656
G1 X93.942 Y135.051 E370.57479
G1 X93.517 Y134.8 E370.5871
G1 X126.417 Y134.8 E371.40779
G1 X126.996 Y134.4 E371.42535
G1 X92.842 Y134.4 E372.27732
G1 X92.401 Y134.138 E372.29012
G1 X92.184 Y134 E372.29653
G1 X127.556 Y134 E373.17889
G1 X128.074 Y133.6 E373.19522
G1 X91.558 Y133.6 E374.10611
G1 X90.932 Y133.2 E374.12464
G1 X128.592 Y133.2 E375.06408
G1 X129.089 Y132.817 E375.07973
G1 X129.107 Y132.8 E375.08035
G1 X90.343 Y132.8 E376.04732
G1 X89.885 Y132.471 E376.06138
G1 X89.8 Y132.4 E376.06415
G1 X129.568 Y132.4 E377.05616
G1 X129.803 Y132.198 E377.06389
G1 X130.008 Y132 E377.071
G1 X89.331 Y132 E378.0857
G1 X89.257 Y131.936 E378.08814
G1 X88.896 Y131.6 E378.10044
G1 X130.425 Y131.6 E379.13638
G1 X130.842 Y131.2 E379.1508
G1 X88.468 Y131.2 E380.20782
G1 X88.135 Y130.888 E380.2192
G1 X88.05 Y130.8 E380.22226
G1 X131.26 Y130.8 E381.30013
G1 X131.677 Y130.4 E381.31455
G1 X87.669 Y130.4 E382.41233
G1 X87.475 Y130.195 E382.41937
G1 X87.32 Y130 E382.42559
G1 X132.071 Y130 E383.5419
G1 X132.447 Y129.6 E383.5556
G1 X87.005 Y129.6 E384.68915
G1 X86.77 Y129.299 E384.69868
G1 X86.699 Y129.2 E384.70172
G1 X132.777 Y129.2 E385.85114
G1 X133.091 Y128.8 E385.86382
G1 X86.421 Y128.8 E387.02801
