;FLAVOR:Marlin
;TIME:6133
;Filament used:2.37914m
;Layer height: 0.1
;MINX:88.357
;MINY:87.553
;MINZ:0.1
;MAXX:131.944
;MAXY:132.141
;MAXZ:15
                                
;Creality Print GCode Generated by CXEngine:NO_MAGE_VERSION_GIT_HEAD_BRANCH
;CXEngine Release Time:2022-09-30 09:53:04
;Gcode Generated Time:2023-05-09 01:44:22
;----------Machine Config--------------
;Machine Name:Ender-3 V2
;Machine Height:250
;Machine Width:220
;Machine Depth:220
;Material name:PLA
;Number of Extruders:1
;ExtruderParams[0] Nozzle Diameter1000
;----------Profile Config---------------
;Engine Version:275f99b
;Engine Release Time:2022-09-30 09:42:18
;Layer Height:0.1
;Wall Thickness:0.8
;Top/Bottom Thickness:0.5
;Out Wall Line Width:0.4
;Inner Wall Line Width:0.4
;Inital Layer Height:100
;Wall Line Count:2
;Infill Line Distance:4
;Infill Pattern:grid
;Infill Sparse Density:20
;Infill Wipe Distance:0
;Print Temperature:200
;Bed Temperature:60
;Support Enable:true
;Support Density:0
;Support Angle:60
;Adhesion Type:none
;machine is belt:false
;machine belt offset:10
;machine belt offset Y:0
;Raft Base Line Spacing:1.6
;Wait Heatup Sync:true
;----------Shell Config----------------
;Outer Wall Wipe Distance:200
;Outer Inset First:false
;Infill Before Walls:false
;Infill Overlap:0.16
;Fill Gaps Between Walls:everywhere
;Minimum Infill Area:1
;Top Surface Skin Layer:0
;Top Layers:4
;Z Seam Alignment:sharpest_corner
;Seam Corner Preference:z_seam_corner_inner
;Z Seam X:110
;Z Seam Y:110
;Horizontal Expansion:0
;Top/Bottom Pattern:zigzag
;Ironing Pattern:zigzag
;Vase Model:false
;----------Support Config----------------
;Support Type:everywhere
;Support Pattern:zigzag
;Support Infill Layer Thickness:0.1
;Minimum Support Area:5
;Enable Support Roof:false
;Support Roof Thickness:0.8
;Support Roof Pattern:lines
;Connect Support Lines:0
;Connect Support ZigZags:1
;Minimum Support X/Y Distance:0.2
;Support Line Distance:0
; ---------PrintSpeed & Travel----------
;Enable Print Cool:true
;Avoid Printed Parts Traveling:true
;Enable Retraction:true
;Retraction Distance:8
;Retraction Speed:100
;Retraction Prime Speed:100
;Maximum Retraction Count:100
;Minimum Extrusion Distance Window:1
;Z Hop When Retracted:false
;Z Hop Height:0.2
;Retract Before Outer Wall:true
;Print Speed:50
;Infill Speed:50

;Prime Tower Speed:50
;Travel Speed:120
;Initial Layer Speed:25
;Skirt/Brim Speed:25
;Combing Mode:infill
; --------SpecialModel&Mesh Fixes--------
;Union Overlapping Volum:true
;Remove All Holes:false
;Maximum Travel Resolution:0.6
;Maximum Deviation:0.05
;Maximum Model Angle:0.872665
;IS Mold Print:false
;Make Overhang Printable:false
;Enable Coasting:false
;Coasting Volumes:0.06
;Coasting Speed:0.9
;Raft AirGap:0.25
;Layer0 ZOverLap:0.13
;---------------------End of Head--------------------------
M140 S60
M105
M104 S200
M105
M109 S200
M105
M190 S60
M82 ;absolute extrusion mode
M220 S100 ;Reset Feedrate
M221 S100 ;Reset Flowrate

G28 ;Home

G92 E0 ;Reset Extruder
G1 Z2.0 F3000 ;Move Z Axis up
G1 X10.1 Y20 Z0.28 F5000.0 ;Move to start position
G1 X10.1 Y145.0 Z0.28 F1500.0 E15 ;Draw the first line
G1 X10.4 Y145.0 Z0.28 F5000.0 ;Move to side a little
G1 X10.4 Y20 Z0.28 F1500.0 E30 ;Draw the second line
G92 E0  ;Reset Extruder
G1 E-1.0000 F1800 ;Retract a bit
G1 Z2.0 F3000 ;Move Z Axis up
G1 E0.0000 F1800 

G92 E0
G92 E0
G1 F6000 E-8

;LAYER_COUNT:150

;LAYER:0
M107
G0 F3600 X95.419 Y96.071 Z0.1
;TYPE:SUPPORT
G1 F6000 E0
G1 F1500 X96.836 Y94.854 E0.02734
G1 X98.167 Y94.017 E0.05035
G1 X99.431 Y93.08 E0.07337
G1 X100.648 Y92.474 E0.09327
G1 X103.306 Y91.395 E0.13525
G1 X104.66 Y90.935 E0.15618
G1 X106.082 Y90.645 E0.17741
G1 X107.215 Y89.798 E0.19812
G1 X107.899 Y89.798 E0.20813
G1 X108.427 Y90.182 E0.21768
G1 X111.168 Y90.282 E0.25782
G1 X112.65 Y90.189 E0.27955
G1 X114.013 Y90.407 E0.29975
G1 X115.534 Y90.798 E0.32273
G1 X117.104 Y91.311 E0.34691
G1 X118.509 Y92.046 E0.37011
G1 X120.419 Y92.947 E0.40102
G1 X121.679 Y94.072 E0.42574
G1 X124.023 Y95.702 E0.46752
G1 X124.825 Y96.793 E0.48733
G1 X125.879 Y97.993 E0.51071
G1 X127.462 Y100.552 E0.55474
G1 X128.092 Y102.064 E0.57872
G1 X129.239 Y105.233 E0.62804
G1 X129.814 Y106.494 E0.64832
G1 X130.182 Y107.754 E0.66753
G1 X129.836 Y109.493 E0.69348
G1 X129.763 Y111.042 E0.71617
G1 X129.65 Y112.45 E0.73684
G1 X129.403 Y113.8 E0.75693
G1 X128.952 Y115.486 E0.78247
G1 X128.419 Y117.18 E0.80846
G1 X127.812 Y118.699 E0.8324
G1 X127.1 Y119.355 E0.84656
G1 X126.427 Y119.355 E0.85641
G1 X125.874 Y118.953 E0.86642
G1 X125.675 Y118.205 E0.87774
G1 X126.243 Y116.854 E0.89919
G1 X126.85 Y115.131 E0.92593
G1 X127.27 Y113.515 E0.95036
G1 X127.459 Y112.054 E0.97192
G1 X127.545 Y110.625 E0.99287
G1 X127.703 Y109.184 E1.01409
G1 X127.83 Y107.493 E1.0389
G1 X127.141 Y105.672 E1.0674
G1 X126.607 Y104.113 E1.09151
G1 X125.962 Y102.37 E1.11871
G1 X125.253 Y101.151 E1.13935
G1 X123.621 Y98.706 E1.18237
G1 X122.728 Y97.564 E1.20358
G1 X120.417 Y95.801 E1.24612
G1 X119.062 Y94.718 E1.27151
G1 X117.753 Y94.148 E1.2924
G1 X116.489 Y93.465 E1.31343
G1 X115.062 Y93.152 E1.33481
G1 X113.749 Y92.596 E1.35567
G1 X112.077 Y92.402 E1.38031
G1 X108.968 Y92.369 E1.42581
G1 X107.348 Y92.584 E1.44972
G1 X105.859 Y92.842 E1.47184
G1 X104.285 Y93.313 E1.49588
G1 X101.526 Y94.559 E1.54018
G1 X99.701 Y95.56 E1.57065
G1 X98.251 Y96.565 E1.59646
G1 X97.128 Y97.469 E1.61756
G1 X96.351 Y98.758 E1.63959
G1 X95.432 Y99.903 E1.66107
G1 X94.483 Y100.961 E1.68187
G1 X94.04 Y102.092 E1.69965
G1 X93.615 Y103.578 E1.72227
G1 X92.999 Y105.338 E1.74956
G1 X92.379 Y106.657 E1.77089
G1 X92.285 Y108.239 E1.79408
G1 X92.425 Y111.211 E1.83762
G1 X92.526 Y112.601 E1.85802
G1 X92.881 Y114.239 E1.88254
G1 X93.471 Y116.155 E1.91188
G1 X94.777 Y118.885 E1.95617
G1 X95.567 Y120.032 E1.97655
G1 X96.415 Y121.484 E2.00116
G1 X97.094 Y122.848 E2.02346
G1 X98.267 Y123.593 E2.04379
G1 X99.805 Y124.372 E2.06902
G1 X101.416 Y125.45 E2.09739
G1 X102.779 Y126.479 E2.12239
G1 X104.246 Y127.089 E2.14564
G1 X105.644 Y127.509 E2.167
G1 X107.318 Y127.678 E2.19162
G1 X108.952 Y127.56 E2.2156
G1 X110.461 Y127.607 E2.23769
G1 X111.901 Y127.497 E2.25882
G1 X113.295 Y127.336 E2.27936
G1 X114.636 Y126.935 E2.29984
G1 X116.144 Y126.543 E2.32265
G1 X118.052 Y125.658 E2.35343
G1 X119.61 Y124.737 E2.37991
G1 X120.829 Y123.887 E2.40166
G1 X122.277 Y122.732 E2.42877
G1 X122.957 Y122.732 E2.43872
G1 X123.514 Y123.137 E2.4488
G1 X123.72 Y123.769 E2.45853
G1 X123.182 Y124.751 E2.47491
G1 X121.764 Y125.862 E2.50127
G1 X120.503 Y126.738 E2.52374
G1 X119.117 Y127.548 E2.54724
G1 X118.025 Y128.293 E2.56658
G1 X113.712 Y129.459 E2.63197
G1 X112.342 Y129.687 E2.65229
G1 X109.102 Y129.749 E2.69972
G1 X107.153 Y129.843 E2.72827
G1 X105.636 Y129.719 E2.75055
G1 X104.3 Y129.457 E2.77047
G1 X103.009 Y129.021 E2.79041
G1 X101.242 Y128.072 E2.81976
G1 X99.876 Y126.97 E2.84545
G1 X98.389 Y125.975 E2.87163
G1 X97.103 Y125.422 E2.89212
G1 X95.875 Y124.663 E2.91325
G1 X95.032 Y123.576 E2.93338
G1 X94.374 Y122.313 E2.95422
G1 X93.574 Y121.077 E2.97577
G1 X92.807 Y119.687 E2.999
G1 X92.175 Y118.449 E3.01934
G1 X91.34 Y116.437 E3.05122
G1 X90.629 Y114.139 E3.08642
G1 X90.421 Y112.663 E3.10824
G1 X90.318 Y111.27 E3.12868
G1 X90.271 Y109.666 E3.15216
G1 X90.155 Y108.213 E3.17349
G1 X90.246 Y106.527 E3.1982
G1 X90.648 Y105.085 E3.22011
G1 X91.851 Y102.175 E3.26619
G1 X92.096 Y100.714 E3.28787
G1 X92.783 Y99.56 E3.30753
G1 X93.769 Y98.488 E3.32884
G1 X94.644 Y97.36 E3.34973
G1 X95.419 Y96.071 E3.37174
;;retract;;
G1 F6000 E-4.62826
G0 F3600 X94.673 Y95.624
G0 X96.316 Y94.155
G0 X98.974 Y92.337
G0 X100.284 Y91.684
G0 X106.928 Y88.931
G0 X108.182 Y88.93
G0 X112.691 Y89.316
G0 X114.187 Y89.554
G0 X115.771 Y89.961
G0 X117.443 Y90.507
G0 X120.903 Y92.214
G0 X124.632 Y95.065
G0 X126.582 Y97.477
G0 X128.238 Y100.153
G0 X130.632 Y106.194
G0 X131.075 Y107.716
G0 X130.511 Y112.573
G0 X130.253 Y113.985
G0 X129.786 Y115.733
G0 X129.239 Y117.472
G0 X128.546 Y119.203
G0 X127.437 Y120.222
G0 X126.144 Y120.223
G0 X125.117 Y119.474
G0 X124.762 Y118.143
G0 X126.018 Y114.879
G0 X126.593 Y111.971
G0 X126.95 Y107.619
G0 X125.171 Y102.741
G0 X122.113 Y98.188
G0 X118.612 Y95.471
G0 X113.525 Y93.445
G0 X109.023 Y93.239
G0 X104.583 Y94.132
G0 X100.163 Y96.298
G0 X97.634 Y98.31
G0 X109.266 Y108.866
G0 X110.019 Y109.3
G1 F6000 E3.37174
G1 F1500 X110.49 Y108.957 E3.38027
G1 X111.046 Y108.957 E3.38841
G1 X111.498 Y109.286 E3.39659
G1 X111.664 Y109.794 E3.40441
G1 X111.167 Y110.693 E3.41944
G1 X110.698 Y111.034 E3.42793
G1 X110.142 Y111.034 E3.43607
G1 X109.695 Y110.708 E3.44416
G1 X109.54 Y110.13 E3.45292
G1 X110.019 Y109.3 E3.46694
;;retract;;
G1 F6000 E-4.53306
;MESH:
G0 F3600 X109.266 Y108.866
G0 X107.572 Y109.999
G0 X106.297 Y110.001
;TYPE:WALL-INNER
G1 F6000 E3.46694
G1 F1500 X106.355 Y110.638 E3.47865
G1 X106.514 Y111.244 E3.49011
G1 X106.775 Y111.816 E3.50161
G1 X107.127 Y112.333 E3.51305
G1 X107.563 Y112.786 E3.52455
G1 X108.07 Y113.159 E3.53606
G1 X108.632 Y113.439 E3.54755
G1 X109.231 Y113.62 E3.559
G1 X109.854 Y113.699 E3.57049
G1 X110.483 Y113.67 E3.582
G1 X111.095 Y113.535 E3.59347
G1 X111.678 Y113.3 E3.60497
G1 X112.211 Y112.968 E3.61645
G1 X112.68 Y112.552 E3.62792
G1 X113.073 Y112.063 E3.6394
G1 X113.377 Y111.513 E3.65089
G1 X113.585 Y110.921 E3.66237
G1 X113.689 Y110.307 E3.67376
G1 X113.687 Y109.674 E3.68534
G1 X113.579 Y109.056 E3.69682
G1 X113.368 Y108.464 E3.70832
G1 X113.06 Y107.917 E3.7198
G1 X112.663 Y107.429 E3.73131
G1 X112.191 Y107.018 E3.74276
G1 X111.657 Y106.69 E3.75422
G1 X111.072 Y106.458 E3.76573
G1 X110.459 Y106.328 E3.7772
G1 X109.831 Y106.302 E3.7887
G1 X109.208 Y106.385 E3.80019
G1 X108.609 Y106.571 E3.81167
G1 X108.05 Y106.854 E3.82313
G1 X107.546 Y107.229 E3.83462
G1 X107.112 Y107.684 E3.84612
G1 X106.763 Y108.206 E3.85761
G1 X106.506 Y108.778 E3.86908
G1 X106.35 Y109.385 E3.88054
G1 X106.297 Y110.001 E3.89185
G0 F3600 X106.699 Y110
;TYPE:WALL-OUTER
G1 F1500 X106.75 Y110.569 E3.90231
G1 X106.892 Y111.109 E3.91252
G1 X107.125 Y111.619 E3.92278
G1 X107.439 Y112.08 E3.93298
G1 X107.828 Y112.484 E3.94324
G1 X108.279 Y112.816 E3.95348
G1 X108.78 Y113.066 E3.96373
G1 X109.315 Y113.227 E3.97395
G1 X109.87 Y113.298 E3.98418
G1 X110.43 Y113.272 E3.99444
G1 X110.976 Y113.152 E4.00466
G1 X111.496 Y112.942 E4.01492
G1 X111.971 Y112.646 E4.02516
G1 X112.389 Y112.275 E4.03538
G1 X112.74 Y111.839 E4.04562
G1 X113.011 Y111.349 E4.05587
G1 X113.196 Y110.821 E4.0661
G1 X113.289 Y110.274 E4.07625
G1 X113.287 Y109.709 E4.08659
G1 X113.191 Y109.158 E4.09682
G1 X113.003 Y108.631 E4.10705
G1 X112.728 Y108.143 E4.1173
G1 X112.374 Y107.708 E4.12756
G1 X111.953 Y107.341 E4.13778
G1 X111.477 Y107.049 E4.14799
G1 X110.956 Y106.842 E4.15825
G1 X110.409 Y106.726 E4.16848
G1 X109.849 Y106.703 E4.17873
G1 X109.294 Y106.777 E4.18897
G1 X108.76 Y106.943 E4.1992
G1 X108.261 Y107.195 E4.20943
G1 X107.812 Y107.53 E4.21968
G1 X107.425 Y107.935 E4.22992
G1 X107.114 Y108.4 E4.24016
G1 X106.885 Y108.911 E4.2504
G1 X106.746 Y109.452 E4.26062
G1 X106.699 Y110 E4.27068
G0 F3600 X106.716 Y110.199
G0 X106.278 Y110.237
;;retract;;
G1 F6000 E-3.72932
G0 F3600 X107.572 Y109.999
G0 X111.935 Y93.447
G0 X111.859 Y94.714
;TYPE:WALL-INNER
G1 F6000 E4.27068
G1 F1500 X113.681 Y95.048 E4.30456
G1 X115.465 Y95.604 E4.33875
G1 X117.16 Y96.366 E4.37274
G1 X118.746 Y97.324 E4.40664
G1 X120.212 Y98.474 E4.44072
G1 X121.526 Y99.788 E4.47472
G1 X122.676 Y101.254 E4.5088
G1 X123.634 Y102.84 E4.5427
G1 X124.396 Y104.535 E4.57669
G1 X124.952 Y106.319 E4.61087
G1 X125.286 Y108.141 E4.64476
G1 X125.399 Y110 E4.67883
G1 X125.289 Y111.831 E4.71238
G1 X124.95 Y113.689 E4.74693
G1 X124.396 Y115.465 E4.78097
G1 X123.634 Y117.16 E4.81496
G1 X122.676 Y118.746 E4.84886
G1 X121.526 Y120.212 E4.88294
G1 X120.212 Y121.526 E4.91694
G1 X118.746 Y122.676 E4.95102
G1 X117.16 Y123.634 E4.98491
G1 X115.465 Y124.396 E5.01891
G1 X113.681 Y124.952 E5.05309
G1 X111.859 Y125.286 E5.08698
G1 X110 Y125.399 E5.12105
G1 X108.141 Y125.286 E5.15512
G1 X106.319 Y124.952 E5.189
G1 X104.535 Y124.396 E5.22319
G1 X102.84 Y123.634 E5.25718
G1 X101.254 Y122.676 E5.29108
G1 X99.788 Y121.526 E5.32516
G1 X98.474 Y120.212 E5.35916
G1 X97.324 Y118.746 E5.39324
G1 X96.366 Y117.16 E5.42713
G1 X95.604 Y115.465 E5.46113
G1 X95.048 Y113.681 E5.49531
G1 X94.714 Y111.859 E5.5292
G1 X94.601 Y110 E5.56327
G1 X94.714 Y108.141 E5.59734
G1 X95.048 Y106.319 E5.63122
G1 X95.604 Y104.535 E5.66541
G1 X96.366 Y102.84 E5.6994
G1 X97.324 Y101.254 E5.7333
G1 X98.474 Y99.788 E5.76738
G1 X99.788 Y98.474 E5.80138
G1 X101.254 Y97.324 E5.83546
G1 X102.84 Y96.366 E5.86935
G1 X104.535 Y95.604 E5.90335
G1 X106.319 Y95.048 E5.93753
G1 X108.141 Y94.714 E5.97142
G1 X110 Y94.601 E6.00549
G1 X111.859 Y94.714 E6.03956
G0 F3600 X111.906 Y94.316
;TYPE:WALL-OUTER
G1 F1500 X113.781 Y94.66 E6.07443
G1 X115.607 Y95.229 E6.10942
G1 X117.343 Y96.01 E6.14424
G1 X118.977 Y96.997 E6.17916
G1 X120.478 Y98.174 E6.21405
G1 X121.826 Y99.522 E6.24893
G1 X123.003 Y101.023 E6.28382
G1 X123.99 Y102.657 E6.31874
G1 X124.771 Y104.393 E6.35356
G1 X125.34 Y106.219 E6.38855
G1 X125.684 Y108.094 E6.42342
G1 X125.799 Y110 E6.45835
G1 X125.686 Y111.886 E6.49291
G1 X125.34 Y113.782 E6.52817
G1 X124.771 Y115.607 E6.56314
G1 X123.99 Y117.343 E6.59796
G1 X123.003 Y118.977 E6.63288
G1 X121.826 Y120.478 E6.66778
G1 X120.478 Y121.826 E6.70265
G1 X118.977 Y123.003 E6.73754
G1 X117.343 Y123.99 E6.77246
G1 X115.607 Y124.771 E6.80729
G1 X113.781 Y125.34 E6.84227
G1 X111.906 Y125.684 E6.87715
G1 X110 Y125.799 E6.91208
G1 X108.094 Y125.684 E6.94701
G1 X106.219 Y125.34 E6.98188
G1 X104.393 Y124.771 E7.01687
G1 X102.657 Y123.99 E7.05169
G1 X101.023 Y123.003 E7.08661
G1 X99.522 Y121.826 E7.1215
G1 X98.174 Y120.478 E7.15637
G1 X96.997 Y118.977 E7.19127
G1 X96.01 Y117.343 E7.22619
G1 X95.229 Y115.607 E7.26101
G1 X94.66 Y113.781 E7.296
G1 X94.316 Y111.906 E7.33087
G1 X94.201 Y110 E7.3658
G1 X94.316 Y108.094 E7.40073
G1 X94.66 Y106.219 E7.4356
G1 X95.229 Y104.393 E7.47059
G1 X96.01 Y102.657 E7.50541
G1 X96.997 Y101.023 E7.54033
G1 X98.174 Y99.522 E7.57523
G1 X99.522 Y98.174 E7.6101
G1 X101.023 Y96.997 E7.64499
G1 X102.657 Y96.01 E7.67991
G1 X104.393 Y95.229 E7.71474
G1 X106.219 Y94.66 E7.74972
G1 X108.094 Y94.316 E7.78459
G1 X110 Y94.201 E7.81952
G1 X111.906 Y94.316 E7.85445
G0 F3600 X112.102 Y94.352
G0 X112.022 Y94.783
;;retract;;
G1 F6000 E-0.14555
G0 F3600 X112.258 Y93.496
G0 X113.995 Y93.816
G0 X115.922 Y94.417
G0 X117.404 Y95.084
G0 X118.991 Y95.99
G0 X118.212 Y97.282
;TYPE:SKIN
G1 F6000 E7.85445
G1 F1500 X117.045 Y96.577 E7.8794
G1 X116.857 Y96.493 E7.88316
G1 X123.506 Y103.142 E8.05517
G1 X123.969 Y104.17 E8.0758
G1 X115.829 Y96.03 E8.28638
G1 X115.386 Y95.83 E8.29527
G1 X114.918 Y95.685 E8.30424
G1 X124.314 Y105.081 E8.54731
G1 X124.57 Y105.902 E8.56305
G1 X114.097 Y95.429 E8.83399
G1 X113.62 Y95.281 E8.84312
G1 X113.33 Y95.228 E8.84852
G1 X124.771 Y106.669 E9.1445
G1 X124.899 Y107.362 E9.15739
G1 X112.637 Y95.1 E9.47461
G1 X111.944 Y94.973 E9.4875
G1 X125.026 Y108.055 E9.82593
G1 X125.046 Y108.166 E9.828
G1 X125.077 Y108.672 E9.83727
G1 X111.327 Y94.922 E10.19299
G1 X110.725 Y94.886 E10.20402
G1 X125.113 Y109.274 E10.57624
G1 X125.15 Y109.876 E10.58728
G1 X110.123 Y94.849 E10.97603
G1 X109.999 Y94.842 E10.9783
G1 X109.576 Y94.868 E10.98605
G1 X125.131 Y110.423 E11.38847
G1 X125.099 Y110.957 E11.39825
G1 X109.042 Y94.9 E11.81365
G1 X108.508 Y94.931 E11.82344
G1 X125.068 Y111.491 E12.25185
G1 X125.049 Y111.806 E12.25762
G1 X125.013 Y112.002 E12.26127
G1 X107.995 Y94.984 E12.70153
G1 X107.517 Y95.071 E12.71042
G1 X124.925 Y112.48 E13.16078
G1 X124.838 Y112.959 E13.16969
G1 X107.039 Y95.16 E13.63015
G1 X106.561 Y95.247 E13.63904
G1 X124.751 Y113.437 E14.10962
G1 X124.715 Y113.629 E14.11319
G1 X124.636 Y113.888 E14.11815
G1 X106.112 Y95.364 E14.59737
G1 X105.681 Y95.499 E14.60563
G1 X124.501 Y114.319 E15.09251
G1 X124.366 Y114.749 E15.10075
G1 X105.25 Y95.633 E15.59529
G1 X104.818 Y95.767 E15.60357
G1 X124.232 Y115.181 E16.10581
G1 X124.167 Y115.387 E16.10976
G1 X124.076 Y115.591 E16.11385
G1 X104.408 Y95.923 E16.62267
G1 X104.018 Y96.098 E16.63049
