;FLAVOR:Marlin
;TIME:184
;Filament used: 0.05417m
;Layer height: 0.2
;MINX:134.775
;MINY:134.806
;MINZ:0.2
;MAXX:165.215
;MAXY:165.205
;MAXZ:3
;Generated with Creality Slicer 4.8.2-191
M140 S50
M105
M190 S50
M104 S200
M105
M109 S200
M82 ;absolute extrusion mode

G28 ;Home

G92 E0 ;Reset Extruder
G1 Z2.0 F3000 ;Move Z Axis up
G1 X10.1 Y20 Z0.28 F5000.0 ;Move to start position
G1 X10.1 Y200.0 Z0.28 F1500.0 E15 ;Draw the first line
G1 X10.4 Y200.0 Z0.28 F5000.0 ;Move to side a little
G1 X10.4 Y20 Z0.28 F1500.0 E30 ;Draw the second line
G92 E0 ;Reset Extruder
G1 Z2.0 F3000 ;Move Z Axis up

G92 E0
G92 E0
G1 F2700 E-5
;LAYER_COUNT:15
;LAYER:0
M107
G0 F6000 X138.968 Y139.524 Z0.2
;TYPE:SKIRT
G1 F2700 E0
G1 F1200 X139.643 Y138.873 E0.03119
G1 X140.441 Y138.23 E0.06528
G1 X140.906 Y137.89 E0.08444
G1 X141.707 Y137.317 E0.11719
G1 X142.492 Y136.805 E0.14836
G1 X143.121 Y136.459 E0.17224
G1 X143.416 Y136.309 E0.18325
G1 X144.27 Y135.92 E0.21446
G1 X145.153 Y135.605 E0.24564
G1 X146.074 Y135.363 E0.27731
G1 X146.83 Y135.2 E0.30304
G1 X147.609 Y135.041 E0.32948
G1 X148.535 Y134.893 E0.36067
G1 X149.199 Y134.836 E0.38284
G1 X149.523 Y134.818 E0.39363
G1 X150.461 Y134.806 E0.42483
G1 X151.396 Y134.874 E0.45601
G1 X152.374 Y135.032 E0.48896
G1 X153.022 Y135.168 E0.51098
G1 X153.955 Y135.376 E0.54278
G1 X154.86 Y135.618 E0.57393
G1 X155.46 Y135.826 E0.59505
G1 X155.737 Y135.931 E0.60491
G1 X156.599 Y136.301 E0.63611
G1 X157.426 Y136.742 E0.66728
G1 X158.297 Y137.313 E0.70192
G1 X158.852 Y137.716 E0.72473
G1 X159.581 Y138.256 E0.75491
G1 X160.31 Y138.846 E0.7861
G1 X160.791 Y139.297 E0.80803
G1 X160.986 Y139.491 E0.81718
G1 X161.622 Y140.18 E0.84836
G1 X162.197 Y140.921 E0.87956
G1 X162.72 Y141.73 E0.9116
G1 X162.983 Y142.181 E0.92897
G1 X163.521 Y143.129 E0.96522
G1 X163.948 Y143.963 E0.99638
G1 X164.203 Y144.563 E1.01807
G1 X164.318 Y144.858 E1.0286
G1 X164.621 Y145.745 E1.05977
G1 X164.847 Y146.655 E1.09096
G1 X165.004 Y147.66 E1.12479
G1 X165.061 Y148.184 E1.14232
G1 X165.165 Y149.255 E1.17811
G1 X165.215 Y150.191 E1.20929
G1 X165.203 Y150.851 E1.23124
G1 X165.19 Y151.119 E1.24017
G1 X165.105 Y152.053 E1.27136
G1 X164.94 Y152.976 E1.30255
G1 X164.695 Y153.889 E1.33399
G1 X164.517 Y154.451 E1.35359
G1 X164.16 Y155.519 E1.39105
G1 X163.825 Y156.395 E1.42224
G1 X163.529 Y157.024 E1.44536
G1 X163.42 Y157.238 E1.45335
G1 X162.959 Y158.055 E1.48455
G1 X162.43 Y158.83 E1.51576
G1 X161.86 Y159.531 E1.54581
G1 X161.548 Y159.884 E1.56148
G1 X160.705 Y160.804 E1.60298
G1 X160.042 Y161.467 E1.63417
G1 X159.566 Y161.879 E1.65511
G1 X159.358 Y162.049 E1.66404
G1 X158.607 Y162.611 E1.69524
G1 X157.811 Y163.107 E1.72643
G1 X156.917 Y163.561 E1.75978
G1 X156.36 Y163.81 E1.78008
G1 X156.138 Y163.905 E1.78811
G1 X155.394 Y164.231 E1.81512
G1 X154.519 Y164.57 E1.84633
G1 X153.553 Y164.849 E1.87978
G1 X153.345 Y164.899 E1.88689
G1 X152.425 Y165.079 E1.91807
G1 X151.492 Y165.181 E1.94929
G1 X150.791 Y165.204 E1.97262
G1 X150.047 Y165.205 E1.99736
G1 X149.202 Y165.198 E2.02547
G1 X148.265 Y165.15 E2.05667
G1 X147.585 Y165.065 E2.07947
G1 X147.286 Y165.018 E2.08953
G1 X146.366 Y164.833 E2.12075
G1 X145.466 Y164.57 E2.15193
G1 X144.549 Y164.213 E2.18466
G1 X143.933 Y163.94 E2.20707
G1 X143.093 Y163.557 E2.23778
G1 X142.257 Y163.132 E2.26897
G1 X141.657 Y162.768 E2.29231
G1 X141.408 Y162.606 E2.30219
G1 X140.645 Y162.062 E2.33336
G1 X139.93 Y161.454 E2.36457
G1 X139.248 Y160.764 E2.39684
G1 X138.812 Y160.281 E2.41848
G1 X138.155 Y159.539 E2.45145
G1 X137.564 Y158.811 E2.48263
G1 X137.04 Y158.04 E2.51364
G1 X136.926 Y157.856 E2.52084
G1 X136.467 Y157.039 E2.55201
G1 X136.079 Y156.185 E2.58321
G1 X135.82 Y155.475 E2.60834
G1 X135.535 Y154.602 E2.63889
G1 X135.331 Y153.953 E2.66151
G1 X135.088 Y153.047 E2.69271
G1 X134.97 Y152.434 E2.71348
G1 X134.92 Y152.129 E2.72375
G1 X134.808 Y151.197 E2.75498
G1 X134.775 Y150.26 E2.78616
G1 X134.832 Y149.233 E2.82037
G1 X134.889 Y148.674 E2.83906
G1 X134.998 Y147.701 E2.87162
G1 X135.141 Y146.774 E2.90282
G1 X135.296 Y146.107 E2.9256
G1 X135.38 Y145.789 E2.93654
G1 X135.658 Y144.893 E2.96774
G1 X136.011 Y144.024 E2.99894
G1 X136.5 Y143.079 E3.03433
G1 X136.843 Y142.488 E3.05705
G1 X137.272 Y141.759 E3.08519
G1 X137.781 Y140.972 E3.11636
G1 X138.166 Y140.462 E3.13761
G1 X138.351 Y140.231 E3.14746
G1 X138.968 Y139.524 E3.17867
G0 F6000 X139.269 Y139.788
G1 F1200 X139.933 Y139.15 E3.20929
G1 X140.678 Y138.552 E3.24107
G1 X141.139 Y138.216 E3.26004
G1 X141.94 Y137.643 E3.2928
G1 X142.711 Y137.14 E3.32342
G1 X143.303 Y136.815 E3.34588
G1 X143.598 Y136.665 E3.35688
G1 X144.436 Y136.284 E3.3875
G1 X145.304 Y135.977 E3.41812
G1 X146.158 Y135.754 E3.44748
G1 X146.91 Y135.592 E3.47307
G1 X147.689 Y135.433 E3.49951
G1 X148.598 Y135.288 E3.53013
G1 X149.221 Y135.235 E3.55092
G1 X149.545 Y135.217 E3.56171
G1 X150.466 Y135.206 E3.59235
G1 X151.384 Y135.275 E3.62297
G1 X152.292 Y135.423 E3.65357
G1 X152.935 Y135.558 E3.67542
G1 X153.868 Y135.766 E3.70721
G1 X154.757 Y136.005 E3.73783
G1 X155.318 Y136.2 E3.75759
G1 X155.595 Y136.305 E3.76744
G1 X156.441 Y136.669 E3.79807
G1 X157.252 Y137.104 E3.82868
G1 X158.062 Y137.636 E3.86091
G1 X158.613 Y138.037 E3.88358
G1 X159.342 Y138.577 E3.91375
G1 X160.058 Y139.157 E3.9444
G1 X160.509 Y139.58 E3.96496
G1 X160.704 Y139.774 E3.97411
G1 X161.328 Y140.451 E4.00474
G1 X161.891 Y141.18 E4.03537
G1 X162.375 Y141.932 E4.06512
G1 X162.635 Y142.378 E4.08229
G1 X163.173 Y143.326 E4.11854
G1 X163.592 Y144.146 E4.14917
G1 X163.83 Y144.708 E4.16947
G1 X163.945 Y145.003 E4.18
G1 X164.242 Y145.874 E4.21061
G1 X164.462 Y146.768 E4.24123
G1 X164.606 Y147.703 E4.27269
G1 X164.662 Y148.223 E4.29009
G1 X164.766 Y149.294 E4.32588
G1 X164.815 Y150.213 E4.35649
G1 X164.804 Y150.832 E4.37708
G1 X164.791 Y151.1 E4.386
G1 X164.706 Y152.016 E4.4166
G1 X164.542 Y152.922 E4.44722
G1 X164.314 Y153.769 E4.4764
G1 X164.195 Y154.147 E4.48958
G1 X163.78 Y155.392 E4.53323
G1 X163.451 Y156.252 E4.56385
G1 X163.172 Y156.843 E4.58559
G1 X163.063 Y157.057 E4.59358
G1 X162.61 Y157.858 E4.62418
G1 X162.089 Y158.618 E4.65483
G1 X161.56 Y159.266 E4.68265
G1 X161.112 Y159.77 E4.70508
G1 X160.411 Y160.533 E4.73954
G1 X159.759 Y161.184 E4.77019
G1 X159.313 Y161.569 E4.78978
G1 X159.105 Y161.739 E4.79872
G1 X158.368 Y162.291 E4.82934
G1 X157.585 Y162.776 E4.85998
G1 X156.752 Y163.196 E4.89101
G1 X156.202 Y163.442 E4.91105
G1 X155.934 Y163.557 E4.92075
G1 X155.233 Y163.864 E4.9462
G1 X154.375 Y164.196 E4.9768
G1 X153.46 Y164.46 E5.00847
G1 X153.252 Y164.51 E5.01559
G1 X152.348 Y164.687 E5.04623
G1 X151.432 Y164.784 E5.07686
G1 X150.791 Y164.804 E5.09819
G1 X150.05 Y164.805 E5.12284
G1 X149.205 Y164.798 E5.15094
G1 X148.286 Y164.75 E5.18155
G1 X147.647 Y164.669 E5.20297
G1 X147.348 Y164.622 E5.21304
G1 X146.446 Y164.44 E5.24365
G1 X145.562 Y164.18 E5.27429
G1 X144.711 Y163.847 E5.30469
G1 X144.098 Y163.576 E5.32698
G1 X143.258 Y163.193 E5.35769
G1 X142.438 Y162.775 E5.3883
G1 X141.875 Y162.433 E5.41021
G1 X141.626 Y162.271 E5.42009
G1 X140.877 Y161.736 E5.4507
G1 X140.177 Y161.138 E5.48132
G1 X139.545 Y160.496 E5.51129
G1 X139.112 Y160.016 E5.53279
G1 X138.455 Y159.274 E5.56575
G1 X137.875 Y158.559 E5.59637
G1 X137.38 Y157.83 E5.62568
G1 X137.266 Y157.646 E5.63288
G1 X136.816 Y156.843 E5.6635
G1 X136.437 Y156.004 E5.69412
G1 X136.2 Y155.351 E5.71722
G1 X135.917 Y154.482 E5.74762
G1 X135.713 Y153.833 E5.77024
G1 X135.475 Y152.943 E5.80089
G1 X135.365 Y152.369 E5.82033
G1 X135.315 Y152.064 E5.8306
G1 X135.205 Y151.15 E5.86122
G1 X135.176 Y150.23 E5.89184
G1 X135.23 Y149.274 E5.92369
G1 X135.287 Y148.715 E5.94237
G1 X135.396 Y147.745 E5.97484
G1 X135.537 Y146.836 E6.00544
G1 X135.683 Y146.209 E6.02685
G1 X135.767 Y145.891 E6.03779
G1 X136.04 Y145.012 E6.0684
G1 X136.389 Y144.16 E6.09902
G1 X136.846 Y143.28 E6.132
G1 X137.187 Y142.691 E6.15464
G1 X137.616 Y141.962 E6.18277
G1 X138.117 Y141.19 E6.21338
G1 X138.478 Y140.712 E6.23331
G1 X138.663 Y140.481 E6.24315
G1 X139.269 Y139.788 E6.27377
G0 F6000 X139.571 Y140.052
G1 F1200 X140.224 Y139.428 E6.30381
G1 X140.914 Y138.875 E6.33322
G1 X141.371 Y138.541 E6.35205
G1 X142.172 Y137.968 E6.3848
G1 X142.93 Y137.476 E6.41486
G1 X143.484 Y137.172 E6.43588
G1 X143.779 Y137.022 E6.44688
G1 X144.601 Y136.649 E6.47691
G1 X145.453 Y136.349 E6.50695
G1 X146.243 Y136.145 E6.53409
G1 X146.99 Y135.984 E6.5595
G1 X147.769 Y135.825 E6.58595
G1 X148.661 Y135.684 E6.61598
G1 X149.243 Y135.635 E6.63541
G1 X149.567 Y135.617 E6.6462
G1 X150.47 Y135.607 E6.67624
G1 X151.371 Y135.676 E6.70629
G1 X152.211 Y135.815 E6.73461
G1 X152.847 Y135.948 E6.75622
G1 X153.78 Y136.156 E6.78802
G1 X154.652 Y136.392 E6.81806
G1 X155.176 Y136.574 E6.83651
G1 X155.453 Y136.679 E6.84636
G1 X156.283 Y137.036 E6.87642
G1 X157.077 Y137.466 E6.90645
G1 X157.827 Y137.96 E6.93632
G1 X158.375 Y138.359 E6.95886
G1 X159.104 Y138.899 E6.98904
G1 X159.806 Y139.468 E7.01909
G1 X160.227 Y139.864 E7.03832
G1 X160.422 Y140.058 E7.04747
G1 X161.033 Y140.723 E7.0775
G1 X161.584 Y141.439 E7.10755
G1 X162.03 Y142.134 E7.13502
G1 X162.287 Y142.576 E7.15202
G1 X162.825 Y143.524 E7.18828
G1 X163.236 Y144.328 E7.21831
G1 X163.457 Y144.853 E7.23726
G1 X163.572 Y145.148 E7.24779
G1 X163.863 Y146.003 E7.27783
G1 X164.077 Y146.881 E7.30788
G1 X164.209 Y147.746 E7.33699
G1 X164.264 Y148.261 E7.35421
G1 X164.368 Y149.332 E7.39
G1 X164.416 Y150.234 E7.42005
G1 X164.404 Y150.812 E7.43927
G1 X164.391 Y151.08 E7.4482
G1 X164.307 Y151.979 E7.47823
G1 X164.145 Y152.868 E7.50828
G1 X163.932 Y153.649 E7.53521
G1 X163.758 Y154.198 E7.55436
G1 X163.401 Y155.266 E7.59182
G1 X163.077 Y156.109 E7.62186
G1 X162.816 Y156.661 E7.64216
G1 X162.707 Y156.875 E7.65015
G1 X162.262 Y157.661 E7.68019
G1 X161.749 Y158.405 E7.71025
G1 X161.261 Y159.001 E7.73587
G1 X160.949 Y159.354 E7.75154
G1 X160.116 Y160.263 E7.79255
G1 X159.476 Y160.9 E7.82258
G1 X159.06 Y161.26 E7.84088
G1 X158.852 Y161.43 E7.84982
G1 X158.128 Y161.97 E7.87986
G1 X157.359 Y162.444 E7.9099
G1 X156.588 Y162.831 E7.93859
G1 X156.044 Y163.074 E7.95841
G1 X155.073 Y163.498 E7.99365
G1 X154.23 Y163.823 E8.0237
G1 X153.366 Y164.071 E8.0536
G1 X153.158 Y164.121 E8.06071
G1 X152.271 Y164.293 E8.09076
G1 X151.373 Y164.386 E8.12079
G1 X150.79 Y164.404 E8.14019
G1 X150.054 Y164.405 E8.16467
G1 X149.209 Y164.398 E8.19278
G1 X148.307 Y164.35 E8.22282
G1 X147.709 Y164.274 E8.24287
G1 X147.41 Y164.227 E8.25294
G1 X146.525 Y164.048 E8.28297
G1 X145.659 Y163.79 E8.31302
G1 X144.872 Y163.481 E8.34114
G1 X144.264 Y163.212 E8.36326
G1 X143.424 Y162.829 E8.39396
G1 X142.62 Y162.418 E8.42399
G1 X142.093 Y162.098 E8.4445
G1 X141.844 Y161.936 E8.45438
G1 X141.11 Y161.41 E8.48442
G1 X140.425 Y160.822 E8.51444
G1 X139.842 Y160.227 E8.54215
G1 X139.411 Y159.751 E8.5635
G1 X138.754 Y159.009 E8.59647
G1 X138.186 Y158.307 E8.6265
G1 X137.72 Y157.619 E8.65414
G1 X137.606 Y157.435 E8.66134
G1 X137.165 Y156.647 E8.69137
G1 X136.795 Y155.823 E8.72142
G1 X136.58 Y155.227 E8.74249
G1 X136.298 Y154.362 E8.77275
G1 X136.094 Y153.713 E8.79538
G1 X135.862 Y152.84 E8.82542
G1 X135.759 Y152.304 E8.84357
G1 X135.709 Y151.999 E8.85385
G1 X135.603 Y151.102 E8.8839
G1 X135.576 Y150.2 E8.91391
G1 X135.628 Y149.314 E8.94343
G1 X135.685 Y148.755 E8.96212
G1 X135.793 Y147.79 E8.99441
G1 X135.933 Y146.897 E9.02448
G1 X136.069 Y146.311 E9.04449
G1 X136.153 Y145.993 E9.05543
G1 X136.422 Y145.131 E9.08546
G1 X136.767 Y144.296 E9.11551
G1 X137.192 Y143.48 E9.14611
G1 X137.532 Y142.894 E9.16864
G1 X137.961 Y142.165 E9.19678
G1 X138.453 Y141.408 E9.22681
G1 X138.791 Y140.962 E9.24542
G1 X138.976 Y140.731 E9.25526
G1 X139.571 Y140.052 E9.28529
G1 F2700 E4.28529
;MESH:15?????????3.STL
G0 F6000 X146.312 Y147.905
G0 X147.658 Y148.684
G0 X148.082 Y148.741
G0 X148.066 Y150.199
G0 X148.237 Y150.844
G0 X148.607 Y151.385
G0 X149.036 Y151.698
G0 X150.101 Y152.135
;TYPE:WALL-INNER
G1 F2700 E9.28529
G1 F1200 X150.456 Y152.087 E9.2972
G1 X150.794 Y151.98 E9.309
G1 X151.111 Y151.818 E9.32084
G1 X151.397 Y151.605 E9.3327
G1 X151.642 Y151.346 E9.34455
G1 X151.841 Y151.051 E9.35639
G1 X151.986 Y150.723 E9.36832
G1 X152.072 Y150.381 E9.38005
G1 X152.103 Y150.025 E9.39193
G1 X152.069 Y149.669 E9.40383
G1 X151.978 Y149.325 E9.41566
G1 X151.829 Y148.999 E9.42758
G1 X151.626 Y148.706 E9.43944
G1 X151.38 Y148.451 E9.45122
G1 X151.092 Y148.239 E9.46312
G1 X150.772 Y148.08 E9.475
G1 X150.433 Y147.979 E9.48677
G1 X150.079 Y147.934 E9.49864
G1 X149.72 Y147.952 E9.51059
G1 X149.373 Y148.029 E9.52241
G1 X149.044 Y148.164 E9.53424
G1 X148.742 Y148.351 E9.54606
G1 X148.475 Y148.589 E9.55795
G1 X148.252 Y148.867 E9.56981
G1 X148.08 Y149.18 E9.58169
G1 X147.964 Y149.515 E9.59348
G1 X147.905 Y149.861 E9.60515
G1 X147.905 Y150.213 E9.61686
G1 X147.966 Y150.567 E9.62881
G1 X148.09 Y150.911 E9.64097
G1 X148.264 Y151.22 E9.65276
G1 X148.491 Y151.498 E9.6647
G1 X148.76 Y151.731 E9.67654
G1 X149.065 Y151.916 E9.6884
G1 X149.395 Y152.047 E9.70021
G1 X149.742 Y152.12 E9.712
G1 X150.101 Y152.135 E9.72395
G0 F6000 X150.082 Y151.734
;TYPE:WALL-OUTER
G1 F1200 X150.368 Y151.695 E9.73356
G1 X150.642 Y151.609 E9.74311
G1 X150.899 Y151.477 E9.75272
G1 X151.13 Y151.305 E9.7623
G1 X151.329 Y151.095 E9.77192
G1 X151.489 Y150.857 E9.78146
G1 X151.606 Y150.592 E9.79109
G1 X151.676 Y150.314 E9.80063
G1 X151.701 Y150.026 E9.81024
G1 X151.674 Y149.739 E9.81983
G1 X151.6 Y149.46 E9.82943
G1 X151.48 Y149.197 E9.83904
G1 X151.316 Y148.96 E9.84863
G1 X151.116 Y148.753 E9.8582
G1 X150.883 Y148.582 E9.86782
G1 X150.625 Y148.454 E9.8774
G1 X150.35 Y148.372 E9.88694
G1 X150.064 Y148.335 E9.89653
G1 X149.774 Y148.35 E9.90619
G1 X149.493 Y148.412 E9.91576
G1 X149.227 Y148.521 E9.92532
G1 X148.982 Y148.673 E9.93491
G1 X148.766 Y148.865 E9.94452
G1 X148.586 Y149.09 E9.95411
G1 X148.447 Y149.343 E9.96371
G1 X148.353 Y149.615 E9.97328
G1 X148.305 Y149.895 E9.98273
G1 X148.305 Y150.179 E9.99217
G1 X148.354 Y150.464 E10.00179
G1 X148.455 Y150.744 E10.01169
G1 X148.596 Y150.994 E10.02124
G1 X148.779 Y151.218 E10.03086
G1 X148.997 Y151.407 E10.04046
G1 X149.244 Y151.557 E10.05007
G1 X149.511 Y151.663 E10.05962
G1 X149.792 Y151.722 E10.06917
G1 X150.082 Y151.734 E10.07883
G0 F6000 X150.102 Y152.173
G0 X150.534 Y152.536
;TYPE:WALL-INNER
G1 F1200 X150 Y152.558 E10.0966
G1 X149.47 Y152.536 E10.11424
G1 X148.974 Y152.34 E10.13198
G1 X148.496 Y152.103 E10.14973
G1 X148.122 Y151.722 E10.16749
G1 X147.785 Y151.31 E10.18519
G1 X147.599 Y150.813 E10.20284
G1 X147.459 Y150.305 E10.22037
G1 X147.491 Y149.773 E10.23809
G1 X147.568 Y149.243 E10.2559
G1 X147.814 Y148.776 E10.27346
G1 X148.101 Y148.322 E10.29132
G1 X148.51 Y148 E10.30864
G1 X148.955 Y147.702 E10.32645
G1 X149.478 Y147.566 E10.34442
G1 X150 Y147.479 E10.36203
G1 X150.522 Y147.566 E10.37963
G1 X151.044 Y147.702 E10.39757
G1 X151.491 Y148 E10.41544
G1 X151.899 Y148.322 E10.43272
G1 X152.187 Y148.776 E10.45061
G1 X152.432 Y149.242 E10.46812
G1 X152.509 Y149.769 E10.48583
G1 X152.542 Y150.303 E10.50363
G1 X152.4 Y150.814 E10.52127
G1 X152.214 Y151.312 E10.53895
G1 X151.883 Y151.715 E10.55629
G1 X151.503 Y152.102 E10.57433
G1 X151.026 Y152.341 E10.59208
G1 X150.534 Y152.536 E10.60968
G0 F6000 X150.838 Y153.975
;TYPE:WALL-OUTER
G1 F1200 X150.643 Y153.74 E10.61984
G1 X150.555 Y153.558 E10.62656
G1 X150.464 Y153.115 E10.6416
G1 X150.425 Y152.941 E10.64753
G1 X150 Y152.959 E10.66168
G1 X149.572 Y152.941 E10.67593
G1 X149.448 Y153.55 E10.6966
G1 X149.361 Y153.733 E10.70334
G1 X149.163 Y153.974 E10.71371
G1 X149.081 Y153.679 E10.7239
G1 X149.074 Y153.475 E10.73069
G1 X149.166 Y153.052 E10.74508
G1 X149.233 Y152.873 E10.75144
G1 X148.808 Y152.705 E10.76664
G1 X148.427 Y152.515 E10.7808
G1 X148.066 Y153.021 E10.80147
G1 X147.912 Y153.153 E10.80822
G1 X147.633 Y153.293 E10.8186
G1 X147.677 Y152.991 E10.82875
G1 X147.754 Y152.802 E10.83554
G1 X148.011 Y152.452 E10.84998
G1 X148.136 Y152.306 E10.85638
G1 X147.821 Y151.985 E10.87133
G1 X147.555 Y151.661 E10.88528
G1 X147.021 Y151.976 E10.9059
G1 X146.825 Y152.034 E10.9127
G1 X146.513 Y152.049 E10.92309
G1 X146.676 Y151.791 E10.93324
G1 X146.822 Y151.651 E10.93996
G1 X147.213 Y151.428 E10.95493
G1 X147.372 Y151.349 E10.96084
