;FLAVOR:Marlin
;TIME:6297
;Filament used: 3.94869m
;Layer height: 0.2
;MINX:125.292
;MINY:125.282
;MINZ:0.2
;MAXX:174.71
;MAXY:174.718
;MAXZ:50
;Generated with Creality Slicer 4.8.2-191
M140 S50
M105
M190 S50
M104 S200
M105
M109 S200
M82 ;absolute extrusion mode

G28 ;Home

G92 E0 ;Reset Extruder
G1 Z2.0 F3000 ;Move Z Axis up
G1 X10.1 Y20 Z0.28 F5000.0 ;Move to start position
G1 X10.1 Y200.0 Z0.28 F1500.0 E15 ;Draw the first line
G1 X10.4 Y200.0 Z0.28 F5000.0 ;Move to side a little
G1 X10.4 Y20 Z0.28 F1500.0 E30 ;Draw the second line
G92 E0 ;Reset Extruder
G1 Z2.0 F3000 ;Move Z Axis up

G92 E0
G92 E0
G1 F2700 E-5
;LAYER_COUNT:250
;LAYER:0
M107
G0 F6000 X129.504 Y128.873 Z0.2
;TYPE:SKIRT
G1 F2700 E0
G1 F1200 X130.221 Y128.269 E0.03118
G1 X130.978 Y127.733 E0.06203
G1 X131.368 Y127.481 E0.07748
G1 X131.735 Y127.254 E0.09183
G1 X131.931 Y127.138 E0.0994
G1 X132.758 Y126.695 E0.13061
G1 X133.317 Y126.444 E0.15099
G1 X133.582 Y126.334 E0.16053
G1 X134.463 Y126.012 E0.19173
G1 X134.987 Y125.859 E0.20989
G1 X135.369 Y125.758 E0.22303
G1 X136.285 Y125.558 E0.25421
G1 X137.138 Y125.443 E0.28284
G1 X137.18 Y125.439 E0.28424
G1 X137.992 Y125.391 E0.3113
G1 X139.326 Y125.363 E0.35568
G1 X139.554 Y125.361 E0.36326
G1 X143.493 Y125.36 E0.49427
G1 X146.62 Y125.309 E0.59829
G1 X147.29 Y125.287 E0.62058
G1 X147.757 Y125.282 E0.63612
G1 X150.513 Y125.31 E0.72779
G1 X151.754 Y125.293 E0.76907
G1 X152.038 Y125.293 E0.77851
G1 X153.477 Y125.31 E0.82638
G1 X153.755 Y125.317 E0.83563
G1 X154.255 Y125.336 E0.85227
G1 X156.41 Y125.361 E0.92395
G1 X160.994 Y125.361 E1.07641
G1 X161.638 Y125.37 E1.09784
G1 X162.02 Y125.382 E1.11055
G1 X162.684 Y125.428 E1.13269
G1 X162.943 Y125.454 E1.14134
G1 X163.871 Y125.587 E1.17252
G1 X164.56 Y125.74 E1.196
G1 X164.819 Y125.806 E1.20489
G1 X165.717 Y126.076 E1.23608
G1 X166.165 Y126.242 E1.25197
G1 X166.467 Y126.362 E1.26278
G1 X167.323 Y126.746 E1.29398
G1 X167.956 Y127.088 E1.31791
G1 X168.577 Y127.451 E1.34183
G1 X169.387 Y127.973 E1.37388
G1 X170.129 Y128.546 E1.40507
G1 X170.82 Y129.181 E1.43628
G1 X171.454 Y129.871 E1.46745
G1 X172.212 Y130.883 E1.5095
G1 X172.326 Y131.055 E1.51636
G1 X172.585 Y131.465 E1.53249
G1 X172.82 Y131.856 E1.54767
G1 X173.269 Y132.68 E1.57888
G1 X173.533 Y133.26 E1.60007
G1 X173.628 Y133.486 E1.60823
G1 X173.954 Y134.366 E1.63944
G1 X174.118 Y134.924 E1.65878
G1 X174.236 Y135.368 E1.67406
G1 X174.438 Y136.284 E1.70526
G1 X174.568 Y137.286 E1.73887
G1 X174.591 Y137.564 E1.74814
G1 X174.627 Y138.294 E1.77245
G1 X174.638 Y138.978 E1.79521
G1 X174.64 Y143.584 E1.9484
G1 X174.685 Y146.075 E2.03127
G1 X174.681 Y146.245 E2.03692
G1 X174.707 Y147.416 E2.07588
G1 X174.71 Y147.732 E2.08639
G1 X174.701 Y148.979 E2.12787
G1 X174.69 Y149.54 E2.14653
G1 X174.71 Y151.673 E2.21748
G1 X174.696 Y153.278 E2.27086
G1 X174.689 Y153.562 E2.28031
G1 X174.658 Y154.47 E2.31053
G1 X174.639 Y156.287 E2.37097
G1 X174.639 Y160.955 E2.52622
G1 X174.629 Y161.665 E2.54984
G1 X174.598 Y162.345 E2.57248
G1 X174.577 Y162.621 E2.58169
G1 X174.438 Y163.717 E2.61843
G1 X174.415 Y163.846 E2.62279
G1 X174.261 Y164.571 E2.64744
G1 X174.21 Y164.776 E2.65447
G1 X173.945 Y165.675 E2.68564
G1 X173.735 Y166.237 E2.7056
G1 X173.601 Y166.569 E2.7175
G1 X173.214 Y167.423 E2.74869
G1 X172.872 Y168.046 E2.77233
G1 X172.67 Y168.388 E2.78554
G1 X172.476 Y168.704 E2.79787
G1 X172.311 Y168.963 E2.80808
G1 X171.774 Y169.732 E2.83928
G1 X171.173 Y170.452 E2.87047
G1 X170.514 Y171.119 E2.90166
G1 X169.799 Y171.727 E2.93288
G1 X169.082 Y172.241 E2.96222
G1 X168.924 Y172.345 E2.96851
G1 X168.499 Y172.611 E2.98519
G1 X168.193 Y172.793 E2.99703
G1 X167.027 Y173.396 E3.04069
G1 X166.578 Y173.595 E3.05702
G1 X165.705 Y173.938 E3.08822
G1 X164.93 Y174.173 E3.11515
G1 X164.438 Y174.294 E3.13201
G1 X164.234 Y174.339 E3.13895
G1 X163.02 Y174.536 E3.17986
G1 X162.878 Y174.551 E3.18461
G1 X162.364 Y174.593 E3.20176
G1 X162.073 Y174.61 E3.21146
G1 X161.764 Y174.624 E3.22175
G1 X161.467 Y174.633 E3.23163
G1 X161.139 Y174.638 E3.24254
G1 X156.508 Y174.64 E3.39657
G1 X153.378 Y174.691 E3.50068
G1 X152.707 Y174.713 E3.52301
G1 X152.239 Y174.718 E3.53858
G1 X149.51 Y174.69 E3.62935
G1 X148.049 Y174.709 E3.67795
G1 X147.792 Y174.709 E3.6865
G1 X146.891 Y174.7 E3.71647
G1 X146.624 Y174.695 E3.72535
G1 X145.524 Y174.657 E3.76196
G1 X143.734 Y174.639 E3.8215
G1 X139.047 Y174.639 E3.97739
G1 X138.317 Y174.629 E4.00167
G1 X137.575 Y174.594 E4.02637
G1 X137.305 Y174.572 E4.03538
G1 X136.374 Y174.456 E4.06659
G1 X135.772 Y174.337 E4.087
G1 X135.573 Y174.292 E4.09378
G1 X135.151 Y174.188 E4.10824
G1 X135.054 Y174.162 E4.11158
G1 X133.822 Y173.752 E4.15477
G1 X133.484 Y173.617 E4.16687
G1 X132.629 Y173.233 E4.19805
G1 X132.013 Y172.899 E4.22135
G1 X131.534 Y172.619 E4.23981
G1 X130.745 Y172.111 E4.27102
G1 X130.002 Y171.538 E4.30222
G1 X129.307 Y170.9 E4.3336
G1 X129.068 Y170.661 E4.34484
G1 X128.434 Y169.97 E4.37604
G1 X127.86 Y169.228 E4.40724
G1 X127.401 Y168.522 E4.43525
G1 X127.161 Y168.12 E4.45082
G1 X126.533 Y166.901 E4.49643
G1 X126.49 Y166.803 E4.49998
G1 X126.318 Y166.388 E4.51493
G1 X126.223 Y166.145 E4.5236
G1 X125.919 Y165.258 E4.55479
G1 X125.75 Y164.617 E4.57684
G1 X125.692 Y164.366 E4.58541
G1 X125.52 Y163.444 E4.6166
G1 X125.459 Y162.921 E4.63412
G1 X125.418 Y162.486 E4.64865
G1 X125.374 Y161.792 E4.67178
G1 X125.367 Y161.564 E4.67936
G1 X125.362 Y161.23 E4.69047
G1 X125.36 Y156.323 E4.85368
G1 X125.315 Y153.91 E4.93395
G1 X125.321 Y153.671 E4.9419
G1 X125.295 Y152.54 E4.97953
G1 X125.292 Y152.231 E4.98981
G1 X125.3 Y150.981 E5.03138
G1 X125.312 Y150.336 E5.05284
G1 X125.297 Y148.243 E5.12246
G1 X125.294 Y148.061 E5.12851
G1 X125.294 Y147.721 E5.13982
G1 X125.312 Y146.477 E5.1812
G1 X125.319 Y146.212 E5.19002
G1 X125.334 Y145.825 E5.2029
G1 X125.361 Y143.554 E5.27844
G1 X125.361 Y138.955 E5.4314
G1 X125.369 Y138.413 E5.44943
G1 X125.398 Y137.763 E5.47107
G1 X125.427 Y137.371 E5.48414
G1 X125.564 Y136.271 E5.52101
G1 X125.582 Y136.169 E5.52446
G1 X125.749 Y135.392 E5.55089
G1 X125.809 Y135.154 E5.55905
G1 X126.077 Y134.255 E5.59025
G1 X126.276 Y133.722 E5.60918
G1 X126.356 Y133.524 E5.61628
G1 X126.515 Y133.151 E5.62977
G1 X126.579 Y133.008 E5.63498
G1 X127.103 Y131.985 E5.67321
G1 X127.212 Y131.797 E5.68043
G1 X127.477 Y131.363 E5.69735
G1 X127.697 Y131.021 E5.71087
G1 X128.237 Y130.255 E5.74204
G1 X128.841 Y129.537 E5.77325
G1 X129.504 Y128.873 E5.80446
G0 F6000 X129.812 Y129.134
G1 F1200 X130.519 Y128.544 E5.83509
G1 X131.195 Y128.069 E5.86257
G1 X131.585 Y127.817 E5.87801
G1 X131.939 Y127.598 E5.89185
G1 X132.135 Y127.482 E5.89943
G1 X132.947 Y127.048 E5.93005
G1 X133.47 Y126.814 E5.94911
G1 X133.735 Y126.704 E5.95865
G1 X134.6 Y126.388 E5.98928
G1 X135.089 Y126.246 E6.00622
G1 X135.471 Y126.145 E6.01936
G1 X136.371 Y125.949 E6.05
G1 X137.176 Y125.841 E6.07701
G1 X137.218 Y125.837 E6.07841
G1 X138.001 Y125.791 E6.1045
G1 X139.335 Y125.763 E6.14888
G1 X139.554 Y125.761 E6.15616
G1 X143.5 Y125.76 E6.28741
G1 X146.575 Y125.709 E6.3897
G1 X147.303 Y125.686 E6.41392
G1 X147.753 Y125.682 E6.42889
G1 X150.514 Y125.71 E6.52073
G1 X151.759 Y125.693 E6.56214
G1 X152.033 Y125.693 E6.57125
G1 X153.472 Y125.71 E6.61912
G1 X153.74 Y125.716 E6.62803
G1 X154.275 Y125.736 E6.64584
G1 X156.405 Y125.761 E6.71669
G1 X160.988 Y125.761 E6.86912
G1 X161.632 Y125.77 E6.89054
G1 X162.004 Y125.781 E6.90292
G1 X162.644 Y125.826 E6.92426
G1 X162.903 Y125.852 E6.93292
G1 X163.814 Y125.984 E6.96353
G1 X164.462 Y126.127 E6.9856
G1 X164.721 Y126.193 E6.99449
G1 X166.017 Y126.614 E7.03982
G1 X166.319 Y126.734 E7.05063
G1 X167.159 Y127.111 E7.08125
G1 X167.754 Y127.434 E7.10377
G1 X168.375 Y127.797 E7.12769
G1 X169.156 Y128.3 E7.15859
G1 X169.884 Y128.863 E7.1892
G1 X170.561 Y129.487 E7.21982
G1 X171.181 Y130.168 E7.25045
G1 X171.879 Y131.104 E7.28929
G1 X171.993 Y131.276 E7.29615
G1 X172.242 Y131.672 E7.31171
G1 X172.477 Y132.063 E7.32688
G1 X172.917 Y132.871 E7.35748
G1 X173.164 Y133.415 E7.37735
G1 X173.259 Y133.641 E7.38551
G1 X173.578 Y134.505 E7.41614
G1 X173.731 Y135.026 E7.4342
G1 X173.849 Y135.47 E7.44948
G1 X174.047 Y136.37 E7.48013
G1 X174.169 Y137.319 E7.51195
G1 X174.192 Y137.597 E7.52123
G1 X174.227 Y138.301 E7.54467
G1 X174.239 Y139.153 E7.57302
G1 X174.24 Y143.591 E7.72062
G1 X174.285 Y146.082 E7.80349
G1 X174.281 Y146.251 E7.80911
G1 X174.307 Y147.425 E7.84817
G1 X174.31 Y147.73 E7.85831
G1 X174.301 Y148.971 E7.89959
G1 X174.29 Y149.536 E7.91839
G1 X174.31 Y151.669 E7.98933
G1 X174.296 Y153.274 E8.04272
G1 X174.29 Y153.548 E8.05183
G1 X174.257 Y154.493 E8.08328
G1 X174.239 Y156.287 E8.14295
G1 X174.239 Y160.949 E8.29801
G1 X174.229 Y161.659 E8.32163
G1 X174.199 Y162.314 E8.34344
G1 X174.178 Y162.59 E8.35264
G1 X174.044 Y163.647 E8.38808
G1 X174.021 Y163.776 E8.39244
G1 X173.872 Y164.474 E8.41618
G1 X173.821 Y164.679 E8.4232
G1 X173.561 Y165.562 E8.45382
G1 X173.365 Y166.087 E8.47246
G1 X173.231 Y166.419 E8.48437
G1 X172.849 Y167.257 E8.515
G1 X172.528 Y167.843 E8.53722
G1 X172.326 Y168.185 E8.55043
G1 X172.139 Y168.489 E8.5623
G1 X171.974 Y168.748 E8.57252
G1 X171.446 Y169.503 E8.60316
G1 X170.855 Y170.208 E8.63376
G1 X170.204 Y170.86 E8.6644
G1 X169.5 Y171.453 E8.69502
G1 X168.862 Y171.907 E8.72106
G1 X168.704 Y172.011 E8.72735
G1 X168.295 Y172.267 E8.7434
G1 X167.989 Y172.449 E8.75524
G1 X166.865 Y173.03 E8.79733
G1 X166.416 Y173.229 E8.81366
G1 X165.559 Y173.565 E8.84428
G1 X164.828 Y173.786 E8.86968
G1 X164.351 Y173.903 E8.88601
G1 X164.147 Y173.948 E8.89296
G1 X162.978 Y174.138 E8.93235
G1 X162.836 Y174.153 E8.9371
G1 X162.34 Y174.194 E8.95365
G1 X162.049 Y174.211 E8.96335
G1 X161.752 Y174.224 E8.97324
G1 X161.455 Y174.233 E8.98312
G1 X161.138 Y174.238 E8.99366
G1 X156.501 Y174.24 E9.14789
G1 X153.422 Y174.291 E9.25031
G1 X152.694 Y174.314 E9.27454
G1 X152.243 Y174.318 E9.28954
G1 X149.508 Y174.289 E9.38051
G1 X148.043 Y174.309 E9.42924
G1 X147.796 Y174.309 E9.43746
G1 X146.895 Y174.3 E9.46743
G1 X146.638 Y174.295 E9.47598
G1 X145.542 Y174.257 E9.51245
G1 X143.738 Y174.239 E9.57246
G1 X139.053 Y174.239 E9.72828
G1 X138.323 Y174.229 E9.75256
G1 X137.607 Y174.195 E9.7764
G1 X137.337 Y174.173 E9.78541
G1 X136.424 Y174.058 E9.81602
G1 X135.86 Y173.947 E9.83514
G1 X135.661 Y173.902 E9.84192
G1 X135.255 Y173.802 E9.85583
G1 X135.158 Y173.776 E9.85917
G1 X133.97 Y173.381 E9.90081
G1 X133.632 Y173.246 E9.91292
G1 X132.793 Y172.868 E9.94352
G1 X132.215 Y172.553 E9.96542
G1 X131.736 Y172.273 E9.98387
G1 X130.962 Y171.775 E10.01448
G1 X130.234 Y171.211 E10.04511
G1 X129.59 Y170.617 E10.07425
G1 X129.351 Y170.378 E10.08549
G1 X128.729 Y169.7 E10.1161
G1 X128.168 Y168.97 E10.14672
G1 X127.745 Y168.317 E10.17259
G1 X127.505 Y167.915 E10.18817
G1 X126.899 Y166.74 E10.23214
G1 X126.856 Y166.642 E10.2357
G1 X126.691 Y166.243 E10.25006
G1 X126.596 Y166 E10.25874
G1 X126.298 Y165.128 E10.28939
G1 X126.14 Y164.527 E10.31006
G1 X126.082 Y164.276 E10.31862
G1 X125.914 Y163.37 E10.34927
G1 X125.857 Y162.884 E10.36555
G1 X125.816 Y162.449 E10.38008
G1 X125.774 Y161.779 E10.40241
G1 X125.767 Y161.551 E10.40999
G1 X125.762 Y161.23 E10.42067
G1 X125.76 Y156.289 E10.58501
G1 X125.715 Y153.903 E10.66438
G1 X125.721 Y153.671 E10.6721
G1 X125.695 Y152.531 E10.71003
G1 X125.692 Y152.233 E10.71994
G1 X125.7 Y150.989 E10.76132
G1 X125.712 Y150.341 E10.78287
G1 X125.697 Y148.237 E10.85285
G1 X125.694 Y148.055 E10.85891
G1 X125.694 Y147.727 E10.86982
G1 X125.712 Y146.483 E10.9112
G1 X125.719 Y146.228 E10.91968
G1 X125.734 Y145.846 E10.9324
G1 X125.761 Y143.593 E11.00734
G1 X125.761 Y138.961 E11.1614
G1 X125.769 Y138.419 E11.17943
G1 X125.797 Y137.793 E11.20027
G1 X125.826 Y137.401 E11.21334
G1 X125.958 Y136.341 E11.24887
G1 X125.976 Y136.239 E11.25231
G1 X126.137 Y135.49 E11.2778
G1 X126.197 Y135.252 E11.28596
G1 X126.46 Y134.37 E11.31657
G1 X126.647 Y133.872 E11.33426
G1 X126.727 Y133.674 E11.34137
G1 X126.88 Y133.315 E11.35435
G1 X126.944 Y133.172 E11.35956
G1 X127.449 Y132.185 E11.39643
G1 X127.558 Y131.997 E11.40366
G1 X127.813 Y131.579 E11.41995
G1 X128.033 Y131.237 E11.43347
G1 X128.564 Y130.485 E11.46409
G1 X129.159 Y129.782 E11.49472
G1 X129.812 Y129.134 E11.52532
G0 F6000 X130.12 Y129.395
G1 F1200 X130.817 Y128.82 E11.55537
G1 X131.412 Y128.405 E11.5795
G1 X131.802 Y128.153 E11.59494
G1 X132.143 Y127.942 E11.60828
G1 X132.339 Y127.826 E11.61586
G1 X133.136 Y127.401 E11.6459
G1 X133.624 Y127.183 E11.66368
G1 X133.889 Y127.073 E11.67322
G1 X134.737 Y126.764 E11.70324
G1 X135.192 Y126.633 E11.71899
G1 X135.574 Y126.532 E11.73213
G1 X136.456 Y126.34 E11.76215
G1 X137.214 Y126.239 E11.78758
G1 X137.256 Y126.235 E11.78899
G1 X138.009 Y126.191 E11.81407
G1 X139.343 Y126.163 E11.85845
G1 X139.554 Y126.161 E11.86547
G1 X143.506 Y126.16 E11.99692
G1 X146.596 Y126.109 E12.0997
G1 X147.316 Y126.086 E12.12366
G1 X147.749 Y126.082 E12.13807
G1 X150.516 Y126.111 E12.2301
G1 X151.765 Y126.093 E12.27165
G1 X152.028 Y126.093 E12.28039
G1 X153.467 Y126.11 E12.32826
G1 X153.725 Y126.116 E12.33684
G1 X154.255 Y126.136 E12.35448
G1 X156.401 Y126.161 E12.42586
G1 X160.983 Y126.161 E12.57826
G1 X161.627 Y126.17 E12.59968
G1 X161.989 Y126.181 E12.61173
G1 X162.604 Y126.224 E12.63223
G1 X162.863 Y126.25 E12.64089
G1 X163.757 Y126.38 E12.67094
G1 X164.363 Y126.515 E12.69159
G1 X164.622 Y126.581 E12.70048
G1 X165.87 Y126.986 E12.74412
G1 X166.172 Y127.106 E12.75493
G1 X166.995 Y127.476 E12.78494
G1 X167.552 Y127.779 E12.80603
G1 X168.173 Y128.142 E12.82995
G1 X168.925 Y128.627 E12.85972
G1 X169.639 Y129.18 E12.88975
G1 X170.302 Y129.794 E12.91981
G1 X170.907 Y130.464 E12.94983
G1 X171.545 Y131.325 E12.98548
G1 X171.659 Y131.497 E12.99234
G1 X171.899 Y131.878 E13.00732
G1 X172.134 Y132.269 E13.02249
G1 X172.565 Y133.062 E13.05251
G1 X172.795 Y133.57 E13.07105
G1 X172.89 Y133.796 E13.07921
G1 X173.203 Y134.644 E13.10927
G1 X173.345 Y135.129 E13.12608
G1 X173.463 Y135.573 E13.14136
G1 X173.656 Y136.455 E13.17139
G1 X173.77 Y137.352 E13.20147
G1 X173.793 Y137.63 E13.21074
G1 X173.827 Y138.307 E13.23329
G1 X173.839 Y139.153 E13.26143
G1 X173.84 Y143.599 E13.4093
G1 X173.885 Y146.09 E13.49217
G1 X173.881 Y146.258 E13.49776
G1 X173.907 Y147.434 E13.53688
G1 X173.91 Y147.727 E13.54663
G1 X173.901 Y148.963 E13.58774
G1 X173.89 Y149.532 E13.60667
G1 X173.91 Y151.666 E13.67765
G1 X173.896 Y153.271 E13.73103
G1 X173.89 Y153.534 E13.73978
G1 X173.858 Y154.474 E13.77106
G1 X173.839 Y156.287 E13.83137
G1 X173.839 Y160.944 E13.98626
G1 X173.829 Y161.654 E14.00988
G1 X173.801 Y162.284 E14.03085
G1 X173.78 Y162.56 E14.04006
G1 X173.651 Y163.576 E14.07412
G1 X173.628 Y163.705 E14.07848
G1 X173.484 Y164.378 E14.10137
G1 X173.433 Y164.583 E14.1084
G1 X173.177 Y165.448 E14.1384
G1 X172.994 Y165.938 E14.1558
G1 X172.86 Y166.27 E14.1677
G1 X172.485 Y167.091 E14.19772
G1 X172.183 Y167.639 E14.21854
G1 X171.981 Y167.981 E14.23175
G1 X171.802 Y168.274 E14.24317
G1 X171.637 Y168.533 E14.25338
G1 X171.118 Y169.273 E14.28344
G1 X170.536 Y169.964 E14.31349
G1 X169.896 Y170.6 E14.3435
G1 X169.201 Y171.177 E14.37355
G1 X168.642 Y171.573 E14.39633
G1 X168.484 Y171.677 E14.40262
G1 X168.09 Y171.924 E14.41809
G1 X167.784 Y172.106 E14.42993
G1 X166.703 Y172.664 E14.47039
G1 X166.254 Y172.863 E14.48673
G1 X165.413 Y173.192 E14.51676
G1 X164.726 Y173.4 E14.54064
G1 X164.265 Y173.513 E14.55642
G1 X164.061 Y173.558 E14.56337
G1 X162.936 Y173.741 E14.60128
G1 X162.794 Y173.756 E14.60603
G1 X162.317 Y173.795 E14.62195
G1 X162.026 Y173.812 E14.63164
G1 X161.74 Y173.824 E14.64116
G1 X161.443 Y173.833 E14.65105
G1 X161.138 Y173.838 E14.66119
G1 X156.495 Y173.84 E14.81562
G1 X153.404 Y173.891 E14.91844
G1 X152.682 Y173.914 E14.94247
G1 X152.248 Y173.918 E14.9569
G1 X149.508 Y173.889 E15.04804
G1 X148.038 Y173.909 E15.09694
G1 X147.8 Y173.909 E15.10485
G1 X146.899 Y173.9 E15.13482
G1 X146.651 Y173.895 E15.14307
G1 X145.559 Y173.858 E15.17941
G1 X143.742 Y173.839 E15.23985
G1 X139.058 Y173.839 E15.39564
G1 X138.328 Y173.829 E15.41992
G1 X137.64 Y173.796 E15.44283
G1 X137.37 Y173.774 E15.45184
G1 X136.474 Y173.661 E15.48188
G1 X135.948 Y173.557 E15.49971
G1 X135.749 Y173.512 E15.5065
G1 X135.358 Y173.415 E15.5199
