;FLAVOR:Marlin
;TIME:1069
;Filament used: 0.416469m
;Layer height: 0.2
;MINX:131.336
;MINY:131.403
;MINZ:0.2
;MAXX:168.666
;MAXY:168.616
;MAXZ:13
;Generated with Creality Slicer 4.8.2-191
M140 S50
M105
M190 S50
M104 S200
M105
M109 S200
M82 ;absolute extrusion mode

G28 ;Home

G92 E0 ;Reset Extruder
G1 Z2.0 F3000 ;Move Z Axis up
G1 X10.1 Y20 Z0.28 F5000.0 ;Move to start position
G1 X10.1 Y200.0 Z0.28 F1500.0 E15 ;Draw the first line
G1 X10.4 Y200.0 Z0.28 F5000.0 ;Move to side a little
G1 X10.4 Y20 Z0.28 F1500.0 E30 ;Draw the second line
G92 E0 ;Reset Extruder
G1 Z2.0 F3000 ;Move Z Axis up

G92 E0
G92 E0
G1 F2700 E-5
;LAYER_COUNT:65
;LAYER:0
M107
G0 F6000 X136.178 Y136.617 Z0.2
;TYPE:SKIRT
G1 F2700 E0
G1 F1200 X136.845 Y135.958 E0.03119
G1 X137.566 Y135.357 E0.06241
G1 X138.335 Y134.821 E0.09358
G1 X139.147 Y134.352 E0.12477
G1 X140.211 Y133.867 E0.16366
G1 X141.577 Y133.329 E0.21249
G1 X142.347 Y133.031 E0.23995
G1 X142.622 Y132.938 E0.24961
G1 X143.629 Y132.544 E0.28557
G1 X144.507 Y132.243 E0.31645
G1 X144.955 Y132.11 E0.33199
G1 X145.285 Y132.018 E0.34338
G1 X145.566 Y131.944 E0.35305
G1 X146.495 Y131.742 E0.38467
G1 X147.016 Y131.652 E0.40225
G1 X147.35 Y131.599 E0.4135
G1 X147.612 Y131.562 E0.4223
G1 X148.287 Y131.488 E0.44489
G1 X148.973 Y131.434 E0.46777
G1 X149.34 Y131.411 E0.48
G1 X149.473 Y131.405 E0.48443
G1 X150.411 Y131.403 E0.51563
G1 X150.884 Y131.422 E0.53138
G1 X151.187 Y131.438 E0.54147
G1 X151.614 Y131.467 E0.5557
G1 X152.425 Y131.553 E0.58283
G1 X152.684 Y131.59 E0.59153
G1 X153.045 Y131.647 E0.60369
G1 X153.48 Y131.724 E0.61838
G1 X154.477 Y131.949 E0.65237
G1 X154.932 Y132.074 E0.66807
G1 X155.231 Y132.161 E0.67842
G1 X155.529 Y132.252 E0.68879
G1 X156.119 Y132.45 E0.70949
G1 X156.423 Y132.562 E0.72026
G1 X156.837 Y132.724 E0.73505
G1 X159.144 Y133.607 E0.81721
G1 X159.782 Y133.859 E0.84002
G1 X160.639 Y134.241 E0.87123
G1 X161.46 Y134.694 E0.90242
G1 X162.24 Y135.215 E0.93362
G1 X162.972 Y135.801 E0.9648
G1 X163.885 Y136.696 E1.00733
G1 X164.26 Y137.109 E1.02588
G1 X164.568 Y137.462 E1.04146
G1 X164.954 Y137.947 E1.06208
G1 X165.331 Y138.448 E1.08293
G1 X165.531 Y138.722 E1.09422
G1 X165.689 Y138.946 E1.10333
G1 X166.126 Y139.617 E1.12997
G1 X166.295 Y139.898 E1.14087
G1 X166.491 Y140.236 E1.15387
G1 X166.747 Y140.698 E1.17143
G1 X167.027 Y141.238 E1.19167
G1 X167.177 Y141.548 E1.20312
G1 X167.322 Y141.86 E1.21456
G1 X167.462 Y142.174 E1.226
G1 X167.801 Y143.029 E1.25659
G1 X167.973 Y143.522 E1.27396
G1 X168.087 Y143.867 E1.28604
G1 X168.166 Y144.12 E1.29486
G1 X168.407 Y145.027 E1.32607
G1 X168.57 Y145.95 E1.35724
G1 X168.654 Y146.884 E1.38843
G1 X168.666 Y147.413 E1.40603
G1 X168.626 Y148.35 E1.43723
G1 X168.544 Y149.048 E1.4606
G1 X168.324 Y150.507 E1.50968
G1 X167.978 Y152.713 E1.58395
G1 X167.795 Y153.628 E1.61498
G1 X167.689 Y154.062 E1.62984
G1 X167.613 Y154.355 E1.63991
G1 X167.526 Y154.673 E1.65087
G1 X167.297 Y155.408 E1.67648
G1 X167.188 Y155.719 E1.68744
G1 X167.051 Y156.089 E1.70056
G1 X166.862 Y156.572 E1.71781
G1 X166.568 Y157.254 E1.74251
G1 X166.453 Y157.498 E1.75149
G1 X166.252 Y157.904 E1.76655
G1 X166.02 Y158.334 E1.78281
G1 X165.668 Y158.953 E1.80649
G1 X165.214 Y159.683 E1.83508
G1 X164.958 Y160.061 E1.85027
G1 X164.577 Y160.589 E1.87192
G1 X164.399 Y160.821 E1.88165
G1 X164.099 Y161.195 E1.89759
G1 X163.776 Y161.58 E1.91431
G1 X163.139 Y162.276 E1.94569
G1 X162.81 Y162.606 E1.96119
G1 X162.591 Y162.82 E1.97137
G1 X162.337 Y163.061 E1.98302
G1 X161.83 Y163.513 E2.00561
G1 X161.502 Y163.785 E2.01978
G1 X160.677 Y164.447 E2.05496
G1 X159.943 Y165.023 E2.086
G1 X159.101 Y165.716 E2.12227
G1 X158.757 Y165.991 E2.13691
G1 X157.999 Y166.542 E2.16808
G1 X157.196 Y167.028 E2.1993
G1 X156.355 Y167.443 E2.23049
G1 X155.482 Y167.785 E2.26168
G1 X154.254 Y168.128 E2.30409
G1 X153.841 Y168.218 E2.31814
G1 X153.391 Y168.307 E2.3334
G1 X152.706 Y168.415 E2.35647
G1 X151.949 Y168.51 E2.38184
G1 X151.256 Y168.575 E2.40499
G1 X150.948 Y168.594 E2.41525
G1 X150.386 Y168.614 E2.43396
G1 X149.904 Y168.616 E2.44999
G1 X149.405 Y168.608 E2.46659
G1 X148.778 Y168.58 E2.48746
G1 X148.532 Y168.562 E2.49567
G1 X148.046 Y168.515 E2.51191
G1 X147.673 Y168.471 E2.5244
G1 X146.987 Y168.368 E2.54747
G1 X146.242 Y168.232 E2.57266
G1 X145.53 Y168.078 E2.59689
G1 X145.399 Y168.045 E2.60138
G1 X144.5 Y167.777 E2.63258
G1 X143.627 Y167.434 E2.66378
G1 X142.787 Y167.017 E2.69497
G1 X141.985 Y166.531 E2.72616
G1 X141.277 Y166.018 E2.75524
G1 X140.626 Y165.504 E2.78283
G1 X139.452 Y164.561 E2.83291
G1 X139.199 Y164.339 E2.84411
G1 X138.369 Y163.679 E2.87938
G1 X137.727 Y163.126 E2.90756
G1 X137.542 Y162.954 E2.91596
G1 X137.124 Y162.544 E2.93544
G1 X136.773 Y162.181 E2.95223
G1 X136.345 Y161.712 E2.97335
G1 X135.955 Y161.259 E2.99323
G1 X135.654 Y160.894 E3.00897
G1 X135.598 Y160.823 E3.01197
G1 X135.08 Y160.109 E3.04131
G1 X134.693 Y159.528 E3.06453
G1 X134.48 Y159.195 E3.07768
G1 X134.384 Y159.039 E3.08377
G1 X134.068 Y158.491 E3.10481
G1 X133.783 Y157.962 E3.1248
G1 X133.608 Y157.623 E3.13749
G1 X133.514 Y157.433 E3.14454
G1 X133.137 Y156.583 E3.17546
G1 X132.954 Y156.118 E3.19208
G1 X132.829 Y155.785 E3.20391
G1 X132.732 Y155.513 E3.21352
G1 X132.474 Y154.689 E3.24224
G1 X132.381 Y154.345 E3.25409
G1 X132.302 Y154.034 E3.26476
G1 X132.224 Y153.708 E3.27591
G1 X132.085 Y153.034 E3.2988
G1 X132.038 Y152.764 E3.30792
G1 X131.988 Y152.452 E3.31843
G1 X131.894 Y151.804 E3.3402
G1 X131.485 Y149.231 E3.42686
G1 X131.45 Y148.993 E3.43486
G1 X131.353 Y148.061 E3.46602
G1 X131.336 Y147.123 E3.49723
G1 X131.399 Y146.187 E3.52843
G1 X131.542 Y145.26 E3.55963
G1 X131.837 Y144.102 E3.59937
G1 X131.932 Y143.799 E3.60993
G1 X132.043 Y143.464 E3.62167
G1 X132.183 Y143.063 E3.6358
G1 X132.488 Y142.284 E3.66362
G1 X132.599 Y142.03 E3.67284
G1 X132.736 Y141.73 E3.68381
G1 X132.895 Y141.394 E3.69617
G1 X133.197 Y140.803 E3.71825
G1 X133.537 Y140.184 E3.74174
G1 X133.789 Y139.749 E3.75846
G1 X133.836 Y139.672 E3.76146
G1 X134.132 Y139.213 E3.77962
G1 X134.537 Y138.618 E3.80356
G1 X134.824 Y138.216 E3.81999
G1 X134.955 Y138.041 E3.82726
G1 X135.452 Y137.425 E3.85359
G1 X135.668 Y137.176 E3.86455
G1 X135.917 Y136.898 E3.87696
G1 X136.178 Y136.617 E3.88972
G0 F6000 X136.471 Y136.889
G1 F1200 X137.127 Y136.242 E3.92037
G1 X137.836 Y135.655 E3.95098
G1 X138.593 Y135.131 E3.9816
G1 X139.393 Y134.675 E4.01223
G1 X140.357 Y134.239 E4.04742
G1 X141.721 Y133.702 E4.09617
G1 X142.491 Y133.404 E4.12364
G1 X142.777 Y133.308 E4.13367
G1 X143.775 Y132.917 E4.16932
G1 X144.621 Y132.626 E4.19908
G1 X145.069 Y132.493 E4.21462
G1 X145.387 Y132.404 E4.2256
G1 X145.668 Y132.33 E4.23527
G1 X146.563 Y132.136 E4.26573
G1 X147.084 Y132.046 E4.28331
G1 X147.406 Y131.995 E4.29415
G1 X147.668 Y131.958 E4.30296
G1 X148.318 Y131.887 E4.3247
G1 X149.004 Y131.833 E4.34759
G1 X149.358 Y131.811 E4.35939
G1 X149.491 Y131.805 E4.36381
G1 X150.394 Y131.803 E4.39385
G1 X150.867 Y131.822 E4.40959
G1 X151.16 Y131.837 E4.41935
G1 X151.587 Y131.866 E4.43359
G1 X152.368 Y131.949 E4.45971
G1 X152.627 Y131.986 E4.46841
G1 X152.976 Y132.041 E4.48016
G1 X153.411 Y132.118 E4.49485
G1 X154.371 Y132.335 E4.52759
G1 X154.826 Y132.46 E4.54328
G1 X155.114 Y132.543 E4.55325
G1 X155.412 Y132.634 E4.56362
G1 X155.98 Y132.826 E4.58356
G1 X156.284 Y132.938 E4.59433
G1 X158.997 Y133.979 E4.69098
G1 X159.635 Y134.231 E4.7138
G1 X160.476 Y134.606 E4.74442
G1 X161.281 Y135.053 E4.77505
G1 X162.044 Y135.568 E4.80567
G1 X162.76 Y136.147 E4.83629
G1 X163.589 Y136.964 E4.87501
G1 X163.964 Y137.377 E4.89356
G1 X164.262 Y137.72 E4.90867
G1 X164.635 Y138.187 E4.92855
G1 X165.012 Y138.688 E4.94941
G1 X165.204 Y138.952 E4.96026
G1 X165.362 Y139.176 E4.96938
G1 X165.784 Y139.823 E4.99507
G1 X165.953 Y140.104 E5.00598
G1 X166.141 Y140.429 E5.01847
G1 X166.397 Y140.891 E5.03603
G1 X166.667 Y141.412 E5.05555
G1 X166.817 Y141.722 E5.06701
G1 X166.956 Y142.022 E5.078
G1 X167.096 Y142.336 E5.08944
G1 X167.423 Y143.161 E5.11895
G1 X167.595 Y143.654 E5.13632
G1 X167.705 Y143.987 E5.14798
G1 X167.784 Y144.24 E5.1568
G1 X168.02 Y145.129 E5.18739
G1 X168.178 Y146.036 E5.21801
G1 X168.266 Y147.413 E5.26391
G1 X168.226 Y148.333 E5.29453
G1 X168.148 Y148.989 E5.31651
G1 X167.929 Y150.446 E5.36551
G1 X167.583 Y152.651 E5.43975
G1 X167.406 Y153.533 E5.46967
G1 X167.3 Y153.967 E5.48453
G1 X167.227 Y154.249 E5.49421
G1 X167.14 Y154.567 E5.50518
G1 X166.919 Y155.276 E5.52988
G1 X166.81 Y155.587 E5.54084
G1 X166.678 Y155.944 E5.5535
G1 X166.489 Y156.427 E5.57075
G1 X166.206 Y157.083 E5.59451
G1 X166.091 Y157.327 E5.60349
G1 X165.896 Y157.722 E5.61814
G1 X165.672 Y158.136 E5.63379
G1 X165.32 Y158.755 E5.65748
G1 X164.883 Y159.459 E5.68504
G1 X164.627 Y159.837 E5.70022
G1 X164.26 Y160.345 E5.72107
G1 X164.082 Y160.577 E5.73079
G1 X163.793 Y160.938 E5.74617
G1 X163.47 Y161.323 E5.76289
G1 X162.856 Y161.994 E5.79314
G1 X162.527 Y162.324 E5.80864
G1 X162.316 Y162.53 E5.81844
G1 X162.062 Y162.771 E5.83009
G1 X161.573 Y163.207 E5.85188
G1 X161.252 Y163.473 E5.86575
G1 X160.43 Y164.132 E5.90079
G1 X159.681 Y164.72 E5.93246
G1 X158.846 Y165.407 E5.96842
G1 X158.508 Y165.677 E5.98281
G1 X157.764 Y166.218 E6.01341
G1 X156.975 Y166.693 E6.04404
G1 X156.147 Y167.097 E6.07468
G1 X155.288 Y167.428 E6.1053
G1 X154.169 Y167.737 E6.14391
G1 X153.756 Y167.827 E6.15797
G1 X153.316 Y167.914 E6.17289
G1 X152.656 Y168.019 E6.19511
G1 X151.899 Y168.114 E6.22049
G1 X151.232 Y168.176 E6.24277
G1 X150.924 Y168.195 E6.25303
G1 X150.382 Y168.214 E6.27107
G1 X149.91 Y168.216 E6.28677
G1 X149.411 Y168.208 E6.30337
G1 X148.807 Y168.181 E6.32348
G1 X148.561 Y168.163 E6.33168
G1 X148.093 Y168.118 E6.34732
G1 X147.72 Y168.074 E6.35981
G1 X147.058 Y167.975 E6.38207
G1 X146.313 Y167.839 E6.40726
G1 X145.628 Y167.69 E6.43058
G1 X145.497 Y167.657 E6.43507
G1 X144.615 Y167.393 E6.46569
G1 X143.759 Y167.054 E6.49632
G1 X142.935 Y166.642 E6.52696
G1 X142.151 Y166.161 E6.55755
G1 X141.525 Y165.703 E6.58335
G1 X140.877 Y165.192 E6.61079
G1 X139.703 Y164.249 E6.66088
G1 X139.459 Y164.035 E6.67167
G1 X138.618 Y163.366 E6.70742
G1 X137.999 Y162.833 E6.73458
G1 X137.814 Y162.661 E6.74299
G1 X137.412 Y162.266 E6.76173
G1 X137.061 Y161.903 E6.77853
G1 X136.648 Y161.451 E6.79889
G1 X136.258 Y160.998 E6.81877
G1 X135.968 Y160.646 E6.83394
G1 X135.912 Y160.575 E6.83695
G1 X135.413 Y159.887 E6.86522
G1 X135.026 Y159.306 E6.88843
G1 X134.82 Y158.985 E6.90112
G1 X134.724 Y158.829 E6.90721
G1 X134.42 Y158.302 E6.92745
G1 X134.135 Y157.773 E6.94743
G1 X133.966 Y157.445 E6.95971
G1 X133.872 Y157.255 E6.96676
G1 X133.509 Y156.437 E6.99652
G1 X133.326 Y155.972 E7.01314
G1 X133.206 Y155.651 E7.02454
G1 X133.109 Y155.379 E7.03415
G1 X132.86 Y154.584 E7.06185
G1 X132.767 Y154.24 E7.07371
G1 X132.691 Y153.941 E7.08397
G1 X132.613 Y153.615 E7.09512
G1 X132.479 Y152.966 E7.11716
G1 X132.432 Y152.696 E7.12627
G1 X132.384 Y152.395 E7.13641
G1 X132.291 Y151.749 E7.15812
G1 X131.881 Y149.173 E7.24487
G1 X131.846 Y148.935 E7.25288
G1 X131.752 Y148.019 E7.2835
G1 X131.737 Y147.099 E7.31411
G1 X131.803 Y146.181 E7.34472
G1 X131.947 Y145.271 E7.37536
G1 X132.218 Y144.222 E7.4114
G1 X132.313 Y143.919 E7.42196
G1 X132.42 Y143.596 E7.43327
G1 X132.56 Y143.195 E7.4474
G1 X132.855 Y142.444 E7.47424
G1 X132.966 Y142.19 E7.48346
G1 X133.098 Y141.901 E7.49402
G1 X133.257 Y141.565 E7.50639
G1 X133.547 Y140.996 E7.52763
G1 X133.887 Y140.377 E7.55112
G1 X134.13 Y139.957 E7.56726
G1 X134.177 Y139.88 E7.57026
G1 X134.462 Y139.438 E7.58775
G1 X134.867 Y138.843 E7.61169
G1 X135.144 Y138.456 E7.62752
G1 X135.275 Y138.281 E7.63479
G1 X135.754 Y137.687 E7.66017
G1 X135.97 Y137.438 E7.67113
G1 X136.21 Y137.17 E7.6831
G1 X136.471 Y136.889 E7.69585
G0 F6000 X136.764 Y137.161
G1 F1200 X137.408 Y136.528 E7.72589
G1 X138.105 Y135.953 E7.75594
G1 X138.85 Y135.442 E7.78599
G1 X139.637 Y135 E7.81601
G1 X140.504 Y134.611 E7.84762
G1 X141.866 Y134.076 E7.89628
G1 X142.636 Y133.778 E7.92375
G1 X142.896 Y133.69 E7.93288
G1 X143.921 Y133.289 E7.96948
G1 X144.735 Y133.01 E7.9981
G1 X145.183 Y132.877 E8.01365
G1 X145.488 Y132.791 E8.02419
G1 X145.769 Y132.717 E8.03385
G1 X146.631 Y132.53 E8.06319
G1 X147.152 Y132.44 E8.08077
G1 X147.462 Y132.391 E8.09121
G1 X147.724 Y132.354 E8.10001
G1 X148.35 Y132.285 E8.12096
G1 X149.036 Y132.231 E8.14385
G1 X149.376 Y132.21 E8.15518
G1 X149.509 Y132.204 E8.15961
G1 X150.378 Y132.202 E8.18851
G1 X150.851 Y132.221 E8.20425
G1 X151.133 Y132.236 E8.21365
G1 X151.56 Y132.265 E8.22788
G1 X152.311 Y132.345 E8.253
G1 X152.57 Y132.382 E8.2617
G1 X152.906 Y132.435 E8.27302
G1 X153.341 Y132.512 E8.28771
G1 X154.265 Y132.72 E8.31921
G1 X154.72 Y132.845 E8.3349
G1 X154.997 Y132.926 E8.3445
G1 X155.295 Y133.017 E8.35487
G1 X155.842 Y133.201 E8.37406
G1 X156.146 Y133.313 E8.38484
G1 X156.56 Y133.474 E8.39961
G1 X158.85 Y134.351 E8.48117
G1 X159.488 Y134.603 E8.50399
G1 X160.313 Y134.972 E8.53405
G1 X161.101 Y135.412 E8.56406
G1 X161.848 Y135.92 E8.59411
G1 X162.546 Y136.492 E8.62412
G1 X163.293 Y137.233 E8.65912
G1 X163.668 Y137.646 E8.67767
G1 X163.957 Y137.978 E8.69231
G1 X164.315 Y138.428 E8.71144
G1 X164.692 Y138.929 E8.73229
G1 X164.877 Y139.183 E8.74275
G1 X165.035 Y139.407 E8.75186
G1 X165.441 Y140.029 E8.77657
G1 X165.61 Y140.31 E8.78747
G1 X165.791 Y140.623 E8.7995
G1 X166.047 Y141.085 E8.81707
G1 X166.307 Y141.586 E8.83584
G1 X166.457 Y141.896 E8.8473
G1 X166.591 Y142.185 E8.85789
G1 X166.731 Y142.499 E8.86933
G1 X167.046 Y143.293 E8.89774
G1 X167.218 Y143.786 E8.9151
G1 X167.323 Y144.106 E8.9263
G1 X167.402 Y144.359 E8.93512
G1 X167.633 Y145.232 E8.96515
G1 X167.786 Y146.122 E8.99519
G1 X167.866 Y147.413 E9.03821
G1 X167.826 Y148.315 E9.06824
G1 X167.753 Y148.929 E9.08881
G1 X167.534 Y150.384 E9.13775
G1 X167.184 Y152.609 E9.21266
G1 X167.018 Y153.438 E9.24078
G1 X166.912 Y153.872 E9.25564
G1 X166.841 Y154.144 E9.26499
G1 X166.754 Y154.462 E9.27595
G1 X166.542 Y155.144 E9.29971
G1 X166.433 Y155.455 E9.31067
G1 X166.306 Y155.798 E9.32283
G1 X166.117 Y156.281 E9.34009
G1 X165.845 Y156.913 E9.36297
G1 X165.73 Y157.157 E9.37194
G1 X165.54 Y157.54 E9.38616
G1 X165.325 Y157.938 E9.40121
G1 X164.973 Y158.557 E9.42489
G1 X164.551 Y159.235 E9.45145
G1 X164.295 Y159.613 E9.46664
G1 X163.943 Y160.102 E9.48668
G1 X163.765 Y160.334 E9.4964
G1 X163.486 Y160.681 E9.51121
G1 X163.163 Y161.066 E9.52793
G1 X162.572 Y161.712 E9.55705
G1 X162.243 Y162.042 E9.57255
G1 X162.041 Y162.239 E9.58193
G1 X161.787 Y162.48 E9.59358
G1 X161.316 Y162.9 E9.61457
G1 X161.001 Y163.161 E9.62817
G1 X160.183 Y163.818 E9.66307
G1 X159.413 Y164.422 E9.69562
G1 X158.46 Y165.205 E9.73664
G1 X158.26 Y165.364 E9.74514
G1 X157.528 Y165.894 E9.7752
G1 X156.753 Y166.358 E9.80524
G1 X155.94 Y166.751 E9.83527
G1 X155.095 Y167.07 E9.86531
G1 X154.084 Y167.346 E9.90017
G1 X153.671 Y167.436 E9.91423
G1 X153.242 Y167.521 E9.92878
G1 X152.606 Y167.622 E9.95019
G1 X151.849 Y167.717 E9.97557
G1 X151.207 Y167.777 E9.99702
G1 X150.899 Y167.796 E10.00728
G1 X150.378 Y167.814 E10.02462
G1 X149.916 Y167.816 E10.03998
G1 X149.417 Y167.808 E10.05658
G1 X148.837 Y167.782 E10.07589
G1 X148.591 Y167.764 E10.0841
G1 X148.14 Y167.721 E10.09917
G1 X147.767 Y167.677 E10.11166
G1 X147.13 Y167.581 E10.13308
G1 X146.385 Y167.445 E10.15827
G1 X145.725 Y167.302 E10.18073
G1 X145.594 Y167.269 E10.18523
G1 X144.729 Y167.01 E10.21526
G1 X143.89 Y166.675 E10.24531
G1 X143.085 Y166.268 E10.27531
G1 X142.318 Y165.79 E10.30537
G1 X141.772 Y165.389 E10.3279
G1 X141.127 Y164.88 E10.35523
G1 X139.953 Y163.937 E10.40531
G1 X139.712 Y163.725 E10.41599
G1 X138.867 Y163.053 E10.4519
G1 X138.272 Y162.54 E10.47802
G1 X138.087 Y162.368 E10.48643
G1 X137.699 Y161.988 E10.50449
G1 X137.348 Y161.625 E10.52128
G1 X136.951 Y161.19 E10.54087
G1 X136.561 Y160.737 E10.56075
G1 X136.282 Y160.399 E10.57533
G1 X136.226 Y160.328 E10.57834
G1 X135.746 Y159.666 E10.60554
G1 X135.359 Y159.085 E10.62875
G1 X135.161 Y158.776 E10.64096
G1 X135.065 Y158.62 E10.64705
G1 X134.772 Y158.112 E10.66656
G1 X134.487 Y157.583 E10.68654
G1 X134.325 Y157.268 E10.69832
G1 X134.231 Y157.078 E10.70537
G1 X133.882 Y156.29 E10.73404
G1 X133.699 Y155.825 E10.75066
