;FLAVOR:Marlin
;TIME:153
;Filament used: 0.0464044m
;Layer height: 0.2
;MINX:135.016
;MINY:135.087
;MINZ:0.2
;MAXX:164.98
;MAXY:164.913
;MAXZ:3
;Generated with Creality Slicer 4.8.2-191
M140 S50
M105
M190 S50
M104 S200
M105
M109 S200
M82 ;absolute extrusion mode

G28 ;Home

G92 E0 ;Reset Extruder
G1 Z2.0 F3000 ;Move Z Axis up
G1 X10.1 Y20 Z0.28 F5000.0 ;Move to start position
G1 X10.1 Y200.0 Z0.28 F1500.0 E15 ;Draw the first line
G1 X10.4 Y200.0 Z0.28 F5000.0 ;Move to side a little
G1 X10.4 Y20 Z0.28 F1500.0 E30 ;Draw the second line
G92 E0 ;Reset Extruder
G1 Z2.0 F3000 ;Move Z Axis up

G92 E0
G92 E0
G1 F2700 E-5
;LAYER_COUNT:15
;LAYER:0
M107
G0 F6000 X139.525 Y139.311 Z0.2
;TYPE:SKIRT
G1 F2700 E0
G1 F1200 X140.241 Y138.634 E0.03277
G1 X140.403 Y138.494 E0.0399
G1 X141.138 Y137.912 E0.07108
G1 X141.92 Y137.394 E0.10228
G1 X142.743 Y136.945 E0.13346
G1 X142.987 Y136.826 E0.14249
G1 X144.267 Y136.217 E0.18963
G1 X145.13 Y135.85 E0.22082
G1 X146.034 Y135.555 E0.25245
G1 X146.256 Y135.493 E0.26012
G1 X147.169 Y135.28 E0.2913
G1 X148.097 Y135.145 E0.32249
G1 X149.148 Y135.088 E0.3575
G1 X149.441 Y135.087 E0.36724
G1 X150.846 Y135.095 E0.41397
G1 X151.782 Y135.14 E0.44514
G1 X152.751 Y135.272 E0.47767
G1 X152.828 Y135.286 E0.48027
G1 X153.742 Y135.493 E0.51144
G1 X154.302 Y135.661 E0.53089
G1 X154.557 Y135.745 E0.53982
G1 X155.434 Y136.076 E0.57099
G1 X155.944 Y136.31 E0.58966
G1 X157.221 Y136.934 E0.63693
G1 X158.046 Y137.381 E0.66814
G1 X158.895 Y137.945 E0.70204
G1 X159.071 Y138.074 E0.7093
G1 X159.803 Y138.66 E0.74048
G1 X160.482 Y139.307 E0.77168
G1 X161.139 Y140.052 E0.80472
G1 X161.314 Y140.27 E0.81401
G1 X162.171 Y141.356 E0.86003
G1 X162.72 Y142.116 E0.89121
G1 X163.245 Y142.999 E0.92538
G1 X163.343 Y143.183 E0.93231
G1 X163.748 Y144.029 E0.96351
G1 X164.08 Y144.906 E0.9947
G1 X164.319 Y145.739 E1.02352
G1 X164.405 Y146.101 E1.0359
G1 X164.717 Y147.499 E1.08354
G1 X164.882 Y148.422 E1.11472
G1 X164.972 Y149.455 E1.14921
G1 X164.98 Y149.655 E1.15587
G1 X164.978 Y150.593 E1.18707
G1 X164.849 Y151.847 E1.22899
G1 X164.724 Y152.502 E1.25117
G1 X164.643 Y152.866 E1.26358
G1 X164.339 Y154.156 E1.30766
G1 X164.085 Y155.059 E1.33886
G1 X163.717 Y156.025 E1.37324
G1 X163.636 Y156.211 E1.37999
G1 X163.225 Y157.054 E1.41118
G1 X162.744 Y157.859 E1.44237
G1 X162.196 Y158.621 E1.47359
G1 X161.716 Y159.228 E1.49932
G1 X161.087 Y159.999 E1.53242
G1 X160.464 Y160.699 E1.56359
G1 X159.735 Y161.386 E1.5969
G1 X159.571 Y161.527 E1.6041
G1 X158.835 Y162.108 E1.63528
G1 X158.051 Y162.623 E1.66648
G1 X157.249 Y163.06 E1.69686
G1 X157.008 Y163.177 E1.70577
G1 X155.726 Y163.786 E1.75298
G1 X154.862 Y164.152 E1.78419
G1 X153.977 Y164.441 E1.81515
G1 X153.756 Y164.503 E1.82279
G1 X152.843 Y164.718 E1.85398
G1 X151.915 Y164.854 E1.88518
G1 X150.852 Y164.912 E1.92059
G1 X150.559 Y164.913 E1.93033
G1 X149.154 Y164.905 E1.97706
G1 X148.218 Y164.86 E2.00823
G1 X147.11 Y164.701 E2.04546
G1 X146.905 Y164.661 E2.05241
G1 X145.993 Y164.443 E2.08359
G1 X145.103 Y164.147 E2.11479
G1 X144.442 Y163.871 E2.13861
G1 X144.056 Y163.69 E2.15279
G1 X142.779 Y163.066 E2.20007
G1 X141.954 Y162.619 E2.23128
G1 X141.096 Y162.049 E2.26554
G1 X140.919 Y161.919 E2.27284
G1 X140.188 Y161.332 E2.30402
G1 X139.509 Y160.685 E2.33522
G1 X138.854 Y159.94 E2.36821
G1 X138.689 Y159.735 E2.37696
G1 X137.825 Y158.64 E2.42335
G1 X137.276 Y157.879 E2.45456
G1 X136.749 Y156.992 E2.48888
G1 X136.649 Y156.804 E2.49596
G1 X136.245 Y155.958 E2.52714
G1 X135.913 Y155.08 E2.55837
G1 X135.626 Y154.039 E2.59428
G1 X135.288 Y152.528 E2.64578
G1 X135.123 Y151.605 E2.67696
G1 X135.039 Y150.721 E2.7065
G1 X135.027 Y150.499 E2.71389
G1 X135.016 Y149.561 E2.74509
G1 X135.086 Y148.626 E2.77628
G1 X135.161 Y148.095 E2.79412
G1 X135.277 Y147.489 E2.81464
G1 X135.375 Y147.053 E2.8295
G1 X135.671 Y145.807 E2.8721
G1 X135.926 Y144.904 E2.9033
G1 X136.377 Y143.758 E2.94427
G1 X136.456 Y143.586 E2.95056
G1 X136.883 Y142.751 E2.98175
G1 X137.38 Y141.956 E3.01294
G1 X137.813 Y141.368 E3.03723
G1 X138.294 Y140.76 E3.06301
G1 X138.903 Y140.012 E3.09509
G1 X139.525 Y139.311 E3.12626
G0 F6000 X139.825 Y139.576
G1 F1200 X140.502 Y138.937 E3.15723
G1 X140.664 Y138.797 E3.16435
G1 X141.386 Y138.226 E3.19496
G1 X142.155 Y137.719 E3.2256
G1 X142.919 Y137.304 E3.25452
G1 X143.159 Y137.187 E3.2634
G1 X144.439 Y136.578 E3.31054
G1 X145.287 Y136.219 E3.34117
G1 X146.142 Y135.941 E3.37107
G1 X146.364 Y135.879 E3.37874
G1 X147.26 Y135.67 E3.40934
G1 X148.172 Y135.539 E3.43999
G1 X149.15 Y135.488 E3.47256
G1 X149.438 Y135.487 E3.48214
G1 X150.843 Y135.495 E3.52887
G1 X151.763 Y135.54 E3.5595
G1 X152.679 Y135.666 E3.59026
G1 X152.756 Y135.68 E3.59286
G1 X153.654 Y135.884 E3.62349
G1 X154.176 Y136.041 E3.64162
G1 X154.431 Y136.125 E3.65055
G1 X155.293 Y136.451 E3.6812
G1 X155.769 Y136.669 E3.69861
G1 X157.046 Y137.293 E3.74589
G1 X157.855 Y137.733 E3.77652
G1 X158.658 Y138.268 E3.80861
G1 X158.834 Y138.397 E3.81587
G1 X159.553 Y138.973 E3.84651
G1 X160.218 Y139.609 E3.87711
G1 X160.828 Y140.302 E3.90782
G1 X161.857 Y141.604 E3.96302
G1 X162.396 Y142.35 E3.99363
G1 X162.892 Y143.187 E4.02599
G1 X162.99 Y143.371 E4.03292
G1 X163.387 Y144.202 E4.06355
G1 X163.71 Y145.064 E4.09417
G1 X163.93 Y145.834 E4.1208
G1 X164.014 Y146.188 E4.1329
G1 X164.326 Y147.586 E4.18055
G1 X164.488 Y148.493 E4.21119
G1 X164.573 Y149.471 E4.24384
G1 X164.581 Y149.671 E4.2505
G1 X164.577 Y150.592 E4.28113
G1 X164.454 Y151.783 E4.32096
G1 X164.334 Y152.415 E4.34235
G1 X164.253 Y152.774 E4.35459
G1 X163.949 Y154.064 E4.39867
G1 X163.699 Y154.95 E4.42929
G1 X163.35 Y155.865 E4.46186
G1 X163.269 Y156.051 E4.46861
G1 X162.866 Y156.879 E4.49924
G1 X162.391 Y157.668 E4.52987
G1 X161.882 Y158.374 E4.55882
G1 X161.524 Y158.829 E4.57807
G1 X160.777 Y159.746 E4.61741
G1 X160.165 Y160.433 E4.64801
G1 X159.474 Y161.083 E4.67957
G1 X159.31 Y161.224 E4.68676
G1 X158.587 Y161.793 E4.71736
G1 X157.817 Y162.297 E4.74797
G1 X157.072 Y162.701 E4.77616
G1 X156.836 Y162.816 E4.78489
G1 X155.554 Y163.425 E4.8321
G1 X154.706 Y163.783 E4.86271
G1 X153.869 Y164.056 E4.89199
G1 X153.648 Y164.118 E4.89963
G1 X152.752 Y164.328 E4.93024
G1 X151.841 Y164.459 E4.96085
G1 X150.85 Y164.512 E4.99386
G1 X150.562 Y164.513 E5.00343
G1 X149.157 Y164.505 E5.05017
G1 X148.237 Y164.46 E5.0808
G1 X147.187 Y164.309 E5.11608
G1 X146.982 Y164.269 E5.12303
G1 X146.087 Y164.053 E5.15365
G1 X145.214 Y163.761 E5.18427
G1 X144.609 Y163.507 E5.20609
G1 X144.231 Y163.331 E5.21996
G1 X142.954 Y162.707 E5.26724
G1 X142.145 Y162.267 E5.29787
G1 X141.333 Y161.726 E5.33032
G1 X141.156 Y161.596 E5.33762
G1 X140.439 Y161.02 E5.36821
G1 X139.774 Y160.383 E5.39884
G1 X139.166 Y159.69 E5.4295
G1 X139.003 Y159.487 E5.43816
G1 X138.139 Y158.392 E5.48455
G1 X137.601 Y157.645 E5.51517
G1 X137.103 Y156.804 E5.54768
G1 X137.003 Y156.616 E5.55476
G1 X136.606 Y155.785 E5.58539
G1 X136.283 Y154.923 E5.61601
G1 X136.017 Y153.952 E5.6495
G1 X135.679 Y152.441 E5.70099
G1 X135.517 Y151.535 E5.73161
G1 X135.438 Y150.699 E5.75953
G1 X135.426 Y150.477 E5.76693
G1 X135.417 Y149.557 E5.79753
G1 X135.549 Y148.202 E5.84281
G1 X135.668 Y147.575 E5.86404
G1 X135.764 Y147.145 E5.87869
G1 X136.06 Y145.899 E5.92129
G1 X136.311 Y145.013 E5.95192
G1 X136.74 Y143.925 E5.99081
G1 X136.819 Y143.753 E5.99711
G1 X137.24 Y142.934 E6.02774
G1 X137.729 Y142.154 E6.05836
G1 X138.127 Y141.616 E6.08061
G1 X138.604 Y141.012 E6.10621
G1 X139.213 Y140.264 E6.13829
G1 X139.825 Y139.576 E6.16892
G0 F6000 X140.124 Y139.843
G1 F1200 X140.764 Y139.24 E6.19817
G1 X140.926 Y139.1 E6.20529
G1 X141.634 Y138.54 E6.23531
G1 X142.39 Y138.045 E6.26537
G1 X143.096 Y137.663 E6.29207
G1 X143.331 Y137.548 E6.30077
G1 X144.611 Y136.939 E6.34791
G1 X145.443 Y136.588 E6.37795
G1 X146.249 Y136.326 E6.40614
G1 X146.471 Y136.264 E6.4138
G1 X147.351 Y136.06 E6.44385
G1 X148.245 Y135.934 E6.47388
G1 X149.152 Y135.888 E6.50408
G1 X149.436 Y135.887 E6.51353
G1 X150.841 Y135.895 E6.56026
G1 X151.743 Y135.94 E6.5903
G1 X152.608 Y136.06 E6.61934
G1 X152.685 Y136.074 E6.62195
G1 X153.565 Y136.274 E6.65196
G1 X154.051 Y136.421 E6.66885
G1 X154.306 Y136.505 E6.67778
G1 X155.151 Y136.825 E6.70783
G1 X155.593 Y137.029 E6.72402
G1 X156.87 Y137.653 E6.7713
G1 X157.663 Y138.085 E6.80133
G1 X158.422 Y138.59 E6.83165
G1 X158.598 Y138.719 E6.83891
G1 X159.302 Y139.285 E6.86895
G1 X159.953 Y139.91 E6.89897
G1 X160.516 Y140.553 E6.9274
G1 X160.686 Y140.765 E6.93643
G1 X161.543 Y141.851 E6.98245
G1 X162.071 Y142.584 E7.01249
G1 X162.539 Y143.375 E7.04306
G1 X162.637 Y143.559 E7.04999
G1 X163.026 Y144.374 E7.08003
G1 X163.341 Y145.22 E7.11006
G1 X163.542 Y145.929 E7.13457
G1 X163.624 Y146.275 E7.14639
G1 X163.936 Y147.673 E7.19404
G1 X164.094 Y148.563 E7.2241
G1 X164.173 Y149.487 E7.25494
G1 X164.181 Y149.687 E7.2616
G1 X164.177 Y150.59 E7.29164
G1 X164.059 Y151.719 E7.32939
G1 X163.943 Y152.329 E7.35004
G1 X163.864 Y152.683 E7.36211
G1 X163.56 Y153.973 E7.40619
G1 X163.314 Y154.842 E7.43623
G1 X162.984 Y155.706 E7.46699
G1 X162.903 Y155.892 E7.47374
G1 X162.506 Y156.703 E7.50377
G1 X162.039 Y157.476 E7.53381
G1 X161.567 Y158.126 E7.56052
G1 X161.096 Y158.722 E7.58579
G1 X160.467 Y159.493 E7.61888
G1 X159.866 Y160.167 E7.64892
G1 X159.214 Y160.779 E7.67866
G1 X159.05 Y160.92 E7.68586
G1 X158.34 Y161.478 E7.71589
G1 X157.583 Y161.971 E7.74594
G1 X156.896 Y162.342 E7.77191
G1 X156.665 Y162.454 E7.78044
G1 X155.383 Y163.063 E7.82765
G1 X154.551 Y163.414 E7.85768
G1 X153.761 Y163.671 E7.88532
G1 X153.54 Y163.733 E7.89295
G1 X152.661 Y163.938 E7.92297
G1 X151.767 Y164.065 E7.953
G1 X150.848 Y164.112 E7.98361
G1 X150.564 Y164.113 E7.99305
G1 X149.159 Y164.105 E8.03979
G1 X148.257 Y164.06 E8.06982
G1 X147.264 Y163.916 E8.1032
G1 X147.059 Y163.876 E8.11014
G1 X146.181 Y163.664 E8.14019
G1 X145.325 Y163.375 E8.17023
G1 X144.775 Y163.143 E8.19009
G1 X144.407 Y162.971 E8.2036
G1 X143.13 Y162.347 E8.25087
G1 X142.337 Y161.915 E8.28091
G1 X141.57 Y161.404 E8.31156
G1 X141.393 Y161.274 E8.31887
G1 X140.69 Y160.708 E8.34888
G1 X140.039 Y160.081 E8.37895
G1 X139.478 Y159.44 E8.40728
G1 X138.454 Y158.144 E8.46221
G1 X137.926 Y157.411 E8.49226
G1 X137.456 Y156.616 E8.52298
G1 X137.356 Y156.428 E8.53006
G1 X136.967 Y155.613 E8.5601
G1 X136.653 Y154.766 E8.59014
G1 X136.407 Y153.865 E8.6212
G1 X136.069 Y152.354 E8.6727
G1 X135.911 Y151.464 E8.70277
G1 X135.838 Y150.678 E8.72902
G1 X135.826 Y150.456 E8.73642
G1 X135.817 Y149.552 E8.76649
G1 X135.944 Y148.266 E8.80947
G1 X136.058 Y147.661 E8.82994
G1 X136.153 Y147.237 E8.84439
G1 X136.449 Y145.991 E8.88699
G1 X136.697 Y145.123 E8.91702
G1 X137.104 Y144.092 E8.95388
G1 X137.183 Y143.92 E8.96018
G1 X137.596 Y143.117 E8.99021
G1 X138.078 Y142.353 E9.02026
G1 X138.441 Y141.863 E9.04054
G1 X138.914 Y141.265 E9.0659
G1 X139.523 Y140.517 E9.09798
G1 X140.124 Y139.843 E9.12801
G1 F2700 E4.12801
;MESH:14?????????3.STL
G0 F6000 X146.867 Y147.502
G0 X148.082 Y148.468
G0 X148.066 Y150.164
G0 X148.237 Y150.809
G0 X148.607 Y151.35
G0 X149.036 Y151.663
G0 X150.101 Y152.1
;TYPE:WALL-INNER
G1 F2700 E9.12801
G1 F1200 X150.456 Y152.052 E9.13993
G1 X150.794 Y151.945 E9.15172
G1 X150.909 Y151.887 E9.156
G1 X151.111 Y151.783 E9.16356
G1 X151.31 Y151.635 E9.17181
G1 X151.397 Y151.57 E9.17542
G1 X151.642 Y151.311 E9.18728
G1 X151.841 Y151.016 E9.19911
G1 X151.886 Y150.913 E9.20285
G1 X151.986 Y150.688 E9.21104
G1 X152.041 Y150.467 E9.21862
G1 X152.072 Y150.346 E9.22277
G1 X152.103 Y149.99 E9.23466
G1 X152.069 Y149.632 E9.24662
G1 X152.045 Y149.539 E9.24981
G1 X151.978 Y149.29 E9.25839
G1 X151.884 Y149.084 E9.26592
G1 X151.829 Y148.964 E9.27031
G1 X151.639 Y148.689 E9.28143
G1 X151.626 Y148.671 E9.28217
G1 X151.38 Y148.416 E9.29395
G1 X151.31 Y148.365 E9.29683
G1 X151.092 Y148.204 E9.30585
G1 X150.912 Y148.115 E9.31252
G1 X150.772 Y148.045 E9.31773
G1 X150.456 Y147.951 E9.3287
G1 X150.433 Y147.944 E9.32949
G1 X150.079 Y147.899 E9.34136
G1 X150.01 Y147.902 E9.34366
G1 X149.72 Y147.917 E9.35332
G1 X149.53 Y147.959 E9.35979
G1 X149.373 Y147.994 E9.36514
G1 X149.076 Y148.116 E9.37582
G1 X149.044 Y148.129 E9.37697
G1 X148.742 Y148.316 E9.38878
G1 X148.702 Y148.351 E9.39055
G1 X148.475 Y148.554 E9.40068
G1 X148.364 Y148.692 E9.40657
G1 X148.252 Y148.832 E9.41253
G1 X148.104 Y149.102 E9.42277
G1 X148.08 Y149.145 E9.42441
G1 X147.964 Y149.48 E9.4362
G1 X147.958 Y149.519 E9.43752
G1 X147.905 Y149.826 E9.44788
G1 X147.905 Y150.001 E9.4537
G1 X147.905 Y150.178 E9.45959
G1 X147.957 Y150.48 E9.46978
G1 X147.966 Y150.532 E9.47153
G1 X148.09 Y150.876 E9.4837
G1 X148.103 Y150.899 E9.48457
G1 X148.264 Y151.185 E9.49549
G1 X148.356 Y151.298 E9.50034
G1 X148.491 Y151.463 E9.50743
G1 X148.701 Y151.645 E9.51667
G1 X148.76 Y151.696 E9.51926
G1 X149.065 Y151.881 E9.53113
G1 X149.395 Y152.012 E9.54294
G1 X149.529 Y152.04 E9.54749
G1 X149.742 Y152.085 E9.55473
G1 X150.006 Y152.096 E9.56352
G1 X150.101 Y152.1 E9.56668
G0 F6000 X150.082 Y151.699
;TYPE:WALL-OUTER
G1 F1200 X150.368 Y151.66 E9.57628
G1 X150.642 Y151.574 E9.58583
G1 X150.899 Y151.442 E9.59544
G1 X151.13 Y151.27 E9.60502
G1 X151.329 Y151.06 E9.61464
G1 X151.489 Y150.822 E9.62418
G1 X151.606 Y150.557 E9.63382
G1 X151.676 Y150.279 E9.64335
G1 X151.701 Y149.991 E9.65297
G1 X151.674 Y149.703 E9.66259
G1 X151.6 Y149.425 E9.67216
G1 X151.48 Y149.162 E9.68177
G1 X151.316 Y148.925 E9.69136
G1 X151.116 Y148.718 E9.70093
G1 X150.883 Y148.547 E9.71054
G1 X150.625 Y148.419 E9.72012
G1 X150.35 Y148.337 E9.72967
G1 X150.064 Y148.3 E9.73926
G1 X149.774 Y148.315 E9.74892
G1 X149.493 Y148.377 E9.75849
G1 X149.227 Y148.486 E9.76805
G1 X148.982 Y148.638 E9.77764
G1 X148.766 Y148.83 E9.78725
G1 X148.586 Y149.055 E9.79684
G1 X148.447 Y149.308 E9.80644
G1 X148.353 Y149.58 E9.81601
G1 X148.305 Y149.86 E9.82546
G1 X148.305 Y150.144 E9.8349
G1 X148.354 Y150.429 E9.84452
G1 X148.455 Y150.709 E9.85442
G1 X148.596 Y150.959 E9.86397
G1 X148.779 Y151.183 E9.87359
G1 X148.997 Y151.372 E9.88318
G1 X149.244 Y151.522 E9.8928
G1 X149.511 Y151.628 E9.90235
G1 X149.792 Y151.687 E9.9119
G1 X150.082 Y151.699 E9.92155
G0 F6000 X150.102 Y152.138
G0 X149.486 Y152.249
;TYPE:WALL-INNER
G1 F1200 X149.324 Y152.18 E9.9248
G1 X149.009 Y152.046 E9.92976
G1 X148.984 Y152.033 E9.93043
G1 X148.67 Y151.863 E9.93591
G1 X148.563 Y151.805 E9.93805
G1 X148.363 Y151.576 E9.94312
G1 X148.218 Y151.411 E9.94637
G1 X148.127 Y151.285 E9.9487
G1 X147.922 Y151.002 E9.95438
G1 X147.902 Y150.929 E9.95606
G1 X147.804 Y150.578 E9.96157
G1 X147.785 Y150.51 E9.96183
G1 X147.731 Y150.21 E9.96625
G1 X147.692 Y150.001 E9.97001
G1 X147.729 Y149.795 E9.97373
G1 X147.785 Y149.49 E9.97828
G1 X147.8 Y149.435 E9.97927
G1 X147.895 Y149.094 E9.98469
G1 X147.921 Y149.002 E9.98604
G1 X148.114 Y148.734 E9.99144
G1 X148.224 Y148.581 E9.99425
G1 X148.346 Y148.442 E9.997
G1 X148.562 Y148.195 E10.0024
G1 X148.65 Y148.148 E10.00393
G1 X148.963 Y147.979 E10.00928
G1 X149.009 Y147.954
G1 X149.302 Y147.83 E10.01393
G1 X149.484 Y147.752 E10.01748
G1 X149.711 Y147.741 E10.02145
G1 X150.001 Y147.727 E10.0257
G1 X150.086 Y147.73 E10.02641
G1 X150.442 Y147.747 E10.03199
G1 X150.515 Y147.751 E10.03271
G1 X150.838 Y147.888 E10.03842
G1 X150.991 Y147.954 E10.04093
G1 X151.173 Y148.052 E10.044
G1 X151.436 Y148.193 E10.04904
G1 X151.522 Y148.291 E10.0516
G1 X151.755 Y148.558 E10.05692
G1 X151.782 Y148.589
G1 X151.976 Y148.857 E10.06176
G1 X152.076 Y148.996 E10.06491
G1 X152.145 Y149.242 E10.06926
G1 X152.216 Y149.493 E10.07308
G1 X152.235 Y149.602 E10.07456
G1 X152.299 Y149.954 E10.08001
G1 X152.308 Y149.999
G1 X152.304 Y150.026
G1 X152.24 Y150.376 E10.08554
G1 X152.215 Y150.51 E10.08763
G1 X152.153 Y150.734 E10.09107
G1 X152.079 Y150.998 E10.0957
G1 X151.99 Y151.122 E10.09854
G1 X151.776 Y151.419 E10.10405
G1 X151.537 Y151.692 E10.10962
G1 X151.437 Y151.805 E10.11247
G1 X151.194 Y151.936 E10.11717
G1 X150.991 Y152.046 E10.12057
G1 X150.861 Y152.101 E10.12274
G1 X150.536 Y152.239 E10.12838
G1 X150.516 Y152.248
G1 X150.466 Y152.25
G1 X150.11 Y152.267 E10.13379
G1 X149.999 Y152.273 E10.1353
G1 X149.734 Y152.261 E10.13921
G1 X149.486 Y152.249 E10.14351
G0 F6000 X149.162 Y153.675
;TYPE:WALL-OUTER
