;FLAVOR:Marlin
;TIME:2265
;Filament used: 1.16767m
;Layer height: 0.2
;MINX:127.012
;MINY:127.019
;MINZ:0.2
;MAXX:172.988
;MAXY:172.981
;MAXZ:16
;Generated with Creality Slicer 4.8.2-191
M140 S50
M105
M190 S50
M104 S200
M105
M109 S200
M82 ;absolute extrusion mode

G28 ;Home

G92 E0 ;Reset Extruder
G1 Z2.0 F3000 ;Move Z Axis up
G1 X10.1 Y20 Z0.28 F5000.0 ;Move to start position
G1 X10.1 Y200.0 Z0.28 F1500.0 E15 ;Draw the first line
G1 X10.4 Y200.0 Z0.28 F5000.0 ;Move to side a little
G1 X10.4 Y20 Z0.28 F1500.0 E30 ;Draw the second line
G92 E0 ;Reset Extruder
G1 Z2.0 F3000 ;Move Z Axis up

G92 E0
G92 E0
G1 F2700 E-5
;LAYER_COUNT:80
;LAYER:0
M107
G0 F6000 X133.461 Y134.032 Z0.2
;TYPE:SKIRT
G1 F2700 E0
G1 F1200 X133.709 Y133.785 E0.01164
G1 X134.062 Y133.443 E0.02799
G1 X134.259 Y133.256 E0.03702
G1 X134.785 Y132.771 E0.06082
G1 X135.26 Y132.358 E0.08176
G1 X135.55 Y132.125 E0.09413
G1 X135.962 Y131.805 E0.11148
G1 X136.189 Y131.633 E0.12095
G1 X136.765 Y131.209 E0.14474
G1 X137.146 Y130.941 E0.16023
G1 X137.256 Y130.867 E0.16464
G1 X137.646 Y130.617 E0.18005
G1 X138.198 Y130.281 E0.20154
G1 X138.835 Y129.909 E0.22608
G1 X139.404 Y129.599 E0.24763
G1 X139.783 Y129.41 E0.26172
G1 X140.169 Y129.226 E0.27594
G1 X140.419 Y129.111 E0.28509
G1 X141.08 Y128.816 E0.30917
G1 X141.614 Y128.594 E0.3284
G1 X141.718 Y128.554 E0.33211
G1 X142.042 Y128.436 E0.34358
G1 X142.529 Y128.266 E0.36073
G1 X142.798 Y128.176 E0.37017
G1 X143.416 Y127.978 E0.39175
G1 X143.976 Y127.814 E0.41116
G1 X144.132 Y127.773 E0.41652
G1 X144.458 Y127.693 E0.42769
G1 X144.905 Y127.59 E0.44294
G1 X145.151 Y127.536 E0.45132
G1 X145.834 Y127.395 E0.47452
G1 X146.489 Y127.281 E0.49663
G1 X146.858 Y127.23 E0.50902
G1 X147.341 Y127.172 E0.5252
G1 X147.624 Y127.142 E0.53467
G1 X148.327 Y127.076 E0.55815
G1 X148.912 Y127.037 E0.57765
G1 X149.36 Y127.024 E0.59256
G1 X149.824 Y127.019 E0.60799
G1 X150.101 Y127.019 E0.6172
G1 X150.799 Y127.029 E0.64042
G1 X151.378 Y127.053 E0.6597
G1 X151.838 Y127.088 E0.67504
G1 X152.312 Y127.134 E0.69088
G1 X152.608 Y127.167 E0.70078
G1 X153.307 Y127.254 E0.72421
G1 X153.86 Y127.337 E0.74281
G1 X154.274 Y127.415 E0.75682
G1 X154.694 Y127.501 E0.77108
G1 X155.018 Y127.572 E0.78212
G1 X155.754 Y127.746 E0.80727
G1 X156.313 Y127.894 E0.8265
G1 X156.694 Y128.01 E0.83975
G1 X157.185 Y128.169 E0.85691
G1 X157.45 Y128.259 E0.86622
G1 X158.086 Y128.483 E0.88865
G1 X158.718 Y128.727 E0.91118
G1 X159.073 Y128.88 E0.92404
G1 X159.48 Y129.063 E0.93888
G1 X159.741 Y129.185 E0.94846
G1 X160.391 Y129.498 E0.97246
G1 X160.899 Y129.759 E0.99146
G1 X161.005 Y129.817 E0.99547
G1 X161.305 Y129.988 E1.00696
G1 X161.694 Y130.217 E1.02197
G1 X161.905 Y130.344 E1.03016
G1 X162.53 Y130.731 E1.05461
G1 X163.261 Y131.225 E1.08396
G1 X163.716 Y131.56 E1.10275
G1 X163.967 Y131.751 E1.11324
G1 X164.539 Y132.198 E1.13739
G1 X165.056 Y132.628 E1.15975
G1 X165.328 Y132.872 E1.17191
G1 X165.681 Y133.199 E1.18791
G1 X165.887 Y133.395 E1.19737
G1 X166.378 Y133.874 E1.22018
G1 X166.771 Y134.278 E1.23893
G1 X166.87 Y134.385 E1.24378
G1 X167.109 Y134.652 E1.25569
G1 X167.555 Y135.17 E1.27843
G1 X168.007 Y135.715 E1.30198
G1 X168.415 Y136.239 E1.32407
G1 X168.655 Y136.572 E1.33772
G1 X168.901 Y136.926 E1.35206
G1 X169.064 Y137.167 E1.36174
G1 X169.488 Y137.813 E1.38744
G1 X169.934 Y138.554 E1.4162
G1 X170.202 Y139.042 E1.43472
G1 X170.348 Y139.318 E1.4451
G1 X170.671 Y139.948 E1.46865
G1 X170.951 Y140.537 E1.49034
G1 X171.084 Y140.845 E1.5015
G1 X171.285 Y141.332 E1.51902
G1 X171.386 Y141.586 E1.52812
G1 X171.631 Y142.224 E1.55085
G1 X171.854 Y142.861 E1.57329
G1 X171.946 Y143.164 E1.58383
G1 X172.089 Y143.655 E1.60084
G1 X172.172 Y143.956 E1.61122
G1 X172.355 Y144.658 E1.63535
G1 X172.479 Y145.186 E1.65339
G1 X172.573 Y145.66 E1.66946
G1 X172.636 Y146.017 E1.68152
G1 X172.679 Y146.285 E1.69055
G1 X172.796 Y147.059 E1.71658
G1 X172.869 Y147.643 E1.73616
G1 X172.906 Y148.084 E1.75088
G1 X172.938 Y148.577 E1.76731
G1 X172.952 Y148.841 E1.7761
G1 X172.981 Y149.552 E1.79977
G1 X172.988 Y150.189 E1.82096
G1 X172.976 Y150.667 E1.83686
G1 X172.958 Y151.069 E1.85024
G1 X172.944 Y151.322 E1.85867
G1 X172.896 Y152.029 E1.88224
G1 X172.836 Y152.648 E1.90292
G1 X172.781 Y153.054 E1.91655
G1 X172.711 Y153.513 E1.93199
G1 X172.669 Y153.77 E1.94066
G1 X172.541 Y154.494 E1.96511
G1 X172.399 Y155.171 E1.98812
G1 X172.306 Y155.548 E2.00103
G1 X172.214 Y155.897 E2.01304
G1 X172.134 Y156.183 E2.02291
G1 X171.918 Y156.921 E2.04849
G1 X171.752 Y157.44 E2.06661
G1 X171.598 Y157.867 E2.08171
G1 X171.423 Y158.323 E2.09796
G1 X171.307 Y158.612 E2.10831
G1 X171.035 Y159.265 E2.13184
G1 X170.792 Y159.807 E2.1516
G1 X170.607 Y160.181 E2.16547
G1 X170.387 Y160.608 E2.18145
G1 X170.261 Y160.846 E2.19041
G1 X169.933 Y161.446 E2.21315
G1 X169.609 Y162 E2.2345
G1 X169.41 Y162.313 E2.24683
G1 X169.131 Y162.737 E2.26371
G1 X168.948 Y163.006 E2.27454
G1 X168.549 Y163.575 E2.29765
G1 X168.177 Y164.075 E2.31838
G1 X167.948 Y164.36 E2.33054
G1 X167.621 Y164.754 E2.34757
G1 X167.44 Y164.966 E2.35684
G1 X166.984 Y165.488 E2.37989
G1 X166.539 Y165.968 E2.40166
G1 X166.291 Y166.215 E2.4133
G1 X165.938 Y166.557 E2.42965
G1 X165.752 Y166.733 E2.43817
G1 X165.247 Y167.2 E2.46105
G1 X164.875 Y167.53 E2.47759
G1 X164.798 Y167.595 E2.48094
G1 X164.454 Y167.873 E2.49565
G1 X164.054 Y168.184 E2.5125
G1 X163.827 Y168.356 E2.52197
G1 X163.242 Y168.787 E2.54614
G1 X162.743 Y169.133 E2.56634
G1 X162.374 Y169.37 E2.58092
G1 X162.025 Y169.585 E2.59456
G1 X161.791 Y169.725 E2.60363
G1 X161.154 Y170.096 E2.62814
G1 X160.656 Y170.37 E2.64705
G1 X160.524 Y170.438 E2.65199
G1 X160.22 Y170.588 E2.66326
G1 X159.832 Y170.773 E2.67756
G1 X159.581 Y170.889 E2.68676
G1 X158.92 Y171.184 E2.71083
G1 X158.386 Y171.406 E2.73007
G1 X158.282 Y171.446 E2.73377
G1 X157.958 Y171.564 E2.74524
G1 X157.471 Y171.734 E2.7624
G1 X157.202 Y171.824 E2.77183
G1 X156.584 Y172.022 E2.79342
G1 X156.024 Y172.186 E2.81282
G1 X155.868 Y172.227 E2.81819
G1 X155.542 Y172.307 E2.82935
G1 X155.095 Y172.41 E2.84461
G1 X154.849 Y172.464 E2.85299
G1 X154.166 Y172.605 E2.87618
G1 X153.511 Y172.719 E2.89829
G1 X153.142 Y172.77 E2.91068
G1 X152.659 Y172.828 E2.92686
G1 X152.376 Y172.858 E2.93633
G1 X151.673 Y172.924 E2.95981
G1 X151.088 Y172.963 E2.97931
G1 X150.64 Y172.976 E2.99422
G1 X150.176 Y172.981 E3.00966
G1 X149.899 Y172.981 E3.01887
G1 X149.201 Y172.971 E3.04209
G1 X148.622 Y172.947 E3.06136
G1 X148.162 Y172.912 E3.0767
G1 X147.688 Y172.866 E3.09254
G1 X147.392 Y172.833 E3.10245
G1 X146.693 Y172.746 E3.12588
G1 X146.14 Y172.663 E3.14448
G1 X145.726 Y172.585 E3.15849
G1 X145.306 Y172.499 E3.17275
G1 X144.982 Y172.428 E3.18378
G1 X144.246 Y172.254 E3.20893
G1 X143.687 Y172.106 E3.22817
G1 X143.306 Y171.99 E3.24141
G1 X142.815 Y171.831 E3.25858
G1 X142.55 Y171.741 E3.26789
G1 X141.914 Y171.517 E3.29031
G1 X141.282 Y171.273 E3.31285
G1 X140.927 Y171.12 E3.3257
G1 X140.52 Y170.937 E3.34055
G1 X140.259 Y170.815 E3.35013
G1 X139.609 Y170.502 E3.37412
G1 X139.101 Y170.241 E3.39312
G1 X138.995 Y170.183 E3.39714
G1 X138.695 Y170.012 E3.40862
G1 X138.306 Y169.783 E3.42364
G1 X138.088 Y169.652 E3.4321
G1 X137.456 Y169.26 E3.45683
G1 X136.73 Y168.769 E3.48598
G1 X136.282 Y168.439 E3.50449
G1 X136.031 Y168.248 E3.51498
G1 X135.458 Y167.8 E3.53917
G1 X134.949 Y167.377 E3.56118
G1 X134.672 Y167.128 E3.57357
G1 X134.319 Y166.801 E3.58958
G1 X134.113 Y166.605 E3.59903
G1 X133.622 Y166.126 E3.62185
G1 X133.212 Y165.704 E3.64142
G1 X133.107 Y165.59 E3.64657
G1 X132.885 Y165.342 E3.65764
G1 X132.599 Y165.012 E3.67217
G1 X132.423 Y164.804 E3.68123
G1 X131.945 Y164.224 E3.70623
G1 X131.538 Y163.698 E3.72835
G1 X131.345 Y163.428 E3.73939
G1 X131.099 Y163.074 E3.75372
G1 X130.936 Y162.833 E3.7634
G1 X130.512 Y162.187 E3.7891
G1 X130.058 Y161.431 E3.81843
G1 X129.791 Y160.943 E3.83693
G1 X129.656 Y160.688 E3.84653
G1 X129.332 Y160.057 E3.87012
G1 X129.053 Y159.472 E3.89168
G1 X128.908 Y159.137 E3.90382
G1 X128.718 Y158.678 E3.92034
G1 X128.606 Y158.396 E3.93044
G1 X128.36 Y157.752 E3.95336
G1 X128.139 Y157.114 E3.97582
G1 X128.04 Y156.789 E3.98712
G1 X127.907 Y156.33 E4.00302
G1 X127.83 Y156.054 E4.01255
G1 X127.646 Y155.351 E4.03672
G1 X127.511 Y154.769 E4.05659
G1 X127.427 Y154.341 E4.07109
G1 X127.364 Y153.984 E4.08315
G1 X127.321 Y153.719 E4.09208
G1 X127.208 Y152.973 E4.11718
G1 X127.139 Y152.429 E4.13541
G1 X127.126 Y152.3 E4.13973
G1 X127.095 Y151.921 E4.15237
G1 X127.063 Y151.436 E4.16854
G1 X127.048 Y151.16 E4.17773
G1 X127.019 Y150.448 E4.20143
G1 X127.012 Y149.771 E4.22395
G1 X127.023 Y149.396 E4.23643
G1 X127.042 Y148.942 E4.25154
G1 X127.058 Y148.653 E4.26117
G1 X127.106 Y147.95 E4.28461
G1 X127.165 Y147.335 E4.30516
G1 X127.221 Y146.924 E4.31895
G1 X127.303 Y146.393 E4.33682
G1 X127.344 Y146.145 E4.34518
G1 X127.457 Y145.51 E4.36664
G1 X127.595 Y144.852 E4.389
G1 X127.703 Y144.419 E4.40384
G1 X127.806 Y144.033 E4.41713
G1 X127.878 Y143.776 E4.426
G1 X128.084 Y143.073 E4.45037
G1 X128.265 Y142.51 E4.47004
G1 X128.407 Y142.12 E4.48384
G1 X128.577 Y141.677 E4.49962
G1 X128.691 Y141.392 E4.50983
G1 X128.964 Y140.736 E4.53347
G1 X129.208 Y140.193 E4.55327
G1 X129.397 Y139.809 E4.5675
G1 X129.617 Y139.383 E4.58345
G1 X129.752 Y139.129 E4.59302
G1 X130.088 Y138.518 E4.61621
G1 X130.344 Y138.079 E4.63311
G1 X130.6 Y137.672 E4.6491
G1 X130.88 Y137.248 E4.666
G1 X131.044 Y137.006 E4.67573
G1 X131.444 Y136.434 E4.69894
G1 X131.846 Y135.895 E4.7213
G1 X132.052 Y135.64 E4.73221
G1 X132.379 Y135.246 E4.74924
G1 X132.561 Y135.033 E4.75856
G1 X133.018 Y134.51 E4.78166
G1 X133.461 Y134.032 E4.80333
G0 F6000 X133.746 Y134.313
G1 F1200 X133.987 Y134.072 E4.81467
G1 X134.34 Y133.73 E4.83102
G1 X134.531 Y133.55 E4.83974
G1 X135.057 Y133.065 E4.86354
G1 X135.514 Y132.667 E4.8837
G1 X135.796 Y132.44 E4.89574
G1 X136.208 Y132.12 E4.91309
G1 X136.426 Y131.955 E4.92218
G1 X137.002 Y131.531 E4.94597
G1 X137.369 Y131.273 E4.96089
G1 X137.479 Y131.199 E4.9653
G1 X137.855 Y130.958 E4.98016
G1 X138.204 Y130.744 E4.99377
G1 X138.4 Y130.627 E5.00136
G1 X139.037 Y130.255 E5.0259
G1 X139.585 Y129.955 E5.04668
G1 X139.719 Y129.887 E5.05168
G1 X140.341 Y129.588 E5.07463
G1 X140.582 Y129.476 E5.08347
G1 X141.243 Y129.181 E5.10754
G1 X141.758 Y128.968 E5.12608
G1 X142.174 Y128.813 E5.14085
G1 X142.661 Y128.643 E5.158
G1 X142.92 Y128.556 E5.16709
G1 X143.538 Y128.358 E5.18867
G1 X144.078 Y128.201 E5.20738
G1 X144.234 Y128.16 E5.21274
G1 X144.548 Y128.083 E5.2235
G1 X144.995 Y127.98 E5.23875
G1 X145.232 Y127.928 E5.24682
G1 X145.915 Y127.787 E5.27002
G1 X146.546 Y127.676 E5.29133
G1 X146.905 Y127.628 E5.30337
G1 X147.388 Y127.57 E5.31955
G1 X147.661 Y127.54 E5.32869
G1 X148.364 Y127.474 E5.35217
G1 X148.928 Y127.437 E5.37097
G1 X149.365 Y127.424 E5.38551
G1 X149.829 Y127.419 E5.40095
G1 X150.095 Y127.419 E5.40979
G1 X150.793 Y127.429 E5.43301
G1 X151.351 Y127.452 E5.45159
G1 X151.485 Y127.461 E5.45605
G1 X151.799 Y127.487 E5.46653
G1 X152.273 Y127.533 E5.48237
G1 X152.558 Y127.564 E5.49191
G1 X153.257 Y127.651 E5.51534
G1 X153.79 Y127.731 E5.53326
G1 X154.193 Y127.806 E5.5469
G1 X154.613 Y127.892 E5.56116
G1 X154.926 Y127.961 E5.57182
G1 X155.662 Y128.135 E5.59697
G1 X156.201 Y128.278 E5.61552
G1 X156.571 Y128.391 E5.62838
G1 X157.062 Y128.55 E5.64555
G1 X157.317 Y128.636 E5.6545
G1 X157.953 Y128.86 E5.67693
G1 X158.562 Y129.096 E5.69865
G1 X158.909 Y129.245 E5.71121
G1 X159.316 Y129.428 E5.72605
G1 X159.568 Y129.546 E5.73531
G1 X160.218 Y129.859 E5.7593
G1 X160.707 Y130.11 E5.77759
G1 X161.102 Y130.332 E5.79266
G1 X161.491 Y130.561 E5.80767
G1 X161.694 Y130.684 E5.81556
G1 X162.319 Y131.071 E5.84001
G1 X163.024 Y131.547 E5.86831
G1 X163.479 Y131.882 E5.8871
G1 X163.721 Y132.066 E5.89721
G1 X164.293 Y132.513 E5.92136
G1 X164.791 Y132.927 E5.9429
G1 X165.056 Y133.166 E5.95476
G1 X165.409 Y133.493 E5.97077
G1 X165.608 Y133.682 E5.9799
G1 X166.099 Y134.161 E6.00271
G1 X166.478 Y134.549 E6.02075
G1 X166.577 Y134.656 E6.0256
G1 X166.807 Y134.914 E6.0371
G1 X167.247 Y135.425 E6.05952
G1 X167.699 Y135.97 E6.08307
G1 X168.093 Y136.475 E6.10438
G1 X168.327 Y136.8 E6.1177
G1 X168.573 Y137.154 E6.13204
G1 X168.73 Y137.387 E6.14138
G1 X169.154 Y138.033 E6.16708
G1 X169.583 Y138.747 E6.19479
G1 X169.851 Y139.235 E6.2133
G1 X169.993 Y139.501 E6.22333
G1 X170.316 Y140.131 E6.24688
G1 X170.585 Y140.698 E6.26775
G1 X170.714 Y140.998 E6.27861
G1 X170.915 Y141.485 E6.29614
G1 X171.012 Y141.729 E6.30487
G1 X171.257 Y142.367 E6.3276
G1 X171.472 Y142.982 E6.34927
G1 X171.562 Y143.276 E6.3595
G1 X171.705 Y143.767 E6.37651
G1 X171.785 Y144.057 E6.38651
G1 X171.968 Y144.759 E6.41064
G1 X172.088 Y145.268 E6.42803
G1 X172.117 Y145.407 E6.43276
G1 X172.179 Y145.73 E6.4437
G1 X172.242 Y146.087 E6.45575
G1 X172.284 Y146.345 E6.46445
G1 X172.401 Y147.119 E6.49048
G1 X172.471 Y147.682 E6.50935
G1 X172.507 Y148.109 E6.5236
G1 X172.539 Y148.602 E6.54004
G1 X172.552 Y148.857 E6.54853
G1 X172.581 Y149.568 E6.5722
G1 X172.588 Y150.182 E6.59262
G1 X172.585 Y150.357 E6.59844
G1 X172.576 Y150.649 E6.60816
G1 X172.545 Y151.295 E6.62967
G1 X172.497 Y152.002 E6.65324
G1 X172.439 Y152.599 E6.67319
G1 X172.386 Y152.994 E6.68644
G1 X172.316 Y153.453 E6.70189
G1 X172.275 Y153.7 E6.71021
G1 X172.147 Y154.424 E6.73467
G1 X172.011 Y155.076 E6.75682
G1 X171.919 Y155.446 E6.7695
G1 X171.827 Y155.795 E6.7815
G1 X171.75 Y156.071 E6.79103
G1 X171.534 Y156.809 E6.81661
G1 X171.374 Y157.309 E6.83407
G1 X171.224 Y157.724 E6.84875
G1 X171.049 Y158.18 E6.86499
G1 X170.938 Y158.458 E6.87495
G1 X170.666 Y159.111 E6.89848
G1 X170.432 Y159.633 E6.9175
G1 X170.252 Y159.998 E6.93104
G1 X170.032 Y160.425 E6.94702
G1 X169.91 Y160.655 E6.95568
G1 X169.582 Y161.255 E6.97842
G1 X169.27 Y161.788 E6.99896
G1 X169.076 Y162.093 E7.01098
G1 X168.797 Y162.517 E7.02786
G1 X168.621 Y162.776 E7.03828
G1 X168.222 Y163.345 E7.06139
G1 X167.863 Y163.827 E7.08138
G1 X167.64 Y164.105 E7.09324
G1 X167.313 Y164.499 E7.11027
G1 X167.139 Y164.703 E7.11918
G1 X166.683 Y165.225 E7.14224
G1 X166.254 Y165.687 E7.16321
G1 X166.013 Y165.928 E7.17454
G1 X165.66 Y166.27 E7.19089
G1 X165.481 Y166.439 E7.19908
G1 X164.976 Y166.906 E7.22196
G1 X164.617 Y167.224 E7.23791
G1 X164.54 Y167.289 E7.24126
G1 X164.208 Y167.557 E7.25545
G1 X163.808 Y167.868 E7.2723
G1 X163.589 Y168.034 E7.28144
G1 X163.004 Y168.465 E7.30561
G1 X162.524 Y168.799 E7.32506
G1 X162.164 Y169.03 E7.33929
G1 X161.815 Y169.245 E7.35292
G1 X161.59 Y169.38 E7.36165
G1 X160.953 Y169.751 E7.38616
G1 X160.472 Y170.014 E7.4044
G1 X160.34 Y170.082 E7.40934
G1 X160.048 Y170.227 E7.42018
G1 X159.66 Y170.412 E7.43448
G1 X159.418 Y170.524 E7.44335
G1 X158.757 Y170.819 E7.46742
G1 X158.242 Y171.032 E7.48596
G1 X157.826 Y171.187 E7.50072
G1 X157.339 Y171.357 E7.51788
G1 X157.08 Y171.444 E7.52697
G1 X156.462 Y171.642 E7.54855
G1 X155.922 Y171.799 E7.56725
G1 X155.766 Y171.84 E7.57262
G1 X155.452 Y171.917 E7.58337
G1 X155.005 Y172.02 E7.59863
G1 X154.768 Y172.072 E7.6067
G1 X154.085 Y172.213 E7.62989
G1 X153.454 Y172.324 E7.6512
G1 X153.095 Y172.372 E7.66325
G1 X152.612 Y172.43 E7.67943
G1 X152.339 Y172.46 E7.68857
G1 X151.636 Y172.526 E7.71205
G1 X151.072 Y172.563 E7.73085
G1 X150.635 Y172.576 E7.74539
G1 X150.171 Y172.581 E7.76082
G1 X149.905 Y172.581 E7.76967
G1 X149.207 Y172.571 E7.79289
G1 X148.649 Y172.548 E7.81146
G1 X148.515 Y172.539 E7.81593
G1 X148.201 Y172.513 E7.82641
G1 X147.727 Y172.467 E7.84225
G1 X147.442 Y172.436 E7.85178
G1 X146.743 Y172.349 E7.87521
G1 X146.21 Y172.269 E7.89314
G1 X145.807 Y172.194 E7.90677
G1 X145.387 Y172.108 E7.92103
G1 X145.074 Y172.039 E7.93169
G1 X144.338 Y171.865 E7.95685
G1 X143.799 Y171.722 E7.97539
G1 X143.429 Y171.609 E7.98826
G1 X142.938 Y171.45 E8.00543
G1 X142.683 Y171.364 E8.01438
G1 X142.047 Y171.14 E8.03681
G1 X141.438 Y170.904 E8.05853
G1 X141.091 Y170.755 E8.07109
G1 X140.684 Y170.572 E8.08593
G1 X140.432 Y170.454 E8.09519
G1 X139.782 Y170.141 E8.11918
G1 X139.293 Y169.89 E8.13746
G1 X138.898 Y169.668 E8.15253
G1 X138.509 Y169.439 E8.16755
G1 X138.299 Y169.312 E8.17571
G1 X137.667 Y168.92 E8.20044
G1 X136.967 Y168.447 E8.22854
G1 X136.519 Y168.117 E8.24705
