; HEADER_BLOCK_START
; generated by OrcaSlicer 2.1.1 on 2025-01-31 at 11:36:33
; total layer number: 61
; filament_density: 1.27
; filament_diameter: 1.75
; max_z_height: 5.00
; HEADER_BLOCK_END

; THUMBNAIL_BLOCK_START

;
; THUMBNAIL_BLOCK_END







; external perimeters extrusion width = 0.40mm
; perimeters extrusion width = 0.45mm
; infill extrusion width = 0.45mm
; solid infill extrusion width = 0.45mm
; top infill extrusion width = 0.38mm
; first layer extrusion width = 0.42mm

; EXECUTABLE_BLOCK_START
EXCLUDE_OBJECT_DEFINE NAME=单层模0_5齿20厚5孔3紧_电机轴_-_副本.STL_id_0_copy_0 CENTER=117.5,115 POLYGON=[[111.697,114.081],[112.265,112.333],[113.346,110.846],[114.833,109.765],[116.581,109.197],[118.419,109.197],[120.167,109.765],[121.654,110.846],[122.735,112.333],[123.303,114.081],[123.303,115.919],[122.735,117.667],[121.654,119.154],[120.167,120.235],[118.419,120.803],[116.581,120.803],[114.833,120.235],[113.346,119.154],[112.265,117.667],[111.697,115.919],[111.697,114.081]]
M73 P0 R9
;TYPE:Custom
;ELEGOO NEPTUNE 4 PRO
M220 S100 ;Set the feed speed to 100%
M221 S100 ;Set the flow rate to 100%
M104 S140
M190 S70
G90
G28 ;home
G1 Z10 F300
G1 X67.5 Y0 F6000
G1 Z0 F300
M109 S240
G92 E0 ;Reset Extruder
G1 X67.5 Y0 Z0.4 F300 ;Move to start position
G1 X167.5 E30 F400 ;Draw the first line
G1 Z0.6 F120.0 ;Move to side a little
M73 P3 R8
G1 X162.5 F3000
G92 E0 ;Reset Extruder
G90
G21
M83 ; use relative distances for extrusion
; filament start gcode
M106 S0
;LAYER_CHANGE
;Z:0.2
;HEIGHT:0.2
;BEFORE_LAYER_CHANGE
G92 E0
;0.2


G1 E-.8 F3600
;AFTER_LAYER_CHANGE
;0.2
;_SET_FAN_SPEED_CHANGING_LAYER
SET_VELOCITY_LIMIT ACCEL=1000 ACCEL_TO_DECEL=500
SET_VELOCITY_LIMIT SQUARE_CORNER_VELOCITY=7
; printing object 单层模0_5齿20厚5孔3紧 电机轴 - 副本.STL id:0 copy 0
EXCLUDE_OBJECT_START NAME=单层模0_5齿20厚5孔3紧_电机轴_-_副本.STL_id_0_copy_0
G1 X114.172 Y114.477 F21000
G1 Z.4
G1 Z.2
G1 E.8 F2700
;TYPE:Inner wall
;WIDTH:0.624316
G1 F1458
G1 X114.171 Y114.473 E.00019
G1 X114.367 Y113.996 E.02366
;WIDTH:0.626076
G1 X114.498 Y113.47 E.02496
G1 X114.852 Y113.048 E.0254
;WIDTH:0.62718
G1 X115.118 Y112.618 E.02333
G1 X115.561 Y112.343 E.02408
;WIDTH:0.626822
G1 X115.971 Y111.998 E.02468
G1 X116.46 Y111.879 E.02325
;WIDTH:0.625041
G1 X116.973 Y111.672 E.02542
G1 X117.404 Y111.708 E.01989
;WIDTH:0.62407
G1 X118.027 Y111.671 E.02866
G1 X118.468 Y111.855 E.02192
;WIDTH:0.625029
G1 X119.03 Y111.998 E.02665
G1 X119.452 Y112.352 E.02537
;WIDTH:0.626805
G1 X119.882 Y112.618 E.0233
G1 X120.185 Y113.102 E.02632
;WIDTH:0.592285
G1 X120.289 Y113.181 E.00568
;WIDTH:0.549214
G1 X120.393 Y113.261 E.00523
;WIDTH:0.506142
G1 X120.497 Y113.341 E.00479
;WIDTH:0.463071
G1 X120.6 Y113.42 E.00434
;WIDTH:0.419999
G1 X120.685 Y113.873 E.0137
G1 X120.935 Y114.456 E.01891
G1 X120.873 Y114.999 E.01627
G1 X120.935 Y115.544 E.01635
G1 X120.685 Y116.127 E.01891
G1 X120.6 Y116.58 E.0137
G1 X120.505 Y116.662 E.00375
G1 X120.182 Y117.054 E.01512
G1 X119.961 Y117.461 E.01381
G1 X119.5 Y117.717 E.0157
G1 X119.08 Y118.101 E.01695
G1 X118.505 Y118.221 E.0175
G1 X118.044 Y118.437 E.01515
G1 X117.547 Y118.374 E.01493
G1 X116.956 Y118.437 E.01772
G1 X116.436 Y118.201 E.01699
G1 X115.92 Y118.101 E.01567
G1 X115.512 Y117.725 E.01651
G1 X115.039 Y117.461 E.01615
G1 X114.783 Y117 E.01571
;WIDTH:0.448698
G1 X114.605 Y116.783 E.009
;WIDTH:0.477397
G1 X114.427 Y116.566 E.00964
;WIDTH:0.517427
G1 X114.425 Y116.441 E.00467
;WIDTH:0.557457
G1 X114.423 Y116.317 E.00506
;WIDTH:0.597486
G1 X114.421 Y116.192 E.00546
G1 X114.367 Y116.004 E.00858
;WIDTH:0.624316
G1 X114.171 Y115.527 E.02366
G1 X114.208 Y115.089 E.0202
G1 X114.174 Y114.517 E.02632
G1 X113.616 Y114.354 F21000
;WIDTH:0.419999
G1 F1458
G1 X113.711 Y114.313 E.00309
G1 X113.931 Y113.848 E.01532
G1 X114.03 Y113.329 E.01572
G1 X113.949 Y113.191 E.00478
G1 X114.109 Y113.175 E.00478
G1 X114.473 Y112.786 E.01587
G1 X114.716 Y112.339 E.01515
G1 X114.682 Y112.182 E.00479
G1 X114.839 Y112.216 E.00479
M73 P4 R8
G1 X115.293 Y111.968 E.01542
G1 X115.675 Y111.609 E.0156
G1 X115.691 Y111.449 E.00479
G1 X115.829 Y111.53 E.00479
G1 X116.328 Y111.437 E.0151
G1 X116.812 Y111.211 E.01593
G1 X116.877 Y111.064 E.00477
G1 X116.983 Y111.184 E.00477
G1 X117.447 Y111.247 E.01393
G1 X118.017 Y111.184 E.0171
G1 X118.123 Y111.064 E.00476
G1 X118.187 Y111.211 E.00476
G1 X118.633 Y111.424 E.01471
G1 X119.171 Y111.53 E.01634
G1 X119.309 Y111.449 E.00477
G1 X119.325 Y111.609 E.00477
G1 X119.714 Y111.973 E.01588
G1 X120.161 Y112.216 E.01515
G1 X120.318 Y112.182 E.00478
G1 X120.284 Y112.339 E.00478
G1 X120.506 Y112.753 E.01401
G1 X120.884 Y113.17 E.01675
G1 X121.055 Y113.189 E.00513
G1 X120.969 Y113.338 E.00513
G1 X121.053 Y113.79 E.01368
G1 X121.273 Y114.291 E.01631
G1 X121.451 Y114.374 E.00586
G1 X121.307 Y114.508 E.00586
G1 X121.253 Y114.947 E.01315
G1 X121.307 Y115.491 E.01629
G1 X121.468 Y115.628 E.0063
G1 X121.272 Y115.71 E.0063
G1 X121.085 Y116.112 E.01322
G1 X120.969 Y116.662 E.01675
G1 X121.068 Y116.818 E.00551
G1 X120.884 Y116.83 E.00551
G1 X120.567 Y117.163 E.01368
G1 X120.284 Y117.661 E.01708
G1 X120.328 Y117.828 E.00514
G1 X120.161 Y117.784 E.00514
G1 X119.714 Y118.027 E.01515
G1 X119.325 Y118.391 E.01588
G1 X119.315 Y118.563 E.00512
G1 X119.171 Y118.47 E.00512
G1 X118.71 Y118.553 E.01394
G1 X118.187 Y118.789 E.0171
G1 X118.125 Y118.949 E.00511
G1 X118.017 Y118.816 E.00511
G1 X117.529 Y118.751 E.01468
G1 X116.983 Y118.816 E.01637
G1 X116.874 Y118.949 E.00512
G1 X116.812 Y118.789 E.00512
G1 X116.328 Y118.563 E.01593
G1 X115.829 Y118.47 E.0151
G1 X115.685 Y118.563 E.00514
G1 X115.675 Y118.391 E.00514
G1 X115.293 Y118.032 E.0156
G1 X114.839 Y117.784 E.01542
G1 X114.672 Y117.828 E.00514
G1 X114.716 Y117.661 E.00514
G1 X114.473 Y117.214 E.01515
G1 X114.109 Y116.825 E.01587
G1 X113.937 Y116.815 E.00513
G1 X114.03 Y116.671 E.00513
G1 X113.931 Y116.152 E.01572
G1 X113.711 Y115.687 E.01532
G1 X113.551 Y115.625 E.00511
G1 X113.684 Y115.517 E.00511
G1 X113.748 Y115.05 E.01406
G1 X113.684 Y114.483 E.01698
G1 X113.564 Y114.377 E.00476
G1 X113.579 Y114.37 E.00049
G1 X113.417 Y114.077 F21000
;TYPE:Outer wall
G1 F1458
G1 X113.491 Y113.92 E.00516
G1 X113.649 Y113.397 E.01627
G1 X113.563 Y113.2 E.00642
;WIDTH:0.411073
G1 X112.988 Y112.907 E.01876
;WIDTH:0.409213
G1 X112.633 Y112.52 E.0152
G1 X113.155 Y112.58 E.0152
;WIDTH:0.409672
G1 X113.715 Y112.866 E.01822
;WIDTH:0.419999
G1 X113.902 Y112.86 E.00556
G1 X114.034 Y112.719 E.00575
G1 X114.333 Y112.286 E.01568
G1 X114.312 Y112.071 E.00643
;WIDTH:0.411071
G1 X113.856 Y111.615 E.01876
;WIDTH:0.409211
G1 X113.637 Y111.137 E.0152
G1 X114.115 Y111.356 E.0152
;WIDTH:0.40967
G1 X114.56 Y111.801 E.01823
;WIDTH:0.419999
G1 X114.739 Y111.853 E.00556
G1 X114.953 Y111.733 E.0073
G1 X115.327 Y111.44 E.01414
G1 X115.373 Y111.229 E.00642
;WIDTH:0.411072
G1 X115.08 Y110.655 E.01876
;WIDTH:0.409213
G1 X115.02 Y110.133 E.0152
G1 X115.407 Y110.488 E.0152
;WIDTH:0.409671
G1 X115.693 Y111.049 E.01822
;WIDTH:0.419999
G1 X115.847 Y111.154 E.00556
G1 X116.075 Y111.109 E.00693
G1 X116.533 Y110.943 E.0145
G1 X116.642 Y110.757 E.00643
;WIDTH:0.411071
G1 X116.542 Y110.12 E.01876
;WIDTH:0.409212
G1 X116.645 Y109.605 E.0152
G1 X116.903 Y110.062 E.0152
;WIDTH:0.40967
G1 X117.002 Y110.684 E.01822
;WIDTH:0.419999
G1 X117.116 Y110.831 E.00556
G1 X117.437 Y110.868 E.0096
G1 X117.834 Y110.843 E.01186
G1 X117.995 Y110.699 E.00643
;WIDTH:0.411072
G1 X118.097 Y110.062 E.01876
;WIDTH:0.409212
G1 X118.354 Y109.606 E.01516
G1 X118.458 Y110.12 E.01517
;WIDTH:0.409671
G1 X118.36 Y110.741 E.01822
;WIDTH:0.419999
G1 X118.423 Y110.917 E.00556
G1 X118.761 Y111.069 E.01102
G1 X119.103 Y111.149 E.01047
G1 X119.3 Y111.063 E.00642
;WIDTH:0.411071
G1 X119.593 Y110.488 E.01876
;WIDTH:0.409211
G1 X119.98 Y110.133 E.0152
G1 X119.92 Y110.655 E.0152
;WIDTH:0.409671
G1 X119.634 Y111.215 E.01822
;WIDTH:0.419999
G1 X119.64 Y111.402 E.00556
G1 X119.802 Y111.553 E.00659
G1 X120.214 Y111.833 E.01485
G1 X120.429 Y111.812 E.00643
;WIDTH:0.41107
G1 X120.885 Y111.356 E.01876
;WIDTH:0.409212
G1 X121.363 Y111.137 E.0152
G1 X121.144 Y111.615 E.0152
;WIDTH:0.40967
G1 X120.699 Y112.06 E.01823
;WIDTH:0.419999
G1 X120.647 Y112.239 E.00556
G1 X120.83 Y112.561 E.01101
G1 X121.06 Y112.827 E.01047
G1 X121.271 Y112.873 E.00642
;WIDTH:0.411071
G1 X121.845 Y112.58 E.01876
;WIDTH:0.409211
G1 X122.367 Y112.52 E.0152
G1 X122.012 Y112.907 E.0152
;WIDTH:0.40967
G1 X121.451 Y113.193 E.01822
;WIDTH:0.419999
G1 X121.346 Y113.35 E.00564
G1 X121.387 Y113.558 E.0063
G1 X121.555 Y114.027 E.01486
G1 X121.743 Y114.142 E.00657
;WIDTH:0.411071
G1 X122.38 Y114.042 E.01876
;WIDTH:0.409212
G1 X122.895 Y114.145 E.0152
G1 X122.438 Y114.403 E.0152
;WIDTH:0.40967
G1 X121.816 Y114.502 E.01822
;WIDTH:0.419999
G1 X121.666 Y114.625 E.00579
G1 X121.628 Y114.981 E.01068
G1 X121.657 Y115.334 E.01054
G1 X121.816 Y115.498 E.0068
;WIDTH:0.409672
G1 X122.438 Y115.597 E.01823
;WIDTH:0.409211
G1 X122.895 Y115.855 E.0152
G1 X122.38 Y115.958 E.0152
;WIDTH:0.409672
G1 X121.759 Y115.86 E.01823
;WIDTH:0.419999
G1 X121.578 Y115.931 E.00579
G1 X121.431 Y116.261 E.01075
G1 X121.35 Y116.606 E.01057
G1 X121.451 Y116.807 E.00671
;WIDTH:0.409672
G1 X122.012 Y117.093 E.01822
;WIDTH:0.409212
G1 X122.367 Y117.48 E.0152
G1 X121.845 Y117.42 E.0152
;WIDTH:0.409672
G1 X121.285 Y117.134 E.01822
;WIDTH:0.419999
G1 X121.096 Y117.142 E.00564
G1 X120.851 Y117.411 E.01085
G1 X120.664 Y117.719 E.01071
G1 X120.699 Y117.94 E.00667
;WIDTH:0.40967
G1 X121.144 Y118.385 E.01822
;WIDTH:0.409211
G1 X121.363 Y118.863 E.0152
G1 X120.885 Y118.644 E.0152
;WIDTH:0.40967
G1 X120.44 Y118.199 E.01822
;WIDTH:0.419999
G1 X120.261 Y118.147 E.00556
G1 X120.057 Y118.26 E.00693
G1 X119.669 Y118.563 E.01467
G1 X119.634 Y118.785 E.00667
;WIDTH:0.40967
G1 X119.92 Y119.345 E.01822
;WIDTH:0.409211
G1 X119.98 Y119.867 E.0152
G1 X119.593 Y119.512 E.0152
;WIDTH:0.40967
G1 X119.307 Y118.951 E.01822
;WIDTH:0.419999
G1 X119.153 Y118.846 E.00556
G1 X118.836 Y118.911 E.00963
G1 X118.462 Y119.059 E.012
G1 X118.36 Y119.259 E.00667
;WIDTH:0.409671
G1 X118.458 Y119.88 E.01823
;WIDTH:0.409211
G1 X118.355 Y120.395 E.0152
G1 X118.097 Y119.938 E.0152
;WIDTH:0.409671
G1 X117.998 Y119.316 E.01822
;WIDTH:0.419999
G1 X117.884 Y119.169 E.00556
G1 X117.519 Y119.128 E.01094
G1 X117.163 Y119.158 E.01063
G1 X117.002 Y119.316 E.00673
;WIDTH:0.409671
G1 X116.903 Y119.938 E.01823
;WIDTH:0.409212
G1 X116.645 Y120.395 E.0152
G1 X116.542 Y119.88 E.0152
;WIDTH:0.409671
G1 X116.64 Y119.259 E.01823
;WIDTH:0.419999
G1 X116.577 Y119.083 E.00556
G1 X116.376 Y118.99 E.00658
G1 X115.892 Y118.85 E.01502
G1 X115.693 Y118.951 E.00667
;WIDTH:0.409672
G1 X115.407 Y119.512 E.01822
;WIDTH:0.409212
G1 X115.02 Y119.867 E.0152
G1 X115.08 Y119.345 E.0152
;WIDTH:0.409672
G1 X115.366 Y118.785 E.01822
;WIDTH:0.419999
G1 X115.36 Y118.598 E.00556
G1 X115.199 Y118.448 E.00656
G1 X114.781 Y118.164 E.01504
G1 X114.56 Y118.199 E.00667
;WIDTH:0.409671
G1 X114.115 Y118.644 E.01822
;WIDTH:0.409212
G1 X113.637 Y118.863 E.0152
G1 X113.856 Y118.385 E.0152
;WIDTH:0.409671
G1 X114.301 Y117.94 E.01823
;WIDTH:0.419998
G1 X114.353 Y117.761 E.00556
G1 X114.264 Y117.599 E.00549
G1 X113.937 Y117.169 E.0161
G1 X113.715 Y117.134 E.00667
;WIDTH:0.409671
G1 X113.155 Y117.42 E.01822
;WIDTH:0.409213
G1 X112.633 Y117.48 E.0152
G1 X112.988 Y117.093 E.0152
;WIDTH:0.409671
G1 X113.549 Y116.807 E.01822
;WIDTH:0.419999
G1 X113.654 Y116.653 E.00556
G1 X113.599 Y116.378 E.00836
G1 X113.441 Y115.962 E.01325
G1 X113.241 Y115.86 E.00667
;WIDTH:0.409671
G1 X112.62 Y115.958 E.01823
;WIDTH:0.409211
G1 X112.105 Y115.855 E.0152
G1 X112.562 Y115.597 E.0152
;WIDTH:0.409671
G1 X113.184 Y115.498 E.01822
;WIDTH:0.419999
G1 X113.331 Y115.384 E.00556
G1 X113.372 Y115.019 E.01094
G1 X113.343 Y114.666 E.01054
G1 X113.199 Y114.505 E.00643
;WIDTH:0.411071
G1 X112.562 Y114.403 E.01876
;WIDTH:0.409212
G1 X112.105 Y114.145 E.0152
G1 X112.62 Y114.042 E.0152
;WIDTH:0.409671
G1 X113.241 Y114.14 E.01823
;WIDTH:0.419999
G1 X113.379 Y114.09 E.00437
G1 E-.68 F3600
;WIPE_START
G1 F3000
G1 X113.491 Y113.92 E-.02443
G1 X113.649 Y113.397 E-.06555
G1 X113.563 Y113.2 E-.02588
G1 X113.532 Y113.184 E-.00414
;WIPE_END
G1 X119.754 Y113.814 Z.6 F21000
G1 Z.2
G1 E.8 F2700
;TYPE:Inner wall
;WIDTH:0.506142
G1 F1458
G1 X119.755 Y113.832 E.00066
;WIDTH:0.463071
G1 X119.764 Y113.975 E.00476
;WIDTH:0.419999
G1 X119.764 Y116.11 E.0636
G1 X119.674 Y116.513 E.0123
G1 X119.472 Y116.793 E.01027
G1 X119.1 Y117.128 E.01492
G1 X118.694 Y117.379 E.01423
G1 X118.232 Y117.556 E.01472
G1 X117.836 Y117.641 E.01208
M73 P5 R8
G1 X117.377 Y117.659 E.01369
G1 X116.778 Y117.558 E.01809
G1 X116.285 Y117.365 E.01578
G1 X115.839 Y117.081 E.01573
G1 X115.459 Y116.712 E.01578
G1 X115.174 Y116.3 E.01493
;WIDTH:0.463227
G1 X115.113 Y116.22 E.00334
;WIDTH:0.506455
G1 X115.052 Y116.14 E.00368
;WIDTH:0.549683
G1 X114.991 Y116.06 E.00402
;WIDTH:0.59291
G1 X114.93 Y115.98 E.00437
;WIDTH:0.618981
G1 X114.776 Y115.469 E.02429
G1 X114.754 Y114.911 E.02538
;WIDTH:0.6071
G1 X114.802 Y114.438 E.02118
;WIDTH:0.621801
G1 X115.029 Y113.77 E.03225
G1 X115.328 Y113.319 E.02479
;WIDTH:0.610851
G1 X115.642 Y112.962 E.02128
;WIDTH:0.615999
G1 X116.173 Y112.58 E.02963
G1 X116.754 Y112.359 E.02817
;WIDTH:0.62097
G1 X117.09 Y112.269 E.01586
G1 X117.599 Y112.257 E.02327
;WIDTH:0.612001
G1 X118.019 Y112.291 E.01894
;WIDTH:0.620954
G1 X118.734 Y112.529 E.03441
G1 X119.204 Y112.842 E.02576
;WIDTH:0.610404
G1 X119.538 Y113.139 E.02003
G1 X119.727 Y113.402 E.01455
;WIDTH:0.592285
G1 X119.737 Y113.545 E.00623
;WIDTH:0.549214
G1 X119.746 Y113.689 E.00574
;WIDTH:0.506142
G1 X119.751 Y113.774 E.00313
G1 X119.362 Y113.776 F21000
;WIDTH:0.419999
G1 F1458
G1 X119.387 Y113.89 E.00346
G1 X119.387 Y116.11 E.06614
G1 X119.333 Y116.352 E.00738
G1 X119.099 Y116.628 E.01077
G1 X118.643 Y116.979 E.01713
G1 X118.14 Y117.191 E.01626
G1 X117.809 Y117.265 E.0101
G1 X117.415 Y117.284 E.01176
G1 X116.88 Y117.195 E.01615
G1 X116.414 Y117.009 E.01496
G1 X115.979 Y116.706 E.01579
G1 X115.595 Y116.256 E.01763
G1 X115.307 Y115.631 E.02048
G1 X115.215 Y115.058 E.0173
G1 X115.257 Y114.559 E.01491
G1 X115.366 Y114.18 E.01175
G1 X115.595 Y113.744 E.01465
G1 X115.918 Y113.355 E.01508
G1 X116.378 Y113.008 E.01716
G1 X116.88 Y112.805 E.01613
G1 X117.409 Y112.716 E.01598
G1 X117.905 Y112.75 E.01481
G1 X118.286 Y112.853 E.01176
G1 X118.765 Y113.102 E.01607
G1 X119.155 Y113.426 E.0151
G1 X119.333 Y113.648 E.00848
G1 X119.353 Y113.737 E.00272
G1 X118.998 Y113.841 F21000
;TYPE:Outer wall
G1 F1458
G1 X119.006 Y113.851 E.00039
G1 X119.01 Y116.11 E.06729
G1 X118.952 Y116.247 E.00442
G1 X118.556 Y116.585 E.01551
G1 X118.109 Y116.81 E.0149
G1 X117.783 Y116.889 E.01
G1 X117.454 Y116.909 E.00982
G1 X116.983 Y116.832 E.01421
G1 X116.514 Y116.635 E.01515
G1 X116.133 Y116.325 E.01463
G1 X115.838 Y115.942 E.01439
G1 X115.672 Y115.535 E.01312
G1 X115.591 Y115.025 E.01536
G1 X115.621 Y114.656 E.01105
G1 X115.805 Y114.128 E.01663
G1 X116.039 Y113.77 E.01274
G1 X116.473 Y113.394 E.0171
G1 X116.84 Y113.208 E.01227
G1 X117.177 Y113.119 E.01038
G1 X117.543 Y113.095 E.01092
G1 X118.052 Y113.175 E.01535
G1 X118.434 Y113.334 E.01233
G1 X118.838 Y113.645 E.0152
G1 X118.973 Y113.81 E.00633
G1 E-.68 F3600
;WIPE_START
G1 F3000
G1 X119.006 Y113.851 E-.00637
G1 X119.008 Y114.798 E-.11363
;WIPE_END
G1 X120.551 Y113.78 Z.6 F21000
G1 Z.2
G1 E.8 F2700
;TYPE:Bottom surface
;WIDTH:0.43047
G1 F1458
G1 X120.298 Y113.531 E.01088
G1 X120.05 Y113.416 E.00835
G1 X120.027 Y113.659 E.00749
G1 X120.041 Y113.818 E.00489
G1 X120.569 Y114.347 E.02286
G1 X120.641 Y114.503 E.00528
G1 X120.598 Y114.923 E.01293
G1 X120.047 Y114.372 E.02384
G1 X120.047 Y114.92 E.01678
G1 X120.636 Y115.509 E.02548
G1 X120.466 Y115.888 E.0127
G1 X120.047 Y115.469 E.01814
G1 X120.047 Y116.017 E.01678
G1 X120.357 Y116.326 E.0134
G1 X120.333 Y116.444 E.00366
G1 X120.138 Y116.655 E.00882
G1 X119.976 Y116.494 E.00701
G1 X119.931 Y116.633 E.00447
G1 X119.791 Y116.856 E.00808
G1 X119.905 Y116.97 E.00494
G1 X119.748 Y117.248 E.00977
G1 X119.676 Y117.29 E.00254
G1 X119.52 Y117.134 E.00675
G1 X119.325 Y117.315 E.00815
G1 X119.22 Y117.382 E.00381
G1 X119.33 Y117.492 E.00475
