; HEADER_BLOCK_START
; generated by OrcaSlicer 2.1.1 on 2025-01-31 at 11:37:29
; total layer number: 82
; filament_density: 1.27
; filament_diameter: 1.75
; max_z_height: 6.68
; HEADER_BLOCK_END

; THUMBNAIL_BLOCK_START

;
; THUMBNAIL_BLOCK_END







; external perimeters extrusion width = 0.40mm
; perimeters extrusion width = 0.45mm
; infill extrusion width = 0.45mm
; solid infill extrusion width = 0.45mm
; top infill extrusion width = 0.38mm
; first layer extrusion width = 0.42mm

; EXECUTABLE_BLOCK_START
EXCLUDE_OBJECT_DEFINE NAME=单层模0_5齿20厚5孔3紧_推杆轴_-_30mm_-_副本.STL_id_0_copy_0 CENTER=117.5,115 POLYGON=[[111.697,114.081],[112.265,112.333],[113.346,110.846],[114.833,109.765],[116.581,109.197],[118.419,109.197],[120.167,109.765],[121.654,110.846],[122.735,112.333],[123.303,114.081],[123.303,115.919],[122.735,117.667],[121.654,119.154],[120.167,120.235],[118.419,120.803],[116.581,120.803],[114.833,120.235],[113.346,119.154],[112.265,117.667],[111.697,115.919],[111.697,114.081]]
M73 P0 R10
;TYPE:Custom
;ELEGOO NEPTUNE 4 PRO
M220 S100 ;Set the feed speed to 100%
M221 S100 ;Set the flow rate to 100%
M104 S140
M190 S70
G90
G28 ;home
G1 Z10 F300
G1 X67.5 Y0 F6000
G1 Z0 F300
M109 S240
G92 E0 ;Reset Extruder
G1 X67.5 Y0 Z0.4 F300 ;Move to start position
G1 X167.5 E30 F400 ;Draw the first line
G1 Z0.6 F120.0 ;Move to side a little
M73 P3 R9
G1 X162.5 F3000
G92 E0 ;Reset Extruder
G90
G21
M83 ; use relative distances for extrusion
; filament start gcode
M106 S0
;LAYER_CHANGE
;Z:0.2
;HEIGHT:0.2
;BEFORE_LAYER_CHANGE
G92 E0
;0.2


G1 E-.8 F3600
;AFTER_LAYER_CHANGE
;0.2
;_SET_FAN_SPEED_CHANGING_LAYER
SET_VELOCITY_LIMIT ACCEL=1000 ACCEL_TO_DECEL=500
SET_VELOCITY_LIMIT SQUARE_CORNER_VELOCITY=7
; printing object 单层模0_5齿20厚5孔3紧 推杆轴 - 30mm - 副本.STL id:0 copy 0
EXCLUDE_OBJECT_START NAME=单层模0_5齿20厚5孔3紧_推杆轴_-_30mm_-_副本.STL_id_0_copy_0
G1 X116.956 Y111.565 F21000
G1 Z.4
G1 Z.2
G1 E.8 F2700
;TYPE:Inner wall
;WIDTH:0.419999
G1 F1692
G1 X117.532 Y111.626 E.01727
G1 X118.044 Y111.565 E.01535
G1 X118.576 Y111.802 E.01734
G1 X119.079 Y111.901 E.01528
G1 X119.509 Y112.29 E.01727
G1 X119.959 Y112.541 E.01535
G1 X120.25 Y113.045 E.01734
G1 X120.599 Y113.421 E.01528
G1 X120.719 Y113.988 E.01727
G1 X120.935 Y114.456 E.01535
G1 X120.874 Y115.032 E.01727
G1 X120.935 Y115.544 E.01535
G1 X120.698 Y116.076 E.01734
G1 X120.599 Y116.579 E.01528
G1 X120.21 Y117.009 E.01727
G1 X119.959 Y117.459 E.01535
G1 X119.455 Y117.75 E.01734
G1 X119.079 Y118.099 E.01528
G1 X118.512 Y118.219 E.01727
G1 X118.044 Y118.435 E.01535
G1 X117.468 Y118.374 E.01727
G1 X116.956 Y118.435 E.01535
G1 X116.424 Y118.198 E.01734
G1 X115.921 Y118.099 E.01528
G1 X115.491 Y117.71 E.01727
G1 X115.041 Y117.459 E.01535
G1 X114.75 Y116.955 E.01734
G1 X114.401 Y116.579 E.01528
G1 X114.281 Y116.012 E.01727
G1 X114.065 Y115.544 E.01535
G1 X114.126 Y114.968 E.01727
G1 X114.065 Y114.456 E.01535
G1 X114.302 Y113.924 E.01734
G1 X114.401 Y113.421 E.01528
G1 X114.79 Y112.991 E.01727
G1 X115.041 Y112.541 E.01535
G1 X115.545 Y112.25 E.01734
G1 X115.921 Y111.901 E.01528
G1 X116.488 Y111.781 E.01727
G1 X116.92 Y111.581 E.01416
G1 X116.932 Y111.111 F21000
G1 F1692
G1 X117.008 Y111.193 E.00334
G1 X117.479 Y111.249 E.01411
G1 X117.991 Y111.193 E.01534
G1 X118.126 Y111.049 E.00589
G1 X118.21 Y111.228 E.00589
G1 X118.641 Y111.427 E.01415
G1 X119.144 Y111.531 E.0153
G1 X119.316 Y111.436 E.00586
G1 X119.34 Y111.631 E.00586
G1 X119.687 Y111.953 E.0141
G1 X120.135 Y112.209 E.01535
G1 X120.329 Y112.171 E.00589
G1 X120.291 Y112.365 E.00589
G1 X120.523 Y112.78 E.01415
G1 X120.869 Y113.16 E.0153
G1 X121.064 Y113.184 E.00586
G1 X120.969 Y113.356 E.00586
G1 X121.06 Y113.821 E.0141
G1 X121.273 Y114.291 E.01537
G1 X121.451 Y114.374 E.00586
G1 X121.307 Y114.508 E.00586
G1 X121.251 Y114.979 E.01411
G1 X121.307 Y115.491 E.01534
G1 X121.468 Y115.628 E.0063
G1 X121.272 Y115.71 E.0063
G1 X121.073 Y116.141 E.01415
G1 X120.969 Y116.644 E.0153
G1 X121.079 Y116.823 E.00627
G1 X120.869 Y116.84 E.00627
G1 X120.547 Y117.187 E.0141
G1 X120.291 Y117.635 E.01535
G1 X120.34 Y117.84 E.0063
G1 X120.135 Y117.791 E.0063
G1 X119.72 Y118.023 E.01415
G1 X119.34 Y118.369 E.0153
G1 X119.323 Y118.579 E.00627
G1 X119.144 Y118.469 E.00627
G1 X118.679 Y118.56 E.0141
G1 X118.209 Y118.773 E.01537
G1 X118.128 Y118.967 E.00627
G1 X117.992 Y118.807 E.00627
G1 X117.521 Y118.751 E.01411
G1 X117.009 Y118.807 E.01534
G1 X116.872 Y118.968 E.0063
G1 X116.79 Y118.772 E.0063
G1 X116.359 Y118.573 E.01415
G1 X115.856 Y118.469 E.0153
G1 X115.677 Y118.579 E.00627
G1 X115.66 Y118.369 E.00627
G1 X115.313 Y118.047 E.0141
G1 X114.865 Y117.791 E.01535
G1 X114.66 Y117.84 E.0063
G1 X114.709 Y117.635 E.0063
G1 X114.477 Y117.22 E.01415
G1 X114.131 Y116.84 E.0153
G1 X113.921 Y116.823 E.00627
G1 X114.031 Y116.644 E.00627
G1 X113.94 Y116.179 E.0141
G1 X113.727 Y115.709 E.01537
G1 X113.533 Y115.628 E.00627
G1 X113.693 Y115.492 E.00627
G1 X113.749 Y115.021 E.01411
G1 X113.693 Y114.509 E.01534
G1 X113.549 Y114.374 E.00589
G1 X113.728 Y114.29 E.00589
G1 X113.927 Y113.859 E.01415
G1 X114.031 Y113.356 E.0153
G1 X113.936 Y113.184 E.00586
G1 X114.131 Y113.16 E.00586
G1 X114.453 Y112.813 E.0141
G1 X114.709 Y112.365 E.01535
G1 X114.671 Y112.171 E.00589
G1 X114.865 Y112.209 E.00589
G1 X115.28 Y111.977 E.01415
G1 X115.66 Y111.631 E.0153
G1 X115.684 Y111.436 E.00586
G1 X115.856 Y111.531 E.00586
G1 X116.321 Y111.44 E.0141
G1 X116.791 Y111.227 E.01537
G1 X116.874 Y111.049 E.00586
G1 X116.905 Y111.081 E.00133
G1 X117.125 Y110.834 F21000
;TYPE:Outer wall
G1 F1692
G1 X117.481 Y110.872 E.01068
G1 X117.834 Y110.843 E.01054
G1 X117.995 Y110.699 E.00643
;WIDTH:0.411072
G1 X118.097 Y110.062 E.01877
;WIDTH:0.409093
G1 X118.353 Y109.609 E.01506
G1 X118.458 Y110.12 E.01507
;WIDTH:0.409671
G1 X118.36 Y110.741 E.01823
;WIDTH:0.419999
G1 X118.431 Y110.922 E.00579
G1 X118.761 Y111.069 E.01075
G1 X119.103 Y111.149 E.01047
G1 X119.3 Y111.063 E.00642
;WIDTH:0.411073
G1 X119.593 Y110.488 E.01877
;WIDTH:0.409093
G1 X119.979 Y110.136 E.0151
G1 X119.92 Y110.654 E.0151
;WIDTH:0.409672
G1 X119.634 Y111.215 E.01824
;WIDTH:0.419999
G1 X119.645 Y111.409 E.00579
G1 X119.911 Y111.649 E.01068
G1 X120.214 Y111.833 E.01054
G1 X120.429 Y111.812 E.00643
;WIDTH:0.411072
G1 X120.885 Y111.356 E.01877
;WIDTH:0.409094
G1 X121.36 Y111.14 E.0151
G1 X121.144 Y111.615 E.0151
;WIDTH:0.409671
G1 X120.699 Y112.06 E.01824
;WIDTH:0.419999
G1 X120.65 Y112.248 E.00579
G1 X120.83 Y112.561 E.01075
G1 X121.06 Y112.827 E.01047
G1 X121.271 Y112.873 E.00642
;WIDTH:0.411073
G1 X121.846 Y112.58 E.01877
;WIDTH:0.409092
G1 X122.364 Y112.521 E.0151
G1 X122.012 Y112.907 E.0151
;WIDTH:0.409672
G1 X121.451 Y113.193 E.01824
;WIDTH:0.419999
G1 X121.346 Y113.356 E.00579
G1 X121.42 Y113.707 E.01068
G1 X121.557 Y114.033 E.01054
G1 X121.743 Y114.142 E.00643
;WIDTH:0.411074
G1 X122.381 Y114.042 E.01877
;WIDTH:0.409094
G1 X122.892 Y114.146 E.0151
G1 X122.438 Y114.403 E.0151
;WIDTH:0.409673
G1 X121.816 Y114.502 E.01824
;WIDTH:0.419999
G1 X121.666 Y114.625 E.00579
G1 X121.628 Y114.981 E.01068
G1 X121.657 Y115.334 E.01054
G1 X121.816 Y115.498 E.0068
;WIDTH:0.409674
G1 X122.438 Y115.597 E.01824
;WIDTH:0.409093
G1 X122.892 Y115.854 E.0151
G1 X122.381 Y115.958 E.0151
;WIDTH:0.409674
G1 X121.759 Y115.86 E.01824
;WIDTH:0.419999
G1 X121.578 Y115.931 E.00579
G1 X121.431 Y116.261 E.01075
G1 X121.351 Y116.603 E.01047
G1 X121.451 Y116.807 E.0068
;WIDTH:0.409673
G1 X122.012 Y117.093 E.01824
;WIDTH:0.409092
G1 X122.364 Y117.479 E.0151
G1 X121.846 Y117.42 E.0151
;WIDTH:0.409673
G1 X121.285 Y117.134 E.01824
;WIDTH:0.419999
G1 X121.091 Y117.145 E.00579
G1 X120.851 Y117.411 E.01068
G1 X120.667 Y117.714 E.01054
G1 X120.699 Y117.94 E.0068
;WIDTH:0.409671
G1 X121.144 Y118.385 E.01824
;WIDTH:0.409095
G1 X121.36 Y118.86 E.0151
M73 P4 R9
G1 X120.885 Y118.644 E.0151
;WIDTH:0.409671
G1 X120.44 Y118.199 E.01824
;WIDTH:0.419999
G1 X120.252 Y118.15 E.00579
G1 X119.939 Y118.33 E.01075
G1 X119.673 Y118.56 E.01047
G1 X119.634 Y118.785 E.0068
;WIDTH:0.409674
G1 X119.92 Y119.346 E.01824
;WIDTH:0.40909
G1 X119.979 Y119.864 E.0151
G1 X119.593 Y119.512 E.0151
;WIDTH:0.409674
G1 X119.307 Y118.951 E.01824
;WIDTH:0.419999
G1 X119.144 Y118.846 E.00579
G1 X118.793 Y118.92 E.01068
G1 X118.467 Y119.057 E.01054
G1 X118.36 Y119.259 E.0068
;WIDTH:0.409672
G1 X118.458 Y119.881 E.01824
;WIDTH:0.409094
G1 X118.354 Y120.392 E.0151
G1 X118.097 Y119.938 E.0151
;WIDTH:0.409673
G1 X117.998 Y119.316 E.01824
;WIDTH:0.419999
G1 X117.875 Y119.166 E.00579
G1 X117.519 Y119.128 E.01068
G1 X117.166 Y119.157 E.01054
G1 X117.002 Y119.316 E.0068
;WIDTH:0.409673
G1 X116.903 Y119.938 E.01824
;WIDTH:0.409094
G1 X116.646 Y120.392 E.0151
G1 X116.542 Y119.881 E.0151
;WIDTH:0.409673
G1 X116.64 Y119.259 E.01824
;WIDTH:0.419999
G1 X116.569 Y119.078 E.00579
G1 X116.239 Y118.931 E.01075
G1 X115.897 Y118.851 E.01047
G1 X115.693 Y118.951 E.0068
;WIDTH:0.409673
G1 X115.407 Y119.512 E.01824
;WIDTH:0.409093
G1 X115.021 Y119.864 E.0151
G1 X115.08 Y119.346 E.0151
;WIDTH:0.409673
G1 X115.366 Y118.785 E.01824
;WIDTH:0.419999
G1 X115.355 Y118.591 E.00579
G1 X115.089 Y118.351 E.01068
G1 X114.786 Y118.167 E.01054
G1 X114.56 Y118.199 E.0068
;WIDTH:0.409672
G1 X114.115 Y118.644 E.01824
;WIDTH:0.409094
G1 X113.64 Y118.86 E.0151
G1 X113.856 Y118.385 E.0151
;WIDTH:0.409672
G1 X114.301 Y117.94 E.01824
;WIDTH:0.419999
G1 X114.35 Y117.752 E.00579
G1 X114.17 Y117.439 E.01075
G1 X113.94 Y117.173 E.01047
G1 X113.715 Y117.134 E.0068
;WIDTH:0.409673
G1 X113.154 Y117.42 E.01824
;WIDTH:0.409092
G1 X112.636 Y117.479 E.0151
G1 X112.988 Y117.093 E.0151
;WIDTH:0.409673
G1 X113.549 Y116.807 E.01824
;WIDTH:0.419999
G1 X113.654 Y116.644 E.00579
G1 X113.58 Y116.293 E.01068
G1 X113.443 Y115.967 E.01054
G1 X113.241 Y115.86 E.0068
;WIDTH:0.409671
G1 X112.619 Y115.958 E.01824
;WIDTH:0.409093
G1 X112.108 Y115.854 E.0151
G1 X112.562 Y115.597 E.0151
;WIDTH:0.409671
G1 X113.184 Y115.498 E.01824
;WIDTH:0.419999
G1 X113.334 Y115.375 E.00579
G1 X113.372 Y115.019 E.01068
G1 X113.343 Y114.666 E.01054
G1 X113.199 Y114.505 E.00643
;WIDTH:0.411073
G1 X112.562 Y114.403 E.01877
;WIDTH:0.409091
G1 X112.108 Y114.146 E.0151
G1 X112.619 Y114.042 E.0151
;WIDTH:0.409672
G1 X113.241 Y114.14 E.01824
;WIDTH:0.419999
G1 X113.422 Y114.069 E.00579
G1 X113.569 Y113.739 E.01075
G1 X113.649 Y113.397 E.01047
G1 X113.563 Y113.2 E.00642
;WIDTH:0.411074
G1 X112.988 Y112.907 E.01877
;WIDTH:0.409092
G1 X112.636 Y112.521 E.0151
G1 X113.154 Y112.58 E.0151
;WIDTH:0.409674
G1 X113.715 Y112.866 E.01824
;WIDTH:0.419999
G1 X113.909 Y112.855 E.00579
G1 X114.149 Y112.589 E.01068
G1 X114.333 Y112.286 E.01054
G1 X114.312 Y112.071 E.00643
;WIDTH:0.411073
G1 X113.856 Y111.615 E.01877
;WIDTH:0.409093
G1 X113.64 Y111.14 E.0151
G1 X114.115 Y111.356 E.0151
;WIDTH:0.409672
G1 X114.56 Y111.801 E.01824
;WIDTH:0.419999
G1 X114.748 Y111.85 E.00579
G1 X115.061 Y111.67 E.01075
G1 X115.327 Y111.44 E.01047
G1 X115.373 Y111.229 E.00642
;WIDTH:0.411073
G1 X115.08 Y110.654 E.01877
;WIDTH:0.409092
G1 X115.021 Y110.136 E.0151
G1 X115.407 Y110.488 E.0151
;WIDTH:0.409672
G1 X115.693 Y111.049 E.01824
;WIDTH:0.419999
G1 X115.856 Y111.154 E.00579
G1 X116.207 Y111.08 E.01068
G1 X116.533 Y110.943 E.01054
G1 X116.642 Y110.757 E.00643
;WIDTH:0.411072
G1 X116.542 Y110.119 E.01877
;WIDTH:0.409094
G1 X116.646 Y109.608 E.0151
G1 X116.903 Y110.062 E.0151
;WIDTH:0.409671
G1 X117.002 Y110.684 E.01824
;WIDTH:0.419999
G1 X117.1 Y110.803 E.00459
G1 E-.68 F3600
;WIPE_START
G1 F3000
G1 X117.481 Y110.872 E-.04654
G1 X117.834 Y110.843 E-.04248
G1 X117.995 Y110.699 E-.02589
G1 X118.002 Y110.658 E-.00509
;WIPE_END
G1 X120.496 Y113.503 Z.6 F21000
G1 Z.2
G1 E.8 F2700
;TYPE:Bottom surface
;WIDTH:0.440033
G1 F1692
G1 X119.737 Y112.744 E.03367
G1 X119.315 Y112.5 E.01529
G1 X118.944 Y112.166 E.01566
G1 X118.503 Y112.072 E.01415
G1 X120.428 Y113.997 E.08542
G1 X120.641 Y114.502 E.0172
G1 X120.616 Y114.746 E.00769
G1 X117.755 Y111.886 E.12691
G1 X117.541 Y111.909 E.00676
G1 X117.192 Y111.884 E.01098
G1 X120.622 Y115.314 E.15218
G1 X120.641 Y115.498 E.00577
G1 X120.519 Y115.773 E.00945
G1 X116.727 Y111.981 E.16823
G1 X116.544 Y112.062 E.00627
G1 X116.299 Y112.114 E.00787
G1 X120.386 Y116.201 E.1813
G1 X120.334 Y116.444 E.00779
G1 X120.208 Y116.584 E.00593
G1 X115.916 Y112.292 E.19041
G1 X115.685 Y112.5 E.00973
G1 X115.606 Y112.545 E.00283
G1 X119.955 Y116.894 E.19291
G1 X119.749 Y117.249 E.01289
G1 X115.251 Y112.751 E.19953
G1 X115.045 Y113.107 E.01289
G1 X119.393 Y117.455 E.19291
G1 X119.315 Y117.5 E.00283
G1 X119.084 Y117.708 E.00974
G1 X114.792 Y113.416 E.19041
G1 X114.666 Y113.556 E.00592
G1 X114.614 Y113.799 E.00779
G1 X118.701 Y117.886 E.1813
G1 X118.456 Y117.938 E.00787
G1 X118.273 Y118.019 E.00627
G1 X114.481 Y114.227 E.16823
G1 X114.359 Y114.502 E.00945
G1 X114.378 Y114.686 E.00578
G1 X117.814 Y118.122 E.15246
G1 X117.501 Y118.09 E.00988
G1 X117.246 Y118.116 E.00803
G1 X114.384 Y115.254 E.12699
G1 X114.359 Y115.498 E.00769
G1 X114.572 Y116.003 E.01721
G1 X116.497 Y117.928 E.08541
G1 X116.056 Y117.834 E.01414
G1 X115.685 Y117.5 E.01566
G1 X115.263 Y117.256 E.0153
G1 X114.504 Y116.497 E.03365
; stop printing object 单层模0_5齿20厚5孔3紧 推杆轴 - 30mm - 副本.STL id:0 copy 0
;LAYER_CHANGE
;Z:0.28
;HEIGHT:0.08
;BEFORE_LAYER_CHANGE
G92 E0
;0.28


G1 E-.68 F3600
;WIPE_START
G1 F4800
G1 X115.211 Y117.204 E-.12
;WIPE_END
EXCLUDE_OBJECT_END NAME=单层模0_5齿20厚5孔3紧_推杆轴_-_30mm_-_副本.STL_id_0_copy_0
;AFTER_LAYER_CHANGE
;0.28
;_SET_FAN_SPEED_CHANGING_LAYER
SET_VELOCITY_LIMIT ACCEL=5000 ACCEL_TO_DECEL=2500
SET_VELOCITY_LIMIT SQUARE_CORNER_VELOCITY=9
M140 S70 ; set bed temperature
; printing object 单层模0_5齿20厚5孔3紧 推杆轴 - 30mm - 副本.STL id:0 copy 0
EXCLUDE_OBJECT_START NAME=单层模0_5齿20厚5孔3紧_推杆轴_-_30mm_-_副本.STL_id_0_copy_0
G1 X116.968 Y111.643 Z.6 F21000
G1 Z.28
M73 P5 R9
G1 E.8 F2700
SET_VELOCITY_LIMIT ACCEL=3000 ACCEL_TO_DECEL=1500 SQUARE_CORNER_VELOCITY=7
;TYPE:Inner wall
;WIDTH:0.449999
G1 F1431
G1 X117.5 Y111.676 E.00728
G1 X118.032 Y111.643 E.00728
G1 X118.527 Y111.838 E.00728
G1 X119.043 Y111.972 E.00728
G1 X119.454 Y112.311 E.00728
G1 X119.903 Y112.597 E.00728
G1 X120.189 Y113.046 E.00728
G1 X120.528 Y113.457 E.00728
G1 X120.662 Y113.973 E.00728
G1 X120.857 Y114.468 E.00728
G1 X120.824 Y115 E.00728
G1 X120.857 Y115.532 E.00728
G1 X120.662 Y116.027 E.00728
G1 X120.528 Y116.543 E.00728
G1 X120.189 Y116.954 E.00728
G1 X119.903 Y117.403 E.00728
G1 X119.454 Y117.689 E.00728
G1 X119.043 Y118.028 E.00728
G1 X118.527 Y118.162 E.00728
G1 X118.032 Y118.357 E.00728
G1 X117.5 Y118.324 E.00728
G1 X116.968 Y118.357 E.00728
G1 X116.473 Y118.162 E.00728
G1 X115.957 Y118.028 E.00728
G1 X115.546 Y117.689 E.00728
G1 X115.097 Y117.403 E.00728
G1 X114.811 Y116.954 E.00728
G1 X114.472 Y116.543 E.00728
G1 X114.338 Y116.027 E.00728
G1 X114.143 Y115.532 E.00728
G1 X114.176 Y115 E.00728
G1 X114.143 Y114.468 E.00728
G1 X114.338 Y113.973 E.00728
G1 X114.472 Y113.457 E.00728
G1 X114.811 Y113.046 E.00728
G1 X115.097 Y112.597 E.00728
G1 X115.546 Y112.311 E.00728
G1 X115.957 Y111.972 E.00728
G1 X116.473 Y111.838 E.00728
G1 X116.931 Y111.658 E.00674
SET_VELOCITY_LIMIT ACCEL=5000 ACCEL_TO_DECEL=2500 SQUARE_CORNER_VELOCITY=9
G1 X116.884 Y111.113 F21000
SET_VELOCITY_LIMIT ACCEL=3000 ACCEL_TO_DECEL=1500 SQUARE_CORNER_VELOCITY=7
G1 F1431
G1 X116.949 Y111.19 E.00139
G1 X117.195 Y111.243 E.00343
G1 X117.805 Y111.243 E.00835
G1 X118.051 Y111.19 E.00343
G1 X118.116 Y111.113 E.00139
G1 X118.154 Y111.207 E.00139
G1 X118.371 Y111.333 E.00343
G1 X118.951 Y111.521 E.00835
G1 X119.201 Y111.547 E.00343
G1 X119.287 Y111.493 E.00139
G1 X119.294 Y111.594 E.00139
G1 X119.461 Y111.781 E.00343
G1 X119.955 Y112.14 E.00835
G1 X120.185 Y112.242 E.00343
G1 X120.283 Y112.217 E.00139
G1 X120.258 Y112.315 E.00139
G1 X120.36 Y112.545 E.00343
G1 X120.719 Y113.039 E.00835
G1 X120.906 Y113.206 E.00343
G1 X121.007 Y113.213 E.00139
G1 X120.953 Y113.299 E.00139
G1 X120.979 Y113.549 E.00343
G1 X121.167 Y114.129 E.00835
G1 X121.293 Y114.346 E.00343
G1 X121.387 Y114.384 E.00139
G1 X121.31 Y114.449 E.00139
G1 X121.257 Y114.695 E.00343
G1 X121.257 Y115.305 E.00835
G1 X121.31 Y115.551 E.00343
G1 X121.404 Y115.618 E.00159
G1 X121.293 Y115.654 E.00159
