; HEADER_BLOCK_START
; generated by OrcaSlicer 2.1.1 on 2025-01-25 at 16:18:13
; total layer number: 82
; filament_density: 1.27
; filament_diameter: 1.75
; max_z_height: 6.68
; HEADER_BLOCK_END

; THUMBNAIL_BLOCK_START

;
; THUMBNAIL_BLOCK_END







; external perimeters extrusion width = 0.40mm
; perimeters extrusion width = 0.45mm
; infill extrusion width = 0.45mm
; solid infill extrusion width = 0.45mm
; top infill extrusion width = 0.38mm
; first layer extrusion width = 0.42mm

; EXECUTABLE_BLOCK_START
EXCLUDE_OBJECT_DEFINE NAME=单层模0_5齿21厚5孔3紧_推杆轴_-_30mm.STL_id_0_copy_0 CENTER=117.5,115 POLYGON=[[111.868,114.738],[112.042,113.586],[112.196,113.086],[112.701,112.037],[112.996,111.605],[113.789,110.75],[114.198,110.424],[115.207,109.842],[115.694,109.651],[116.829,109.391],[117.351,109.352],[118.513,109.439],[119.023,109.556],[120.107,109.981],[120.561,110.243],[121.471,110.969],[121.827,111.353],[122.484,112.315],[122.711,112.787],[123.054,113.9],[123.132,114.417],[123.132,115.583],[123.054,116.1],[122.711,117.213],[122.484,117.685],[121.827,118.647],[121.471,119.031],[120.561,119.757],[120.107,120.019],[119.023,120.444],[118.513,120.561],[117.351,120.648],[116.829,120.609],[115.694,120.349],[115.207,120.158],[114.198,119.576],[113.789,119.25],[112.996,118.395],[112.701,117.963],[112.196,116.914],[112.042,116.414],[111.868,115.262],[111.868,114.738]]
M73 P0 R10
;TYPE:Custom
;ELEGOO NEPTUNE 4 PRO
M220 S100 ;Set the feed speed to 100%
M221 S100 ;Set the flow rate to 100%
M104 S140
M190 S70
G90
G28 ;home
G1 Z10 F300
G1 X67.5 Y0 F6000
G1 Z0 F300
M109 S240
G92 E0 ;Reset Extruder
G1 X67.5 Y0 Z0.4 F300 ;Move to start position
G1 X167.5 E30 F400 ;Draw the first line
G1 Z0.6 F120.0 ;Move to side a little
M73 P3 R10
G1 X162.5 F3000
G92 E0 ;Reset Extruder
G90
G21
M83 ; use relative distances for extrusion
; filament start gcode
M106 S0
;LAYER_CHANGE
;Z:0.2
;HEIGHT:0.2
;BEFORE_LAYER_CHANGE
G92 E0
;0.2


G1 E-.8 F3600
;AFTER_LAYER_CHANGE
;0.2
;_SET_FAN_SPEED_CHANGING_LAYER
SET_VELOCITY_LIMIT ACCEL=1000 ACCEL_TO_DECEL=500
SET_VELOCITY_LIMIT SQUARE_CORNER_VELOCITY=7
; printing object 单层模0_5齿21厚5孔3紧 推杆轴 - 30mm.STL id:0 copy 0
EXCLUDE_OBJECT_START NAME=单层模0_5齿21厚5孔3紧_推杆轴_-_30mm.STL_id_0_copy_0
G1 X116.149 Y111.527 F21000
G1 Z.4
G1 Z.2
G1 E.8 F2700
;TYPE:Inner wall
;WIDTH:0.419999
G1 F1748
G1 X116.739 Y111.461 E.01768
G1 X117.233 Y111.28 E.01568
G1 X117.816 Y111.39 E.01768
G1 X118.342 Y111.363 E.01568
G1 X118.867 Y111.64 E.01768
G1 X119.377 Y111.769 E.01568
G1 X119.797 Y112.189 E.01768
G1 X120.247 Y112.463 E.01568
G1 X120.524 Y112.987 E.01768
G1 X120.873 Y113.381 E.01568
G1 X120.984 Y113.967 E.01775
G1 X121.201 Y114.444 E.01561
G1 X121.135 Y115.034 E.01768
G1 X121.201 Y115.556 E.01568
G1 X120.963 Y116.102 E.01773
G1 X120.873 Y116.619 E.01562
G1 X120.485 Y117.07 E.01774
G1 X120.247 Y117.537 E.01562
G1 X119.743 Y117.855 E.01774
G1 X119.377 Y118.231 E.01562
G1 X118.802 Y118.385 E.01774
G1 X118.342 Y118.637 E.01562
G1 X117.747 Y118.615 E.01775
G1 X117.233 Y118.72 E.01561
G1 X116.673 Y118.524 E.01768
G1 X116.149 Y118.473 E.01568
G1 X115.672 Y118.12 E.01768
G1 X115.186 Y117.917 E.01568
G1 X114.833 Y117.439 E.01768
G1 X114.43 Y117.102 E.01568
G1 X114.233 Y116.541 E.01768
G1 X113.947 Y116.1 E.01568
G1 X113.925 Y115.507 E.01768
G1 X113.781 Y115 E.01568
G1 X113.935 Y114.425 E.01774
G1 X113.947 Y113.9 E.01562
G1 X114.264 Y113.396 E.01774
G1 X114.43 Y112.898 E.01562
G1 X114.881 Y112.51 E.01774
G1 X115.186 Y112.083 E.01562
G1 X115.732 Y111.845 E.01775
G1 X116.117 Y111.551 E.01442
G1 X116.033 Y111.089 F21000
G1 F1748
G1 X116.126 Y111.153 E.00337
G1 X116.6 Y111.106 E.01419
G1 X117.091 Y110.933 E.0155
G1 X117.194 Y110.753 E.00616
G1 X117.322 Y110.915 E.00616
G1 X117.789 Y111.01 E.0142
G1 X118.309 Y110.989 E.01549
G1 X118.46 Y110.848 E.00616
G1 X118.534 Y111.041 E.00616
G1 X118.953 Y111.269 E.0142
G1 X119.456 Y111.402 E.01549
G1 X119.641 Y111.312 E.00616
G1 X119.656 Y111.518 E.00616
G1 X119.989 Y111.859 E.0142
G1 X120.43 Y112.135 E.01549
G1 X120.634 Y112.103 E.00616
G1 X120.587 Y112.305 E.00616
G1 X120.804 Y112.729 E.0142
G1 X121.144 Y113.122 E.01547
G1 X121.35 Y113.152 E.00619
G1 X121.245 Y113.332 E.00619
G1 X121.328 Y113.802 E.01424
G1 X121.537 Y114.276 E.01543
G1 X121.723 Y114.365 E.00616
G1 X121.571 Y114.505 E.00616
G1 X121.512 Y114.978 E.01419
G1 X121.571 Y115.494 E.01548
G1 X121.746 Y115.638 E.00675
G1 X121.536 Y115.724 E.00675
G1 X121.34 Y116.16 E.01424
G1 X121.245 Y116.669 E.01543
G1 X121.369 Y116.857 E.00671
G1 X121.145 Y116.878 E.00671
G1 X120.828 Y117.237 E.01426
G1 X120.587 Y117.695 E.01543
G1 X120.65 Y117.912 E.00671
G1 X120.43 Y117.865 E.00671
G1 X120.021 Y118.115 E.01426
G1 X119.656 Y118.482 E.01543
G1 X119.652 Y118.707 E.00671
G1 X119.456 Y118.598 E.00671
G1 X118.992 Y118.716 E.01426
G1 X118.534 Y118.959 E.01543
G1 X118.465 Y119.174 E.00671
G1 X118.309 Y119.011 E.00671
G1 X117.831 Y118.987 E.01426
G1 X117.322 Y119.085 E.01543
G1 X117.192 Y119.269 E.00671
G1 X117.091 Y119.067 E.00671
G1 X116.644 Y118.904 E.01419
G1 X116.126 Y118.847 E.0155
G1 X115.948 Y118.985 E.00671
G1 X115.911 Y118.763 E.00671
G1 X115.531 Y118.475 E.0142
G1 X115.054 Y118.268 E.01549
G1 X114.843 Y118.347 E.00671
G1 X114.873 Y118.124 E.00671
G1 X114.595 Y117.736 E.0142
G1 X114.2 Y117.398 E.01549
G1 X113.975 Y117.411 E.00671
G1 X114.07 Y117.207 E.00671
G1 X113.918 Y116.755 E.0142
G1 X113.64 Y116.315 E.01549
G1 X113.421 Y116.262 E.00671
G1 X113.572 Y116.094 E.00671
G1 X113.56 Y115.618 E.0142
G1 X113.425 Y115.116 E.01547
G1 X113.231 Y115 E.00675
G1 X113.425 Y114.884 E.00675
G1 X113.554 Y114.423 E.01424
G1 X113.572 Y113.906 E.01543
G1 X113.442 Y113.745 E.00616
G1 X113.64 Y113.685 E.00616
G1 X113.9 Y113.282 E.01426
G1 X114.07 Y112.793 E.01543
G1 X113.993 Y112.601 E.00616
G1 X114.2 Y112.602 E.00616
G1 X114.567 Y112.294 E.01426
G1 X114.873 Y111.876 E.01543
G1 X114.857 Y111.67 E.00616
G1 X115.054 Y111.732 E.00616
G1 X115.495 Y111.546 E.01426
G1 X115.911 Y111.237 E.01543
G1 X115.956 Y111.035 E.00616
G1 X116 Y111.066 E.0016
G1 X116.163 Y110.777 F21000
;TYPE:Outer wall
G1 F1748
G1 X116.519 Y110.737 E.01067
G1 X116.857 Y110.628 E.01059
G1 X116.984 Y110.451 E.00648
;WIDTH:0.423507
G1 X116.951 Y110.053 E.01201
G1 X117.048 Y109.668 E.01196
G1 X117.176 Y109.658 E.00388
G1 X117.313 Y109.956 E.00984
G1 X117.354 Y110.403 E.01351
;WIDTH:0.419999
G1 X117.467 Y110.567 E.00594
G1 X117.819 Y110.634 E.01067
G1 X118.175 Y110.629 E.01059
G1 X118.349 Y110.498 E.00648
;WIDTH:0.423507
G1 X118.434 Y110.108 E.01201
G1 X118.64 Y109.768 E.01196
G1 X118.766 Y109.797 E.00388
G1 X118.809 Y110.121 E.00984
G1 X118.716 Y110.561 E.01351
;WIDTH:0.419999
G1 X118.776 Y110.751 E.00594
G1 X119.093 Y110.918 E.01067
G1 X119.434 Y111.019 E.01059
G1 X119.638 Y110.945 E.00648
;WIDTH:0.423509
G1 X119.835 Y110.597 E.01201
G1 X120.132 Y110.333 E.01196
G1 X120.244 Y110.397 E.00388
G1 X120.189 Y110.72 E.00984
G1 X119.971 Y111.113 E.01351
;WIDTH:0.419999
G1 X119.972 Y111.312 E.00594
G1 X120.226 Y111.566 E.01067
G1 X120.522 Y111.762 E.01059
G1 X120.739 Y111.752 E.00648
;WIDTH:0.423509
G1 X121.029 Y111.477 E.01201
G1 X121.391 Y111.312 E.01196
G1 X121.479 Y111.407 E.00388
G1 X121.332 Y111.699 E.00984
G1 X121.007 Y112.011 E.01351
;WIDTH:0.419999
G1 X120.95 Y112.201 E.00594
G1 X121.117 Y112.518 E.01067
G1 X121.343 Y112.793 E.01059
G1 X121.553 Y112.847 E.00648
;WIDTH:0.423508
G1 X121.912 Y112.67 E.01201
G1 X122.306 Y112.62 E.01196
G1 X122.362 Y112.736 E.00388
G1 X122.135 Y112.972 E.00984
G1 X121.733 Y113.174 E.01351
;WIDTH:0.419999
G1 X121.622 Y113.339 E.00594
G1 X121.69 Y113.693 E.01074
G1 X121.823 Y114.021 E.01052
G1 X122.008 Y114.134 E.00648
;WIDTH:0.423506
G1 X122.403 Y114.07 E.01201
G1 X122.795 Y114.138 E.01196
G1 X122.814 Y114.266 E.00388
G1 X122.527 Y114.425 E.00984
G1 X122.084 Y114.499 E.01351
;WIDTH:0.419999
G1 X121.929 Y114.624 E.00594
G1 X121.889 Y114.98 E.01067
G1 X121.92 Y115.335 E.01059
G1 X122.084 Y115.503 E.007
;WIDTH:0.423506
G1 X122.46 Y115.553 E.0114
G1 X122.814 Y115.734 E.01196
G1 X122.795 Y115.862 E.00388
G1 X122.474 Y115.928 E.00984
G1 X122.029 Y115.869 E.01351
;WIDTH:0.419999
G1 X121.843 Y115.943 E.00594
G1 X121.7 Y116.274 E.01074
G1 X121.626 Y116.618 E.01048
G1 X121.733 Y116.826 E.00698
;WIDTH:0.423507
G1 X122.077 Y116.987 E.0114
G1 X122.362 Y117.264 E.01196
G1 X122.306 Y117.38 E.00388
G1 X121.98 Y117.35 E.00984
G1 X121.572 Y117.162 E.01351
;WIDTH:0.419999
G1 X121.373 Y117.178 E.00594
G1 X121.141 Y117.449 E.01064
G1 X120.966 Y117.759 E.01059
G1 X121.007 Y117.989 E.00698
;WIDTH:0.423509
G1 X121.288 Y118.244 E.0114
G1 X121.479 Y118.593 E.01196
G1 X121.391 Y118.688 E.00388
G1 X121.089 Y118.562 E.00984
G1 X120.754 Y118.262 E.01351
;WIDTH:0.419999
G1 X120.56 Y118.219 E.00594
G1 X120.258 Y118.409 E.01064
G1 X120 Y118.654 E.01059
G1 X119.971 Y118.887 E.00698
;WIDTH:0.423508
G1 X120.164 Y119.213 E.0114
G1 X120.244 Y119.603 E.01196
G1 X120.132 Y119.667 E.00388
G1 X119.88 Y119.458 E.00984
G1 X119.649 Y119.073 E.01351
;WIDTH:0.419999
G1 X119.475 Y118.974 E.00594
G1 X119.131 Y119.067 E.01064
M73 P4 R10
G1 X118.812 Y119.225 E.01059
G1 X118.716 Y119.439 E.00698
;WIDTH:0.423508
G1 X118.804 Y119.808 E.0114
G1 X118.766 Y120.203 E.01196
G1 X118.64 Y120.232 E.00388
G1 X118.461 Y119.958 E.00984
G1 X118.353 Y119.522 E.01351
;WIDTH:0.419999
G1 X118.217 Y119.376 E.00594
G1 X117.86 Y119.364 E.01064
G1 X117.508 Y119.421 E.01063
G1 X117.354 Y119.597 E.00695
;WIDTH:0.423507
G1 X117.33 Y119.975 E.0114
G1 X117.176 Y120.342 E.01196
G1 X117.048 Y120.332 E.00388
G1 X116.957 Y120.018 E.00984
G1 X116.983 Y119.569 E.01351
;WIDTH:0.419999
G1 X116.896 Y119.39 E.00594
G1 X116.557 Y119.272 E.01067
G1 X116.205 Y119.223 E.01059
G1 X116.006 Y119.346 E.00696
;WIDTH:0.423508
G1 X115.872 Y119.7 E.0114
G1 X115.617 Y120.006 E.01196
G1 X115.497 Y119.958 E.00388
G1 X115.503 Y119.631 E.00984
G1 X115.66 Y119.21 E.01351
;WIDTH:0.419999
G1 X115.629 Y119.013 E.00594
G1 X115.341 Y118.801 E.01067
G1 X115.018 Y118.65 E.01059
G1 X114.792 Y118.709 E.00696
;WIDTH:0.423507
G1 X114.559 Y119.008 E.0114
G1 X114.226 Y119.225 E.01196
G1 X114.125 Y119.144 E.00388
G1 X114.227 Y118.833 E.00984
G1 X114.501 Y118.477 E.01351
;WIDTH:0.419999
G1 X114.53 Y118.28 E.00594
G1 X114.317 Y117.992 E.01067
G1 X114.053 Y117.753 E.01059
G1 X113.82 Y117.743 E.00696
;WIDTH:0.423508
G1 X113.509 Y117.96 E.0114
G1 X113.126 Y118.068 E.01196
G1 X113.054 Y117.962 E.00388
G1 X113.243 Y117.695 E.00984
G1 X113.61 Y117.435 E.01351
;WIDTH:0.419999
G1 X113.696 Y117.255 E.00594
G1 X113.577 Y116.917 E.01067
G1 X113.395 Y116.611 E.01059
G1 X113.175 Y116.532 E.00696
;WIDTH:0.423507
G1 X112.814 Y116.648 E.0114
G1 X112.417 Y116.639 E.01196
G1 X112.379 Y116.516 E.00388
G1 X112.639 Y116.317 E.00984
G1 X113.066 Y116.177 E.01351
;WIDTH:0.419999
G1 X113.2 Y116.03 E.00594
G1 X113.187 Y115.672 E.01067
G1 X113.103 Y115.326 E.01059
G1 X112.916 Y115.186 E.00696
;WIDTH:0.423506
G1 X112.537 Y115.19 E.0114
G1 X112.16 Y115.065 E.01196
G1 X112.16 Y114.935 E.00388
G1 X112.467 Y114.822 E.00984
G1 X112.916 Y114.814 E.01351
;WIDTH:0.419999
G1 X113.089 Y114.713 E.00594
G1 X113.181 Y114.365 E.01074
G1 X113.203 Y114.013 E.01048
G1 X113.085 Y113.829 E.00651
;WIDTH:0.423506
G1 X112.702 Y113.715 E.01201
G1 X112.379 Y113.484 E.01196
G1 X112.417 Y113.361 E.00388
G1 X112.744 Y113.342 E.00984
G1 X113.175 Y113.468 E.01351
;WIDTH:0.419999
G1 X113.37 Y113.422 E.00594
G1 X113.559 Y113.12 E.01064
G1 X113.685 Y112.787 E.01059
G1 X113.627 Y112.576 E.00651
;WIDTH:0.423507
G1 X113.295 Y112.355 E.01201
G1 X113.054 Y112.038 E.01196
G1 X113.126 Y111.932 E.00388
G1 X113.444 Y112.011 E.00984
G1 X113.82 Y112.257 E.01351
;WIDTH:0.419999
G1 X114.019 Y112.271 E.00594
G1 X114.289 Y112.038 E.01064
G1 X114.508 Y111.757 E.01059
G1 X114.514 Y111.539 E.00651
;WIDTH:0.423508
G1 X114.262 Y111.229 E.01201
G1 X114.125 Y110.856 E.01196
G1 X114.226 Y110.775 E.00388
G1 X114.506 Y110.944 E.00984
G1 X114.792 Y111.291 E.01351
;WIDTH:0.419999
G1 X114.978 Y111.363 E.00594
G1 X115.305 Y111.219 E.01064
G1 X115.598 Y111.015 E.01063
G1 X115.667 Y110.809 E.00648
;WIDTH:0.423508
G1 X115.517 Y110.439 E.01201
G1 X115.497 Y110.042 E.01196
G1 X115.617 Y109.994 E.00388
G1 X115.835 Y110.239 E.00984
G1 X116.006 Y110.654 E.01351
;WIDTH:0.419999
G1 X116.131 Y110.753 E.00475
G1 E-.68 F3600
;WIPE_START
G1 F3000
G1 X116.519 Y110.737 E-.04652
G1 X116.857 Y110.628 E-.04268
G1 X116.984 Y110.451 E-.02611
G1 X116.981 Y110.412 E-.00469
;WIPE_END
G1 X118.314 Y111.482 Z.6 F21000
G1 Z.2
G1 E.8 F2700
;TYPE:Bottom surface
;WIDTH:0.423479
G1 F1748
G1 X120.668 Y113.836 E.10008
G1 X120.703 Y114.017 E.00554
G1 X120.907 Y114.488 E.01544
G1 X120.894 Y114.601 E.0034
G1 X117.96 Y111.666 E.12474
G1 X117.804 Y111.673 E.00469
G1 X117.361 Y111.606 E.01347
G1 X120.862 Y115.107 E.14886
G1 X120.907 Y115.512 E.01224
G1 X120.853 Y115.636 E.00406
G1 X116.913 Y111.695 E.16752
G1 X116.768 Y111.745 E.00459
G1 X116.46 Y111.781 E.00933
G1 X120.696 Y116.017 E.18008
G1 X120.609 Y116.468 E.01382
M73 P4 R9
G1 X116.077 Y111.937 E.19265
G1 X115.844 Y112.108 E.00872
G1 X115.751 Y112.149 E.00303
G1 X120.369 Y116.766 E.1963
G1 X120.27 Y116.882 E.00457
G1 X120.157 Y117.093 E.0072
G1 X115.372 Y112.316 E.20327
G1 X115.146 Y112.62 E.01137
G1 X119.926 Y117.4 E.20322
G1 X119.597 Y117.609 E.01173
G1 X114.878 Y112.89 E.20058
G1 X114.676 Y113.066 E.00807
G1 X114.634 Y113.184 E.00376
G1 X119.326 Y117.876 E.19948
G1 X119.229 Y117.973 E.00413
G1 X118.958 Y118.046 E.00842
G1 X114.488 Y113.577 E.19003
G1 X114.282 Y113.908 E.01174
G1 X118.567 Y118.194 E.18221
G1 X118.276 Y118.347 E.0099
G1 X118.179 Y118.344 E.00292
G1 X114.216 Y114.38 E.16849
G1 X114.211 Y114.501 E.00364
G1 X114.125 Y114.828 E.01014
G1 X117.648 Y118.35 E.14977
G1 X117.255 Y118.423 E.01199
G1 X117.144 Y118.385 E.00356
G1 X114.194 Y115.435 E.12539
G1 X114.211 Y115.499 E.00197
G1 X114.232 Y116.011 E.01541
G1 X116.631 Y118.41 E.10199
; stop printing object 单层模0_5齿21厚5孔3紧 推杆轴 - 30mm.STL id:0 copy 0
;LAYER_CHANGE
;Z:0.28
;HEIGHT:0.08
;BEFORE_LAYER_CHANGE
G92 E0
;0.28


G1 E-.68 F3600
;WIPE_START
G1 F4800
G1 X115.923 Y117.703 E-.12
;WIPE_END
EXCLUDE_OBJECT_END NAME=单层模0_5齿21厚5孔3紧_推杆轴_-_30mm.STL_id_0_copy_0
;AFTER_LAYER_CHANGE
;0.28
;_SET_FAN_SPEED_CHANGING_LAYER
SET_VELOCITY_LIMIT ACCEL=5000 ACCEL_TO_DECEL=2500
SET_VELOCITY_LIMIT SQUARE_CORNER_VELOCITY=9
M140 S70 ; set bed temperature
; printing object 单层模0_5齿21厚5孔3紧 推杆轴 - 30mm.STL id:0 copy 0
EXCLUDE_OBJECT_START NAME=单层模0_5齿21厚5孔3紧_推杆轴_-_30mm.STL_id_0_copy_0
G1 X116.768 Y111.503 Z.6 F21000
G1 Z.28
G1 E.8 F2700
SET_VELOCITY_LIMIT ACCEL=3000 ACCEL_TO_DECEL=1500 SQUARE_CORNER_VELOCITY=7
;TYPE:Inner wall
;WIDTH:0.449999
G1 F1524
G1 X117.014 Y111.447 E.00344
G1 X117.239 Y111.358 E.00331
G1 X117.475 Y111.412 E.00331
G1 X118.083 Y111.458 E.00834
G1 X118.325 Y111.44 E.00331
G1 X118.534 Y111.561 E.00331
G1 X119.102 Y111.784 E.00834
G1 X119.338 Y111.837 E.00331
G1 X119.502 Y112.015 E.00331
G1 X119.979 Y112.395 E.00834
M73 P5 R9
G1 X120.189 Y112.516 E.00331
G1 X120.294 Y112.734 E.00331
G1 X120.637 Y113.238 E.00834
G1 X120.802 Y113.416 E.00331
G1 X120.838 Y113.655 E.00331
G1 X121.018 Y114.238 E.00834
G1 X121.123 Y114.456 E.00331
G1 X121.087 Y114.695 E.00331
G1 X121.087 Y115.305 E.00834
G1 X121.123 Y115.544 E.00331
G1 X121.018 Y115.762 E.00331
G1 X120.838 Y116.345 E.00834
G1 X120.802 Y116.584 E.00331
G1 X120.637 Y116.762 E.00331
G1 X120.294 Y117.266 E.00834
G1 X120.189 Y117.484 E.00331
G1 X119.979 Y117.605 E.00331
G1 X119.502 Y117.985 E.00834
G1 X119.338 Y118.163 E.00331
G1 X119.102 Y118.216 E.00331
G1 X118.534 Y118.439 E.00834
G1 X118.325 Y118.56 E.00331
G1 X118.083 Y118.542 E.00331
G1 X117.475 Y118.588 E.00834
G1 X117.239 Y118.642 E.00331
G1 X117.014 Y118.553 E.00331
G1 X116.419 Y118.417 E.00834
G1 X116.178 Y118.399 E.00331
G1 X115.989 Y118.248 E.00331
G1 X115.461 Y117.943 E.00834
G1 X115.235 Y117.855 E.00331
G1 X115.099 Y117.655 E.00331
G1 X114.684 Y117.208 E.00834
G1 X114.495 Y117.057 E.00331
G1 X114.424 Y116.826 E.00331
G1 X114.159 Y116.276 E.00834
G1 X114.022 Y116.076 E.00331
G1 X114.023 Y115.834 E.00331
G1 X113.932 Y115.231 E.00834
G1 X113.86 Y115 E.00331
G1 X113.932 Y114.769 E.00331
