; HEADER_BLOCK_START
; generated by OrcaSlicer 2.1.1 on 2025-01-25 at 16:21:33
; total layer number: 428
; filament_density: 1.27
; filament_diameter: 1.75
; max_z_height: 34.04
; HEADER_BLOCK_END

; THUMBNAIL_BLOCK_START

;
; THUMBNAIL_BLOCK_END







; external perimeters extrusion width = 0.40mm
; perimeters extrusion width = 0.45mm
; infill extrusion width = 0.45mm
; solid infill extrusion width = 0.45mm
; top infill extrusion width = 0.38mm
; support material extrusion width = 0.38mm
; first layer extrusion width = 0.42mm

; EXECUTABLE_BLOCK_START
EXCLUDE_OBJECT_DEFINE NAME=推出活动杆_-_30mm.STL_id_0_copy_0 CENTER=117.5,114.919 POLYGON=[[114.5,111.919],[120.5,111.919],[120.5,117.919],[114.5,117.919],[114.5,111.919]]
M73 P0 R38
;TYPE:Custom
;ELEGOO NEPTUNE 4 PRO
M220 S100 ;Set the feed speed to 100%
M221 S100 ;Set the flow rate to 100%
M104 S140
M190 S70
G90
G28 ;home
G1 Z10 F300
G1 X67.5 Y0 F6000
G1 Z0 F300
M109 S240
G92 E0 ;Reset Extruder
G1 X67.5 Y0 Z0.4 F300 ;Move to start position
G1 X167.5 E30 F400 ;Draw the first line
G1 Z0.6 F120.0 ;Move to side a little
G1 X162.5 F3000
G92 E0 ;Reset Extruder
G90
G21
M83 ; use relative distances for extrusion
; filament start gcode
M106 S0
;LAYER_CHANGE
;Z:0.2
;HEIGHT:0.2
;BEFORE_LAYER_CHANGE
G92 E0
;0.2


G1 E-.8 F3600
;AFTER_LAYER_CHANGE
;0.2
;_SET_FAN_SPEED_CHANGING_LAYER
SET_VELOCITY_LIMIT ACCEL=1000 ACCEL_TO_DECEL=500
SET_VELOCITY_LIMIT SQUARE_CORNER_VELOCITY=7
; printing object 推出活动杆 - 30mm.STL id:0 copy 0
EXCLUDE_OBJECT_START NAME=推出活动杆_-_30mm.STL_id_0_copy_0
G1 X119.74 Y114.919 F21000
G1 Z.4
G1 Z.2
G1 E.8 F2700
;TYPE:Support
;WIDTH:0.42
G1 F692
G1 X118.62 Y116.859 E.06673
G1 X116.38 Y116.859 E.06673
G1 X115.26 Y114.919 E.06673
G1 X116.38 Y112.979 E.06673
G1 X118.62 Y112.979 E.06673
G1 X119.712 Y114.87 E.06504
G1 X115.652 Y114.919 F21000
G1 F692
G1 X116.576 Y113.318 E.05505
G1 X118.424 Y113.318 E.05505
G1 X119.348 Y114.919 E.05505
G1 X118.424 Y116.52 E.05505
G1 X116.576 Y116.52 E.05505
G1 X115.652 Y114.919 E.05505
G1 X116.136 Y114.919 F21000
M73 P1 R38
G1 F692
G1 X116.818 Y113.737 E.04064
G1 X118.182 Y113.737 E.04064
G1 X118.864 Y114.919 E.04064
G1 X118.182 Y116.101 E.04064
G1 X116.818 Y116.101 E.04064
G1 X116.136 Y114.919 E.04064
G1 X116.619 Y114.919 F21000
G1 F692
G1 X117.06 Y114.156 E.02623
G1 X117.94 Y114.156 E.02623
G1 X118.381 Y114.919 E.02623
G1 X117.94 Y115.682 E.02623
G1 X117.06 Y115.682 E.02623
G1 X116.619 Y114.919 E.02623
G1 X117.103 Y114.919 F21000
G1 F692
G1 X117.302 Y114.575 E.01182
G1 X117.698 Y114.575 E.01182
G1 X117.897 Y114.919 E.01182
G1 X117.698 Y115.263 E.01182
G1 X117.302 Y115.263 E.01182
G1 X117.103 Y114.919 E.01182
G1 E-.68 F3600
;WIPE_START
G1 F3000
G1 X117.302 Y115.263 E-.04762
G1 X117.698 Y115.263 E-.04762
G1 X117.802 Y115.084 E-.02475
;WIPE_END
G1 X118.994 Y117.667 Z.6 F21000
G1 Z.2
G1 E.8 F2700
;TYPE:Outer wall
;WIDTH:0.503464
G1 F692
G1 X118.954 Y117.669 E.00145
;WIDTH:0.5
G1 X116.044 Y117.669 E.10508
G1 E-.68 F3600
;WIPE_START
G1 F3000
G1 X117.044 Y117.669 E-.12
;WIPE_END
G1 X114.71 Y115.507 Z.6 F21000
G1 Z.2
G1 E.8 F2700
;WIDTH:0.419999
G1 F692
G1 X115.103 Y116.189 E.02342
G1 X115.28 Y116.615 E.01375
G1 X115.532 Y117.051 E.015
;WIDTH:0.451636
G1 X115.878 Y117.56 E.01988
;WIDTH:0.5
G1 X116.044 Y117.669 E.00717
G1 X115.771 Y117.688 E.00989
;WIDTH:0.46
G1 X115.498 Y117.707 E.00902
;WIDTH:0.419999
G1 X114.8 Y117.631 E.0209
G1 X114.775 Y116.804 E.02466
G1 X114.73 Y116.299 E.0151
M73 P1 R37
G1 X114.711 Y115.547 E.02238
G1 E-.68 F3600
;WIPE_START
G1 F3000
G1 X115.103 Y116.189 E-.09015
G1 X115.198 Y116.418 E-.02985
;WIPE_END
G1 X115.219 Y117.217 Z.6 F21000
G1 Z.2
G1 E.8 F2700
;TYPE:Inner wall
;WIDTH:0.465304
G1 F692
G1 X115.166 Y117.217 E.00176
G1 X115.14 Y117.263 E.00176
G1 X115.166 Y117.309 E.00176
G1 X115.219 Y117.309 E.00176
G1 X115.245 Y117.263 E.00176
G1 E-.68 F3600
;WIPE_START
G1 F3000
G1 X115.219 Y117.309 E-.024
G1 X115.166 Y117.309 E-.024
G1 X115.14 Y117.263 E-.024
G1 X115.166 Y117.217 E-.024
G1 X115.219 Y117.217 E-.024
;WIPE_END
G1 X120.29 Y115.507 Z.6 F21000
G1 Z.2
G1 E.8 F2700
;TYPE:Outer wall
;WIDTH:0.419999
G1 F692
G1 X120.29 Y115.915 E.01218
G1 X120.215 Y116.911 E.02973
G1 X120.199 Y117.639 E.02168
G1 X119.502 Y117.708 E.02088
;WIDTH:0.461732
G1 X119.248 Y117.688 E.00842
;WIDTH:0.503464
G1 X118.994 Y117.667 E.00926
G1 X119.128 Y117.555 E.00634
;WIDTH:0.458488
G1 X119.264 Y117.314 E.0091
;WIDTH:0.419999
G1 X119.663 Y116.71 E.02156
G1 X120.272 Y115.542 E.03922
G1 E-.68 F3600
;WIPE_START
G1 F3000
G1 X120.29 Y115.915 E-.04485
G1 X120.243 Y116.54 E-.07515
;WIPE_END
G1 X119.822 Y117.215 Z.6 F21000
G1 Z.2
G1 E.8 F2700
;TYPE:Inner wall
;WIDTH:0.49279
G1 F692
G1 X119.766 Y117.215 E.002
G1 X119.738 Y117.263 E.002
G1 X119.766 Y117.312 E.002
G1 X119.822 Y117.312 E.002
G1 X119.85 Y117.263 E.002
G1 E-.68 F3600
;WIPE_START
G1 F3000
G1 X119.822 Y117.312 E-.024
G1 X119.766 Y117.312 E-.024
G1 X119.738 Y117.263 E-.024
G1 X119.766 Y117.215 E-.024
G1 X119.822 Y117.215 E-.024
;WIPE_END
G1 X119.039 Y112.227 Z.6 F21000
G1 Z.2
G1 E.8 F2700
;TYPE:Outer wall
;WIDTH:0.5
G1 F692
G1 X118.954 Y112.169 E.00371
G1 X119.228 Y112.15 E.00992
;WIDTH:0.46
G1 X119.503 Y112.131 E.00905
;WIDTH:0.419999
G1 X120.2 Y112.207 E.02089
G1 X120.219 Y112.968 E.02267
G1 X120.29 Y114.332 E.04067
G1 X120.091 Y113.986 E.01187
G1 X119.663 Y113.129 E.02855
G1 X119.455 Y112.812 E.0113
;WIDTH:0.449151
G1 X119.124 Y112.286 E.01994
;WIDTH:0.474576
G1 X119.072 Y112.25 E.00214
G1 X119.825 Y112.537 F21000
;TYPE:Inner wall
;WIDTH:0.48697
G1 F692
G1 X119.769 Y112.537 E.00195
G1 X119.741 Y112.585 E.00195
G1 X119.769 Y112.633 E.00195
G1 X119.825 Y112.633 E.00195
G1 X119.852 Y112.585 E.00195
G1 E-.68 F3600
;WIPE_START
G1 F3000
G1 X119.825 Y112.633 E-.024
G1 X119.769 Y112.633 E-.024
G1 X119.741 Y112.585 E-.024
G1 X119.769 Y112.537 E-.024
G1 X119.825 Y112.537 E-.024
;WIPE_END
G1 X116.006 Y112.171 Z.6 F21000
G1 Z.2
G1 E.8 F2700
;TYPE:Outer wall
;WIDTH:0.503464
G1 F692
G1 X116.046 Y112.169 E.00145
;WIDTH:0.5
G1 X118.954 Y112.169 E.10503
G1 E-.68 F3600
;WIPE_START
G1 F3000
G1 X117.954 Y112.169 E-.12
;WIPE_END
G1 X114.71 Y114.332 Z.6 F21000
G1 Z.2
G1 E.8 F2700
;WIDTH:0.419999
G1 F692
G1 X114.71 Y113.923 E.01218
G1 X114.785 Y112.927 E.02973
G1 X114.801 Y112.2 E.02168
G1 X115.498 Y112.13 E.02088
;WIDTH:0.461732
G1 X115.752 Y112.151 E.00842
;WIDTH:0.503464
G1 X116.006 Y112.171 E.00926
G1 X115.872 Y112.283 E.00634
;WIDTH:0.458488
G1 X115.736 Y112.524 E.0091
;WIDTH:0.419999
G1 X115.337 Y113.129 E.02156
G1 X114.728 Y114.296 E.03922
G1 E-.68 F3600
;WIPE_START
G1 F3000
G1 X114.71 Y113.923 E-.04485
G1 X114.757 Y113.298 E-.07515
;WIPE_END
G1 X115.234 Y112.526 Z.6 F21000
G1 Z.2
G1 E.8 F2700
;TYPE:Inner wall
;WIDTH:0.49279
G1 F692
G1 X115.178 Y112.526 E.002
G1 X115.15 Y112.575 E.002
G1 X115.178 Y112.624 E.002
G1 X115.234 Y112.624 E.002
G1 X115.262 Y112.575 E.002
; stop printing object 推出活动杆 - 30mm.STL id:0 copy 0
;LAYER_CHANGE
;Z:0.28
;HEIGHT:0.08
;BEFORE_LAYER_CHANGE
G92 E0
;0.28


G1 E-.68 F3600
;WIPE_START
G1 F3000
G1 X115.234 Y112.624 E-.024
G1 X115.178 Y112.624 E-.024
G1 X115.15 Y112.575 E-.024
G1 X115.178 Y112.526 E-.024
G1 X115.234 Y112.526 E-.024
;WIPE_END
EXCLUDE_OBJECT_END NAME=推出活动杆_-_30mm.STL_id_0_copy_0
;AFTER_LAYER_CHANGE
;0.28
;_SET_FAN_SPEED_CHANGING_LAYER
SET_VELOCITY_LIMIT ACCEL=5000 ACCEL_TO_DECEL=2500
SET_VELOCITY_LIMIT SQUARE_CORNER_VELOCITY=9
M140 S70 ; set bed temperature
; printing object 推出活动杆 - 30mm.STL id:0 copy 0
EXCLUDE_OBJECT_START NAME=推出活动杆_-_30mm.STL_id_0_copy_0
G1 X118.99 Y117.667 Z.6 F21000
G1 Z.28
G1 E.8 F2700
SET_VELOCITY_LIMIT ACCEL=3000 ACCEL_TO_DECEL=1500 SQUARE_CORNER_VELOCITY=7
;TYPE:Outer wall
;WIDTH:0.503658
G1 F600
G1 X118.948 Y117.669 E.00065
;WIDTH:0.5
G1 X116.052 Y117.669 E.04419
SET_VELOCITY_LIMIT ACCEL=5000 ACCEL_TO_DECEL=2500 SQUARE_CORNER_VELOCITY=9
G1 E-.68 F3600
;WIPE_START
G1 F7200
G1 X117.052 Y117.669 E-.12
;WIPE_END
G1 X114.7 Y115.469 Z.68 F21000
G1 Z.28
G1 E.8 F2700
SET_VELOCITY_LIMIT ACCEL=3000 ACCEL_TO_DECEL=1500 SQUARE_CORNER_VELOCITY=7
;WIDTH:0.399999
G1 F600
G1 X115.587 Y117.006 E.02146
;WIDTH:0.427463
G1 X115.874 Y117.53 E.00775
;WIDTH:0.463732
G1 X115.963 Y117.6 E.00159
;WIDTH:0.5
G1 X116.052 Y117.669 E.00172
G1 X115.912 Y117.687 E.00214
;WIDTH:0.463732
G1 X115.773 Y117.705 E.00198
;WIDTH:0.427463
G1 X114.7 Y117.719 E.01391
;WIDTH:0.399999
G1 X114.7 Y115.509 E.02673
SET_VELOCITY_LIMIT ACCEL=5000 ACCEL_TO_DECEL=2500 SQUARE_CORNER_VELOCITY=9
G1 E-.68 F3600
;WIPE_START
G1 F7200
G1 X115.21 Y116.37 E-.12
;WIPE_END
G1 X115.246 Y117.244 Z.68 F21000
G1 Z.28
G1 E.8 F2700
SET_VELOCITY_LIMIT ACCEL=3000 ACCEL_TO_DECEL=1500 SQUARE_CORNER_VELOCITY=7
;TYPE:Inner wall
;WIDTH:0.585192
G1 F600
G1 X115.211 Y117.305 E.00127
G1 X115.14 Y117.305 E.00127
G1 X115.104 Y117.244 E.00127
G1 X115.14 Y117.182 E.00127
G1 X115.211 Y117.182 E.00127
SET_VELOCITY_LIMIT ACCEL=5000 ACCEL_TO_DECEL=2500 SQUARE_CORNER_VELOCITY=9
G1 E-.6935 F3600
;WIPE_START
G1 F12000
G1 X115.14 Y117.182 E-.0213
G1 X115.104 Y117.244 E-.0213
G1 X115.14 Y117.305 E-.0213
G1 X115.211 Y117.305 E-.0213
G1 X115.246 Y117.244 E-.0213
;WIPE_END
G1 X120.3 Y115.469 Z.68 F21000
G1 Z.28
G1 E.8 F2700
SET_VELOCITY_LIMIT ACCEL=3000 ACCEL_TO_DECEL=1500 SQUARE_CORNER_VELOCITY=7
;TYPE:Outer wall
;WIDTH:0.399999
G1 F600
G1 X120.3 Y117.719 E.02721
G1 X119.825 Y117.719 E.00575
;WIDTH:0.434552
G1 X119.547 Y117.702 E.00367
;WIDTH:0.469105
G1 X119.268 Y117.685 E.00398
;WIDTH:0.503658
G1 X118.99 Y117.667 E.00428
G1 X119.061 Y117.6 E.00149
;WIDTH:0.471335
G1 X119.131 Y117.533 E.00139
;WIDTH:0.439012
G1 X119.413 Y117.006 E.00797
;WIDTH:0.399999
G1 X120.28 Y115.504 E.02098
SET_VELOCITY_LIMIT ACCEL=5000 ACCEL_TO_DECEL=2500 SQUARE_CORNER_VELOCITY=9
G1 E-.68 F3600
;WIPE_START
G1 F7200
G1 X120.289 Y116.504 E-.12
;WIPE_END
G1 X119.896 Y117.244 Z.68 F21000
G1 Z.28
G1 E.8 F2700
SET_VELOCITY_LIMIT ACCEL=3000 ACCEL_TO_DECEL=1500 SQUARE_CORNER_VELOCITY=7
;TYPE:Inner wall
;WIDTH:0.58519
G1 F600
G1 X119.86 Y117.305 E.00127
G1 X119.789 Y117.305 E.00127
G1 X119.754 Y117.244 E.00127
G1 X119.789 Y117.182 E.00127
G1 X119.86 Y117.182 E.00127
SET_VELOCITY_LIMIT ACCEL=5000 ACCEL_TO_DECEL=2500 SQUARE_CORNER_VELOCITY=9
G1 E-.6935 F3600
;WIPE_START
G1 F12000
G1 X119.789 Y117.182 E-.0213
G1 X119.754 Y117.244 E-.0213
G1 X119.789 Y117.305 E-.0213
G1 X119.86 Y117.305 E-.0213
G1 X119.896 Y117.244 E-.0213
;WIPE_END
G1 X119.037 Y112.239 Z.68 F21000
G1 Z.28
G1 E.8 F2700
SET_VELOCITY_LIMIT ACCEL=3000 ACCEL_TO_DECEL=1500 SQUARE_CORNER_VELOCITY=7
;TYPE:Outer wall
;WIDTH:0.5
G1 F600
G1 X118.948 Y112.169 E.00172
G1 X119.088 Y112.151 E.00214
;WIDTH:0.463732
G1 X119.227 Y112.133 E.00198
;WIDTH:0.427463
G1 X120.3 Y112.119 E.01391
;WIDTH:0.399999
G1 X120.3 Y114.369 E.02721
G1 X119.413 Y112.832 E.02146
;WIDTH:0.427463
G1 X119.126 Y112.308 E.00775
;WIDTH:0.463732
G1 X119.069 Y112.263 E.00103
SET_VELOCITY_LIMIT ACCEL=5000 ACCEL_TO_DECEL=2500 SQUARE_CORNER_VELOCITY=9
G1 X119.896 Y112.595 F21000
SET_VELOCITY_LIMIT ACCEL=3000 ACCEL_TO_DECEL=1500 SQUARE_CORNER_VELOCITY=7
;TYPE:Inner wall
;WIDTH:0.58519
G1 F600
G1 X119.86 Y112.656 E.00127
G1 X119.789 Y112.656 E.00127
G1 X119.754 Y112.595 E.00127
G1 X119.789 Y112.533 E.00127
G1 X119.86 Y112.533 E.00127
SET_VELOCITY_LIMIT ACCEL=5000 ACCEL_TO_DECEL=2500 SQUARE_CORNER_VELOCITY=9
G1 E-.6935 F3600
;WIPE_START
G1 F12000
G1 X119.789 Y112.533 E-.0213
G1 X119.754 Y112.595 E-.0213
G1 X119.789 Y112.656 E-.0213
G1 X119.86 Y112.656 E-.0213
G1 X119.896 Y112.595 E-.0213
;WIPE_END
G1 X116.01 Y112.171 Z.68 F21000
G1 Z.28
G1 E.8 F2700
SET_VELOCITY_LIMIT ACCEL=3000 ACCEL_TO_DECEL=1500 SQUARE_CORNER_VELOCITY=7
;TYPE:Outer wall
;WIDTH:0.503658
G1 F600
G1 X116.052 Y112.169 E.00065
;WIDTH:0.5
G1 X118.948 Y112.169 E.04419
SET_VELOCITY_LIMIT ACCEL=5000 ACCEL_TO_DECEL=2500 SQUARE_CORNER_VELOCITY=9
G1 E-.68 F3600
;WIPE_START
G1 F7200
G1 X117.948 Y112.169 E-.12
;WIPE_END
G1 X114.7 Y114.369 Z.68 F21000
G1 Z.28
G1 E.8 F2700
SET_VELOCITY_LIMIT ACCEL=3000 ACCEL_TO_DECEL=1500 SQUARE_CORNER_VELOCITY=7
;WIDTH:0.399999
G1 F600
G1 X114.7 Y112.119 E.02721
G1 X115.175 Y112.119 E.00575
;WIDTH:0.434552
G1 X115.453 Y112.136 E.00367
;WIDTH:0.469105
G1 X115.732 Y112.154 E.00398
;WIDTH:0.503658
G1 X116.01 Y112.171 E.00428
G1 X115.939 Y112.238 E.00149
;WIDTH:0.471335
G1 X115.869 Y112.305 E.00139
;WIDTH:0.439012
G1 X115.587 Y112.832 E.00797
;WIDTH:0.399999
G1 X114.72 Y114.334 E.02098
SET_VELOCITY_LIMIT ACCEL=5000 ACCEL_TO_DECEL=2500 SQUARE_CORNER_VELOCITY=9
G1 E-.68 F3600
;WIPE_START
G1 F7200
G1 X114.711 Y113.334 E-.12
;WIPE_END
G1 X115.246 Y112.595 Z.68 F21000
G1 Z.28
G1 E.8 F2700
SET_VELOCITY_LIMIT ACCEL=3000 ACCEL_TO_DECEL=1500 SQUARE_CORNER_VELOCITY=7
;TYPE:Inner wall
;WIDTH:0.585192
G1 F600
G1 X115.211 Y112.656 E.00127
G1 X115.14 Y112.656 E.00127
G1 X115.104 Y112.595 E.00127
G1 X115.14 Y112.533 E.00127
G1 X115.211 Y112.533 E.00127
; stop printing object 推出活动杆 - 30mm.STL id:0 copy 0
;LAYER_CHANGE
;Z:0.36
;HEIGHT:0.08
;BEFORE_LAYER_CHANGE
G92 E0
;0.36


G1 E-.6935 F3600
;WIPE_START
G1 F12000
G1 X115.14 Y112.533 E-.0213
G1 X115.104 Y112.595 E-.0213
G1 X115.14 Y112.656 E-.0213
G1 X115.211 Y112.656 E-.0213
G1 X115.246 Y112.595 E-.0213
;WIPE_END
EXCLUDE_OBJECT_END NAME=推出活动杆_-_30mm.STL_id_0_copy_0
;AFTER_LAYER_CHANGE
;0.36
;_SET_FAN_SPEED_CHANGING_LAYER
; printing object 推出活动杆 - 30mm.STL id:0 copy 0
SET_VELOCITY_LIMIT ACCEL=5000 ACCEL_TO_DECEL=2500 SQUARE_CORNER_VELOCITY=9
EXCLUDE_OBJECT_START NAME=推出活动杆_-_30mm.STL_id_0_copy_0
G1 X118.99 Y117.667 Z.68 F21000
G1 Z.36
G1 E.8 F2700
SET_VELOCITY_LIMIT ACCEL=3000 ACCEL_TO_DECEL=1500 SQUARE_CORNER_VELOCITY=7
;TYPE:Outer wall
;WIDTH:0.503658
G1 F600
G1 X118.948 Y117.669 E.00065
;WIDTH:0.5
G1 X116.052 Y117.669 E.04419
SET_VELOCITY_LIMIT ACCEL=5000 ACCEL_TO_DECEL=2500 SQUARE_CORNER_VELOCITY=9
G1 E-.68 F3600
;WIPE_START
G1 F7200
G1 X117.052 Y117.669 E-.12
;WIPE_END
G1 X114.7 Y115.469 Z.76 F21000
G1 Z.36
G1 E.8 F2700
SET_VELOCITY_LIMIT ACCEL=3000 ACCEL_TO_DECEL=1500 SQUARE_CORNER_VELOCITY=7
;WIDTH:0.399999
G1 F600
G1 X115.587 Y117.006 E.02146
;WIDTH:0.427463
G1 X115.874 Y117.53 E.00775
;WIDTH:0.463732
G1 X115.963 Y117.6 E.00159
;WIDTH:0.5
G1 X116.052 Y117.669 E.00172
G1 X115.912 Y117.687 E.00214
;WIDTH:0.463732
G1 X115.773 Y117.705 E.00198
;WIDTH:0.427463
G1 X114.7 Y117.719 E.01391
;WIDTH:0.399999
G1 X114.7 Y115.509 E.02673
SET_VELOCITY_LIMIT ACCEL=5000 ACCEL_TO_DECEL=2500 SQUARE_CORNER_VELOCITY=9
G1 E-.68 F3600
;WIPE_START
G1 F7200
G1 X115.21 Y116.37 E-.12
;WIPE_END
G1 X115.246 Y117.244 Z.76 F21000
G1 Z.36
G1 E.8 F2700
SET_VELOCITY_LIMIT ACCEL=3000 ACCEL_TO_DECEL=1500 SQUARE_CORNER_VELOCITY=7
;TYPE:Inner wall
;WIDTH:0.585192
G1 F600
G1 X115.211 Y117.305 E.00127
G1 X115.14 Y117.305 E.00127
G1 X115.104 Y117.244 E.00127
G1 X115.14 Y117.182 E.00127
G1 X115.211 Y117.182 E.00127
SET_VELOCITY_LIMIT ACCEL=5000 ACCEL_TO_DECEL=2500 SQUARE_CORNER_VELOCITY=9
G1 E-.6935 F3600
;WIPE_START
G1 F12000
G1 X115.14 Y117.182 E-.0213
G1 X115.104 Y117.244 E-.0213
G1 X115.14 Y117.305 E-.0213
G1 X115.211 Y117.305 E-.0213
G1 X115.246 Y117.244 E-.0213
;WIPE_END
G1 X120.3 Y115.469 Z.76 F21000
G1 Z.36
G1 E.8 F2700
SET_VELOCITY_LIMIT ACCEL=3000 ACCEL_TO_DECEL=1500 SQUARE_CORNER_VELOCITY=7
;TYPE:Outer wall
;WIDTH:0.399999
G1 F600
G1 X120.3 Y117.719 E.02721
G1 X119.825 Y117.719 E.00575
;WIDTH:0.434552
G1 X119.547 Y117.702 E.00367
;WIDTH:0.469105
G1 X119.268 Y117.685 E.00398
;WIDTH:0.503658
G1 X118.99 Y117.667 E.00428
G1 X119.061 Y117.6 E.00149
;WIDTH:0.471335
G1 X119.131 Y117.533 E.00139
;WIDTH:0.439012
G1 X119.413 Y117.006 E.00797
;WIDTH:0.399999
G1 X120.28 Y115.504 E.02098
SET_VELOCITY_LIMIT ACCEL=5000 ACCEL_TO_DECEL=2500 SQUARE_CORNER_VELOCITY=9
G1 E-.68 F3600
;WIPE_START
G1 F7200
G1 X120.289 Y116.504 E-.12
;WIPE_END
G1 X119.896 Y117.244 Z.76 F21000
G1 Z.36
G1 E.8 F2700
SET_VELOCITY_LIMIT ACCEL=3000 ACCEL_TO_DECEL=1500 SQUARE_CORNER_VELOCITY=7
;TYPE:Inner wall
;WIDTH:0.58519
G1 F600
G1 X119.86 Y117.305 E.00127
G1 X119.789 Y117.305 E.00127
G1 X119.754 Y117.244 E.00127
G1 X119.789 Y117.182 E.00127
G1 X119.86 Y117.182 E.00127
SET_VELOCITY_LIMIT ACCEL=5000 ACCEL_TO_DECEL=2500 SQUARE_CORNER_VELOCITY=9
G1 E-.6935 F3600
;WIPE_START
G1 F12000
