; HEADER_BLOCK_START
; generated by OrcaSlicer 2.1.1 on 2025-01-19 at 16:14:44
; total layer number: 61
; filament_density: 1.27
; filament_diameter: 1.75
; max_z_height: 5.00
; HEADER_BLOCK_END

; THUMBNAIL_BLOCK_START

;
; THUMBNAIL_BLOCK_END







; external perimeters extrusion width = 0.40mm
; perimeters extrusion width = 0.45mm
; infill extrusion width = 0.45mm
; solid infill extrusion width = 0.45mm
; top infill extrusion width = 0.38mm
; first layer extrusion width = 0.42mm

; EXECUTABLE_BLOCK_START
EXCLUDE_OBJECT_DEFINE NAME=滑环底板.STL_id_0_copy_0 CENTER=117.5,115 POLYGON=[[92.5,110],[112.5,90],[122.5,90],[142.5,110],[142.5,120],[122.5,140],[112.5,140],[92.5,120],[92.5,110]]
M73 P0 R31
;TYPE:Custom
;ELEGOO NEPTUNE 4 PRO
M220 S100 ;Set the feed speed to 100%
M221 S100 ;Set the flow rate to 100%
M104 S140
M190 S70
G90
G28 ;home
G1 Z10 F300
G1 X67.5 Y0 F6000
G1 Z0 F300
M109 S240
G92 E0 ;Reset Extruder
G1 X67.5 Y0 Z0.4 F300 ;Move to start position
G1 X167.5 E30 F400 ;Draw the first line
G1 Z0.6 F120.0 ;Move to side a little
M73 P1 R31
G1 X162.5 F3000
G92 E0 ;Reset Extruder
G90
G21
M83 ; use relative distances for extrusion
; filament start gcode
M106 S0
;LAYER_CHANGE
;Z:0.2
;HEIGHT:0.2
;BEFORE_LAYER_CHANGE
G92 E0
;0.2


G1 E-.8 F3600
;AFTER_LAYER_CHANGE
;0.2
;_SET_FAN_SPEED_CHANGING_LAYER
SET_VELOCITY_LIMIT ACCEL=1000 ACCEL_TO_DECEL=500
SET_VELOCITY_LIMIT SQUARE_CORNER_VELOCITY=7
; printing object 滑环底板.STL id:0 copy 0
EXCLUDE_OBJECT_START NAME=滑环底板.STL_id_0_copy_0
G1 X141.358 Y115.525 F21000
G1 Z.4
G1 Z.2
G1 E.8 F2700
;TYPE:Inner wall
;WIDTH:0.577369
G1 F3000
G1 X141.357 Y115.565 E.00172
G1 X141.376 Y115.677 E.00479
;WIDTH:0.538824
G1 X141.396 Y115.789 E.00444
;WIDTH:0.500278
G1 X141.415 Y115.901 E.0041
;WIDTH:0.461733
G1 X141.434 Y116.012 E.00375
;WIDTH:0.423187
G1 X141.436 Y116.476 E.01393
;WIDTH:0.419999
G1 X141.436 Y118.936 E.07327
G1 X127.379 Y118.936 E.41872
G1 X126.972 Y119.028 E.01243
G1 X126.642 Y119.29 E.01253
G1 X126.476 Y119.607 E.01066
G1 X126.436 Y119.879 E.00818
G1 X126.436 Y120.767 E.02647
G1 X126.122 Y120.36 E.01531
G1 X125.761 Y120.069 E.01381
G1 X125.483 Y119.913 E.00949
G1 X124.88 Y119.717 E.0189
G1 X124.323 Y119.701 E.01658
G1 X123.643 Y119.853 E.02075
;WIDTH:0.435586
G1 X123.175 Y120.103 E.01648
G1 X122.717 Y120.559 E.02003
;WIDTH:0.419999
G1 X122.457 Y120.93 E.01352
G1 X122.227 Y121.567 E.02015
G1 X122.197 Y122.134 E.01693
G1 X122.238 Y122.45 E.00949
G1 X122.424 Y123.022 E.01792
G1 X122.809 Y123.566 E.01985
G1 X123.265 Y123.936 E.0175
G1 X122.379 Y123.936 E.02641
G1 X122.036 Y124 E.01039
G1 X121.794 Y124.139 E.00829
G1 X121.505 Y124.524 E.01435
G1 X121.436 Y124.879 E.01076
G1 X121.436 Y138.936 E.41872
G1 X118.859 Y138.936 E.07675
;WIDTH:0.468838
G1 X118.557 Y138.911 E.01018
;WIDTH:0.517677
G1 X118.256 Y138.887 E.01135
;WIDTH:0.566516
G1 X117.954 Y138.863 E.01252
G1 X117.062 Y138.863 E.03689
;WIDTH:0.565147
G1 X116.907 Y138.887 E.00645
;WIDTH:0.516765
G1 X116.753 Y138.912 E.00586
;WIDTH:0.468382
G1 X116.598 Y138.936 E.00526
;WIDTH:0.419999
G1 X113.564 Y138.936 E.09038
G1 X113.564 Y124.958 E.41636
G1 X113.495 Y124.524 E.01309
G1 X113.213 Y124.144 E.0141
G1 X113.05 Y124.039 E.00577
G1 X112.621 Y123.936 E.01313
G1 X111.745 Y123.936 E.02611
G1 X112.255 Y123.496 E.02006
G1 X112.445 Y123.24 E.00949
G1 X112.724 Y122.638 E.01978
G1 X112.806 Y122.062 E.01734
G1 X112.792 Y121.743 E.00949
G1 X112.713 Y121.374 E.01124
G1 X112.576 Y120.994 E.01204
G1 X112.173 Y120.422 E.02083
;WIDTH:0.440432
G1 X111.768 Y120.061 E.01706
G1 X111.376 Y119.876 E.01361
;WIDTH:0.419999
G1 X110.801 Y119.708 E.01784
G1 X110.323 Y119.701 E.01424
G1 X109.721 Y119.821 E.01831
G1 X109.178 Y120.11 E.0183
G1 X108.93 Y120.31 E.00949
G1 X108.564 Y120.755 E.01717
G1 X108.564 Y119.879 E.02611
G1 X108.489 Y119.509 E.01122
G1 X108.356 Y119.287 E.0077
G1 X108.028 Y119.028 E.01244
G1 X107.621 Y118.936 E.01243
G1 X93.564 Y118.936 E.41872
G1 X93.564 Y116.015 E.08701
;WIDTH:0.462546
G1 X93.585 Y115.735 E.00931
;WIDTH:0.505093
G1 X93.607 Y115.454 E.01026
;WIDTH:0.547639
G1 X93.628 Y115.174 E.0112
;WIDTH:0.55805
G1 X93.633 Y114.657 E.02105
G1 X93.61 Y114.513 E.00595
;WIDTH:0.512033
G1 X93.587 Y114.368 E.00542
;WIDTH:0.466016
G1 X93.564 Y114.224 E.00489
;WIDTH:0.419999
G1 X93.564 Y111.064 E.09412
G1 X107.126 Y111.064 E.40397
G1 X107.854 Y111.035 E.02171
G1 X108.261 Y110.814 E.01379
G1 X108.361 Y110.706 E.00439
G1 X108.53 Y110.374 E.01107
G1 X108.564 Y110.121 E.0076
G1 X108.564 Y109.242 E.0262
G1 X108.793 Y109.551 E.01145
G1 X109.109 Y109.829 E.01255
G1 X109.59 Y110.127 E.01685
G1 X109.881 Y110.211 E.00903
G1 X110.464 Y110.306 E.01757
G1 X110.882 Y110.271 E.0125
G1 X111.234 Y110.187 E.01079
G1 X111.656 Y109.995 E.01381
;WIDTH:0.418854
G1 X111.859 Y109.867 E.00713
;WIDTH:0.413723
G1 X112.252 Y109.493 E.01589
;WIDTH:0.436642
G1 X112.51 Y109.128 E.0139
G1 X112.747 Y108.521 E.02026
;WIDTH:0.419999
G1 X112.806 Y108.062 E.01381
G1 X112.792 Y107.743 E.00949
G1 X112.659 Y107.166 E.01764
G1 X112.333 Y106.599 E.01948
G1 X112.122 Y106.36 E.00949
G1 X111.763 Y106.067 E.01381
G1 X112.621 Y106.064 E.02557
G1 X112.927 Y106.013 E.00924
G1 X113.101 Y105.933 E.00569
G1 X113.356 Y105.712 E.01007
G1 X113.543 Y105.319 E.01295
G1 X113.564 Y105.121 E.00592
G1 X113.564 Y91.064 E.41872
G1 X116.37 Y91.064 E.08357
;WIDTH:0.462764
G1 X116.482 Y91.086 E.00378
;WIDTH:0.505529
G1 X116.594 Y91.107 E.00417
;WIDTH:0.548294
G1 X116.706 Y91.128 E.00455
;WIDTH:0.591059
G1 X116.818 Y91.15 E.00494
G1 X117.268 Y91.13 E.01952
;WIDTH:0.553612
G1 X117.825 Y91.131 E.02246
G1 X117.938 Y91.112 E.00462
;WIDTH:0.515651
G1 X118.051 Y91.093 E.00428
;WIDTH:0.47769
G1 X118.164 Y91.074 E.00394
;WIDTH:0.439729
G1 X118.629 Y91.064 E.01456
;WIDTH:0.419999
G1 X121.436 Y91.064 E.08362
G1 X121.442 Y105.233 E.42203
G1 X121.597 Y105.649 E.01323
G1 X121.787 Y105.856 E.00837
G1 X122.048 Y106.004 E.00894
G1 X122.379 Y106.064 E.01
G1 X123.26 Y106.064 E.02625
G1 X122.93 Y106.31 E.01224
G1 X122.639 Y106.641 E.01313
G1 X122.457 Y106.93 E.01019
G1 X122.26 Y107.426 E.01588
G1 X122.197 Y108.134 E.02119
G1 X122.238 Y108.45 E.00949
G1 X122.374 Y108.894 E.01381
;WIDTH:0.449409
G1 X122.505 Y109.187 E.01032
G1 X122.905 Y109.664 E.01999
;WIDTH:0.418276
G1 X123.298 Y109.953 E.01446
;WIDTH:0.419999
G1 X123.714 Y110.168 E.01395
G1 X124.149 Y110.28 E.01337
G1 X124.464 Y110.306 E.00941
G1 X125.168 Y110.213 E.02117
G1 X125.657 Y109.996 E.01593
G1 X125.874 Y109.859 E.00764
G1 X126.255 Y109.496 E.01568
G1 X126.436 Y109.252 E.00904
G1 X126.446 Y110.261 E.03005
G1 X126.569 Y110.605 E.01089
G1 X126.739 Y110.814 E.008
G1 X127.065 Y111.01 E.01134
G1 X127.379 Y111.064 E.00948
G1 X141.436 Y111.064 E.41872
G1 X141.436 Y114.211 E.09373
;WIDTH:0.465643
G1 X141.413 Y114.365 E.00522
;WIDTH:0.511287
G1 X141.39 Y114.52 E.00578
;WIDTH:0.556931
G1 X141.367 Y114.675 E.00634
G1 X141.374 Y114.942 E.01085
;WIDTH:0.577369
G1 X141.359 Y115.485 E.02293
G1 X140.656 Y115.867 F21000
;WIDTH:0.541406
G1 F3000
G1 X140.632 Y115.909 E.00192
;WIDTH:0.500937
G1 X140.539 Y116.075 E.00688
;WIDTH:0.460468
G1 X140.445 Y116.24 E.00627
;WIDTH:0.419999
G1 X140.255 Y116.496 E.00949
G1 X139.772 Y116.934 E.01942
G1 X139.234 Y117.187 E.0177
G1 X138.926 Y117.267 E.00949
G1 X138.384 Y117.31 E.01619
G1 X137.697 Y117.162 E.02091
G1 X137.407 Y117.031 E.00949
G1 X137.023 Y116.771 E.01381
G1 X136.793 Y116.551 E.00949
G1 X136.517 Y116.178 E.01381
G1 X136.374 Y115.894 E.00949
G1 X136.203 Y115.286 E.01881
G1 X136.217 Y114.671 E.01832
G1 X136.284 Y114.36 E.00948
G1 X136.457 Y113.93 E.01379
G1 X136.624 Y113.658 E.0095
G1 X136.93 Y113.31 E.01383
G1 X137.178 Y113.11 E.00949
G1 X137.583 Y112.883 E.01381
G1 X137.881 Y112.778 E.00941
G1 X138.485 Y112.687 E.0182
G1 X139.045 Y112.759 E.01682
G1 X139.717 Y113.035 E.02164
G1 X140.122 Y113.36 E.01546
G1 X140.333 Y113.599 E.00949
G1 X140.576 Y113.994 E.01381
;WIDTH:0.465643
G1 X140.67 Y114.239 E.00876
;WIDTH:0.511287
G1 X140.765 Y114.484 E.00971
;WIDTH:0.556931
G1 X140.859 Y114.729 E.01066
G1 X140.869 Y115.07 E.01385
;WIDTH:0.581874
G1 X140.82 Y115.579 E.02177
G1 X140.726 Y115.744 E.0081
;WIDTH:0.541406
G1 X140.676 Y115.832 E.00399
G1 X140.304 Y115.628 F21000
;WIDTH:0.419999
G1 F3000
G1 X140.108 Y116.07 E.01442
G1 X139.66 Y116.545 E.01945
G1 X139.501 Y116.652 E.00569
G1 X138.943 Y116.885 E.018
G1 X138.432 Y116.931 E.01531
G1 X137.792 Y116.797 E.01945
G1 X137.234 Y116.459 E.01945
G1 X136.82 Y115.954 E.01945
G1 X136.598 Y115.34 E.01945
G1 X136.574 Y115.15 E.00569
G1 X136.605 Y114.598 E.01646
G1 X136.806 Y114.071 E.01683
G1 X137.214 Y113.559 E.01947
G1 X137.362 Y113.439 E.0057
G1 X137.945 Y113.149 E.01939
G1 X138.485 Y113.064 E.01629
G1 X138.92 Y113.114 E.01302
G1 X139.498 Y113.342 E.01851
G1 X140.011 Y113.797 E.02044
G1 X140.326 Y114.369 E.01945
G1 X140.436 Y114.942 E.01737
G1 X140.373 Y115.474 E.01595
G1 X140.321 Y115.591 E.00383
G1 X139.98 Y115.486 F21000
;TYPE:Outer wall
G1 F3000
G1 X139.98 Y115.487 E.00003
G1 X139.733 Y115.952 E.01569
G1 X139.369 Y116.296 E.01493
G1 X138.878 Y116.513 E.01598
G1 X138.336 Y116.549 E.01618
G1 X137.829 Y116.406 E.01569
G1 X137.399 Y116.103 E.01569
G1 X137.095 Y115.673 E.01569
G1 X136.951 Y115.168 E.01565
G1 X136.984 Y114.641 E.01572
G1 X137.19 Y114.157 E.01567
G1 X137.546 Y113.768 E.01571
G1 X138.01 Y113.521 E.01567
G1 X138.499 Y113.441 E.01475
G1 X138.794 Y113.47 E.00882
G1 X139.279 Y113.649 E.01539
G1 X139.69 Y113.995 E.01602
G1 X139.957 Y114.449 E.01569
G1 X140.059 Y114.942 E.015
G1 X139.986 Y115.446 E.01518
G1 E-.68 F3600
;WIPE_START
G1 F3000
G1 X139.98 Y115.487 E-.00492
G1 X139.733 Y115.952 E-.06319
G1 X139.419 Y116.249 E-.05189
;WIPE_END
G1 X133.297 Y111.691 Z.6 F21000
G1 X125.732 Y106.059 Z.6
G1 Z.2
G1 E.8 F2700
;TYPE:Inner wall
;WIDTH:0.409275
G1 F3000
G1 X126.441 Y106.059 E.02051
G1 X126.441 Y106.786 E.02104
G1 X126.139 Y106.381 E.01462
G1 X125.764 Y106.084 E.01386
G1 E-.68 F3600
;WIPE_START
G1 F3000
G1 X126.441 Y106.059 E-.08135
G1 X126.441 Y106.381 E-.03865
;WIPE_END
G1 X122.596 Y108.03 Z.6 F21000
G1 Z.2
G1 E.8 F2700
;WIDTH:0.419999
G1 F3000
G1 X122.594 Y107.687 E.01023
G1 X122.807 Y107.071 E.01942
G1 X122.922 Y106.89 E.00639
G1 X123.362 Y106.439 E.01877
;WIDTH:0.464349
G1 X123.941 Y106.128 E.02189
G1 X124.485 Y106.064 E.01823
;WIDTH:0.42485
G1 X124.92 Y106.112 E.01321
G1 X125.524 Y106.362 E.01972
;WIDTH:0.419999
G1 X126.011 Y106.797 E.01945
G1 X126.326 Y107.369 E.01945
G1 X126.436 Y107.942 E.01737
;WIDTH:0.452414
G1 X126.389 Y108.476 E.01734
G1 X126.108 Y109.07 E.02128
;WIDTH:0.419999
G1 X125.66 Y109.545 E.01945
G1 X125.501 Y109.652 E.00569
G1 X125.039 Y109.859 E.01508
G1 X124.432 Y109.931 E.01822
G1 X123.808 Y109.803 E.01897
G1 X123.344 Y109.532 E.01599
G1 X123.096 Y109.327 E.0096
G1 X122.795 Y108.917 E.01516
G1 X122.598 Y108.34 E.01815
G1 X122.596 Y108.07 E.00803
G1 X122.963 Y108.028 F21000
;TYPE:Outer wall
G1 F3000
G1 X122.971 Y107.703 E.00968
G1 X123.169 Y107.186 E.0165
G1 X123.497 Y106.808 E.01489
G1 X123.951 Y106.542 E.01569
G1 X124.453 Y106.444 E.01523
G1 X124.794 Y106.47 E.01019
G1 X125.288 Y106.656 E.01571
G1 X125.69 Y106.995 E.01569
G1 X125.957 Y107.449 E.01569
G1 X126.059 Y107.942 E.015
G1 X125.98 Y108.487 E.0164
G1 X125.733 Y108.952 E.01569
G1 X125.367 Y109.297 E.01501
G1 X124.91 Y109.505 E.01493
G1 X124.4 Y109.555 E.01528
G1 X123.902 Y109.438 E.01523
G1 X123.446 Y109.147 E.01609
G1 X123.123 Y108.73 E.01573
G1 X122.959 Y108.229 E.01569
G1 X122.962 Y108.068 E.00482
G1 E-.68 F3600
;WIPE_START
G1 F3000
G1 X122.971 Y107.703 E-.04379
G1 X123.169 Y107.186 E-.06648
G1 X123.222 Y107.124 E-.00973
;WIPE_END
G1 X124.128 Y114.703 Z.6 F21000
G1 X124.423 Y117.164 Z.6
G1 Z.2
G1 E.8 F2700
;TYPE:Inner wall
G1 F3000
G1 X124.162 Y117.843 E.02164
G1 X123.948 Y118.34 E.01615
G1 X123.386 Y119.253 E.03194
;WIDTH:0.435586
G1 X122.931 Y119.802 E.02208
G1 X122.576 Y120.181 E.01614
;WIDTH:0.420024
G1 X121.632 Y120.971 E.03665
G1 X120.463 Y121.634 E.04004
G1 X119.407 Y122.007 E.03335
G1 X118.276 Y122.214 E.03425
G1 X117.54 Y122.263 E.02197
G1 X116.921 Y122.241 E.01844
G1 X115.671 Y122.034 E.03774
G1 X114.6 Y121.656 E.03385
G1 X113.5 Y121.061 E.03725
G1 X112.539 Y120.29 E.03669
;WIDTH:0.440432
G1 X112.042 Y119.775 E.02249
G1 X111.71 Y119.382 E.01616
;WIDTH:0.419999
G1 X111.052 Y118.34 E.03669
G1 X110.551 Y117.128 E.03908
G1 X110.291 Y115.923 E.03672
G1 X110.245 Y114.833 E.0325
G1 X110.395 Y113.469 E.04088
G1 X110.733 Y112.367 E.03433
G1 X111.204 Y111.402 E.03199
G1 X111.385 Y111.089 E.01076
G1 X111.937 Y110.343 E.02765
;WIDTH:0.418854
G1 X112.508 Y109.76 E.02423
;WIDTH:0.436642
G1 X112.87 Y109.395 E.016
G1 X113.483 Y108.975 E.02309
;WIDTH:0.419999
G1 X114.029 Y108.622 E.01936
G1 X115.079 Y108.147 E.03433
G1 X116.194 Y107.857 E.03433
G1 X117.391 Y107.741 E.03581
G1 X118.513 Y107.819 E.0335
G1 X118.806 Y107.857 E.00881
G1 X119.844 Y108.127 E.03194
G1 X120.799 Y108.544 E.03105
G1 X121.111 Y108.7 E.01039
G1 X121.908 Y109.238 E.02864
;WIDTH:0.449409
G1 X122.201 Y109.455 E.01171
G1 X122.656 Y109.924 E.02099
;WIDTH:0.418276
G1 X123.003 Y110.263 E.01439
;WIDTH:0.419999
G1 X123.641 Y111.125 E.03194
G1 X124.031 Y111.868 E.025
G1 X124.267 Y112.367 E.01644
G1 X124.581 Y113.392 E.03194
G1 X124.688 Y114.121 E.02194
G1 X124.758 Y114.772 E.0195
G1 X124.709 Y115.923 E.03433
G1 X124.466 Y117.05 E.03433
G1 X124.437 Y117.127 E.00246
G1 X124.073 Y117.033 F21000
G1 F3000
G1 X123.812 Y117.702 E.02139
G1 X123.582 Y118.215 E.01675
G1 X123.064 Y119.056 E.02941
G1 X122.299 Y119.938 E.03479
G1 X121.395 Y120.678 E.03479
G1 X120.319 Y121.284 E.0368
G1 X119.281 Y121.651 E.03279
G1 X118.212 Y121.843 E.03235
G1 X117.524 Y121.887 E.02054
G1 X116.937 Y121.864 E.01749
G1 X115.765 Y121.668 E.0354
G1 X114.726 Y121.3 E.03284
G1 X113.806 Y120.8 E.03117
G1 X113.205 Y120.355 E.02227
G1 X112.77 Y120.004 E.01665
G1 X112.333 Y119.519 E.01946
G1 X111.993 Y119.133 E.01532
G1 X111.373 Y118.143 E.03479
G1 X110.913 Y117.019 E.03617
G1 X110.666 Y115.875 E.03486
G1 X110.621 Y114.817 E.03155
G1 X110.686 Y114.169 E.0194
G1 X110.765 Y113.549 E.01862
G1 X111.093 Y112.477 E.03337
G1 X111.541 Y111.571 E.03009
G1 X111.964 Y110.94 E.02265
G1 X112.3 Y110.487 E.01679
G1 X113.137 Y109.673 E.03479
G1 X114.184 Y108.965 E.03763
G1 X115.205 Y108.504 E.03337
G1 X116.289 Y108.222 E.03337
G1 X117.423 Y108.117 E.03391
G1 X118.711 Y108.222 E.0385
G1 X119.749 Y108.492 E.03194
G1 X120.644 Y108.888 E.02915
G1 X120.9 Y109.012 E.00848
G1 X121.788 Y109.613 E.03194
G1 X122.637 Y110.415 E.03479
G1 X123.338 Y111.349 E.03479
G1 X123.907 Y112.477 E.03763
G1 X124.221 Y113.502 E.03194
G1 X124.381 Y114.756 E.03763
G1 X124.334 Y115.875 E.03337
G1 X124.098 Y116.97 E.03337
G1 X124.088 Y116.996 E.00081
G1 X123.725 Y116.9 F21000
;TYPE:Outer wall
G1 F3000
G1 X123.261 Y118.017 E.03604
G1 X122.743 Y118.858 E.02941
G1 X122.016 Y119.689 E.03289
G1 X121.159 Y120.384 E.03289
G1 X120.167 Y120.938 E.03384
G1 X119.156 Y121.296 E.03194
G1 X118.149 Y121.471 E.03045
G1 X117.508 Y121.51 E.01912
G1 X116.953 Y121.487 E.01654
G1 X115.859 Y121.301 E.03305
G1 X114.851 Y120.945 E.03185
G1 X113.99 Y120.471 E.02927
G1 X113.007 Y119.711 E.03701
G1 X112.276 Y118.884 E.03289
G1 X111.694 Y117.945 E.03289
G1 X111.274 Y116.907 E.03336
G1 X111.042 Y115.827 E.0329
G1 X110.998 Y114.801 E.03059
G1 X111.06 Y114.217 E.0175
G1 X111.135 Y113.628 E.01767
G1 X111.454 Y112.588 E.03242
G1 X111.877 Y111.741 E.02819
G1 X112.268 Y111.164 E.02075
G1 X112.603 Y110.711 E.01679
G1 X113.398 Y109.945 E.03289
G1 X114.339 Y109.309 E.03384
G1 X115.331 Y108.861 E.03242
G1 X116.384 Y108.587 E.03242
G1 X117.455 Y108.493 E.03201
G1 X118.598 Y108.582 E.03416
G1 X119.654 Y108.857 E.0325
G1 X120.488 Y109.231 E.02726
G1 X121.101 Y109.603 E.02135
G1 X121.577 Y109.925 E.01711
G1 X122.376 Y110.687 E.03289
G1 X123.035 Y111.573 E.03289
G1 X123.546 Y112.588 E.03384
G1 X123.86 Y113.613 E.03194
G1 X123.94 Y114.217 E.01814
G1 X124.005 Y114.74 E.0157
G1 X123.958 Y115.827 E.03242
G1 X123.735 Y116.861 E.03151
G1 E-.68 F3600
;WIPE_START
G1 F3000
G1 X123.356 Y117.786 E-.12
;WIPE_END
G1 X117.49 Y112.903 Z.6 F21000
G1 X109.274 Y106.061 Z.6
G1 Z.2
G1 E.8 F2700
;TYPE:Inner wall
;WIDTH:0.412806
G1 F3000
G1 X108.884 Y106.368 E.01449
G1 X108.561 Y106.768 E.01504
