; HEADER_BLOCK_START
; generated by OrcaSlicer 2.1.1 on 2025-01-18 at 15:50:56
; total layer number: 63
; filament_density: 1.27
; filament_diameter: 1.75
; max_z_height: 5.16
; HEADER_BLOCK_END

; THUMBNAIL_BLOCK_START

;
; THUMBNAIL_BLOCK_END







; external perimeters extrusion width = 0.40mm
; perimeters extrusion width = 0.45mm
; infill extrusion width = 0.45mm
; solid infill extrusion width = 0.45mm
; top infill extrusion width = 0.38mm
; first layer extrusion width = 0.42mm

; EXECUTABLE_BLOCK_START
EXCLUDE_OBJECT_DEFINE NAME=滑环顶.STL_id_0_copy_0 CENTER=117.5,115 POLYGON=[[102.755,114.62],[102.872,113.106],[103.144,111.612],[103.569,110.154],[104.141,108.747],[104.855,107.407],[105.702,106.147],[106.675,104.981],[107.763,103.921],[108.954,102.978],[110.235,102.163],[111.593,101.484],[113.014,100.949],[114.483,100.562],[115.983,100.328],[117.5,100.25],[119.017,100.328],[120.517,100.562],[121.986,100.949],[123.407,101.484],[124.765,102.163],[126.046,102.978],[127.237,103.921],[128.325,104.981],[129.298,106.147],[130.145,107.407],[130.859,108.747],[131.431,110.154],[131.856,111.612],[132.128,113.106],[132.245,114.62],[132.206,116.138],[132.011,117.644],[131.662,119.122],[131.163,120.557],[130.52,121.932],[129.738,123.234],[128.826,124.449],[127.795,125.563],[126.654,126.566],[125.416,127.446],[124.095,128.194],[122.703,128.802],[121.256,129.264],[119.77,129.574],[118.259,129.73],[117.5,129.75],[116.741,129.73],[115.23,129.574],[113.744,129.264],[112.297,128.802],[110.905,128.194],[109.584,127.446],[108.346,126.566],[107.205,125.563],[106.174,124.449],[105.262,123.234],[104.48,121.932],[103.837,120.557],[103.338,119.122],[102.989,117.644],[102.794,116.138],[102.755,114.62]]
M73 P0 R21
;TYPE:Custom
;ELEGOO NEPTUNE 4 PRO
M220 S100 ;Set the feed speed to 100%
M221 S100 ;Set the flow rate to 100%
M104 S140
M190 S70
G90
G28 ;home
G1 Z10 F300
G1 X67.5 Y0 F6000
G1 Z0 F300
M109 S240
G92 E0 ;Reset Extruder
G1 X67.5 Y0 Z0.4 F300 ;Move to start position
G1 X167.5 E30 F400 ;Draw the first line
G1 Z0.6 F120.0 ;Move to side a little
M73 P1 R21
G1 X162.5 F3000
G92 E0 ;Reset Extruder
G90
G21
M83 ; use relative distances for extrusion
; filament start gcode
M106 S0
;LAYER_CHANGE
;Z:0.2
;HEIGHT:0.2
;BEFORE_LAYER_CHANGE
G92 E0
;0.2


G1 E-.8 F3600
;AFTER_LAYER_CHANGE
;0.2
;_SET_FAN_SPEED_CHANGING_LAYER
SET_VELOCITY_LIMIT ACCEL=1000 ACCEL_TO_DECEL=500
SET_VELOCITY_LIMIT SQUARE_CORNER_VELOCITY=7
; printing object 滑环顶.STL id:0 copy 0
EXCLUDE_OBJECT_START NAME=滑环顶.STL_id_0_copy_0
G1 X131.07 Y113.236 F21000
G1 Z.4
G1 Z.2
G1 E.8 F2700
;TYPE:Inner wall
;WIDTH:0.419999
G1 F3000
G1 X131.071 Y113.243 E.00022
G1 X131.177 Y114.75 E.045
G1 X131.144 Y116.056 E.03892
G1 X130.963 Y117.453 E.04197
G1 X130.639 Y118.825 E.04197
G1 X130.176 Y120.155 E.04197
G1 X129.579 Y121.431 E.04197
G1 X128.854 Y122.639 E.04197
G1 X128.008 Y123.766 E.04197
G1 X127.051 Y124.8 E.04197
G1 X125.993 Y125.73 E.04197
G1 X124.844 Y126.547 E.04197
G1 X123.618 Y127.241 E.04197
G1 X122.327 Y127.805 E.04197
G1 X120.985 Y128.233 E.04197
G1 X119.606 Y128.521 E.04197
G1 X118.191 Y128.668 E.04238
G1 X117.5 Y128.685 E.02058
G1 X116.809 Y128.668 E.02058
G1 X115.394 Y128.521 E.04238
G1 X114.015 Y128.233 E.04197
G1 X112.673 Y127.805 E.04197
G1 X111.382 Y127.241 E.04197
G1 X110.156 Y126.547 E.04197
G1 X109.007 Y125.73 E.04197
G1 X107.949 Y124.8 E.04197
G1 X106.992 Y123.766 E.04197
G1 X106.146 Y122.639 E.04197
G1 X105.421 Y121.431 E.04197
G1 X104.824 Y120.155 E.04197
G1 X104.361 Y118.825 E.04197
G1 X104.037 Y117.453 E.04197
G1 X103.856 Y116.056 E.04197
G1 X103.82 Y114.648 E.04197
G1 X103.929 Y113.243 E.04197
G1 X104.181 Y111.857 E.04197
G1 X104.575 Y110.504 E.04197
G1 X105.106 Y109.199 E.04197
G1 X105.768 Y107.955 E.04197
G1 X106.555 Y106.786 E.04197
G1 X107.457 Y105.705 E.04197
G1 X108.466 Y104.721 E.04197
G1 X109.571 Y103.847 E.04197
G1 X110.76 Y103.091 E.04197
G1 X112.02 Y102.461 E.04197
G1 X113.338 Y101.964 E.04197
G1 X114.701 Y101.605 E.04197
G1 X116.093 Y101.388 E.04197
G1 X117.5 Y101.316 E.04197
G1 X118.907 Y101.388 E.04197
G1 X120.299 Y101.605 E.04197
G1 X121.662 Y101.964 E.04197
G1 X122.98 Y102.461 E.04197
G1 X124.24 Y103.091 E.04197
G1 X125.429 Y103.847 E.04197
G1 X126.534 Y104.721 E.04197
G1 X127.543 Y105.705 E.04197
G1 X128.445 Y106.786 E.04197
G1 X129.232 Y107.955 E.04197
G1 X129.894 Y109.199 E.04197
G1 X130.425 Y110.504 E.04197
G1 X130.819 Y111.857 E.04197
G1 X131.063 Y113.196 E.04055
G1 X131.441 Y113.168 F21000
G1 F3000
G1 X131.446 Y113.194 E.0008
G1 X131.554 Y114.76 E.04674
G1 X131.52 Y116.085 E.0395
G1 X131.334 Y117.521 E.04312
G1 X131.002 Y118.93 E.04312
G1 X130.526 Y120.298 E.04312
G1 X129.912 Y121.609 E.04312
G1 X129.167 Y122.85 E.04312
G1 X128.298 Y124.008 E.04312
G1 X127.314 Y125.071 E.04312
G1 X126.227 Y126.026 E.04312
G1 X125.047 Y126.865 E.04312
G1 X123.787 Y127.578 E.04312
G1 X122.46 Y128.158 E.04312
G1 X121.081 Y128.598 E.04312
G1 X119.664 Y128.895 E.04312
G1 X118.215 Y129.044 E.04339
G1 X117.5 Y129.063 E.02131
G1 X116.785 Y129.044 E.02131
G1 X115.336 Y128.895 E.04339
G1 X113.919 Y128.598 E.04313
G1 X112.54 Y128.158 E.04312
G1 X111.213 Y127.578 E.04312
G1 X109.953 Y126.865 E.04312
G1 X108.773 Y126.026 E.04312
G1 X107.686 Y125.071 E.04312
G1 X106.702 Y124.008 E.04312
G1 X105.833 Y122.85 E.04312
G1 X105.088 Y121.609 E.04313
G1 X104.474 Y120.298 E.04312
G1 X103.998 Y118.93 E.04313
G1 X103.666 Y117.521 E.04312
G1 X103.48 Y116.085 E.04312
G1 X103.443 Y114.638 E.04312
G1 X103.554 Y113.194 E.04313
G1 X103.814 Y111.77 E.04312
G1 X104.219 Y110.38 E.04312
G1 X104.764 Y109.039 E.04312
G1 X105.444 Y107.761 E.04312
G1 X106.253 Y106.56 E.04312
G1 X107.18 Y105.448 E.04313
G1 X108.217 Y104.438 E.04312
G1 X109.352 Y103.539 E.04312
G1 X110.574 Y102.762 E.04312
G1 X111.869 Y102.115 E.04312
G1 X113.224 Y101.604 E.04313
G1 X114.624 Y101.235 E.04312
G1 X116.054 Y101.013 E.04312
G1 X117.5 Y100.938 E.04312
G1 X118.946 Y101.013 E.04312
G1 X120.376 Y101.235 E.04312
G1 X121.776 Y101.604 E.04312
G1 X123.131 Y102.115 E.04312
G1 X124.426 Y102.762 E.04313
G1 X125.648 Y103.539 E.04312
G1 X126.783 Y104.438 E.04312
G1 X127.82 Y105.448 E.04312
G1 X128.747 Y106.56 E.04313
G1 X129.556 Y107.761 E.04312
G1 X130.236 Y109.039 E.04313
G1 X130.781 Y110.38 E.04312
G1 X131.186 Y111.77 E.04313
G1 X131.434 Y113.129 E.04113
G1 X131.812 Y113.1 F21000
;TYPE:Outer wall
G1 F3000
G1 X131.82 Y113.146 E.00138
G1 X131.931 Y114.769 E.04847
G1 X131.897 Y116.114 E.04008
G1 X131.706 Y117.589 E.04428
G1 X131.364 Y119.036 E.04428
G1 X130.876 Y120.44 E.04428
G1 X130.246 Y121.786 E.04428
G1 X129.48 Y123.061 E.04428
G1 X128.588 Y124.25 E.04428
G1 X127.578 Y125.341 E.04428
G1 X126.461 Y126.322 E.04428
G1 X125.25 Y127.184 E.04428
G1 X123.956 Y127.916 E.04428
G1 X122.594 Y128.511 E.04428
G1 X121.177 Y128.963 E.04428
G1 X119.722 Y129.268 E.04428
G1 X118.239 Y129.421 E.0444
G1 X117.5 Y129.44 E.02203
G1 X116.761 Y129.421 E.02203
G1 X115.278 Y129.268 E.0444
G1 X113.823 Y128.963 E.04428
G1 X112.406 Y128.511 E.04428
G1 X111.044 Y127.916 E.04428
G1 X109.75 Y127.184 E.04428
G1 X108.539 Y126.322 E.04428
G1 X107.422 Y125.341 E.04428
G1 X106.412 Y124.25 E.04428
G1 X105.52 Y123.061 E.04428
G1 X104.754 Y121.786 E.04428
G1 X104.124 Y120.44 E.04428
G1 X103.636 Y119.036 E.04428
G1 X103.294 Y117.589 E.04428
G1 X103.103 Y116.114 E.04428
G1 X103.065 Y114.628 E.04428
G1 X103.18 Y113.146 E.04428
G1 X103.446 Y111.683 E.04428
G1 X103.862 Y110.256 E.04428
G1 X104.422 Y108.879 E.04428
G1 X105.121 Y107.567 E.04428
G1 X105.951 Y106.333 E.04428
G1 X106.903 Y105.192 E.04428
G1 X107.968 Y104.154 E.04428
G1 X109.133 Y103.231 E.04428
G1 X110.388 Y102.433 E.04428
G1 X111.718 Y101.769 E.04428
G1 X113.109 Y101.244 E.04428
G1 X114.546 Y100.866 E.04428
G1 X116.015 Y100.637 E.04428
G1 X117.5 Y100.56 E.04428
G1 X118.985 Y100.637 E.04428
G1 X120.454 Y100.866 E.04428
G1 X121.891 Y101.244 E.04428
G1 X123.282 Y101.769 E.04428
G1 X124.612 Y102.433 E.04428
G1 X125.867 Y103.231 E.04428
G1 X127.032 Y104.154 E.04428
G1 X128.097 Y105.192 E.04428
G1 X129.049 Y106.333 E.04428
G1 X129.879 Y107.567 E.04428
G1 X130.578 Y108.879 E.04428
G1 X131.138 Y110.256 E.04428
G1 X131.554 Y111.683 E.04428
G1 X131.805 Y113.061 E.04171
M73 P2 R21
G1 E-.68 F3600
;WIPE_START
G1 F3000
G1 X131.82 Y113.146 E-.01037
G1 X131.882 Y114.057 E-.10963
;WIPE_END
G1 X124.292 Y113.26 Z.6 F21000
G1 X106.637 Y111.404 Z.6
G1 Z.2
G1 E.8 F2700
;TYPE:Inner wall
G1 F3000
G1 X106.593 Y111.265 E.00434
G1 X106.555 Y110.882 E.01147
G1 X106.588 Y110.445 E.01305
G1 X106.763 Y109.972 E.01503
G1 X106.93 Y109.701 E.00949
G1 X107.293 Y109.316 E.01574
G1 X107.708 Y109.073 E.01433
G1 X108.008 Y108.967 E.00949
G1 X108.588 Y108.898 E.01739
G1 X109.042 Y108.98 E.01374
G1 X109.399 Y109.111 E.01134
G1 X109.867 Y109.451 E.01723
G1 X110.078 Y109.69 E.00949
G1 X110.259 Y109.984 E.01029
G1 X110.375 Y110.274 E.00931
G1 X110.875 Y109.576 E.02557
G1 X111.735 Y108.669 E.03723
G1 X112.718 Y107.897 E.03723
G1 X113.351 Y107.53 E.02179
G1 X112.857 Y107.248 E.01696
G1 X112.604 Y107.012 E.01029
G1 X112.308 Y106.584 E.01552
G1 X112.147 Y106.093 E.0154
G1 X112.114 Y105.804 E.00866
G1 X112.135 Y105.381 E.01261
G1 X112.325 Y104.827 E.01745
G1 X112.492 Y104.555 E.00949
G1 X112.867 Y104.161 E.01621
G1 X113.396 Y103.868 E.01803
G1 X113.91 Y103.763 E.01562
G1 X114.322 Y103.767 E.01227
G1 X114.882 Y103.933 E.01739
G1 X115.268 Y104.175 E.01357
G1 X115.639 Y104.545 E.0156
G1 X115.91 Y105.028 E.0165
G1 X116.012 Y105.472 E.01357
G1 X116.025 Y105.79 E.00949
G1 X115.949 Y106.285 E.01491
G1 X115.793 Y106.627 E.01119
G1 X116.321 Y106.519 E.01606
G1 X117.403 Y106.44 E.0323
G1 X118.815 Y106.539 E.04216
G1 X119.84 Y106.768 E.03128
G1 X119.728 Y106.427 E.01068
G1 X119.679 Y105.896 E.01588
G1 X119.837 Y105.231 E.02035
G1 X120.135 Y104.762 E.01657
G1 X120.418 Y104.485 E.0118
G1 X120.798 Y104.247 E.01336
G1 X121.141 Y104.115 E.01093
G1 X121.497 Y104.054 E.01078
G1 X121.8 Y104.057 E.00901
G1 X122.302 Y104.158 E.01527
G1 X122.843 Y104.455 E.01839
G1 X123.218 Y104.849 E.01621
G1 X123.385 Y105.121 E.00949
G1 X123.514 Y105.441 E.01029
G1 X123.581 Y105.753 E.00949
G1 X123.596 Y106.108 E.01059
G1 X123.489 Y106.632 E.01593
G1 X123.311 Y107.029 E.01296
G1 X123.051 Y107.373 E.01286
G1 X122.589 Y107.72 E.0172
G1 X122.237 Y107.868 E.01138
G1 X123.265 Y108.669 E.03883
G1 X124.037 Y109.47 E.03314
G1 X124.844 Y110.598 E.04132
G1 X124.974 Y110.85 E.00843
G1 X125.152 Y110.482 E.01218
G1 X125.436 Y110.152 E.01299
G1 X125.718 Y109.933 E.01063
G1 X126.164 Y109.706 E.01491
G1 X126.627 Y109.618 E.01402
G1 X127.039 Y109.623 E.01227
G1 X127.599 Y109.788 E.01739
G1 X127.877 Y109.944 E.00949
G1 X128.26 Y110.27 E.015
G1 X128.537 Y110.694 E.01508
G1 X128.658 Y111 E.00979
G1 X128.744 Y111.423 E.01286
G1 X128.701 Y111.968 E.01628
G1 X128.605 Y112.293 E.0101
G1 X128.41 Y112.672 E.01268
G1 X128.011 Y113.097 E.01738
G1 X127.747 Y113.275 E.00949
G1 X127.324 Y113.459 E.01373
G1 X126.78 Y113.527 E.01632
G1 X126.462 Y113.5 E.0095
G1 X126.128 Y113.413 E.0103
G1 X125.874 Y113.298 E.00828
G1 X126.003 Y113.995 E.0211
G1 X126.059 Y115.244 E.03723
G1 X125.959 Y116.239 E.02979
G1 X125.886 Y116.703 E.01399
G1 X125.718 Y117.345 E.01976
G1 X125.992 Y117.248 E.00865
G1 X126.527 Y117.177 E.01606
G1 X126.979 Y117.244 E.01361
G1 X127.484 Y117.445 E.01618
G1 X127.854 Y117.735 E.01402
G1 X128.076 Y117.994 E.01017
G1 X128.243 Y118.266 E.00949
G1 X128.401 Y118.745 E.01503
G1 X128.448 Y119.217 E.01413
G1 X128.394 Y119.622 E.01218
G1 X128.155 Y120.173 E.01787
G1 X127.966 Y120.429 E.00949
G1 X127.717 Y120.668 E.01029
G1 X127.37 Y120.884 E.01217
G1 X126.83 Y121.069 E.017
G1 X126.486 Y121.098 E.01028
G1 X126.054 Y121.041 E.01298
G1 X125.661 Y120.92 E.01224
G1 X125.257 Y120.659 E.01433
G1 X125.027 Y120.439 E.00949
G1 X124.701 Y119.943 E.01766
G1 X124.63 Y119.719 E.00702
G1 X124.332 Y120.147 E.01553
G1 X123.712 Y120.893 E.02891
G1 X122.787 Y121.735 E.03723
G1 X121.669 Y122.479 E.04001
G1 X122.021 Y122.661 E.0118
G1 X122.458 Y123.053 E.0175
G1 X122.761 Y123.572 E.0179
G1 X122.893 Y124.234 E.0201
G1 X122.795 Y124.905 E.0202
G1 X122.594 Y125.318 E.01368
G1 X122.404 Y125.574 E.00949
G1 X122.155 Y125.813 E.01029
G1 X121.891 Y125.992 E.00949
G1 X121.475 Y126.173 E.01353
G1 X120.924 Y126.244 E.01653
G1 X120.607 Y126.217 E.0095
G1 X120.05 Y126.04 E.0174
G1 X119.696 Y125.805 E.01268
G1 X119.466 Y125.584 E.00949
G1 X119.156 Y125.127 E.01644
G1 X119.005 Y124.656 E.01476
G1 X118.99 Y124.031 E.01861
G1 X119.057 Y123.719 E.00949
G1 X119.178 Y123.389 E.01047
G1 X118.196 Y123.534 E.02957
G1 X117.534 Y123.564 E.01972
G1 X116.907 Y123.543 E.0187
G1 X115.571 Y123.342 E.04024
G1 X115.15 Y123.215 E.0131
G1 X115.302 Y123.75 E.01655
G1 X115.316 Y124.068 E.00949
G1 X115.228 Y124.599 E.01601
G1 X114.995 Y125.075 E.01579
G1 X114.585 Y125.518 E.01798
G1 X114.321 Y125.697 E.00952
G1 X113.926 Y125.872 E.01287
G1 X113.353 Y125.95 E.0172
G1 X113.036 Y125.923 E.0095
G1 X112.561 Y125.787 E.0147
G1 X112.125 Y125.511 E.01539
G1 X111.894 Y125.29 E.00949
G1 X111.668 Y124.984 E.01135
G1 X111.445 Y124.398 E.01868
G1 X111.404 Y124.082 E.00949
G1 X111.429 Y123.634 E.01336
G1 X111.615 Y123.105 E.0167
G1 X111.782 Y122.833 E.00949
G1 X112.173 Y122.427 E.01679
G1 X112.559 Y122.206 E.01327
G1 X112.785 Y122.126 E.00714
G1 X112.322 Y121.819 E.01656
G1 X111.29 Y120.895 E.04125
G1 X110.577 Y120.038 E.03322
G1 X110.03 Y119.167 E.03061
G1 X109.884 Y119.451 E.00951
G1 X109.494 Y119.917 E.01809
G1 X108.95 Y120.25 E.01903
G1 X108.412 Y120.374 E.01642
G1 X108.016 Y120.374 E.01181
G1 X107.595 Y120.283 E.01282
G1 X107.265 Y120.143 E.01067
G1 X106.979 Y119.949 E.01029
G1 X106.749 Y119.729 E.00949
G1 X106.478 Y119.35 E.01389
G1 X106.299 Y118.836 E.01619
G1 X106.258 Y118.52 E.00949
G1 X106.273 Y118.175 E.01029
G1 X106.409 Y117.693 E.01492
G1 X106.636 Y117.272 E.01425
G1 X106.864 Y117.013 E.01029
G1 X107.265 Y116.727 E.01464
G1 X107.558 Y116.579 E.00978
G1 X108.055 Y116.48 E.0151
G1 X108.373 Y116.48 E.00949
G1 X108.948 Y116.611 E.01757
G1 X109.113 Y116.699 E.00557
G1 X108.947 Y115.385 E.03946
G1 X108.982 Y114.132 E.03734
G1 X109.199 Y112.901 E.03723
G1 X109.273 Y112.654 E.00769
G1 X108.846 Y112.788 E.01333
G1 X108.21 Y112.796 E.01893
G1 X107.705 Y112.653 E.01563
G1 X107.273 Y112.378 E.01525
G1 X107.043 Y112.158 E.00949
G1 X106.72 Y111.669 E.01745
G1 X106.649 Y111.443 E.00707
G1 X107.003 Y111.262 F21000
G1 F3000
G1 X106.929 Y110.965 E.00911
G1 X106.984 Y110.433 E.01593
G1 X107.213 Y109.95 E.01593
G1 X107.59 Y109.571 E.01593
G1 X108.046 Y109.344 E.01516
G1 X108.556 Y109.274 E.01534
G1 X108.916 Y109.336 E.01089
G1 X109.362 Y109.527 E.01445
G1 X109.757 Y109.888 E.01593
G1 X110.009 Y110.359 E.01593
G1 X110.09 Y110.888 E.01593
;WIDTH:0.458651
G1 X110.082 Y111.028 E.00461
;WIDTH:0.497303
G1 X110.075 Y111.168 E.00503
;WIDTH:0.535955
G1 X110.067 Y111.308 E.00546
;WIDTH:0.574606
G1 X110.059 Y111.448 E.00589
G1 X110.141 Y111.331 E.006
;WIDTH:0.535955
G1 X110.222 Y111.214 E.00556
;WIDTH:0.497303
G1 X110.304 Y111.096 E.00513
;WIDTH:0.458651
G1 X110.385 Y110.979 E.00469
;WIDTH:0.419999
G1 X110.679 Y110.498 E.01679
G1 X111.182 Y109.795 E.02574
G1 X112.007 Y108.931 E.0356
G1 X112.949 Y108.196 E.0356
G1 X113.588 Y107.83 E.02194
;WIDTH:0.428911
G1 X114.061 Y107.566 E.01651
;WIDTH:0.470679
G1 X114.142 Y107.513 E.00325
;WIDTH:0.512446
G1 X114.222 Y107.46 E.00357
;WIDTH:0.554213
G1 X114.302 Y107.407 E.00389
;WIDTH:0.59598
G1 X114.383 Y107.354 E.00421
G1 X114.247 Y107.335 E.00597
;WIDTH:0.551985
G1 X114.112 Y107.317 E.0055
;WIDTH:0.50799
G1 X113.976 Y107.298 E.00502
;WIDTH:0.463995
G1 X113.841 Y107.28 E.00455
;WIDTH:0.419999
G1 X113.332 Y107.114 E.01594
G1 X112.908 Y106.788 E.01593
G1 X112.62 Y106.353 E.01553
G1 X112.491 Y105.82 E.01635
G1 X112.546 Y105.288 E.01593
G1 X112.775 Y104.804 E.01593
G1 X113.14 Y104.432 E.01553
G1 X113.633 Y104.193 E.01635
G1 X114.117 Y104.128 E.01454
G1 X114.431 Y104.173 E.00942
G1 X114.923 Y104.382 E.01593
G1 X115.318 Y104.742 E.01593
G1 X115.566 Y105.193 E.01532
G1 X115.651 Y105.742 E.01656
G1 X115.552 Y106.268 E.01593
G1 X115.282 Y106.73 E.01593
;WIDTH:0.465204
G1 X115.206 Y106.828 E.00415
;WIDTH:0.510409
G1 X115.13 Y106.927 E.00459
;WIDTH:0.555614
