; HEADER_BLOCK_START
; generated by OrcaSlicer 2.1.1 on 2025-01-09 at 12:58:34
; total layer number: 148
; filament_density: 1.27
; filament_diameter: 1.75
; max_z_height: 11.96
; HEADER_BLOCK_END

; THUMBNAIL_BLOCK_START

;
; THUMBNAIL_BLOCK_END







; external perimeters extrusion width = 0.40mm
; perimeters extrusion width = 0.45mm
; infill extrusion width = 0.45mm
; solid infill extrusion width = 0.45mm
; top infill extrusion width = 0.38mm
; first layer extrusion width = 0.42mm

; EXECUTABLE_BLOCK_START
EXCLUDE_OBJECT_DEFINE NAME=转台_-_电机架.STL_id_0_copy_0 CENTER=117.5,117.45 POLYGON=[[99.5,113.5],[135.5,113.5],[135.5,116.5],[125.5,121.4],[109.5,121.4],[99.5,116.5],[99.5,113.5]]
M73 P0 R24
;TYPE:Custom
;ELEGOO NEPTUNE 4 PRO
M220 S100 ;Set the feed speed to 100%
M221 S100 ;Set the flow rate to 100%
M104 S140
M190 S70
G90
G28 ;home
G1 Z10 F300
G1 X67.5 Y0 F6000
G1 Z0 F300
M109 S240
G92 E0 ;Reset Extruder
G1 X67.5 Y0 Z0.4 F300 ;Move to start position
G1 X167.5 E30 F400 ;Draw the first line
G1 Z0.6 F120.0 ;Move to side a little
M73 P1 R23
G1 X162.5 F3000
G92 E0 ;Reset Extruder
G90
G21
M83 ; use relative distances for extrusion
; filament start gcode
M106 S0
;LAYER_CHANGE
;Z:0.2
;HEIGHT:0.2
;BEFORE_LAYER_CHANGE
G92 E0
;0.2


G1 E-.8 F3600
;AFTER_LAYER_CHANGE
;0.2
;_SET_FAN_SPEED_CHANGING_LAYER
SET_VELOCITY_LIMIT ACCEL=1000 ACCEL_TO_DECEL=500
SET_VELOCITY_LIMIT SQUARE_CORNER_VELOCITY=7
; printing object 转台 - 电机架.STL id:0 copy 0
EXCLUDE_OBJECT_START NAME=转台_-_电机架.STL_id_0_copy_0
G1 X112.189 Y119.91 F21000
G1 Z.4
G1 Z.2
G1 E.8 F2700
;TYPE:Inner wall
;WIDTH:0.419999
G1 F2817
G1 X112.379 Y119.963 E.00585
;WIDTH:0.417302
G1 X122.759 Y119.963 E.30699
;WIDTH:0.419999
G1 X123.113 Y119.826 E.01131
G1 X123.427 Y119.51 E.01326
G1 X123.55 Y119.184 E.01037
G1 X123.564 Y119.021 E.00487
G1 X123.564 Y114.564 E.13277
G1 X134.436 Y114.564 E.32383
G1 X134.436 Y115.436 E.02596
G1 X125.243 Y115.436 E.27383
G1 X124.712 Y115.712 E.01783
G1 X124.436 Y116.379 E.02149
G1 X124.436 Y120.336 E.11787
G1 X122.621 Y120.337 E.05404
;WIDTH:0.417302
G1 X112.379 Y120.337 E.30292
;WIDTH:0.419999
G1 X110.564 Y120.336 E.05404
G1 X110.564 Y116.379 E.11787
G1 X110.288 Y115.712 E.02149
G1 X109.621 Y115.436 E.02149
G1 X100.564 Y115.436 E.26979
G1 X100.564 Y114.564 E.02596
G1 X111.436 Y114.564 E.32383
G1 X111.436 Y119.147 E.1365
G1 X111.573 Y119.51 E.01157
G1 X111.887 Y119.826 E.01326
G1 X112.151 Y119.899 E.00816
G1 X112.283 Y119.56 F21000
G1 F2817
G1 X112.379 Y119.587 E.00295
G1 X122.621 Y119.587 E.3051
G1 X122.917 Y119.504 E.00913
G1 X123.105 Y119.315 E.00796
G1 X123.187 Y119.021 E.00907
G1 X123.187 Y114.187 E.144
G1 X134.813 Y114.187 E.34629
G1 X134.813 Y115.813 E.04843
G1 X125.297 Y115.813 E.28344
G1 X124.979 Y115.979 E.0107
G1 X124.813 Y116.379 E.01289
G1 X124.813 Y120.713 E.12911
G1 X110.187 Y120.713 E.43565
G1 X110.187 Y116.379 E.12911
G1 X110.021 Y115.979 E.01289
G1 X109.621 Y115.813 E.01289
G1 X100.187 Y115.813 E.28102
G1 X100.187 Y114.187 E.04843
G1 X111.813 Y114.187 E.34629
G1 X111.813 Y119.021 E.144
G1 X111.895 Y119.315 E.00907
G1 X112.083 Y119.504 E.00796
G1 X112.245 Y119.549 E.00499
G1 X112.379 Y119.21 F21000
;TYPE:Outer wall
G1 F2817
G1 X122.65 Y119.21 E.30595
G1 X122.783 Y119.119 E.00479
G1 X122.81 Y119.021 E.00302
G1 X122.81 Y113.81 E.15523
G1 X135.19 Y113.81 E.36876
G1 X135.19 Y116.19 E.07089
G1 X125.379 Y116.19 E.29225
G1 X125.245 Y116.245 E.0043
G1 X125.19 Y116.379 E.0043
G1 X125.19 Y121.09 E.14034
G1 X109.81 Y121.09 E.45812
G1 X109.81 Y116.379 E.14034
G1 X109.755 Y116.245 E.0043
G1 X109.621 Y116.19 E.0043
G1 X99.81 Y116.19 E.29225
G1 X99.81 Y113.81 E.07089
G1 X112.19 Y113.81 E.36876
G1 X112.19 Y119.021 E.15523
G1 X112.217 Y119.119 E.00302
G1 X112.344 Y119.19 E.00432
G1 E-.68 F3600
;WIPE_START
G1 F3000
G1 X113.344 Y119.192 E-.12
;WIPE_END
G1 X110.548 Y114.677 Z.6 F21000
G1 Z.2
G1 E.8 F2700
;TYPE:Bottom surface
;WIDTH:0.425644
G1 F2817
G1 X111.153 Y115.282 E.02585
G1 X111.153 Y115.823 E.01636
G1 X110.177 Y114.847 E.04173
G1 X109.636 Y114.847 E.01636
G1 X111.323 Y116.534 E.07213
G1 X110.677 Y116.43 F21000
G1 F2817
G1 X111.153 Y116.906 E.02034
G1 X111.153 Y117.447 E.01636
G1 X110.847 Y117.141 E.01309
G1 X110.847 Y117.682 E.01636
G1 X111.153 Y117.988 E.01309
G1 X111.153 Y118.529 E.01636
G1 X110.847 Y118.223 E.01309
G1 X110.847 Y118.765 E.01636
G1 X111.157 Y119.075 E.01327
G1 X111.172 Y119.238 E.00495
G1 X111.33 Y119.66 E.01364
M73 P2 R23
G1 X111.723 Y120.055 E.01683
G1 X111.596 Y120.054 E.00386
G1 X110.847 Y119.306 E.03201
G1 X110.847 Y119.847 E.01636
G1 X111.223 Y120.224 E.0161
G1 E-.68 F3600
;WIPE_START
G1 F4800
G1 X110.847 Y119.847 E-.06389
G1 X110.847 Y119.379 E-.05611
;WIPE_END
G1 X109.57 Y115.323 Z.6 F21000
G1 Z.2
G1 E.8 F2700
G1 F2817
G1 X109.094 Y114.847 E.02034
G1 X108.553 Y114.847 E.01636
G1 X108.859 Y115.153 E.01309
G1 X108.318 Y115.153 E.01636
G1 X108.012 Y114.847 E.01309
G1 X107.471 Y114.847 E.01636
G1 X107.777 Y115.153 E.01309
G1 X107.235 Y115.153 E.01636
G1 X106.929 Y114.847 E.01309
G1 X106.388 Y114.847 E.01636
G1 X106.694 Y115.153 E.01309
G1 X106.153 Y115.153 E.01636
G1 X105.847 Y114.847 E.01309
G1 X105.306 Y114.847 E.01636
G1 X105.612 Y115.153 E.01309
G1 X105.07 Y115.153 E.01636
G1 X104.764 Y114.847 E.01309
G1 X104.223 Y114.847 E.01636
G1 X104.529 Y115.153 E.01309
G1 X103.988 Y115.153 E.01636
G1 X103.682 Y114.847 E.01309
G1 X103.141 Y114.847 E.01636
G1 X103.447 Y115.153 E.01309
G1 X102.905 Y115.153 E.01636
G1 X102.599 Y114.847 E.01309
G1 X102.058 Y114.847 E.01636
G1 X102.364 Y115.153 E.01309
G1 X101.823 Y115.153 E.01636
G1 X101.517 Y114.847 E.01309
G1 X100.976 Y114.847 E.01636
G1 X101.451 Y115.323 E.02034
G1 E-.68 F3600
;WIPE_START
G1 F4800
G1 X100.976 Y114.847 E-.08074
G1 X101.303 Y114.847 E-.03926
;WIPE_END
G1 X108.934 Y114.957 Z.6 F21000
G1 X134.205 Y115.323 Z.6
G1 Z.2
G1 E.8 F2700
;WIDTH:0.420531
G1 F2817
G1 X133.729 Y114.847 E.02007
G1 X133.195 Y114.847 E.01593
G1 X133.501 Y115.153 E.01291
G1 X132.967 Y115.153 E.01593
G1 X132.661 Y114.847 E.01291
G1 X132.127 Y114.847 E.01593
G1 X132.433 Y115.153 E.01291
G1 X131.899 Y115.153 E.01593
G1 X131.593 Y114.847 E.01291
G1 X131.059 Y114.847 E.01593
G1 X131.365 Y115.153 E.01291
G1 X130.831 Y115.153 E.01593
G1 X130.525 Y114.847 E.01291
G1 X129.991 Y114.847 E.01593
G1 X130.297 Y115.153 E.01291
G1 X129.763 Y115.153 E.01593
G1 X129.457 Y114.847 E.01291
G1 X128.923 Y114.847 E.01593
G1 X129.229 Y115.153 E.01291
G1 X128.695 Y115.153 E.01593
G1 X128.389 Y114.847 E.01291
G1 X127.855 Y114.847 E.01593
G1 X128.161 Y115.153 E.01291
G1 X127.627 Y115.153 E.01593
G1 X127.321 Y114.847 E.01291
G1 X126.787 Y114.847 E.01593
G1 X127.093 Y115.153 E.01291
G1 X126.559 Y115.153 E.01593
G1 X126.253 Y114.847 E.01291
G1 X125.719 Y114.847 E.01593
G1 X126.025 Y115.153 E.01291
G1 X125.491 Y115.153 E.01593
G1 X125.185 Y114.847 E.01291
G1 X124.651 Y114.847 E.01593
G1 X125.037 Y115.234 E.01632
G1 X124.686 Y115.416 E.01181
G1 X124.117 Y114.847 E.02403
G1 X123.847 Y114.847 E.00804
G1 X123.847 Y115.111 E.00789
G1 X124.429 Y115.693 E.02456
G1 X124.273 Y116.071 E.01219
G1 X123.847 Y115.645 E.01796
G1 X123.847 Y116.179 E.01593
G1 X124.153 Y116.485 E.01291
G1 X124.153 Y117.019 E.01593
G1 X123.847 Y116.713 E.01291
G1 X123.847 Y117.247 E.01593
G1 X124.153 Y117.553 E.01291
G1 X124.153 Y118.088 E.01593
G1 X123.847 Y117.781 E.01291
G1 X123.847 Y118.315 E.01593
G1 X124.153 Y118.622 E.01291
G1 X124.153 Y119.156 E.01593
G1 X123.847 Y118.849 E.01291
G1 X123.828 Y119.238 E.0116
G1 X123.794 Y119.33 E.00294
G1 X124.153 Y119.69 E.01516
G1 X124.153 Y120.053 E.01083
G1 X123.981 Y120.052 E.00512
G1 X123.63 Y119.7 E.01483
G1 X123.363 Y119.968 E.01126
G1 X123.616 Y120.22 E.01064
; stop printing object 转台 - 电机架.STL id:0 copy 0
;LAYER_CHANGE
;Z:0.28
;HEIGHT:0.08
;BEFORE_LAYER_CHANGE
G92 E0
;0.28


G1 E-.68 F3600
;WIPE_START
G1 F4800
G1 X123.363 Y119.968 E-.04281
G1 X123.63 Y119.7 E-.04531
G1 X123.818 Y119.888 E-.03188
;WIPE_END
EXCLUDE_OBJECT_END NAME=转台_-_电机架.STL_id_0_copy_0
;AFTER_LAYER_CHANGE
;0.28
;_SET_FAN_SPEED_CHANGING_LAYER
SET_VELOCITY_LIMIT ACCEL=5000 ACCEL_TO_DECEL=2500
SET_VELOCITY_LIMIT SQUARE_CORNER_VELOCITY=9
M140 S70 ; set bed temperature
; printing object 转台 - 电机架.STL id:0 copy 0
EXCLUDE_OBJECT_START NAME=转台_-_电机架.STL_id_0_copy_0
G1 X116.198 Y119.438 Z.6 F21000
G1 X111.503 Y119.161 Z.6
G1 Z.28
G1 E.8 F2700
SET_VELOCITY_LIMIT ACCEL=3000 ACCEL_TO_DECEL=1500 SQUARE_CORNER_VELOCITY=7
;TYPE:Inner wall
;WIDTH:0.449999
G1 F2476
G1 X111.62 Y119.461 E.00441
G1 X111.964 Y119.795 E.00656
G1 X112.491 Y119.937 E.00747
;WIDTH:0.442922
G1 X122.658 Y119.937 E.13677
;WIDTH:0.449999
G1 X123.036 Y119.795 E.00552
G1 X123.38 Y119.461 E.00656
G1 X123.525 Y119.087 E.00549
G1 X123.541 Y118.909 E.00245
G1 X123.541 Y114.541 E.05974
G1 X134.459 Y114.541 E.14933
G1 X134.459 Y115.459 E.01256
G1 X125.491 Y115.459 E.12265
G1 X125.081 Y115.544 E.00573
G1 X124.762 Y115.762 E.00529
G1 X124.544 Y116.081 E.00529
G1 X124.459 Y116.491 E.00573
G1 X124.459 Y120.359 E.0529
G1 X122.509 Y120.363 E.02668
;WIDTH:0.442922
G1 X112.491 Y120.363 E.13476
;WIDTH:0.449999
G1 X110.541 Y120.359 E.02668
G1 X110.541 Y116.491 E.0529
G1 X110.456 Y116.081 E.00573
G1 X110.238 Y115.762 E.00529
G1 X109.919 Y115.544 E.00529
G1 X109.509 Y115.459 E.00573
G1 X100.541 Y115.459 E.12265
G1 X100.541 Y114.541 E.01256
G1 X111.459 Y114.541 E.14933
G1 X111.459 Y119.047 E.06163
G1 X111.489 Y119.123 E.00112
SET_VELOCITY_LIMIT ACCEL=5000 ACCEL_TO_DECEL=2500 SQUARE_CORNER_VELOCITY=9
G1 X111.92 Y119.003 F21000
SET_VELOCITY_LIMIT ACCEL=3000 ACCEL_TO_DECEL=1500 SQUARE_CORNER_VELOCITY=7
G1 F2476
G1 X111.985 Y119.229 E.00322
G1 X112.185 Y119.424 E.00381
G1 X112.491 Y119.508 E.00435
G1 X122.509 Y119.508 E.137
G1 X122.815 Y119.424 E.00435
G1 X123.015 Y119.229 E.00381
G1 X123.108 Y118.909 E.00457
G1 X123.108 Y114.108 E.06566
G1 X134.892 Y114.108 E.16117
G1 X134.892 Y115.892 E.0244
G1 X125.491 Y115.892 E.12857
G1 X125.253 Y115.941 E.00332
G1 X125.068 Y116.068 E.00307
G1 X124.941 Y116.253 E.00307
G1 X124.892 Y116.491 E.00332
G1 X124.892 Y120.792 E.05882
G1 X110.108 Y120.792 E.20219
G1 X110.108 Y116.491 E.05882
G1 X110.059 Y116.253 E.00332
G1 X109.932 Y116.068 E.00307
G1 X109.747 Y115.941 E.00307
G1 X109.509 Y115.892 E.00332
G1 X100.108 Y115.892 E.12857
G1 X100.108 Y114.108 E.0244
G1 X111.892 Y114.108 E.16117
G1 X111.892 Y118.909 E.06566
G1 X111.908 Y118.965 E.0008
SET_VELOCITY_LIMIT ACCEL=5000 ACCEL_TO_DECEL=2500 SQUARE_CORNER_VELOCITY=9
G1 X112.3 Y118.909 F21000
SET_VELOCITY_LIMIT ACCEL=3000 ACCEL_TO_DECEL=1500 SQUARE_CORNER_VELOCITY=7
;TYPE:Outer wall
;WIDTH:0.399999
G1 F2476
G1 X112.33 Y119.011 E.00129
G1 X112.491 Y119.1 E.00223
G1 X122.537 Y119.1 E.12152
G1 X122.67 Y119.011 E.00193
G1 X122.7 Y118.909 E.00129
G1 X122.7 Y113.7 E.063
G1 X135.3 Y113.7 E.15241
G1 X135.3 Y116.3 E.03145
G1 X125.491 Y116.3 E.11865
G1 X125.356 Y116.356 E.00177
G1 X125.3 Y116.491 E.00177
G1 X125.3 Y121.2 E.05696
G1 X109.7 Y121.2 E.1887
G1 X109.7 Y116.491 E.05696
G1 X109.644 Y116.356 E.00177
G1 X109.509 Y116.3 E.00177
G1 X99.7 Y116.3 E.11865
G1 X99.7 Y113.7 E.03145
G1 X112.3 Y113.7 E.15241
G1 X112.3 Y118.869 E.06252
SET_VELOCITY_LIMIT ACCEL=5000 ACCEL_TO_DECEL=2500 SQUARE_CORNER_VELOCITY=9
G1 E-.68 F3600
;WIPE_START
G1 F7200
G1 X112.33 Y119.011 E-.01747
G1 X112.491 Y119.1 E-.02214
G1 X113.161 Y119.1 E-.08039
;WIPE_END
G1 X120.767 Y119.735 Z.68 F21000
G1 X123.436 Y119.957 Z.68
G1 Z.28
G1 E.8 F2700
;TYPE:Internal solid infill
;WIDTH:0.385609
G1 F2476
G1 X124.059 Y119.958 E.00725
;WIDTH:0.405979
G1 X124.038 Y119.712 E.00304
;WIDTH:0.44672
G1 X124.018 Y119.465 E.00336
;WIDTH:0.487461
G1 X123.998 Y119.219 E.00368
;WIDTH:0.516722
G1 X123.989 Y119.168 E.00081
;WIDTH:0.502278
G1 X123.904 Y119.327 E.00275
;WIDTH:0.455611
G1 X123.819 Y119.485 E.00249
;WIDTH:0.400236
G1 X123.735 Y119.644 E.00217
G1 X123.464 Y119.928 E.00476
G1 X123.989 Y119.168 F21000
;WIDTH:0.5052
G1 F2476
G1 X124.001 Y116.482 E.04143
G1 X124.003 Y116.442 F21000
;WIDTH:0.516956
G1 F2476
G1 X124.101 Y115.945 E.008
G1 X124.402 Y115.468 E.0089
G1 X124.855 Y115.139 E.00884
G1 X125.232 Y115.011 E.00628
G1 X124.006 Y115.006 E.01935
G1 X124.003 Y116.402 E.02203
G1 X125.232 Y115.011 F21000
;WIDTH:0.503687
G1 F2476
G1 X133.96 Y115 E.13418
G1 E-.68 F3600
;WIPE_START
G1 F12000
G1 X132.96 Y115.001 E-.12
;WIPE_END
G1 X125.328 Y115.001 Z.68 F21000
G1 X101 Y115 Z.68
G1 Z.28
G1 E.8 F2700
;WIDTH:0.503016
G1 F2476
G1 X109.518 Y115.001 E.13077
G1 X110.997 Y116.442 F21000
;WIDTH:0.514405
G1 F2476
G1 X110.994 Y115.006 E.02255
G1 X109.558 Y115.003 E.02255
G1 X110.055 Y115.101 E.00796
G1 X110.532 Y115.402 E.00886
G1 X110.861 Y115.855 E.0088
G1 X110.988 Y116.403 E.00883
G1 X110.997 Y116.442 F21000
;WIDTH:0.503111
G1 F2476
G1 X111.01 Y119.128 E.04125
G1 X111.568 Y119.962 F21000
;WIDTH:0.386074
G1 F2476
G1 X111.265 Y119.644 E.00512
;WIDTH:0.409331
G1 X111.18 Y119.485 E.00223
;WIDTH:0.455844
G1 X111.096 Y119.327 E.00249
;WIDTH:0.502357
G1 X111.011 Y119.168 E.00275
G1 X110.988 Y119.347 E.00276
;WIDTH:0.455844
G1 X110.965 Y119.525 E.0025
;WIDTH:0.394272
G1 X110.942 Y119.704 E.00215
G1 X110.942 Y119.959 E.00304
G1 X111.528 Y119.962 E.00699
; stop printing object 转台 - 电机架.STL id:0 copy 0
;LAYER_CHANGE
;Z:0.36
;HEIGHT:0.08
;BEFORE_LAYER_CHANGE
G92 E0
;0.36


G1 E-.68 F3600
;WIPE_START
G1 F12000
G1 X110.942 Y119.959 E-.07039
G1 X110.942 Y119.704 E-.03062
G1 X110.962 Y119.547 E-.01899
;WIPE_END
EXCLUDE_OBJECT_END NAME=转台_-_电机架.STL_id_0_copy_0
;AFTER_LAYER_CHANGE
;0.36
;_SET_FAN_SPEED_CHANGING_LAYER
; printing object 转台 - 电机架.STL id:0 copy 0
EXCLUDE_OBJECT_START NAME=转台_-_电机架.STL_id_0_copy_0
G1 X111.503 Y119.161 Z.68 F21000
G1 Z.36
G1 E.8 F2700
SET_VELOCITY_LIMIT ACCEL=3000 ACCEL_TO_DECEL=1500 SQUARE_CORNER_VELOCITY=7
;TYPE:Inner wall
;WIDTH:0.449999
G1 F2461
G1 X111.62 Y119.461 E.00441
G1 X111.964 Y119.795 E.00656
G1 X112.491 Y119.937 E.00747
;WIDTH:0.442922
G1 X122.658 Y119.937 E.13677
;WIDTH:0.449999
G1 X123.036 Y119.795 E.00552
G1 X123.38 Y119.461 E.00656
G1 X123.525 Y119.087 E.00549
G1 X123.541 Y118.909 E.00245
G1 X123.541 Y114.541 E.05974
G1 X134.459 Y114.541 E.14933
G1 X134.459 Y115.459 E.01256
G1 X125.491 Y115.459 E.12265
G1 X125.081 Y115.544 E.00573
G1 X124.762 Y115.762 E.00529
G1 X124.544 Y116.081 E.00529
G1 X124.459 Y116.491 E.00573
G1 X124.459 Y120.359 E.0529
G1 X122.509 Y120.363 E.02668
;WIDTH:0.442922
G1 X112.491 Y120.363 E.13476
;WIDTH:0.449999
G1 X110.541 Y120.359 E.02668
M73 P3 R23
G1 X110.541 Y116.491 E.0529
G1 X110.456 Y116.081 E.00573
G1 X110.238 Y115.762 E.00529
G1 X109.919 Y115.544 E.00529
G1 X109.509 Y115.459 E.00573
G1 X100.541 Y115.459 E.12265
G1 X100.541 Y114.541 E.01256
G1 X111.459 Y114.541 E.14933
G1 X111.459 Y119.047 E.06163
G1 X111.489 Y119.123 E.00112
SET_VELOCITY_LIMIT ACCEL=5000 ACCEL_TO_DECEL=2500 SQUARE_CORNER_VELOCITY=9
G1 X111.92 Y119.003 F21000
SET_VELOCITY_LIMIT ACCEL=3000 ACCEL_TO_DECEL=1500 SQUARE_CORNER_VELOCITY=7
G1 F2461
G1 X111.985 Y119.229 E.00322
G1 X112.185 Y119.424 E.00381
G1 X112.491 Y119.508 E.00435
G1 X122.509 Y119.508 E.137
G1 X122.815 Y119.424 E.00435
G1 X123.015 Y119.229 E.00381
G1 X123.108 Y118.909 E.00457
G1 X123.108 Y114.108 E.06566
G1 X134.892 Y114.108 E.16117
G1 X134.892 Y115.892 E.0244
G1 X125.491 Y115.892 E.12857
G1 X125.253 Y115.941 E.00332
G1 X125.068 Y116.068 E.00307
G1 X124.941 Y116.253 E.00307
G1 X124.892 Y116.491 E.00332
G1 X124.892 Y120.792 E.05882
G1 X110.108 Y120.792 E.20219
G1 X110.108 Y116.491 E.05882
G1 X110.059 Y116.253 E.00332
G1 X109.932 Y116.068 E.00307
G1 X109.747 Y115.941 E.00307
G1 X109.509 Y115.892 E.00332
G1 X100.108 Y115.892 E.12857
G1 X100.108 Y114.108 E.0244
G1 X111.892 Y114.108 E.16117
G1 X111.892 Y118.909 E.06566
G1 X111.908 Y118.965 E.0008
SET_VELOCITY_LIMIT ACCEL=5000 ACCEL_TO_DECEL=2500 SQUARE_CORNER_VELOCITY=9
G1 X112.3 Y118.909 F21000
SET_VELOCITY_LIMIT ACCEL=3000 ACCEL_TO_DECEL=1500 SQUARE_CORNER_VELOCITY=7
;TYPE:Outer wall
;WIDTH:0.399999
G1 F2461
G1 X112.33 Y119.011 E.00129
G1 X112.491 Y119.1 E.00223
G1 X122.537 Y119.1 E.12152
G1 X122.67 Y119.011 E.00193
G1 X122.7 Y118.909 E.00129
G1 X122.7 Y113.7 E.063
G1 X135.3 Y113.7 E.15241
G1 X135.3 Y116.3 E.03145
G1 X125.491 Y116.3 E.11865
