;FLAVOR:Marlin
;TIME:932
;Filament used:0.335893m
;Layer height: 0.1
;MINX:94.408
;MINY:94.213
;MINZ:0.24
;MAXX:125.592
;MAXY:125.787
;MAXZ:5.89
                             
;Creality Print GCode Generated by CXEngine:NO_MAGE_VERSION_GIT_HEAD_BRANCH
;CXEngine Release Time:2022-09-30 09:53:04
;Gcode Generated Time:2023-06-06 19:13:33
;----------Machine Config--------------
;Machine Name:Ender-3 V2
;Machine Height:250
;Machine Width:220
;Machine Depth:220
;Material name:PLA
;Number of Extruders:1
;ExtruderParams[0] Nozzle Diameter1000
;----------Profile Config---------------
;Engine Version:275f99b
;Engine Release Time:2022-09-30 09:42:18
;Layer Height:0.1
;Wall Thickness:0.8
;Top/Bottom Thickness:0.5
;Out Wall Line Width:0.4
;Inner Wall Line Width:0.4
;Inital Layer Height:100
;Wall Line Count:2
;Infill Line Distance:4
;Infill Pattern:grid
;Infill Sparse Density:20
;Infill Wipe Distance:0
;Print Temperature:200
;Bed Temperature:60
;Support Enable:true
;Support Density:0
;Support Angle:60
;Adhesion Type:simpleraft
;machine is belt:false
;machine belt offset:10
;machine belt offset Y:0
;Raft Base Line Spacing:1.6
;Wait Heatup Sync:true
;----------Shell Config----------------
;Outer Wall Wipe Distance:200
;Outer Inset First:false
;Infill Before Walls:false
;Infill Overlap:0.16
;Fill Gaps Between Walls:everywhere
;Minimum Infill Area:1
;Top Surface Skin Layer:0
;Top Layers:4
;Z Seam Alignment:sharpest_corner
;Seam Corner Preference:z_seam_corner_inner
;Z Seam X:110
;Z Seam Y:110
;Horizontal Expansion:0
;Top/Bottom Pattern:zigzag
;Ironing Pattern:zigzag
;Vase Model:false
;----------Support Config----------------
;Support Type:everywhere
;Support Pattern:zigzag
;Support Infill Layer Thickness:0.1
;Minimum Support Area:5
;Enable Support Roof:false
;Support Roof Thickness:0.8
;Support Roof Pattern:lines
;Connect Support Lines:0
;Connect Support ZigZags:1
;Minimum Support X/Y Distance:0.2
;Support Line Distance:0
; ---------PrintSpeed & Travel----------
;Enable Print Cool:true
;Avoid Printed Parts Traveling:true
;Enable Retraction:true
;Retraction Distance:8
;Retraction Speed:100
;Retraction Prime Speed:100
;Maximum Retraction Count:100
;Minimum Extrusion Distance Window:1
;Z Hop When Retracted:false
;Z Hop Height:0.2
;Retract Before Outer Wall:true
;Print Speed:50
;Infill Speed:50

;Prime Tower Speed:50
;Travel Speed:120
;Initial Layer Speed:25
;Skirt/Brim Speed:25
;Combing Mode:infill
; --------SpecialModel&Mesh Fixes--------
;Union Overlapping Volum:true
;Remove All Holes:false
;Maximum Travel Resolution:0.6
;Maximum Deviation:0.05
;Maximum Model Angle:0.872665
;IS Mold Print:false
;Make Overhang Printable:false
;Enable Coasting:false
;Coasting Volumes:0.06
;Coasting Speed:0.9
;Raft AirGap:0.25
;Layer0 ZOverLap:0.13
;---------------------End of Head--------------------------
M140 S60
M105
M104 S200
M105
M109 S200
M105
M190 S60
M82 ;absolute extrusion mode
M220 S100 ;Reset Feedrate
M221 S100 ;Reset Flowrate

G28 ;Home

G92 E0 ;Reset Extruder
G1 Z2.0 F3000 ;Move Z Axis up
G1 X10.1 Y20 Z0.28 F5000.0 ;Move to start position
G1 X10.1 Y145.0 Z0.28 F1500.0 E15 ;Draw the first line
G1 X10.4 Y145.0 Z0.28 F5000.0 ;Move to side a little
G1 X10.4 Y20 Z0.28 F1500.0 E30 ;Draw the second line
G92 E0  ;Reset Extruder
G1 E-1.0000 F1800 ;Retract a bit
G1 Z2.0 F3000 ;Move Z Axis up
G1 E0.0000 F1800 

G92 E0
G92 E0
G1 F6000 E-8

;LAYER_COUNT:50

;LAYER:-4
M107
G0 F7200 X97.6 Y101.664 Z0.24
;TYPE:SUPPORT-INTERFACE
G1 F6000 E0
G1 F1200 X97.6 Y118.335 E1.33075
G1 X97.025 Y117.647 E1.40233
G1 X96.464 Y116.797 E1.48362
G1 X96.082 Y116.07 E1.54918
G1 X96 Y115.865 E1.5668
G1 X96 Y104.134 E2.50322
G1 X96.342 Y103.422 E2.56627
G1 X96.772 Y102.713 E2.63246
G1 X97.261 Y102.055 E2.6979
G1 X97.617 Y101.645 E2.74125
G1 X98.177 Y100.871 E2.81751
G1 X98.814 Y99.891 E2.91081
G1 X99.2 Y99.412 E2.95991
G1 X99.2 Y120.579 E4.64956
G1 X99.514 Y120.944 E4.68799
G1 X100.103 Y121.52 E4.75375
G1 X100.8 Y122.085 E4.82537
G1 X100.8 Y97.919 E6.75441
G1 X101.38 Y97.493 E6.81185
G1 X102.119 Y97.018 E6.88198
G1 X102.4 Y96.87 E6.90733
G1 X102.4 Y123.137 E9.00407
G1 X103.075 Y123.467 E9.06405
G1 X103.847 Y123.763 E9.13005
G1 X104 Y123.804 E9.14269
G1 X104 Y96.2 E11.34616
G1 X104.402 Y96.075 E11.37977
G1 X105.033 Y95.909 E11.43185
G1 X105.056 Y95.976 E11.43751
G1 X105.6 Y95.756 E11.48435
G1 X105.6 Y124.268 E13.7603
G1 X105.882 Y124.36 E13.78398
G1 X106.363 Y124.565 E13.82571
G1 X107.143 Y124.826 E13.89137
G1 X107.2 Y124.839 E13.89604
G1 X107.2 Y95.169 E16.26442
G1 X107.712 Y95.027 E16.30684
G1 X108.511 Y94.89 E16.37155
G1 X108.8 Y94.87 E16.39467
G1 X108.8 Y125.133 E18.81039
G1 X108.94 Y125.153 E18.82168
G1 X110.34 Y125.187 E18.93347
G1 X110.4 Y125.183 E18.93827
G1 X110.4 Y94.831 E21.3611
G1 X111.06 Y94.847 E21.4138
G1 X112 Y94.975 E21.48953
G1 X112 Y125.023 E23.88809
G1 X112.288 Y124.973 E23.91142
G1 X113.267 Y124.701 E23.99253
G1 X113.6 Y124.567 E24.02118
G1 X113.6 Y95.423 E26.34758
G1 X113.637 Y95.435 E26.35069
G1 X114.118 Y95.64 E26.39242
G1 X115.049 Y95.941 E26.47053
G1 X115.2 Y95.982 E26.48302
G1 X115.2 Y124.029 E28.72185
G1 X115.798 Y123.869 E28.77126
G1 X116.414 Y123.67 E28.82294
G1 X116.8 Y123.51 E28.85629
G1 X116.8 Y96.485 E31.01354
G1 X116.921 Y96.531 E31.02388
G1 X117.661 Y96.892 E31.0896
G1 X118.339 Y97.298 E31.15268
G1 X118.4 Y97.342 E31.15869
G1 X118.4 Y122.649 E33.1788
G1 X118.62 Y122.507 E33.1997
G1 X119.488 Y121.868 E33.28574
G1 X120 Y121.422 E33.33994
G1 X120 Y98.58 E35.16329
G1 X120.476 Y99.044 E35.21635
G1 X121.001 Y99.652 E35.28048
G1 X121.489 Y100.334 E35.34742
G1 X121.6 Y100.511 E35.36409
G1 X121.6 Y119.473 E36.87772
G1 X121.823 Y119.129 E36.91045
G1 X122.383 Y118.355 E36.98671
G1 X122.739 Y117.945 E37.03005
G1 X123.228 Y117.287 E37.09549
G1 X123.657 Y116.578 E37.16164
G1 X124.092 Y115.672 E37.24187
G1 X124.566 Y114.316 E37.35653
G1 X124.8 Y113.379 E37.43362
G1 X124.8 Y106.659 E37.97004
G1 X124.736 Y106.31 E37.99837
G1 X124.333 Y104.964 E38.11052
G1 X123.916 Y103.926 E38.19982
G1 X123.531 Y103.194 E38.26584
G1 X123.2 Y102.694 E38.3137
G1 X123.2 Y117.325 E39.48161
G0 F600 X123.2 Y117.325 Z0.47
G0 F7200 X124.744 Y104.945
;TIME_ELAPSED:30.107639

;LAYER:-3
;TYPE:SUPPORT
G1 F1800 X115.428 Y95.629 E40.48946
G1 X116.283 Y95.858 E40.55717
G1 X117.075 Y96.161 E40.62204
G1 X117.661 Y96.447 E40.67192
G1 X123.132 Y101.919 E41.26386
G1 X123.297 Y102.115 E41.28346
G1 X123.873 Y102.985 E41.36328
G1 X124.279 Y103.757 E41.43
G1 X124.711 Y104.833 E41.5187
G1 X125.124 Y106.213 E41.62889
G1 X125.242 Y106.857 E41.67898
G1 X113.278 Y94.893 E42.9733
G1 X112.965 Y94.788 E42.99856
G1 X112.136 Y94.59 E43.06376
G1 X111.47 Y94.499 E43.11518
G1 X125.38 Y108.41 E44.62009
G1 X125.374 Y108.991 E44.66454
G1 X125.317 Y109.761 E44.7236
G1 X109.977 Y94.421 E46.38316
G1 X109.654 Y94.413 E46.40787
G1 X108.623 Y94.481 E46.48692
G1 X125.377 Y111.235 E48.29945
G1 X125.392 Y111.439 E48.31509
G1 X125.348 Y112.471 E48.39411
G1 X125.329 Y112.601 E48.40416
G1 X107.42 Y94.692 E50.34165
G1 X106.599 Y94.921 E50.40685
G1 X106.339 Y95.025 E50.42827
G1 X125.107 Y113.793 E52.45869
G1 X124.948 Y114.435 E52.50928
G1 X124.788 Y114.889 E52.54611
G1 X105.332 Y95.433 E54.65095
G1 X105.295 Y95.448 E54.65401
G1 X105.288 Y95.428 E54.65563
G1 X104.294 Y95.69 E54.73426
G1 X104.204 Y95.718 E54.74147
G1 X124.413 Y115.928 E56.92784
G1 X124.01 Y116.769 E56.99918
G1 X123.945 Y116.874 E57.00862
G1 X103.149 Y96.078 E59.25844
G1 X102.661 Y96.282 E59.2989
G1 X102.186 Y96.529 E59.33986
G1 X123.392 Y117.735 E61.63403
G1 X123.049 Y118.198 E61.67811
G1 X122.766 Y118.523 E61.71107
G1 X101.307 Y97.064 E64.03261
G1 X101.159 Y97.159 E64.04607
G1 X100.484 Y97.655 E64.11014
G1 X122.165 Y119.336 E66.4557
G1 X122.153 Y119.355 E66.45742
G1 X121.607 Y120.193 E66.53393
G1 X99.711 Y98.297 E68.90275
G1 X99.629 Y98.37 E68.91115
G1 X99.035 Y98.981 E68.97634
G1 X99.01 Y99.01 E68.97927
G1 X120.989 Y120.989 E71.35706
G1 X120.968 Y121.016 E71.35968
G1 X120.371 Y121.63 E71.42519
G1 X120.287 Y121.701 E71.43361
G1 X98.391 Y99.806 E73.80237
G1 X97.847 Y100.645 E73.87886
G1 X97.833 Y100.662 E73.88055
G1 X119.515 Y122.343 E76.22616
G1 X118.841 Y122.841 E76.29027
G1 X118.692 Y122.934 E76.3037
G1 X97.232 Y101.475 E78.6253
G1 X96.951 Y101.802 E78.65828
G1 X96.607 Y102.263 E78.70228
G1 X117.812 Y123.469 E80.9964
G1 X117.339 Y123.718 E81.03729
G1 X116.849 Y123.92 E81.07783
G1 X96.053 Y103.124 E83.32765
G1 X95.99 Y103.231 E83.33715
G1 X95.585 Y104.071 E83.40848
G1 X115.797 Y124.282 E85.59506
G1 X114.712 Y124.572 E85.68098
G1 X114.705 Y124.552 E85.6826
G1 X114.666 Y124.566 E85.68577
G1 X95.209 Y105.109 E87.79072
G1 X95.052 Y105.565 E87.82762
G1 X94.891 Y106.205 E87.8781
G1 X113.659 Y124.973 E89.90852
G1 X113.401 Y125.079 E89.92985
G1 X112.578 Y125.306 E89.99516
G1 X94.67 Y107.398 E91.93254
G1 X94.652 Y107.529 E91.94265
G1 X94.608 Y108.561 E92.02167
G1 X94.621 Y108.763 E92.03716
G1 X111.375 Y125.517 E93.84969
G1 X110.346 Y125.587 E93.92859
G1 X110.021 Y125.577 E93.95346
G1 X94.681 Y110.237 E95.61302
G1 X94.626 Y111.008 E95.67215
G1 X94.618 Y111.589 E95.7166
G1 X108.528 Y125.499 E97.22145
G1 X107.864 Y125.41 E97.2727
G1 X107.035 Y125.212 E97.3379
G1 X106.72 Y125.105 E97.36335
G1 X94.757 Y113.142 E98.65756
G1 X94.872 Y113.771 E98.70648
G1 X95.286 Y115.158 E98.81721
G1 X95.719 Y116.238 E98.90622
G1 X96.119 Y117.001 E98.97212
G1 X96.703 Y117.885 E99.05317
G1 X96.866 Y118.079 E99.07255
G1 X102.338 Y123.551 E99.66454
G1 X102.921 Y123.837 E99.71422
G1 X103.717 Y124.142 E99.77943
G1 X104.571 Y124.37 E99.84705
G1 X95.255 Y115.054 E100.8549
G0 F600 X95.255 Y115.054 Z0.62
G0 F7200 X107.797 Y125.6
;TIME_ELAPSED:59.099280

;LAYER:-2
;TYPE:SUPPORT-INTERFACE
G1 F2400 X112.176 Y125.6 E100.96413
G1 X111.557 Y125.706 E100.9798
G1 X110.35 Y125.787 E101.00997
G1 X108.903 Y125.753 E101.04608
G1 X107.828 Y125.607 E101.07314
G1 X106.972 Y125.402 E101.0951
G1 X106.368 Y125.2 E101.11099
G1 X113.61 Y125.2 E101.29164
G1 X114.649 Y124.8 E101.31941
G1 X105.293 Y124.8 E101.5528
G1 X104.786 Y124.636 E101.56609
G1 X103.906 Y124.4 E101.58882
G1 X116.088 Y124.4 E101.8927
G1 X116.596 Y124.242 E101.90597
G1 X117.18 Y124 E101.92174
G1 X102.799 Y124 E102.28047
G1 X102.057 Y123.637 E102.30108
G1 X101.994 Y123.6 E102.3029
G1 X117.991 Y123.6 E102.70195
G1 X118.189 Y123.497 E102.70752
G1 X118.649 Y123.2 E102.72117
G1 X101.326 Y123.2 E103.1533
G1 X100.766 Y122.8 E103.17046
G1 X119.23 Y122.8 E103.63105
G1 X119.773 Y122.4 E103.64787
G1 X100.234 Y122.4 E104.13528
G1 X99.742 Y122 E104.15109
G1 X120.248 Y122 E104.66262
G1 X120.504 Y121.78 E104.67104
G1 X120.676 Y121.6 E104.67725
G1 X99.325 Y121.6 E105.20985
G1 X99.079 Y121.359 E105.21844
G1 X98.941 Y121.2 E105.22369
G1 X121.064 Y121.2 E105.77556
G1 X121.123 Y121.142 E105.77762
G1 X121.397 Y120.8 E105.78855
G1 X98.597 Y120.8 E106.3573
G1 X98.524 Y120.714 E106.36011
G1 X98.298 Y120.4 E106.36976
G1 X121.709 Y120.4 E106.95375
G1 X121.97 Y120 E106.96567
G1 X98.013 Y120 E107.56328
G1 X97.996 Y119.974 E107.56405
G1 X97.752 Y119.6 E107.57519
G1 X122.23 Y119.6 E108.1858
G1 X122.32 Y119.465 E108.18985
G1 X122.509 Y119.2 E108.19796
G1 X97.492 Y119.2 E108.82202
G1 X97.363 Y118.999 E108.82797
G1 X97.201 Y118.8 E108.83437
G1 X122.8 Y118.8 E109.47294
G1 X122.853 Y118.728 E109.47517
G1 X123.138 Y118.4 E109.48601
G1 X96.877 Y118.4 E110.1411
G1 X96.552 Y118 E110.15395
G1 X123.443 Y118 E110.82475
G1 X123.731 Y117.614 E110.83677
G1 X123.738 Y117.6 E110.83716
G1 X96.267 Y117.6 E111.52242
G1 X96.009 Y117.2 E111.5343
G1 X123.981 Y117.2 E112.23206
G1 X124.182 Y116.871 E112.24168
G1 X124.215 Y116.8 E112.24363
G1 X95.788 Y116.8 E112.95275
G1 X95.578 Y116.4 E112.96402
G1 X124.407 Y116.4 E113.68316
G1 X124.599 Y116 E113.69423
G1 X95.407 Y116 E114.42242
G1 X95.247 Y115.6 E114.43317
G1 X124.753 Y115.6 E115.1692
G1 X124.892 Y115.2 E115.17976
G1 X95.088 Y115.2 E115.92323
G1 X94.969 Y114.8 E115.93364
G1 X125.031 Y114.8 E116.68354
G1 X125.139 Y114.494 E116.69163
G1 X125.162 Y114.4 E116.69405
G1 X94.85 Y114.4 E117.45018
G1 X94.731 Y114 E117.46059
G1 X125.262 Y114 E118.22219
G1 X125.362 Y113.6 E118.23248
G1 X94.638 Y113.6 E118.99889
G1 X94.565 Y113.2 E119.00903
G1 X125.444 Y113.2 E119.77931
G1 X125.502 Y112.8 E119.78939
G1 X94.492 Y112.8 E120.56294
G1 X94.484 Y112.753 E120.56413
G1 X94.456 Y112.4 E120.57297
G1 X125.551 Y112.4 E121.34863
G1 X125.572 Y112 E121.35862
G1 X94.424 Y112 E122.13561
G1 X94.416 Y111.887 E122.13844
G1 X94.42 Y111.6 E122.1456
G1 X125.591 Y111.6 E122.92316
G1 X125.569 Y111.2 E122.93316
G1 X94.424 Y111.2 E123.71007
G1 X94.426 Y111 E123.71506
G1 X94.437 Y110.8 E123.72006
G1 X125.548 Y110.8 E124.49613
G1 X125.527 Y110.4 E124.50612
G1 X94.458 Y110.4 E125.28114
G1 X94.48 Y110 E125.29113
G1 X125.52 Y110 E126.06543
G1 X125.542 Y109.6 E126.07542
G1 X94.473 Y109.6 E126.85044
G1 X94.452 Y109.2 E126.86043
G1 X125.563 Y109.2 E127.6365
G1 X125.574 Y109 E127.64149
G1 X125.576 Y108.8 E127.64648
G1 X94.431 Y108.8 E128.4234
G1 X94.409 Y108.4 E128.43339
G1 X125.58 Y108.4 E129.21096
G1 X125.584 Y108.113 E129.21812
G1 X125.576 Y108 E129.22094
G1 X94.428 Y108 E129.99793
G1 X94.449 Y107.6 E130.00792
G1 X125.544 Y107.6 E130.78359
G1 X125.515 Y107.238 E130.79265
G1 X125.509 Y107.2 E130.79361
G1 X94.498 Y107.2 E131.56718
G1 X94.556 Y106.8 E131.57726
G1 X125.435 Y106.8 E132.34754
G1 X125.362 Y106.4 E132.35769
G1 X94.638 Y106.4 E133.1241
G1 X94.738 Y106 E133.13439
G1 X125.27 Y106 E133.89601
G1 X125.15 Y105.6 E133.90643
G1 X94.838 Y105.6 E134.66256
G1 X94.861 Y105.506 E134.66498
G1 X94.968 Y105.2 E134.67306
G1 X125.031 Y105.2 E135.42299
G1 X124.912 Y104.8 E135.4334
G1 X95.108 Y104.8 E136.17686
G1 X95.247 Y104.4 E136.18743
G1 X124.754 Y104.4 E136.92348
G1 X124.593 Y104 E136.93424
G1 X95.401 Y104 E137.66243
G1 X95.593 Y103.6 E137.6735
G1 X124.423 Y103.6 E138.39267
G1 X124.213 Y103.2 E138.40394
G1 X95.784 Y103.2 E139.1131
G1 X95.818 Y103.129 E139.11507
G1 X96.018 Y102.8 E139.12467
G1 X123.992 Y102.8 E139.82249
G1 X123.733 Y102.4 E139.83437
G1 X96.261 Y102.4 E140.51966
G1 X96.269 Y102.386 E140.52007
G1 X96.556 Y102 E140.53207
G1 X123.449 Y102 E141.20291
G1 X123.124 Y101.6 E141.21577
G1 X96.862 Y101.6 E141.87088
G1 X97.147 Y101.272 E141.88172
G1 X97.2 Y101.2 E141.88395
G1 X122.8 Y101.2 E142.52254
G1 X122.637 Y101.001 E142.52896
G1 X122.508 Y100.8 E142.53492
G1 X97.489 Y100.8 E143.15902
G1 X97.68 Y100.535 E143.16717
G1 X97.768 Y100.4 E143.17119
G1 X122.248 Y100.4 E143.78184
G1 X121.999 Y100.018 E143.79322
G1 X121.987 Y100 E143.79376
G1 X98.029 Y100 E144.39139
G1 X98.289 Y99.6 E144.40329
G1 X121.702 Y99.6 E144.98733
G1 X121.476 Y99.286 E144.99698
G1 X121.403 Y99.2 E144.9998
G1 X98.601 Y99.2 E145.5686
G1 X98.877 Y98.858 E145.57956
G1 X98.934 Y98.8 E145.58159
G1 X121.059 Y98.8 E146.1335
G1 X120.921 Y98.641 E146.13875
G1 X120.675 Y98.4 E146.14734
G1 X99.322 Y98.4 E146.67999
G1 X99.496 Y98.22 E146.68624
G1 X99.75 Y98 E146.69462
G1 X120.259 Y98 E147.20622
G1 X119.766 Y97.6 E147.22206
G1 X100.224 Y97.6 E147.70953
G1 X100.768 Y97.2 E147.72638
G1 X119.234 Y97.2 E148.18701
G1 X118.672 Y96.8 E148.20422
G1 X101.349 Y96.8 E148.63634
G1 X101.811 Y96.503 E148.65004
G1 X102.008 Y96.4 E148.65559
G1 X118.005 Y96.4 E149.05464
G1 X117.943 Y96.363 E149.05644
G1 X117.2 Y96 E149.07707
G1 X102.819 Y96 E149.4358
G1 X103.406 Y95.757 E149.45165
G1 X103.91 Y95.6 E149.46482
G1 X116.093 Y95.6 E149.76872
G1 X115.214 Y95.364 E149.79143
G1 X114.706 Y95.2 E149.80474
G1 X105.35 Y95.2 E150.03813
G1 X106.389 Y94.8 E150.0659
G1 X113.631 Y94.8 E150.24655
G1 X113.028 Y94.598 E150.26242
G1 X112.172 Y94.393 E150.28437
G1 X111.097 Y94.247 E150.31144
G1 X109.65 Y94.213 E150.34754
G1 X108.443 Y94.294 E150.37772
G1 X107.823 Y94.4 E150.39341
G1 X112.202 Y94.4 E150.50264
G0 F600 X112.202 Y94.4 Z0.77
G0 F7200 X94.799 Y105.748
;TIME_ELAPSED:115.362865

;LAYER:-1
;TYPE:SUPPORT-INTERFACE
G1 F2400 X94.799 Y114.229 E150.7142
G1 X94.679 Y113.824 E150.72474
G1 X94.484 Y112.753 E150.7519
G1 X94.416 Y111.887 E150.77356
G1 X94.426 Y111 E150.79569
G1 X94.487 Y109.851 E150.82439
G1 X94.408 Y108.366 E150.86149
G1 X94.454 Y107.502 E150.88307
G1 X94.58 Y106.629 E150.90508
G1 X94.861 Y105.506 E150.93395
G1 X95.199 Y104.533 E150.95965
