;FLAVOR:Marlin
;TIME:15929
;Filament used:13.8467m
;Layer height: 0.2
;MINX:50.461
;MINY:50.199
;MINZ:0.24
;MAXX:170.062
;MAXY:169.8
;MAXZ:7.89
                              
;Creality Print GCode Generated by CXEngine:NO_MAGE_VERSION_GIT_HEAD_BRANCH
;CXEngine Release Time:2022-09-30 09:53:04
;Gcode Generated Time:2023-06-10 15:52:30
;----------Machine Config--------------
;Machine Name:Ender-3 V2
;Machine Height:250
;Machine Width:220
;Machine Depth:220
;Material name:PLA
;Number of Extruders:1
;ExtruderParams[0] Nozzle Diameter1000
;----------Profile Config---------------
;Engine Version:275f99b
;Engine Release Time:2022-09-30 09:42:18
;Layer Height:0.2
;Wall Thickness:0.8
;Top/Bottom Thickness:1
;Out Wall Line Width:0.4
;Inner Wall Line Width:0.4
;Inital Layer Height:200
;Wall Line Count:2
;Infill Line Distance:4
;Infill Pattern:grid
;Infill Sparse Density:20
;Infill Wipe Distance:0
;Print Temperature:200
;Bed Temperature:60
;Support Enable:true
;Support Density:0
;Support Angle:60
;Adhesion Type:simpleraft
;machine is belt:false
;machine belt offset:10
;machine belt offset Y:0
;Raft Base Line Spacing:1.6
;Wait Heatup Sync:true
;----------Shell Config----------------
;Outer Wall Wipe Distance:200
;Outer Inset First:false
;Infill Before Walls:false
;Infill Overlap:0.16
;Fill Gaps Between Walls:everywhere
;Minimum Infill Area:1
;Top Surface Skin Layer:0
;Top Layers:3
;Z Seam Alignment:sharpest_corner
;Seam Corner Preference:z_seam_corner_inner
;Z Seam X:110
;Z Seam Y:110
;Horizontal Expansion:0
;Top/Bottom Pattern:zigzag
;Ironing Pattern:zigzag
;Vase Model:false
;----------Support Config----------------
;Support Type:everywhere
;Support Pattern:zigzag
;Support Infill Layer Thickness:0.2
;Minimum Support Area:5
;Enable Support Roof:false
;Support Roof Thickness:0.8
;Support Roof Pattern:lines
;Connect Support Lines:0
;Connect Support ZigZags:1
;Minimum Support X/Y Distance:0.2
;Support Line Distance:0
; ---------PrintSpeed & Travel----------
;Enable Print Cool:true
;Avoid Printed Parts Traveling:true
;Enable Retraction:true
;Retraction Distance:8
;Retraction Speed:100
;Retraction Prime Speed:100
;Maximum Retraction Count:100
;Minimum Extrusion Distance Window:1
;Z Hop When Retracted:false
;Z Hop Height:0.2
;Retract Before Outer Wall:true
;Print Speed:50
;Infill Speed:50

;Prime Tower Speed:50
;Travel Speed:120
;Initial Layer Speed:25
;Skirt/Brim Speed:25
;Combing Mode:infill
; --------SpecialModel&Mesh Fixes--------
;Union Overlapping Volum:true
;Remove All Holes:false
;Maximum Travel Resolution:0.6
;Maximum Deviation:0.05
;Maximum Model Angle:0.872665
;IS Mold Print:false
;Make Overhang Printable:false
;Enable Coasting:false
;Coasting Volumes:0.06
;Coasting Speed:0.9
;Raft AirGap:0.25
;Layer0 ZOverLap:0.13
;---------------------End of Head--------------------------
M140 S60
M105
M104 S200
M105
M109 S200
M105
M190 S60
M82 ;absolute extrusion mode
M220 S100 ;Reset Feedrate
M221 S100 ;Reset Flowrate

G28 ;Home

G92 E0 ;Reset Extruder
G1 Z2.0 F3000 ;Move Z Axis up
G1 X10.1 Y20 Z0.28 F5000.0 ;Move to start position
G1 X10.1 Y145.0 Z0.28 F1500.0 E15 ;Draw the first line
G1 X10.4 Y145.0 Z0.28 F5000.0 ;Move to side a little
G1 X10.4 Y20 Z0.28 F1500.0 E30 ;Draw the second line
G92 E0  ;Reset Extruder
G1 E-1.0000 F1800 ;Retract a bit
G1 Z2.0 F3000 ;Move Z Axis up
G1 E0.0000 F1800 

G92 E0
G92 E0
G1 F6000 E-8

;LAYER_COUNT:35

;LAYER:-4
M107
G0 F7200 X52.8 Y54.754 Z0.24
;TYPE:SUPPORT-INTERFACE
G1 F6000 E0
G1 F1200 X52.8 Y165.241 E9.70151
G1 X52.648 Y165.038 E9.72377
G1 X52.219 Y164.339 E9.79579
G1 X51.858 Y163.615 E9.86682
G1 X51.549 Y162.818 E9.94188
G1 X51.323 Y162.034 E10.01353
G1 X51.2 Y161.401 E10.07015
G1 X51.2 Y58.605 E19.09633
G1 X51.234 Y58.376 E19.11666
G1 X51.422 Y57.585 E19.18805
G1 X51.679 Y56.816 E19.25924
G1 X52.008 Y56.067 E19.33107
G1 X52.419 Y55.318 E19.40609
G1 X52.881 Y54.635 E19.4785
G1 X53.381 Y54.017 E19.5483
G1 X53.873 Y53.497 E19.61116
G1 X54.4 Y53.025 E19.67328
G1 X54.4 Y166.978 E29.67912
G1 X54.897 Y167.381 E29.7353
G1 X55.58 Y167.843 E29.80771
G1 X56 Y168.073 E29.84975
G1 X56 Y51.918 E40.04895
G1 X56.647 Y51.596 E40.11241
G1 X57.44 Y51.288 E40.1871
G1 X57.6 Y51.241 E40.20175
G1 X57.6 Y168.756 E50.52036
G1 X57.843 Y168.838 E50.54288
G1 X58.638 Y169.028 E50.61465
G1 X59.2 Y169.111 E50.66453
G1 X59.2 Y50.886 E61.04549
G1 X59.823 Y50.821 E61.10049
G1 X60.43 Y50.8 E61.15382
G1 X60.8 Y50.8 E61.18631
G1 X60.8 Y169.2 E71.58263
G1 X62.4 Y169.2 E71.72312
G1 X62.4 Y50.8 E82.11944
G1 X64 Y50.8 E82.25993
G1 X64 Y169.2 E92.65625
G1 X65.6 Y169.2 E92.79674
G1 X65.6 Y50.8 E103.19306
G1 X67.2 Y50.8 E103.33355
G1 X67.2 Y169.2 E113.72987
G1 X68.8 Y169.2 E113.87036
G1 X68.8 Y50.8 E124.26668
G1 X70.4 Y50.8 E124.40717
G1 X70.4 Y169.2 E134.80349
G1 X72 Y169.2 E134.94398
G1 X72 Y50.8 E145.3403
G1 X73.6 Y50.8 E145.4808
G1 X73.6 Y169.2 E155.87712
G1 X75.2 Y169.2 E156.01761
G1 X75.2 Y50.8 E166.41393
G1 X76.8 Y50.8 E166.55442
G1 X76.8 Y169.2 E176.95074
G1 X78.4 Y169.2 E177.09123
G1 X78.4 Y50.8 E187.48755
G1 X80 Y50.8 E187.62804
G1 X80 Y169.2 E198.02436
G1 X81.6 Y169.2 E198.16485
G1 X81.6 Y50.8 E208.56117
G1 X83.2 Y50.8 E208.70166
G1 X83.2 Y169.2 E219.09798
G1 X84.8 Y169.2 E219.23847
G1 X84.8 Y50.8 E229.63479
G1 X86.4 Y50.8 E229.77529
G1 X86.4 Y169.2 E240.17161
G1 X88 Y169.2 E240.3121
G1 X88 Y50.8 E250.70842
G1 X89.6 Y50.8 E250.84891
G1 X89.6 Y169.2 E261.24523
G1 X91.2 Y169.2 E261.38572
G1 X91.2 Y50.8 E271.78204
G1 X92.8 Y50.8 E271.92253
G1 X92.8 Y169.2 E282.31885
G1 X94.4 Y169.2 E282.45934
G1 X94.4 Y50.8 E292.85566
G1 X96 Y50.8 E292.99615
G1 X96 Y169.2 E303.39247
G1 X97.6 Y169.2 E303.53296
G1 X97.6 Y50.8 E313.92928
G1 X99.2 Y50.8 E314.06978
G1 X99.2 Y169.2 E324.4661
G1 X100.8 Y169.2 E324.60659
G1 X100.8 Y115.078 E329.35886
G1 X100.763 Y115.014 E329.36536
G1 X100.392 Y114.237 E329.44096
G1 X100.08 Y113.419 E329.51783
G1 X99.837 Y112.584 E329.59419
G1 X99.665 Y111.745 E329.6694
G1 X99.559 Y110.897 E329.74443
G1 X99.522 Y110.019 E329.8216
G1 X99.555 Y109.153 E329.89769
G1 X99.658 Y108.297 E329.9734
G1 X99.826 Y107.459 E330.04844
G1 X100.066 Y106.623 E330.12482
G1 X100.37 Y105.814 E330.2007
G1 X100.743 Y105.025 E330.27733
G1 X100.8 Y104.926 E330.28736
G1 X100.8 Y50.8 E335.03999
G1 X102.4 Y50.8 E335.18048
G1 X102.4 Y102.695 E339.73721
G1 X102.807 Y102.268 E339.78901
G1 X103.45 Y101.694 E339.86469
G1 X104 Y101.281 E339.92509
G1 X104 Y50.8 E344.35766
G1 X105.6 Y50.8 E344.49815
G1 X105.6 Y100.327 E348.84696
G1 X105.632 Y100.31 E348.85014
G1 X106.428 Y99.967 E348.92625
G1 X107.2 Y99.708 E348.99775
G1 X107.2 Y50.8 E353.2922
G1 X108.8 Y50.8 E353.43269
G1 X108.8 Y99.366 E357.69711
G1 X108.932 Y99.344 E357.70886
G1 X109.806 Y99.27 E357.78588
G1 X110.4 Y99.269 E357.83804
G1 X110.4 Y50.8 E362.09394
G1 X112 Y50.8 E362.23444
G1 X112 Y99.41 E366.50272
G1 X112.383 Y99.472 E366.53679
G1 X113.217 Y99.674 E366.61214
G1 X113.6 Y99.8 E366.64754
G1 X113.6 Y50.8 E370.95007
G1 X115.2 Y50.8 E371.09056
G1 X115.2 Y100.472 E375.4521
G1 X115.618 Y100.691 E375.49354
G1 X116.34 Y101.144 E375.56838
G1 X117.035 Y101.664 E375.64459
G1 X117.679 Y102.232 E375.71999
G1 X118.281 Y102.857 E375.79619
G1 X118.4 Y103.001 E375.81259
G1 X118.4 Y50.8 E380.39619
G1 X116.8 Y50.8 E380.53668
G1 X116.8 Y101.488 E384.98743
;;retract;;
G1 F6000 E376.98743
G0 F7200 X119 Y105.395
G0 X119.622 Y106.845
G0 X120.01 Y108.397
G0 X120.141 Y109.96
G0 X120.014 Y111.57
G0 X119.643 Y113.096
G0 X119.022 Y114.565
G0 X118.182 Y115.904
G0 X117.119 Y117.109
G0 X115.895 Y118.116
G0 X114.525 Y118.913
G0 X113.031 Y119.483
G0 X111.163 Y119.855
G0 X109.994 Y119.919
G0 X108.634 Y119.733
G0 X104 Y118.723
G1 F6000 E384.98743
G1 F1200 X104 Y169.2 E389.41965
G1 X102.4 Y169.2 E389.56015
G1 X102.4 Y117.307 E394.1167
G1 X102.849 Y117.772 E394.17346
G1 X103.486 Y118.335 E394.24811
G1 X104.219 Y118.887 E394.32868
G1 X104.914 Y119.33 E394.40105
G1 X105.493 Y119.642 E394.4588
G1 X105.6 Y119.688 E394.46903
G1 X105.6 Y169.2 E398.81651
G1 X107.2 Y169.2 E398.95701
G1 X107.2 Y120.293 E403.25137
G1 X107.3 Y120.326 E403.26062
G1 X108.144 Y120.532 E403.3369
G1 X108.8 Y120.638 E403.39525
G1 X108.8 Y169.2 E407.65932
G1 X110.4 Y169.2 E407.79981
G1 X110.4 Y120.779 E412.0515
G1 X110.594 Y120.777 E412.06854
G1 X111.272 Y120.71 E412.12836
G1 X112 Y120.589 E412.19316
G1 X112 Y169.2 E416.46154
G1 X113.6 Y169.2 E416.60203
G1 X113.6 Y120.199 E420.90465
G1 X114.091 Y120.035 E420.9501
G1 X114.891 Y119.691 E421.02657
G1 X115.2 Y119.528 E421.05724
G1 X115.2 Y169.2 E425.41878
G1 X116.8 Y169.2 E425.55927
G1 X116.8 Y118.51 E430.01019
G1 X117.07 Y118.306 E430.03991
G1 X117.715 Y117.732 E430.11572
G1 X118.316 Y117.104 E430.19205
G1 X118.4 Y117 E430.20379
G1 X118.4 Y169.2 E434.7873
G1 X120 Y169.2 E434.92779
G1 X120 Y114.51 E439.72994
G1 X120.152 Y114.189 E439.76113
G1 X120.46 Y113.371 E439.83788
G1 X120.694 Y112.555 E439.91242
G1 X120.863 Y111.71 E439.98808
G1 X120.968 Y110.84 E440.06503
G1 X121.001 Y109.962 E440.14218
G1 X120.965 Y109.112 E440.21688
G1 X120.859 Y108.253 E440.29288
G1 X120.684 Y107.409 E440.36856
G1 X120.439 Y106.573 E440.44506
G1 X120.133 Y105.77 E440.52051
G1 X120 Y105.491 E440.54765
G1 X120 Y50.8 E445.34989
G1 X121.6 Y50.8 E445.49038
G1 X121.6 Y169.2 E455.8867
G1 X123.2 Y169.2 E456.02719
G1 X123.2 Y50.8 E466.42351
G1 X124.8 Y50.8 E466.564
G1 X124.8 Y169.2 E476.96032
G1 X126.4 Y169.2 E477.10081
G1 X126.4 Y50.8 E487.49713
G1 X128 Y50.8 E487.63763
G1 X128 Y169.2 E498.03395
G1 X129.6 Y169.2 E498.17444
G1 X129.6 Y50.8 E508.57076
G1 X131.2 Y50.8 E508.71125
G1 X131.2 Y169.2 E519.10757
G1 X132.8 Y169.2 E519.24806
G1 X132.8 Y50.8 E529.64438
G1 X134.4 Y50.8 E529.78487
G1 X134.4 Y169.2 E540.18119
G1 X136 Y169.2 E540.32168
G1 X136 Y50.8 E550.718
G1 X137.6 Y50.8 E550.85849
G1 X137.6 Y169.2 E561.25481
G1 X139.2 Y169.2 E561.3953
G1 X139.2 Y50.8 E571.79162
G1 X140.8 Y50.8 E571.93212
G1 X140.8 Y169.2 E582.32844
G1 X142.4 Y169.2 E582.46893
G1 X142.4 Y50.8 E592.86525
G1 X144 Y50.8 E593.00574
G1 X144 Y169.2 E603.40206
G1 X145.6 Y169.2 E603.54255
G1 X145.6 Y50.8 E613.93887
G1 X147.2 Y50.8 E614.07936
G1 X147.2 Y169.2 E624.47568
G1 X148.8 Y169.2 E624.61617
G1 X148.8 Y50.8 E635.01249
G1 X150.4 Y50.8 E635.15298
G1 X150.4 Y169.2 E645.5493
G1 X152 Y169.2 E645.68979
G1 X152 Y50.8 E656.08611
G1 X153.6 Y50.8 E656.22661
G1 X153.6 Y169.2 E666.62293
G1 X155.2 Y169.2 E666.76342
G1 X155.2 Y50.8 E677.15974
G1 X156.8 Y50.8 E677.30023
G1 X156.8 Y169.2 E687.69655
G1 X158.4 Y169.2 E687.83704
G1 X158.4 Y50.8 E698.23336
G1 X160 Y50.8 E698.37385
G1 X160 Y169.2 E708.77017
G1 X160.094 Y169.2 E708.77842
G1 X160.701 Y169.179 E708.83176
G1 X161.489 Y169.096 E708.90133
G1 X161.6 Y169.075 E708.91125
G1 X161.6 Y50.93 E719.28518
G1 X161.886 Y50.972 E719.31056
G1 X162.681 Y51.162 E719.38233
G1 X163.2 Y51.336 E719.4304
G1 X163.2 Y168.667 E729.73285
G1 X163.877 Y168.404 E729.79663
G1 X164.607 Y168.04 E729.86825
G1 X164.8 Y167.922 E729.88811
G1 X164.8 Y52.078 E740.06
G1 X164.944 Y52.157 E740.07442
G1 X165.627 Y52.619 E740.14683
G1 X166.245 Y53.119 E740.21663
G1 X166.4 Y53.266 E740.23538
G1 X166.4 Y166.728 E750.19811
G1 X166.652 Y166.502 E750.22784
G1 X167.143 Y165.983 E750.29057
G1 X167.643 Y165.365 E750.36037
G1 X168.105 Y164.682 E750.43278
G1 X168.516 Y163.933 E750.50779
G1 X168.845 Y163.184 E750.57963
G1 X169.101 Y162.416 E750.65071
G1 X169.29 Y161.622 E750.72238
G1 X169.413 Y160.791 E750.79614
G1 X169.462 Y159.769 E750.88598
G1 X169.462 Y60.147 E759.63346
G1 X169.441 Y59.557 E759.6853
G1 X169.358 Y58.773 E759.75453
G1 X169.201 Y57.966 E759.82672
G1 X168.975 Y57.182 E759.89836
G1 X168.666 Y56.385 E759.97342
G1 X168.305 Y55.661 E760.04446
G1 X168 Y55.165 E760.09558
G1 X168 Y164.838 E769.72561
;;retract;;
G1 F6000 E761.72561
G0 F600 X168 Y164.838 Z0.47
G0 F7200 X108.941 Y120.254
;TIME_ELAPSED:448.005101

;LAYER:-3
;TYPE:SUPPORT
G1 F6000 E769.72561
G1 F1800 X158.285 Y169.598 E775.06389
G1 X156.87 Y169.598 E775.17214
G1 X107.113 Y119.841 E780.55509
G1 X107.411 Y119.941 E780.57914
G1 X108.224 Y120.14 E780.64317
G1 X109.322 Y120.317 E780.72825
G1 X110.062 Y120.383 E780.78508
G1 X110.478 Y120.377 E780.81691
G1 X159.699 Y169.598 E786.14188
G1 X160.108 Y169.6 E786.17317
G1 X160.728 Y169.579 E786.22063
G1 X161.057 Y169.542 E786.24595
G1 X111.741 Y120.226 E791.5812
G1 X112.354 Y120.126 E791.62871
G1 X112.915 Y119.986 E791.67295
G1 X162.278 Y169.349 E797.01328
G1 X162.39 Y169.329 E797.02198
G1 X163.217 Y169.09 E797.08784
G1 X163.372 Y169.028 E797.10061
G1 X113.987 Y119.643 E802.44332
G1 X114.719 Y119.33 E802.50422
G1 X114.96 Y119.202 E802.5251
G1 X164.364 Y168.606 E807.86987
G1 X164.808 Y168.387 E807.90774
G1 X165.272 Y168.1 E807.94947
G1 X115.857 Y118.685 E813.29543
G1 X116.159 Y118.494 E813.32277
G1 X116.683 Y118.097 E813.37306
G1 X166.1 Y167.514 E818.71923
G1 X166.209 Y167.435 E818.72953
G1 X166.855 Y166.855 E818.79595
G1 X117.439 Y117.439 E824.14201
G1 X118.016 Y116.839 E824.20569
G1 X118.121 Y116.707 E824.2186
G1 X167.541 Y166.126 E829.56504
G1 X167.961 Y165.609 E829.616
G1 X168.152 Y165.324 E829.64224
G1 X118.736 Y115.908 E834.98831
G1 X119.016 Y115.502 E835.02604
G1 X119.281 Y115.038 E835.06691
G1 X168.69 Y164.447 E840.41222
G1 X168.872 Y164.117 E840.44105
G1 X169.147 Y163.49 E840.49343
G1 X119.752 Y114.095 E845.83722
G1 X119.783 Y114.033 E845.84253
G1 X120.08 Y113.245 E845.90695
G1 X120.131 Y113.06 E845.92163
G1 X169.507 Y162.436 E851.26337
G1 X169.684 Y161.695 E851.32165
G1 X169.747 Y161.262 E851.35512
G1 X120.411 Y111.925 E856.69259
G1 X120.468 Y111.647 E856.71429
G1 X120.569 Y110.808 E856.77894
G1 X120.573 Y110.674 E856.7892
G1 X169.853 Y159.953 E862.1205
G1 X169.862 Y159.788 E862.13314
G1 X169.861 Y158.547 E862.22807
G1 X120.569 Y109.255 E867.56072
G1 X120.566 Y109.145 E867.56914
G1 X120.464 Y108.318 E867.63289
G1 X120.31 Y107.582 E867.69041
G1 X169.861 Y157.133 E873.05108
G1 X169.861 Y155.719 E873.15925
G1 X119.485 Y105.343 E878.60917
G1 X119.406 Y105.176 E878.62331
G1 X118.991 Y104.46 E878.68661
G1 X118.514 Y103.771 E878.75072
G1 X117.982 Y103.123 E878.81486
G1 X117.402 Y102.521 E878.8788
G1 X116.783 Y101.975 E878.94195
G1 X116.113 Y101.474 E879.00594
G1 X115.419 Y101.038 E879.06864
G1 X114.918 Y100.776 E879.11189
G1 X64.542 Y50.4 E884.56182
G1 X65.956 Y50.4 E884.66999
G1 X169.861 Y154.304 E895.91089
G1 X169.861 Y152.89 E896.01906
G1 X67.371 Y50.4 E907.10693
G1 X68.785 Y50.4 E907.2151
G1 X169.861 Y151.476 E918.15
G1 X169.861 Y150.062 E918.25817
G1 X70.199 Y50.4 E929.0401
G1 X71.613 Y50.4 E929.14827
G1 X169.861 Y148.647 E939.77717
G1 X169.861 Y147.233 E939.88534
G1 X73.027 Y50.4 E950.36126
G1 X74.442 Y50.4 E950.46951
G1 X169.861 Y145.819 E960.79241
G1 X169.861 Y144.405 E960.90058
G1 X75.856 Y50.4 E971.0705
G1 X77.27 Y50.4 E971.17867
G1 X169.861 Y142.991 E981.19563
G1 X169.861 Y141.576 E981.30387
G1 X78.684 Y50.4 E991.1678
G1 X80.098 Y50.4 E991.27596
G1 X169.861 Y140.162 E1000.98692
G1 X169.861 Y138.748 E1001.09508
G1 X81.513 Y50.4 E1010.65301
G1 X82.927 Y50.4 E1010.76118
G1 X169.861 Y137.334 E1020.16613
G1 X169.861 Y135.92 E1020.2743
G1 X84.341 Y50.4 E1029.52627
G1 X85.755 Y50.4 E1029.63444
G1 X169.861 Y134.505 E1038.73339
G1 X169.861 Y133.091 E1038.84156
G1 X87.17 Y50.4 E1047.78748
G1 X88.584 Y50.4 E1047.89565
G1 X169.861 Y131.677 E1056.6886
G1 X169.861 Y130.263 E1056.79677
G1 X89.998 Y50.4 E1065.43674
G1 X91.412 Y50.4 E1065.54491
G1 X169.861 Y128.848 E1074.03186
G1 X169.861 Y127.434 E1074.14002
G1 X92.826 Y50.4 E1082.474
G1 X94.241 Y50.4 E1082.58224
G1 X169.861 Y126.02 E1090.76319
G1 X169.861 Y124.606 E1090.87136
G1 X95.655 Y50.4 E1098.89933
G1 X97.069 Y50.4 E1099.0075
G1 X169.861 Y123.192 E1106.8825
G1 X169.861 Y121.777 E1106.99074
G1 X98.483 Y50.4 E1114.71271
G1 X99.897 Y50.4 E1114.82088
G1 X169.861 Y120.363 E1122.38988
G1 X169.861 Y118.949 E1122.49805
G1 X101.312 Y50.4 E1129.91402
G1 X102.726 Y50.4 E1130.02219
G1 X169.861 Y117.535 E1137.28518
G1 X169.861 Y116.121 E1137.39335
G1 X104.14 Y50.4 E1144.50338
G1 X105.554 Y50.4 E1144.61154
G1 X169.861 Y114.706 E1151.56854
G1 X169.861 Y113.292 E1151.67671
G1 X106.968 Y50.4 E1158.48073
G1 X108.383 Y50.4 E1158.58897
G1 X169.861 Y111.878 E1165.23997
G1 X169.861 Y110.464 E1165.34814
