;FLAVOR:Marlin
;TIME:1961
;Filament used:1.3253m
;Layer height: 0.2
;MINX:84.2
;MINY:83.2
;MINZ:0.24
;MAXX:135.799
;MAXY:136.977
;MAXZ:3.89
                                  
;Creality Print GCode Generated by CXEngine:NO_MAGE_VERSION_GIT_HEAD_BRANCH
;CXEngine Release Time:2022-09-30 09:53:04
;Gcode Generated Time:2023-06-18 08:39:46
;----------Machine Config--------------
;Machine Name:Ender-3 V2
;Machine Height:250
;Machine Width:220
;Machine Depth:220
;Material name:PLA
;Number of Extruders:1
;ExtruderParams[0] Nozzle Diameter1000
;----------Profile Config---------------
;Engine Version:275f99b
;Engine Release Time:2022-09-30 09:42:18
;Layer Height:0.2
;Wall Thickness:0.8
;Top/Bottom Thickness:1
;Out Wall Line Width:0.4
;Inner Wall Line Width:0.4
;Inital Layer Height:200
;Wall Line Count:2
;Infill Line Distance:4
;Infill Pattern:grid
;Infill Sparse Density:20
;Infill Wipe Distance:0
;Print Temperature:200
;Bed Temperature:60
;Support Enable:true
;Support Density:0
;Support Angle:60
;Adhesion Type:simpleraft
;machine is belt:false
;machine belt offset:10
;machine belt offset Y:0
;Raft Base Line Spacing:1.6
;Wait Heatup Sync:true
;----------Shell Config----------------
;Outer Wall Wipe Distance:200
;Outer Inset First:false
;Infill Before Walls:false
;Infill Overlap:0.16
;Fill Gaps Between Walls:everywhere
;Minimum Infill Area:1
;Top Surface Skin Layer:0
;Top Layers:3
;Z Seam Alignment:sharpest_corner
;Seam Corner Preference:z_seam_corner_inner
;Z Seam X:110
;Z Seam Y:110
;Horizontal Expansion:0
;Top/Bottom Pattern:zigzag
;Ironing Pattern:zigzag
;Vase Model:false
;----------Support Config----------------
;Support Type:everywhere
;Support Pattern:zigzag
;Support Infill Layer Thickness:0.2
;Minimum Support Area:5
;Enable Support Roof:false
;Support Roof Thickness:0.8
;Support Roof Pattern:lines
;Connect Support Lines:0
;Connect Support ZigZags:1
;Minimum Support X/Y Distance:0.2
;Support Line Distance:0
; ---------PrintSpeed & Travel----------
;Enable Print Cool:true
;Avoid Printed Parts Traveling:true
;Enable Retraction:true
;Retraction Distance:8
;Retraction Speed:100
;Retraction Prime Speed:100
;Maximum Retraction Count:100
;Minimum Extrusion Distance Window:1
;Z Hop When Retracted:false
;Z Hop Height:0.2
;Retract Before Outer Wall:true
;Print Speed:50
;Infill Speed:50

;Prime Tower Speed:50
;Travel Speed:120
;Initial Layer Speed:25
;Skirt/Brim Speed:25
;Combing Mode:infill
; --------SpecialModel&Mesh Fixes--------
;Union Overlapping Volum:true
;Remove All Holes:false
;Maximum Travel Resolution:0.6
;Maximum Deviation:0.05
;Maximum Model Angle:0.872665
;IS Mold Print:false
;Make Overhang Printable:false
;Enable Coasting:false
;Coasting Volumes:0.06
;Coasting Speed:0.9
;Raft AirGap:0.25
;Layer0 ZOverLap:0.13
;---------------------End of Head--------------------------
M140 S60
M105
M104 S200
M105
M109 S200
M105
M190 S60
M82 ;absolute extrusion mode
M220 S100 ;Reset Feedrate
M221 S100 ;Reset Flowrate

G28 ;Home

G92 E0 ;Reset Extruder
G1 Z2.0 F3000 ;Move Z Axis up
G1 X10.1 Y20 Z0.28 F5000.0 ;Move to start position
G1 X10.1 Y145.0 Z0.28 F1500.0 E15 ;Draw the first line
G1 X10.4 Y145.0 Z0.28 F5000.0 ;Move to side a little
G1 X10.4 Y20 Z0.28 F1500.0 E30 ;Draw the second line
G92 E0  ;Reset Extruder
G1 E-1.0000 F1800 ;Retract a bit
G1 Z2.0 F3000 ;Move Z Axis up
G1 E0.0000 F1800 

G92 E0
G92 E0
G1 F6000 E-8

;LAYER_COUNT:15

;LAYER:-4
M107
G0 F7200 X88 Y86.149 Z0.24
;TYPE:SUPPORT-INTERFACE
G1 F6000 E0
G1 F1200 X88 Y133.866 E4.18988
G1 X87.491 Y133.383 E4.25149
G1 X86.872 Y132.691 E4.33301
G1 X86.4 Y132.056 E4.40249
G1 X86.4 Y87.958 E8.27459
G1 X86.619 Y87.635 E8.30885
G1 X87.119 Y87.017 E8.37866
G1 X87.611 Y86.497 E8.44151
G1 X88.31 Y85.872 E8.52385
G1 X88.962 Y85.386 E8.59525
G1 X89.6 Y84.993 E8.66105
G1 X89.6 Y134.997 E13.05174
G1 X90.063 Y135.252 E13.09815
G1 X90.808 Y135.579 E13.16959
G1 X91.2 Y135.71 E13.20588
G1 X91.2 Y84.281 E17.7217
G1 X91.96 Y84.062 E17.79114
G1 X92.773 Y83.904 E17.86387
G1 X92.8 Y83.901 E17.86625
G1 X92.8 Y136.09 E22.4488
G1 X93.212 Y136.151 E22.48537
G1 X94.07 Y136.197 E22.56082
G1 X94.4 Y136.197 E22.58979
G1 X94.4 Y83.801 E27.19051
G1 X96 Y83.801 E27.33101
G1 X96 Y136.197 E31.93173
G1 X97.6 Y136.197 E32.07222
G1 X97.6 Y83.801 E36.67294
G1 X99.2 Y83.801 E36.81343
G1 X99.2 Y136.197 E41.41416
G1 X100.8 Y136.197 E41.55465
G1 X100.8 Y83.801 E46.15537
G1 X102.4 Y83.801 E46.29586
G1 X102.4 Y136.197 E50.89658
G1 X104 Y136.198 E51.03707
G1 X104 Y83.801 E55.63789
G1 X105.6 Y83.802 E55.77838
G1 X105.6 Y136.198 E60.3791
G1 X107.2 Y136.198 E60.51959
G1 X107.2 Y83.802 E65.12031
G1 X108.8 Y83.802 E65.2608
G1 X108.8 Y136.198 E69.86153
G1 X110.4 Y136.198 E70.00202
G1 X110.4 Y83.802 E74.60274
G1 X112 Y83.802 E74.74323
G1 X112 Y136.198 E79.34395
G1 X113.6 Y136.199 E79.48444
G1 X113.6 Y83.802 E84.08526
G1 X115.2 Y83.802 E84.22575
G1 X115.2 Y136.199 E88.82656
G1 X116.8 Y136.199 E88.96705
G1 X116.8 Y83.803 E93.56777
G1 X118.4 Y83.803 E93.70826
G1 X118.4 Y136.199 E98.30898
G1 X120 Y136.199 E98.44948
G1 X120 Y83.803 E103.0502
G1 X121.6 Y83.803 E103.19069
G1 X121.6 Y136.256 E107.79642
G1 X122.228 Y136.319 E107.85184
G1 X123.045 Y136.377 E107.92376
G1 X123.2 Y136.374 E107.93737
G1 X123.2 Y83.803 E112.55346
G1 X124.8 Y83.803 E112.69395
G1 X124.8 Y136.254 E117.2995
G1 X125.221 Y136.205 E117.33672
G1 X126.366 Y136.183 E117.43727
G1 X126.4 Y136.18 E117.44027
G1 X126.4 Y83.829 E122.03704
G1 X126.788 Y83.849 E122.07116
G1 X127.624 Y83.972 E122.14535
G1 X128 Y84.062 E122.1793
G1 X128 Y135.946 E126.73507
G1 X128.758 Y135.732 E126.80423
G1 X129.513 Y135.447 E126.87509
G1 X129.6 Y135.405 E126.88357
G1 X129.6 Y84.601 E131.3445
G1 X129.933 Y84.746 E131.3764
G1 X130.682 Y85.157 E131.45141
G1 X131.2 Y85.508 E131.50636
G1 X131.2 Y134.492 E135.80748
G1 X131.645 Y134.165 E135.85597
G1 X132.409 Y133.483 E135.9459
G1 X132.871 Y132.995 E136.0049
G1 X133.381 Y132.365 E136.07607
G1 X133.843 Y131.682 E136.14848
G1 X134.254 Y130.933 E136.2235
G1 X134.4 Y130.601 E136.25534
G1 X134.4 Y89.377 E139.87509
G1 X134.043 Y88.661 E139.94534
G1 X133.614 Y87.962 E140.01735
G1 X133.128 Y87.31 E140.08876
G1 X132.8 Y86.944 E140.13191
G1 X132.8 Y133.07 E144.18209
;;retract;;
G1 F6000 E136.18209
G0 F600 X132.8 Y133.07 Z0.47
G0 F7200 X135.476 Y91.636
;TIME_ELAPSED:88.392373

;LAYER:-3
;TYPE:SUPPORT
G1 F6000 E144.18209
G1 F1800 X127.371 Y83.53 E145.05898
G1 X127.697 Y83.578 E145.08419
G1 X128.526 Y83.776 E145.14939
G1 X129.285 Y84.03 E145.21062
G1 X134.955 Y89.7 E145.82402
G1 X135.091 Y90.049 E145.85268
G1 X135.33 Y90.878 E145.91868
G1 X135.492 Y91.713 E145.98374
G1 X135.579 Y92.528 E146.04645
G1 X135.6 Y93.15 E146.09405
G1 X135.599 Y93.172 E146.09574
G1 X125.829 Y83.403 E147.15265
G1 X124.415 Y83.403 E147.26082
G1 X135.599 Y94.586 E148.47071
G1 X135.598 Y96 E148.57888
G1 X123.001 Y83.403 E149.94168
G1 X121.587 Y83.403 E150.04985
G1 X135.597 Y97.413 E151.56552
G1 X135.597 Y98.828 E151.67377
G1 X120.172 Y83.403 E153.34252
G1 X118.757 Y83.402 E153.45076
G1 X135.596 Y100.241 E155.27249
G1 X135.596 Y101.655 E155.38066
G1 X117.343 Y83.402 E157.35536
G1 X115.929 Y83.402 E157.46353
G1 X135.596 Y103.069 E159.5912
G1 X135.595 Y104.482 E159.69929
G1 X114.515 Y83.402 E161.97983
G1 X113.1 Y83.401 E162.08808
G1 X135.594 Y105.896 E164.52164
G1 X135.594 Y107.31 E164.62981
G1 X111.686 Y83.401 E167.21635
G1 X110.271 Y83.401 E167.3246
G1 X135.594 Y108.724 E170.06416
G1 X135.593 Y110.137 E170.17226
G1 X108.857 Y83.401 E173.06469
G1 X107.443 Y83.401 E173.17286
G1 X135.592 Y111.551 E176.21821
G1 X135.592 Y112.965 E176.32638
G1 X106.028 Y83.401 E179.52476
G1 X104.614 Y83.401 E179.63293
G1 X135.591 Y114.378 E182.98417
G1 X135.591 Y115.792 E183.09234
G1 X103.2 Y83.401 E186.59656
G1 X101.785 Y83.401 E186.7048
G1 X135.591 Y117.206 E190.36205
G1 X135.59 Y118.619 E190.47014
G1 X100.37 Y83.4 E194.28036
G1 X98.956 Y83.4 E194.38853
G1 X135.589 Y120.033 E198.35167
G1 X135.589 Y121.447 E198.45984
G1 X97.542 Y83.4 E202.57595
G1 X96.128 Y83.4 E202.68412
G1 X135.589 Y122.861 E206.95321
G1 X135.589 Y123.532 E207.00454
G1 X135.548 Y124.235 E207.05841
G1 X94.714 Y83.4 E211.47609
G1 X94.154 Y83.4 E211.51892
G1 X93.534 Y83.421 E211.56638
G1 X93.341 Y83.442 E211.58123
G1 X135.556 Y125.657 E216.14826
G1 X135.557 Y125.674 E216.14956
G1 X135.597 Y126.932 E216.24585
G1 X135.588 Y127.103 E216.25894
G1 X92.11 Y83.625 E220.96261
G1 X91.872 Y83.671 E220.98115
G1 X91.045 Y83.91 E221.04701
G1 X90.998 Y83.927 E221.05083
G1 X135.466 Y128.395 E225.8616
G1 X135.422 Y128.695 E225.88479
G1 X135.226 Y129.519 E225.94959
G1 X135.212 Y129.556 E225.95261
G1 X89.998 Y84.341 E230.84414
G1 X89.454 Y84.613 E230.89067
G1 X89.083 Y84.84 E230.92394
G1 X134.838 Y130.596 E235.874
G1 X134.61 Y131.117 E235.9175
G1 X134.374 Y131.545 E235.95489
G1 X88.247 Y85.419 E240.94508
G1 X88.057 Y85.561 E240.96323
G1 X87.486 Y86.071 E241.0218
G1 X133.829 Y132.415 E246.03546
G1 X133.699 Y132.609 E246.05333
G1 X133.211 Y133.211 E246.11261
G1 X86.787 Y86.787 E251.13499
G1 X86.301 Y87.391 E251.1943
G1 X86.169 Y87.583 E251.21212
G1 X132.511 Y133.925 E256.22563
G1 X131.892 Y134.48 E256.28922
G1 X131.752 Y134.58 E256.30239
G1 X85.624 Y88.453 E261.29269
G1 X85.39 Y88.883 E261.33014
G1 X85.16 Y89.403 E261.37363
G1 X130.915 Y135.157 E266.32358
G1 X130.477 Y135.423 E266.36278
G1 X129.998 Y135.654 E266.40346
G1 X84.785 Y90.442 E271.29478
G1 X84.774 Y90.481 E271.29788
G1 X84.578 Y91.303 E271.36252
G1 X84.533 Y91.604 E271.3858
G1 X128.997 Y136.068 E276.19614
G1 X128.881 Y136.113 E276.20566
G1 X128.043 Y136.348 E276.27223
G1 X127.89 Y136.375 E276.28412
G1 X84.414 Y92.899 E280.98757
G1 X84.4 Y93.193 E281.01008
G1 X84.4 Y94.299 E281.09469
G1 X126.655 Y136.555 E285.6661
G1 X126.387 Y136.583 E285.68671
G1 X125.289 Y136.603 E285.77072
G1 X84.401 Y95.715 E290.19419
G1 X84.402 Y97.13 E290.30243
G1 X124.015 Y136.743 E294.58796
G1 X123.903 Y136.758 E294.59661
G1 X123.037 Y136.777 E294.66287
G1 X122.603 Y136.745 E294.69616
G1 X84.403 Y98.545 E298.82883
G1 X84.403 Y99.96 E298.93707
G1 X121.046 Y136.602 E302.90124
G1 X121.012 Y136.6 E302.90385
G1 X119.628 Y136.598 E303.00972
G1 X84.404 Y101.375 E306.82037
G1 X84.405 Y102.789 E306.92854
G1 X118.214 Y136.598 E310.58617
G1 X116.799 Y136.598 E310.69441
G1 X84.406 Y104.205 E314.19885
G1 X84.407 Y105.62 E314.30709
G1 X115.384 Y136.598 E317.65839
G1 X113.97 Y136.598 E317.76656
G1 X84.408 Y107.035 E320.96478
G1 X84.408 Y108.45 E321.07302
G1 X112.556 Y136.598 E324.11821
G1 X111.142 Y136.598 E324.22638
G1 X84.409 Y109.865 E327.11849
G1 X84.41 Y111.28 E327.22673
G1 X109.727 Y136.597 E329.96565
G1 X108.313 Y136.597 E330.07382
G1 X84.41 Y112.695 E332.65971
G1 X84.412 Y114.11 E332.76796
G1 X106.898 Y136.597 E335.20066
G1 X105.484 Y136.597 E335.30883
G1 X84.412 Y115.525 E337.5885
G1 X84.413 Y116.94 E337.69674
G1 X104.069 Y136.596 E339.82323
G1 X102.655 Y136.596 E339.9314
G1 X84.414 Y118.355 E341.9048
G1 X84.415 Y119.77 E342.01304
G1 X101.241 Y136.596 E343.83336
G1 X99.827 Y136.596 E343.94153
G1 X84.415 Y121.185 E345.60882
G1 X84.417 Y122.601 E345.71715
G1 X98.412 Y136.596 E347.23119
G1 X96.998 Y136.596 E347.33936
G1 X84.417 Y124.015 E348.70044
G1 X84.418 Y125.43 E348.80868
G1 X95.583 Y136.596 E350.01662
G1 X94.169 Y136.596 E350.12479
G1 X84.419 Y126.845 E351.17965
G1 X84.42 Y127.455 E351.22631
G1 X84.508 Y128.287 E351.29031
G1 X84.67 Y129.122 E351.35538
G1 X84.909 Y129.951 E351.42138
G1 X85.043 Y130.298 E351.44984
G1 X90.713 Y135.968 E352.06324
G1 X91.474 Y136.224 E352.12466
G1 X92.303 Y136.422 E352.18987
G1 X92.628 Y136.468 E352.21498
G1 X84.522 Y128.363 E353.09187
G0 F600 X84.522 Y128.363 Z0.62
G0 F7200 X91.368 Y136.4
;TIME_ELAPSED:183.842670

;LAYER:-2
;TYPE:SUPPORT-INTERFACE
G1 F2400 X128.598 Y136.4 E354.02057
G1 X128.095 Y136.542 E354.03361
G1 X127.238 Y136.701 E354.05536
G1 X126.385 Y136.783 E354.07673
G1 X125.85 Y136.8 E354.09008
G1 X121.003 Y136.8 E354.21099
G0 F7200 X121.004 Y136.8
G1 F2400 X94.059 Y136.797 E354.88314
G1 X93.141 Y136.747 E354.90607
G1 X92.267 Y136.619 E354.92811
G1 X91.411 Y136.414 E354.95006
G1 X90.58 Y136.135 E354.97193
G1 X90.272 Y136 E354.98032
G1 X129.743 Y136 E355.96493
G1 X129.752 Y135.997 E355.96516
G1 X130.558 Y135.606 E355.98751
G1 X130.566 Y135.6 E355.98776
G1 X89.447 Y135.6 E357.01348
G1 X89.015 Y135.362 E357.02578
G1 X88.774 Y135.2 E357.03302
G1 X131.233 Y135.2 E358.09217
G1 X131.312 Y135.153 E358.09446
G1 X131.793 Y134.8 E358.10934
G1 X88.198 Y134.8 E359.19683
G1 X87.703 Y134.4 E359.2127
G1 X132.283 Y134.4 E360.32475
G1 X132.732 Y134 E360.33976
G1 X87.268 Y134 E361.47386
G1 X87.053 Y133.794 E361.48129
G1 X86.878 Y133.6 E361.4878
G1 X133.124 Y133.6 E362.64142
G1 X133.326 Y133.387 E362.64874
G1 X133.477 Y133.2 E362.65473
G1 X86.52 Y133.2 E363.82608
G1 X86.413 Y133.079 E363.83011
G1 X86.204 Y132.8 E363.83881
G1 X133.801 Y132.8 E365.02612
G1 X133.867 Y132.719 E365.02872
G1 X134.081 Y132.4 E365.03831
G1 X85.906 Y132.4 E366.24004
G1 X85.893 Y132.381 E366.24061
G1 X85.657 Y132 E366.25179
G1 X134.351 Y132 E367.46647
G1 X134.367 Y131.977 E367.46717
G1 X134.573 Y131.6 E367.47788
G1 X85.416 Y131.6 E368.70411
G1 X85.216 Y131.2 E368.71527
G1 X134.791 Y131.2 E369.95192
G1 X134.967 Y130.8 E369.96282
G1 X85.023 Y130.8 E371.20868
G1 X84.868 Y130.4 E371.21938
G1 X135.141 Y130.4 E372.47344
G1 X135.275 Y130 E372.48397
G1 X84.714 Y130 E373.74522
G1 X84.598 Y129.6 E373.75561
G1 X135.409 Y129.6 E375.02309
G1 X135.414 Y129.589 E375.02339
G1 X135.506 Y129.2 E375.03336
G1 X84.483 Y129.2 E376.30614
G1 X84.476 Y129.172 E376.30686
G1 X84.402 Y128.8 E376.31632
G1 X135.602 Y128.8 E377.59351
G1 X135.621 Y128.724 E377.59546
G1 X135.668 Y128.4 E377.60363
G1 X84.324 Y128.4 E378.88441
G1 X84.312 Y128.328 E378.88623
G1 X84.275 Y128 E378.89447
G1 X135.726 Y128 E380.17792
G1 X135.748 Y127.855 E380.18157
G1 X135.761 Y127.6 E380.18794
G1 X84.233 Y127.6 E381.47332
G1 X84.221 Y127.478 E381.47637
G1 X84.21 Y127.2 E381.48331
G1 X135.783 Y127.2 E382.76981
G1 X135.797 Y126.941 E382.77628
G1 X135.793 Y126.8 E382.7798
G1 X84.2 Y126.8 E384.06679
G1 X84.2 Y126.4 E384.07677
G1 X135.78 Y126.4 E385.36344
G1 X135.767 Y126 E385.37342
G1 X84.2 Y126 E386.65976
G1 X84.2 Y125.6 E386.66974
G1 X135.755 Y125.6 E387.95579
G1 X135.747 Y125.2 E387.96577
G1 X84.2 Y125.2 E389.25161
G1 X84.2 Y124.8 E389.26159
G1 X135.74 Y124.8 E390.54726
G1 X135.734 Y124.512 E390.55445
G1 X135.74 Y124.4 E390.55724
G1 X84.2 Y124.4 E391.84291
G1 X84.2 Y124 E391.85289
G1 X135.762 Y124 E393.13911
G1 X135.785 Y123.6 E393.14911
G1 X84.2 Y123.6 E394.4359
G1 X84.2 Y123.2 E394.44588
G1 X135.789 Y123.2 E395.73277
G1 X135.789 Y122.8 E395.74275
G1 X84.2 Y122.8 E397.02964
G1 X84.2 Y122.4 E397.03962
G1 X135.789 Y122.4 E398.32651
G1 X135.789 Y122 E398.33649
G1 X84.2 Y122 E399.62338
G1 X84.2 Y121.6 E399.63336
G1 X135.789 Y121.6 E400.92025
G1 X135.789 Y121.2 E400.93023
G1 X84.2 Y121.2 E402.21712
G1 X84.2 Y120.8 E402.2271
G1 X135.789 Y120.8 E403.514
G1 X135.79 Y120.4 E403.52397
G1 X84.2 Y120.4 E404.81089
G1 X84.2 Y120 E404.82087
G1 X135.79 Y120 E406.10779
G1 X135.79 Y119.6 E406.11776
G1 X84.2 Y119.6 E407.40468
G1 X84.2 Y119.2 E407.41466
G1 X135.79 Y119.2 E408.70158
G1 X135.79 Y118.8 E408.71156
G1 X84.201 Y118.8 E409.99845
G1 X84.201 Y118.4 E410.00843
G1 X135.79 Y118.4 E411.29532
G1 X135.791 Y118 E411.3053
G1 X84.201 Y118 E412.59222
G1 X84.201 Y117.6 E412.60219
G1 X135.791 Y117.6 E413.88911
G1 X135.791 Y117.2 E413.89909
G1 X84.201 Y117.2 E415.18601
G1 X84.201 Y116.8 E415.19599
G1 X135.791 Y116.8 E416.4829
G1 X135.791 Y116.4 E416.49288
G1 X84.201 Y116.4 E417.7798
G1 X84.201 Y116 E417.78978
G1 X135.791 Y116 E419.0767
G1 X135.791 Y115.6 E419.08667
G1 X84.201 Y115.6 E420.37359
G1 X84.202 Y115.2 E420.38357
G1 X135.792 Y115.2 E421.67049
G1 X135.792 Y114.8 E421.68047
G1 X84.202 Y114.8 E422.96738
G1 X84.202 Y114.4 E422.97736
G1 X135.792 Y114.4 E424.26428
G1 X135.792 Y114 E424.27426
G1 X84.202 Y114 E425.56118
G1 X84.202 Y113.6 E425.57115
G1 X135.792 Y113.6 E426.85807
G1 X135.792 Y113.2 E426.86805
G1 X84.202 Y113.2 E428.15497
G1 X84.202 Y112.8 E428.16494
G1 X135.792 Y112.8 E429.45186
G1 X135.793 Y112.4 E429.46184
G1 X84.202 Y112.4 E430.74878
G1 X84.202 Y112 E430.75876
