;FLAVOR:Marlin
;TIME:5022
;Filament used:3.57227m
;Layer height: 0.2
;MINX:82.2
;MINY:82.2
;MINZ:0.24
;MAXX:137.8
;MAXY:137.8
;MAXZ:17.29
                                    
;Creality Print GCode Generated by CXEngine:NO_MAGE_VERSION_GIT_HEAD_BRANCH
;CXEngine Release Time:2022-09-30 09:53:04
;Gcode Generated Time:2023-06-17 17:04:25
;----------Machine Config--------------
;Machine Name:Ender-3 V2
;Machine Height:250
;Machine Width:220
;Machine Depth:220
;Material name:PLA
;Number of Extruders:1
;ExtruderParams[0] Nozzle Diameter1000
;----------Profile Config---------------
;Engine Version:275f99b
;Engine Release Time:2022-09-30 09:42:18
;Layer Height:0.2
;Wall Thickness:0.8
;Top/Bottom Thickness:1
;Out Wall Line Width:0.4
;Inner Wall Line Width:0.4
;Inital Layer Height:200
;Wall Line Count:2
;Infill Line Distance:4
;Infill Pattern:grid
;Infill Sparse Density:20
;Infill Wipe Distance:0
;Print Temperature:200
;Bed Temperature:60
;Support Enable:true
;Support Density:0
;Support Angle:60
;Adhesion Type:simpleraft
;machine is belt:false
;machine belt offset:10
;machine belt offset Y:0
;Raft Base Line Spacing:1.6
;Wait Heatup Sync:true
;----------Shell Config----------------
;Outer Wall Wipe Distance:200
;Outer Inset First:false
;Infill Before Walls:false
;Infill Overlap:0.16
;Fill Gaps Between Walls:everywhere
;Minimum Infill Area:1
;Top Surface Skin Layer:0
;Top Layers:3
;Z Seam Alignment:sharpest_corner
;Seam Corner Preference:z_seam_corner_inner
;Z Seam X:110
;Z Seam Y:110
;Horizontal Expansion:0
;Top/Bottom Pattern:zigzag
;Ironing Pattern:zigzag
;Vase Model:false
;----------Support Config----------------
;Support Type:everywhere
;Support Pattern:zigzag
;Support Infill Layer Thickness:0.2
;Minimum Support Area:5
;Enable Support Roof:false
;Support Roof Thickness:0.8
;Support Roof Pattern:lines
;Connect Support Lines:0
;Connect Support ZigZags:1
;Minimum Support X/Y Distance:0.2
;Support Line Distance:0
; ---------PrintSpeed & Travel----------
;Enable Print Cool:true
;Avoid Printed Parts Traveling:true
;Enable Retraction:true
;Retraction Distance:8
;Retraction Speed:100
;Retraction Prime Speed:100
;Maximum Retraction Count:100
;Minimum Extrusion Distance Window:1
;Z Hop When Retracted:false
;Z Hop Height:0.2
;Retract Before Outer Wall:true
;Print Speed:50
;Infill Speed:50

;Prime Tower Speed:50
;Travel Speed:120
;Initial Layer Speed:25
;Skirt/Brim Speed:25
;Combing Mode:infill
; --------SpecialModel&Mesh Fixes--------
;Union Overlapping Volum:true
;Remove All Holes:false
;Maximum Travel Resolution:0.6
;Maximum Deviation:0.05
;Maximum Model Angle:0.872665
;IS Mold Print:false
;Make Overhang Printable:false
;Enable Coasting:false
;Coasting Volumes:0.06
;Coasting Speed:0.9
;Raft AirGap:0.25
;Layer0 ZOverLap:0.13
;---------------------End of Head--------------------------
M140 S60
M105
M104 S200
M105
M109 S200
M105
M190 S60
M82 ;absolute extrusion mode
M220 S100 ;Reset Feedrate
M221 S100 ;Reset Flowrate

G28 ;Home

G92 E0 ;Reset Extruder
G1 Z2.0 F3000 ;Move Z Axis up
G1 X10.1 Y20 Z0.28 F5000.0 ;Move to start position
G1 X10.1 Y145.0 Z0.28 F1500.0 E15 ;Draw the first line
G1 X10.4 Y145.0 Z0.28 F5000.0 ;Move to side a little
G1 X10.4 Y20 Z0.28 F1500.0 E30 ;Draw the second line
G92 E0  ;Reset Extruder
G1 E-1.0000 F1800 ;Retract a bit
G1 Z2.0 F3000 ;Move Z Axis up
G1 E0.0000 F1800 

G92 E0
G92 E0
G1 F6000 E-8

;LAYER_COUNT:82

;LAYER:-4
M107
G0 F7200 X84.8 Y96.615 Z0.24
;TYPE:SUPPORT-INTERFACE
G1 F6000 E0
G1 F1200 X84.8 Y114.792 E1.59606
G1 X84.386 Y114.238 E1.65679
G1 X83.957 Y113.539 E1.72881
G1 X83.596 Y112.815 E1.79984
G1 X83.287 Y112.018 E1.8749
G1 X83.2 Y111.716 E1.9025
G1 X83.2 Y99.665 E2.96065
G1 X83.417 Y99.016 E3.02074
G1 X83.746 Y98.267 E3.09257
G1 X84.157 Y97.518 E3.16759
G1 X84.62 Y96.833 E3.24019
G1 X85.704 Y95.525 E3.38936
G1 X86.095 Y94.903 E3.45387
G1 X86.4 Y94.245 E3.51755
G1 X86.4 Y117.154 E5.52911
G1 X86.617 Y117.814 E5.59012
G1 X86.756 Y118.535 E5.65459
G1 X86.8 Y119.241 E5.71671
G1 X86.82 Y126.431 E6.34804
G1 X86.904 Y127.227 E6.41832
G1 X87.061 Y128.034 E6.49051
G1 X87.287 Y128.818 E6.56215
G1 X87.596 Y129.615 E6.63721
G1 X87.957 Y130.339 E6.70825
G1 X88 Y130.409 E6.71546
G1 X88 Y87.604 E10.47403
G1 X88.157 Y87.318 E10.50268
G1 X88.619 Y86.635 E10.57508
G1 X89.119 Y86.017 E10.64488
G1 X89.6 Y85.508 E10.70637
G1 X89.6 Y132.486 E14.83136
G1 X90.017 Y132.881 E14.88179
G1 X90.635 Y133.381 E14.9516
G1 X91.2 Y133.763 E15.01148
G1 X91.2 Y84.239 E19.36002
G1 X91.655 Y83.96 E19.40689
G1 X92.385 Y83.596 E19.47851
G1 X92.8 Y83.434 E19.51763
G1 X92.8 Y134.575 E24.00816
G1 X92.808 Y134.579 E24.00894
G1 X93.581 Y134.838 E24.08052
G1 X94.376 Y135.028 E24.1523
G1 X94.4 Y135.031 E24.15442
G1 X94.4 Y82.976 E28.7252
G1 X94.773 Y82.904 E28.75856
G1 X95.561 Y82.821 E28.82813
G1 X96 Y82.805 E28.86671
G1 X96 Y135.193 E33.46673
G1 X96.07 Y135.197 E33.47288
G1 X97.6 Y135.205 E33.60723
G1 X97.6 Y82.801 E38.20865
G1 X99.2 Y82.801 E38.34915
G1 X99.2 Y135.215 E42.95145
G1 X99.717 Y135.218 E42.99685
G1 X100.442 Y135.324 E43.06118
G1 X100.8 Y135.424 E43.09382
G1 X100.8 Y82.801 E47.71448
G1 X102.4 Y82.801 E47.85497
G1 X102.4 Y136.111 E52.53594
G1 X102.661 Y136.251 E52.56195
G1 X103.408 Y136.579 E52.63359
G1 X104 Y136.777 E52.6884
G1 X104 Y82.801 E57.42786
G1 X105.6 Y82.801 E57.56835
G1 X105.6 Y137.12 E62.33792
G1 X105.801 Y137.15 E62.35577
G1 X106.811 Y137.2 E62.44456
G1 X107.2 Y137.199 E62.47872
G1 X107.2 Y82.802 E67.25514
G1 X108.8 Y82.802 E67.39563
G1 X108.8 Y137.193 E72.17153
G1 X110.4 Y137.186 E72.31202
G1 X110.4 Y82.802 E77.08731
G1 X112 Y82.802 E77.2278
G1 X112 Y137.18 E82.00255
G1 X112.042 Y137.179 E82.00624
G1 X112.827 Y137.096 E82.07555
G1 X113.6 Y136.946 E82.14469
G1 X113.6 Y82.802 E86.8989
G1 X115.2 Y82.802 E87.03939
G1 X115.2 Y136.41 E91.74654
G1 X115.215 Y136.404 E91.74796
G1 X116.8 Y135.615 E91.90342
G1 X116.8 Y82.802 E96.54076
G1 X118.4 Y82.803 E96.68125
G1 X118.4 Y135.234 E101.28505
G1 X118.931 Y135.2 E101.33177
G1 X120 Y135.198 E101.42563
G1 X120 Y82.803 E106.02627
G1 X121.6 Y82.803 E106.16676
G1 X121.6 Y135.195 E110.76713
G1 X123.2 Y135.191 E110.90762
G1 X123.2 Y82.803 E115.50764
G1 X124.8 Y82.803 E115.64813
G1 X124.8 Y135.188 E120.24789
G1 X126.4 Y135.184 E120.38838
G1 X126.4 Y82.803 E124.98779
G1 X127.93 Y82.803 E125.12213
G1 X128 Y82.807 E125.12829
G1 X128 Y135.18 E129.72699
G1 X128.442 Y135.179 E129.7658
G1 X129.227 Y135.096 E129.83512
G1 X129.6 Y135.024 E129.86847
G1 X129.6 Y82.969 E134.43925
G1 X129.624 Y82.972 E134.44138
G1 X130.419 Y83.162 E134.51315
G1 X131.187 Y83.419 E134.58426
G1 X131.2 Y83.425 E134.58552
G1 X131.2 Y134.566 E139.07604
G1 X131.615 Y134.404 E139.11516
G1 X132.345 Y134.04 E139.18679
G1 X132.8 Y133.76 E139.2337
G1 X132.8 Y84.237 E143.58215
G1 X133.365 Y84.619 E143.64204
G1 X133.983 Y85.119 E143.71184
G1 X134.4 Y85.514 E143.76227
G1 X134.4 Y132.492 E147.88726
G1 X134.881 Y131.983 E147.94875
G1 X135.381 Y131.365 E148.01855
G1 X135.843 Y130.682 E148.09095
G1 X136.254 Y129.933 E148.16597
G1 X136.583 Y129.184 E148.23781
G1 X136.839 Y128.416 E148.30889
G1 X137.028 Y127.622 E148.38056
G1 X137.152 Y126.781 E148.4552
G1 X137.197 Y125.932 E148.52985
G1 X137.2 Y92.128 E151.49807
G1 X137.179 Y91.557 E151.54824
G1 X137.096 Y90.773 E151.61747
G1 X136.939 Y89.966 E151.68966
G1 X136.713 Y89.182 E151.7613
G1 X136.404 Y88.385 E151.83636
G1 X136.043 Y87.661 E151.90739
G1 X136 Y87.591 E151.91461
G1 X136 Y130.396 E155.67318
;;retract;;
G1 F6000 E147.67318
G0 F600 X136 Y130.396 Z0.47
G0 F7200 X100.36 Y135.715
;TIME_ELAPSED:94.980220

;LAYER:-3
;TYPE:SUPPORT
G1 F6000 E155.67318
G1 F1800 X86.406 Y121.761 E157.18279
G1 X86.402 Y120.343 E157.29126
G1 X102.811 Y136.753 E159.06653
G1 X103.262 Y136.952 E159.10424
G1 X104.074 Y137.224 E159.16974
G1 X104.891 Y137.418 E159.23398
G1 X86.378 Y118.904 E161.23686
G1 X86.358 Y118.586 E161.26124
G1 X86.229 Y117.915 E161.31351
G1 X86.016 Y117.266 E161.36576
G1 X85.892 Y117.004 E161.38793
G1 X106.469 Y137.582 E163.61411
G1 X106.793 Y137.6 E163.63893
G1 X107.895 Y137.593 E163.72324
G1 X83.199 Y112.898 E166.39492
G1 X82.909 Y112.151 E166.45622
G1 X82.67 Y111.322 E166.52222
G1 X82.58 Y110.865 E166.55785
G1 X109.304 Y137.588 E169.44893
G1 X110.713 Y137.583 E169.55672
G1 X82.418 Y109.288 E172.61781
G1 X82.414 Y107.87 E172.72628
G1 X112.116 Y137.572 E175.93959
G1 X112.887 Y137.492 E175.99889
G1 X113.358 Y137.4 E176.0356
G1 X82.41 Y106.452 E179.38371
G1 X82.406 Y105.034 E179.49219
G1 X114.482 Y137.109 E182.96227
G1 X114.555 Y137.09 E182.96804
G1 X115.373 Y136.772 E183.03518
G1 X115.495 Y136.709 E183.04568
G1 X82.402 Y103.615 E186.6259
G1 X82.4 Y102.393 E186.71938
G1 X82.408 Y102.207 E186.73362
G1 X116.439 Y136.238 E190.41527
G1 X116.955 Y135.984 E190.45926
G1 X117.439 Y135.823 E190.49828
G1 X82.518 Y100.903 E194.27616
G1 X82.578 Y100.503 E194.3071
G1 X82.761 Y99.731 E194.36779
G1 X118.646 Y135.617 E198.25006
G1 X118.944 Y135.6 E198.27289
G1 X120.039 Y135.596 E198.35666
G1 X83.125 Y98.681 E202.35025
G1 X83.39 Y98.083 E202.40029
G1 X83.584 Y97.726 E202.43137
G1 X121.451 Y135.593 E206.52801
G1 X122.862 Y135.59 E206.63595
G1 X84.123 Y96.851 E210.82693
G1 X84.301 Y96.591 E210.85103
G1 X84.742 Y96.056 E210.90407
G1 X124.273 Y135.587 E215.18073
G1 X125.684 Y135.584 E215.28867
G1 X85.383 Y95.282 E219.64868
G1 X85.743 Y94.712 E219.70026
G1 X85.895 Y94.381 E219.72812
G1 X127.096 Y135.581 E224.18539
G1 X128.466 Y135.579 E224.2902
G1 X128.503 Y135.574 E224.29305
G1 X86.259 Y93.331 E228.86316
G1 X86.39 Y92.629 E228.91779
G1 X86.412 Y92.069 E228.96067
G1 X129.745 Y135.402 E233.64864
G1 X130.128 Y135.329 E233.67847
G1 X130.87 Y135.113 E233.73759
G1 X86.51 Y90.753 E238.53667
G1 X86.578 Y90.303 E238.57149
G1 X86.749 Y89.578 E238.62847
G1 X131.886 Y134.714 E243.51156
G1 X132.546 Y134.387 E243.56791
G1 X132.809 Y134.223 E243.59162
G1 X87.107 Y88.521 E248.53589
G1 X87.39 Y87.883 E248.58928
G1 X87.563 Y87.563 E248.6171
G1 X133.653 Y133.653 E253.60335
G1 X133.947 Y133.435 E253.63135
G1 X134.423 Y133.008 E253.68027
G1 X88.099 Y86.685 E258.69177
G1 X88.301 Y86.391 E258.71906
G1 X88.71 Y85.882 E258.76901
G1 X135.13 Y132.302 E263.79095
G1 X135.182 Y132.248 E263.79669
G1 X135.699 Y131.609 E263.85957
G1 X135.76 Y131.518 E263.86795
G1 X89.395 Y85.152 E268.884
G1 X90.057 Y84.561 E268.95188
G1 X90.149 Y84.492 E268.96068
G1 X136.313 Y130.657 E273.95499
G1 X136.61 Y130.117 E274.00213
G1 X136.786 Y129.715 E274.0357
G1 X90.977 Y83.906 E278.99154
G1 X91.454 Y83.613 E279.03437
G1 X91.884 Y83.399 E279.07111
G1 X137.17 Y128.684 E283.97032
G1 X137.226 Y128.519 E283.98365
G1 X137.422 Y127.695 E284.04844
G1 X137.444 Y127.545 E284.06004
G1 X92.875 Y82.976 E288.88174
G1 X93.045 Y82.91 E288.89569
G1 X93.872 Y82.671 E288.96154
G1 X93.966 Y82.653 E288.96886
G1 X137.579 Y126.265 E293.68708
G1 X137.597 Y125.932 E293.71259
G1 X137.597 Y124.869 E293.79391
G1 X95.186 Y82.458 E298.38214
G1 X95.534 Y82.421 E298.40891
G1 X96.154 Y82.4 E298.45637
G1 X96.542 Y82.4 E298.48605
G1 X137.597 Y123.455 E302.92758
G1 X137.597 Y122.04 E303.03582
G1 X97.956 Y82.4 E307.32433
G1 X99.371 Y82.4 E307.43258
G1 X137.597 Y120.626 E311.56805
G1 X137.597 Y119.212 E311.67622
G1 X100.785 Y82.4 E315.65873
G1 X102.199 Y82.4 E315.76689
G1 X137.597 Y117.798 E319.59643
G1 X137.598 Y116.384 E319.70459
G1 X103.614 Y82.401 E323.3811
G1 X105.028 Y82.401 E323.48927
G1 X137.598 Y114.97 E327.0128
G1 X137.598 Y113.556 E327.12096
G1 X106.442 Y82.401 E330.49152
G1 X107.857 Y82.401 E330.59977
G1 X137.598 Y112.142 E333.81729
G1 X137.598 Y110.727 E333.92554
G1 X109.272 Y82.401 E336.98999
G1 X110.686 Y82.401 E337.09815
G1 X137.598 Y109.313 E340.00963
G1 X137.598 Y107.9 E340.11772
G1 X112.1 Y82.401 E342.87627
G1 X113.514 Y82.401 E342.98444
G1 X137.598 Y106.486 E345.59002
G1 X137.598 Y105.071 E345.69827
G1 X114.928 Y82.401 E348.15082
G1 X116.343 Y82.402 E348.25907
G1 X137.598 Y103.657 E350.55854
G1 X137.598 Y102.243 E350.66671
G1 X117.758 Y82.402 E352.81315
G1 X119.172 Y82.402 E352.92132
G1 X137.598 Y100.829 E354.91479
G1 X137.599 Y99.415 E355.02296
G1 X120.586 Y82.402 E356.86351
G1 X122.001 Y82.403 E356.97175
G1 X137.599 Y98.001 E358.65922
G1 X137.599 Y96.587 E358.76739
G1 X123.415 Y82.403 E360.30188
G1 X124.829 Y82.403 E360.41005
G1 X137.599 Y95.173 E361.79158
G1 X137.599 Y93.758 E361.89982
G1 X126.244 Y82.403 E363.12826
G1 X127.658 Y82.403 E363.23643
G1 X137.599 Y92.344 E364.3119
G1 X137.6 Y92.128 E364.32842
G1 X137.579 Y91.529 E364.37427
G1 X137.492 Y90.713 E364.43705
G1 X137.33 Y89.878 E364.50211
G1 X137.091 Y89.049 E364.56811
G1 X137.063 Y88.98 E364.57381
G1 X131.027 Y82.944 E365.22681
G1 X130.526 Y82.776 E365.26724
G1 X129.697 Y82.578 E365.33244
G1 X129.169 Y82.5 E365.37327
G1 X137.504 Y90.835 E366.27499
;;retract;;
G1 F6000 E358.27499
G0 F7200 X100.359 Y135.716
G1 F6000 E366.27499
G1 F1800 X99.687 Y135.618 E366.32694
G1 X98.842 Y135.612 E366.39158
G1 X86.41 Y123.18 E367.73654
G1 X86.414 Y124.597 E367.84494
G1 X97.42 Y135.603 E369.03562
G1 X96.068 Y135.597 E369.13905
G1 X95.993 Y135.591 E369.1448
G1 X86.418 Y126.016 E370.18067
G1 X86.42 Y126.455 E370.21426
G1 X86.508 Y127.287 E370.27826
G1 X86.67 Y128.122 E370.34333
G1 X86.909 Y128.951 E370.40933
G1 X87.153 Y129.579 E370.46086
G1 X92.416 Y134.843 E371.0303
G1 X92.662 Y134.952 E371.05088
G1 X93.474 Y135.224 E371.11639
G1 X94.303 Y135.422 E371.18159
G1 X94.427 Y135.439 E371.19116
G1 X86.563 Y127.575 E372.04193
G0 F600 X86.563 Y127.575 Z0.62
G0 F7200 X103.372 Y137.2
;TIME_ELAPSED:194.970799

;LAYER:-2
;TYPE:SUPPORT-INTERFACE
G1 F2400 X114.821 Y137.2 E372.32753
G1 X114.617 Y137.28 E372.33299
G1 X113.775 Y137.523 E372.35485
G1 X113.378 Y137.6 E372.36494
G1 X104.786 Y137.6 E372.57927
G1 X104.011 Y137.414 E372.59915
G1 X103.18 Y137.135 E372.62102
G1 X102.418 Y136.8 E372.64178
G1 X115.764 Y136.8 E372.9747
G1 X116.567 Y136.4 E372.99708
G1 X101.654 Y136.4 E373.36908
G1 X101.515 Y136.326 E373.37301
G1 X100.951 Y136.089 E373.38827
G1 X100.631 Y136 E373.39656
G1 X117.547 Y136 E373.81853
G1 X117.655 Y135.965 E373.82136
G1 X118.301 Y135.841 E373.83777
G1 X118.951 Y135.8 E373.85402
G1 X128.478 Y135.779 E374.09167
G1 X129.328 Y135.688 E374.11299
G1 X129.778 Y135.6 E374.12443
G1 X94.186 Y135.6 E375.01228
G1 X93.411 Y135.414 E375.03216
G1 X92.772 Y135.2 E375.04897
G1 X131.243 Y135.2 E376.00863
G1 X131.865 Y134.95 E376.02535
G1 X132.165 Y134.8 E376.03372
G1 X91.818 Y134.8 E377.04018
G1 X91.781 Y134.783 E377.0412
G1 X91.083 Y134.4 E377.06106
G1 X132.904 Y134.4 E378.10429
G1 X133.381 Y134.107 E378.11825
G1 X133.524 Y134 E378.12271
G1 X90.477 Y134 E379.19652
G1 X90.282 Y133.867 E379.20241
G1 X89.95 Y133.6 E379.21303
G1 X134.061 Y133.6 E380.31339
G1 X134.079 Y133.587 E380.31394
G1 X134.51 Y133.2 E380.32839
G1 X89.478 Y133.2 E381.45172
G1 X89.068 Y132.809 E381.46585
G1 X89.058 Y132.8 E381.46619
G1 X134.935 Y132.8 E382.61059
G1 X135.314 Y132.4 E382.62434
G1 X88.7 Y132.4 E383.78713
G1 X88.413 Y132.079 E383.79787
G1 X88.353 Y132 E383.80035
G1 X135.639 Y132 E384.9799
G1 X135.867 Y131.719 E384.98893
G1 X135.947 Y131.6 E384.9925
G1 X88.055 Y131.6 E386.18717
G1 X87.893 Y131.381 E386.19397
G1 X87.78 Y131.2 E386.19929
G1 X136.216 Y131.2 E387.40753
G1 X136.367 Y130.977 E387.41425
G1 X136.463 Y130.8 E387.41927
G1 X87.534 Y130.8 E388.63981
G1 X87.436 Y130.638 E388.64454
G1 X87.316 Y130.4 E388.65119
G1 X136.683 Y130.4 E389.88265
G1 X136.783 Y130.219 E389.88781
G1 X136.879 Y130 E389.89377
G1 X87.116 Y130 E391.13512
G1 X87.05 Y129.865 E391.13886
G1 X86.945 Y129.6 E391.14598
G1 X137.055 Y129.6 E392.39597
G1 X137.135 Y129.42 E392.40089
G1 X137.208 Y129.2 E392.40667
G1 X86.79 Y129.2 E393.66435
G1 X86.72 Y129.017 E393.66924
G1 X86.656 Y128.8 E393.67488
G1 X137.342 Y128.8 E394.93925
G1 X137.414 Y128.589 E394.94481
G1 X137.458 Y128.4 E394.94965
G1 X86.54 Y128.4 E396.21981
G1 X86.476 Y128.172 E396.22571
G1 X86.441 Y128 E396.23009
G1 X137.554 Y128 E397.50511
G1 X137.621 Y127.724 E397.5122
G1 X137.638 Y127.6 E397.51532
G1 X86.363 Y127.6 E398.79438
G1 X86.312 Y127.328 E398.80128
G1 X86.297 Y127.2 E398.8045
G1 X137.697 Y127.2 E400.08668
G1 X137.748 Y126.855 E400.09538
G1 X137.75 Y126.8 E400.09675
G1 X86.254 Y126.8 E401.38132
