;FLAVOR:Marlin
;TIME:5614
;Filament used:3.80615m
;Layer height: 0.2
;MINX:77.131
;MINY:77.203
;MINZ:0.24
;MAXX:142.871
;MAXY:142.797
;MAXZ:15.89
                            
;Creality Print GCode Generated by CXEngine:NO_MAGE_VERSION_GIT_HEAD_BRANCH
;CXEngine Release Time:2022-09-30 09:53:04
;Gcode Generated Time:2023-06-04 20:24:43
;----------Machine Config--------------
;Machine Name:Ender-3 V2
;Machine Height:250
;Machine Width:220
;Machine Depth:220
;Material name:PLA
;Number of Extruders:1
;ExtruderParams[0] Nozzle Diameter1000
;----------Profile Config---------------
;Engine Version:275f99b
;Engine Release Time:2022-09-30 09:42:18
;Layer Height:0.2
;Wall Thickness:0.8
;Top/Bottom Thickness:1
;Out Wall Line Width:0.4
;Inner Wall Line Width:0.4
;Inital Layer Height:200
;Wall Line Count:2
;Infill Line Distance:4
;Infill Pattern:grid
;Infill Sparse Density:20
;Infill Wipe Distance:0
;Print Temperature:200
;Bed Temperature:60
;Support Enable:true
;Support Density:0
;Support Angle:60
;Adhesion Type:simpleraft
;machine is belt:false
;machine belt offset:10
;machine belt offset Y:0
;Raft Base Line Spacing:1.6
;Wait Heatup Sync:true
;----------Shell Config----------------
;Outer Wall Wipe Distance:200
;Outer Inset First:false
;Infill Before Walls:false
;Infill Overlap:0.16
;Fill Gaps Between Walls:everywhere
;Minimum Infill Area:1
;Top Surface Skin Layer:0
;Top Layers:3
;Z Seam Alignment:sharpest_corner
;Seam Corner Preference:z_seam_corner_inner
;Z Seam X:110
;Z Seam Y:110
;Horizontal Expansion:0
;Top/Bottom Pattern:zigzag
;Ironing Pattern:zigzag
;Vase Model:false
;----------Support Config----------------
;Support Type:everywhere
;Support Pattern:zigzag
;Support Infill Layer Thickness:0.2
;Minimum Support Area:5
;Enable Support Roof:false
;Support Roof Thickness:0.8
;Support Roof Pattern:lines
;Connect Support Lines:0
;Connect Support ZigZags:1
;Minimum Support X/Y Distance:0.2
;Support Line Distance:0
; ---------PrintSpeed & Travel----------
;Enable Print Cool:true
;Avoid Printed Parts Traveling:true
;Enable Retraction:true
;Retraction Distance:8
;Retraction Speed:100
;Retraction Prime Speed:100
;Maximum Retraction Count:100
;Minimum Extrusion Distance Window:1
;Z Hop When Retracted:false
;Z Hop Height:0.2
;Retract Before Outer Wall:true
;Print Speed:50
;Infill Speed:50

;Prime Tower Speed:50
;Travel Speed:120
;Initial Layer Speed:25
;Skirt/Brim Speed:25
;Combing Mode:infill
; --------SpecialModel&Mesh Fixes--------
;Union Overlapping Volum:true
;Remove All Holes:false
;Maximum Travel Resolution:0.6
;Maximum Deviation:0.05
;Maximum Model Angle:0.872665
;IS Mold Print:false
;Make Overhang Printable:false
;Enable Coasting:false
;Coasting Volumes:0.06
;Coasting Speed:0.9
;Raft AirGap:0.25
;Layer0 ZOverLap:0.13
;---------------------End of Head--------------------------
M140 S60
M105
M104 S200
M105
M109 S200
M105
M190 S60
M82 ;absolute extrusion mode
M220 S100 ;Reset Feedrate
M221 S100 ;Reset Flowrate

G28 ;Home

G92 E0 ;Reset Extruder
G1 Z2.0 F3000 ;Move Z Axis up
G1 X10.1 Y20 Z0.28 F5000.0 ;Move to start position
G1 X10.1 Y145.0 Z0.28 F1500.0 E15 ;Draw the first line
G1 X10.4 Y145.0 Z0.28 F5000.0 ;Move to side a little
G1 X10.4 Y20 Z0.28 F1500.0 E30 ;Draw the second line
G92 E0  ;Reset Extruder
G1 E-1.0000 F1800 ;Retract a bit
G1 Z2.0 F3000 ;Move Z Axis up
G1 E0.0000 F1800 

G92 E0
G92 E0
G1 F6000 E-8

;LAYER_COUNT:75

;LAYER:-4
M107
G0 F7200 X80 Y95.533 Z0.24
;TYPE:SUPPORT-INTERFACE
G1 F6000 E0
G1 F1200 X80 Y124.257 E2.52216
G1 X79.538 Y123.623 E2.59104
G1 X79.113 Y122.893 E2.66521
G1 X78.777 Y122.175 E2.73482
G1 X78.4 Y121.09 E2.83568
G1 X78.4 Y114.151 E3.44497
G1 X78.486 Y113.867 E3.47103
G1 X78.854 Y112.905 E3.56147
G1 X79.35 Y111.775 E3.66982
G1 X79.539 Y111.061 E3.73468
G1 X79.636 Y110.335 E3.79899
G1 X79.64 Y109.601 E3.86344
G1 X79.552 Y108.873 E3.92783
G1 X79.371 Y108.158 E3.99259
G1 X79.086 Y107.445 E4.06002
G1 X78.761 Y106.749 E4.12746
G1 X78.4 Y105.71 E4.22405
G1 X78.4 Y98.68 E4.84133
G1 X78.753 Y97.664 E4.93577
G1 X79.193 Y96.747 E5.02508
G1 X79.632 Y96.026 E5.0992
G1 X80.12 Y95.373 E5.17078
G1 X80.663 Y94.763 E5.24249
G1 X81.329 Y94.068 E5.32701
G1 X81.6 Y93.686 E5.36814
G1 X81.6 Y126.122 E8.21624
G1 X81.673 Y126.221 E8.22704
G1 X82.033 Y126.86 E8.29144
G1 X82.308 Y127.54 E8.35584
G1 X82.496 Y128.25 E8.42033
G1 X82.653 Y129.473 E8.5286
G1 X82.811 Y130.284 E8.60115
G1 X83.037 Y131.068 E8.6728
G1 X83.2 Y131.488 E8.71236
G1 X83.2 Y88.49 E12.48787
G1 X83.496 Y87.817 E12.55243
G1 X83.907 Y87.068 E12.62745
G1 X84.369 Y86.385 E12.69985
G1 X84.8 Y85.852 E12.76004
G1 X84.8 Y134.138 E16.99987
G1 X85.253 Y134.645 E17.05957
G1 X85.767 Y135.131 E17.12169
G1 X86.385 Y135.631 E17.19149
G1 X86.4 Y135.641 E17.19307
G1 X86.4 Y84.368 E21.69519
G1 X86.712 Y84.136 E21.72933
G1 X87.405 Y83.71 E21.80075
G1 X88 Y83.413 E21.85915
G1 X88 Y136.634 E26.53231
G1 X88.419 Y136.902 E26.57598
G1 X88.982 Y137.384 E26.64106
G1 X89.6 Y138.092 E26.72358
G1 X89.6 Y82.843 E31.57481
G1 X89.71 Y82.812 E31.58485
G1 X90.532 Y82.652 E31.65838
G1 X91.149 Y82.582 E31.71291
G1 X91.2 Y82.572 E31.71747
G1 X91.2 Y139.639 E36.72834
G1 X92.193 Y140.393 E36.83782
G1 X92.8 Y140.796 E36.90179
G1 X92.8 Y82.119 E42.05403
G1 X93.212 Y81.93 E42.09383
G1 X93.839 Y81.538 E42.15876
G1 X94.4 Y81.066 E42.22314
G1 X94.4 Y141.591 E47.53764
G1 X95.128 Y141.835 E47.60506
G1 X95.927 Y142.026 E47.67719
G1 X96 Y142.035 E47.68365
G1 X96 Y79.794 E53.14883
G1 X96.911 Y79.158 E53.24639
G1 X97.6 Y78.787 E53.3151
G1 X97.6 Y142.175 E58.881
G1 X98.653 Y142.197 E58.97348
G1 X99.2 Y142.174 E59.02155
G1 X99.2 Y78.161 E64.64232
G1 X99.332 Y78.12 E64.65446
G1 X100.145 Y77.942 E64.72754
G1 X100.8 Y77.857 E64.78553
G1 X100.8 Y141.948 E70.41316
G1 X101.109 Y141.88 E70.44094
G1 X101.883 Y141.636 E70.5122
G1 X102.4 Y141.421 E70.56136
G1 X102.4 Y77.816 E76.14631
G1 X103.515 Y77.838 E76.24423
G1 X104 Y77.905 E76.28723
G1 X104 Y140.514 E81.78472
G1 X104.941 Y139.856 E81.88554
G1 X105.6 Y139.305 E81.96097
G1 X105.6 Y78.262 E87.32096
G1 X106.086 Y78.424 E87.36594
G1 X106.874 Y78.77 E87.44151
G1 X107.2 Y78.93 E87.47339
G1 X107.2 Y138.126 E92.6712
G1 X107.758 Y137.862 E92.72541
G1 X108.454 Y137.633 E92.78974
G1 X108.8 Y137.567 E92.82067
G1 X108.8 Y79.522 E97.91741
G1 X109.316 Y79.614 E97.96344
G1 X110.049 Y79.65 E98.02788
G1 X110.4 Y79.623 E98.05879
G1 X110.4 Y137.473 E103.13841
G1 X110.904 Y137.498 E103.18272
G1 X111.628 Y137.639 E103.24748
G1 X112 Y137.763 E103.28192
G1 X112 Y79.271 E108.41791
G1 X112.189 Y79.207 E108.43543
G1 X113.23 Y78.69 E108.53749
G1 X113.6 Y78.536 E108.57268
G1 X113.6 Y138.585 E113.84539
G1 X113.605 Y138.589 E113.84595
G1 X114.295 Y139.191 E113.92635
G1 X115.09 Y139.836 E114.01624
G1 X115.2 Y139.912 E114.02798
G1 X115.2 Y78.037 E119.46103
G1 X115.558 Y77.958 E119.49322
G1 X116.368 Y77.856 E119.5649
G1 X116.8 Y77.836 E119.60288
G1 X116.8 Y140.985 E125.14779
G1 X117.241 Y141.227 E125.19196
G1 X117.996 Y141.559 E125.26438
G1 X118.4 Y141.694 E125.30178
G1 X118.4 Y77.833 E130.90921
G1 X119.086 Y77.869 E130.96952
G1 X119.922 Y77.992 E131.04372
G1 X120 Y78.011 E131.05077
G1 X120 Y142.072 E136.67576
G1 X120.389 Y142.13 E136.71029
G1 X121.393 Y142.18 E136.79856
G1 X121.6 Y142.176 E136.81674
G1 X121.6 Y78.49 E142.4088
G1 X122.231 Y78.766 E142.46928
G1 X122.981 Y79.178 E142.54441
G1 X123.2 Y79.331 E142.56787
G1 X123.2 Y142.133 E148.08231
G1 X123.928 Y142.042 E148.14673
G1 X124.724 Y141.865 E148.21833
G1 X124.8 Y141.842 E148.2253
G1 X124.8 Y80.492 E153.61225
G1 X125.179 Y80.799 E153.65508
G1 X125.945 Y81.471 E153.74455
G1 X126.4 Y81.766 E153.79216
G1 X126.4 Y141.236 E159.01403
G1 X126.994 Y140.924 E159.07295
G1 X127.816 Y140.39 E159.15902
G1 X128 Y140.251 E159.17927
G1 X128 Y82.434 E164.25599
G1 X129.6 Y82.679 E164.39812
G1 X129.6 Y138.967 E169.34058
G1 X129.796 Y138.784 E169.36413
G1 X130.574 Y137.884 E169.46859
G1 X131.2 Y137.224 E169.54846
G1 X131.2 Y83.09 E174.3018
G1 X131.437 Y83.169 E174.32373
G1 X132.183 Y83.496 E174.39525
G1 X132.8 Y83.835 E174.45707
G1 X132.8 Y136.154 E179.05103
G1 X133.289 Y135.862 E179.10104
G1 X133.944 Y135.374 E179.17276
G1 X134.4 Y134.967 E179.22643
G1 X134.4 Y85.028 E183.61141
G1 X134.753 Y85.361 E183.65402
G1 X135.378 Y86.06 E183.73636
G1 X135.864 Y86.712 E183.80776
G1 X136 Y86.934 E183.83062
G1 X136 Y133.07 E187.88167
G1 X136.093 Y132.932 E187.89629
G1 X136.504 Y132.183 E187.9713
G1 X136.833 Y131.434 E188.04314
G1 X137.089 Y130.666 E188.11422
G1 X137.277 Y129.876 E188.18552
G1 X137.489 Y128.276 E188.32724
G1 X137.6 Y127.818 E188.36862
G1 X137.6 Y92.049 E191.50938
G1 X137.77 Y92.589 E191.55909
G1 X138.077 Y93.256 E191.62356
G1 X138.475 Y93.89 E191.68929
G1 X139.2 Y94.694 E191.78435
G1 X139.2 Y125.089 E194.45324
G1 X139.882 Y124.345 E194.54186
G1 X140.355 Y123.706 E194.61167
G1 X140.789 Y122.998 E194.68459
G1 X140.8 Y122.976 E194.68675
G1 X140.8 Y112.041 E195.64692
G1 X140.665 Y111.701 E195.67904
G1 X140.485 Y110.987 E195.74369
G1 X140.398 Y110.26 E195.80798
G1 X140.402 Y109.526 E195.87243
G1 X140.501 Y108.799 E195.93686
G1 X140.69 Y108.085 E196.00171
G1 X141.234 Y106.844 E196.12069
G1 X141.809 Y105.189 E196.27453
G1 X142.031 Y104.387 E196.3476
G1 X142.183 Y103.589 E196.41893
G1 X142.265 Y102.766 E196.49155
G1 X142.271 Y101.954 E196.56285
G1 X142.205 Y101.123 E196.63605
G1 X142.069 Y100.329 E196.70679
G1 X141.798 Y99.333 E196.79742
G1 X141.239 Y97.723 E196.94707
G1 X140.896 Y96.994 E197.01781
G1 X140.8 Y96.83 E197.0345
G1 X140.8 Y107.835 E198.00081
G0 F600 X140.8 Y107.835 Z0.47
G0 F7200 X142.4 Y119.767
;TIME_ELAPSED:118.727736

;LAYER:-3
;TYPE:SUPPORT
G1 F1800 X142.561 Y118.924 E198.06646
G1 X142.597 Y118.555 E198.09483
G1 X101.459 Y77.417 E202.54534
G1 X101.779 Y77.403 E202.56984
G1 X102.88 Y77.424 E202.65408
G1 X142.651 Y117.195 E206.9567
G1 X142.586 Y116.359 E207.02085
G1 X142.451 Y115.581 E207.08125
G1 X104.429 Y77.559 E211.19466
G1 X104.591 Y77.581 E211.20717
G1 X105.42 Y77.779 E211.27237
G1 X106.232 Y78.051 E211.33788
G1 X106.417 Y78.133 E211.35336
G1 X141.835 Y113.55 E215.185
G1 X141.593 Y112.852 E215.24151
G1 X141.323 Y112.274 E215.29032
G1 X141.046 Y111.578 E215.34762
G1 X140.968 Y111.269 E215.372
G1 X108.818 Y79.12 E218.85009
G1 X109.361 Y79.216 E218.89227
G1 X110.043 Y79.249 E218.94451
G1 X110.339 Y79.226 E218.96722
G1 X140.8 Y109.687 E222.26264
G1 X140.802 Y109.554 E222.27282
G1 X140.894 Y108.877 E222.32508
G1 X141 Y108.473 E222.35703
G1 X111.534 Y79.007 E225.54481
G1 X112.035 Y78.837 E225.58528
G1 X112.531 Y78.59 E225.62767
G1 X141.4 Y107.459 E228.75086
G1 X141.609 Y106.983 E228.79063
G1 X141.797 Y106.442 E228.83444
G1 X113.5 Y78.145 E231.89575
G1 X113.844 Y78.002 E231.92425
G1 X114.551 Y77.781 E231.98092
G1 X142.162 Y105.392 E234.96801
G1 X142.194 Y105.301 E234.97539
G1 X142.42 Y104.483 E235.04031
G1 X142.459 Y104.275 E235.0565
G1 X115.718 Y77.534 E237.94947
G1 X116.337 Y77.457 E237.99719
G1 X117.024 Y77.426 E238.0498
G1 X142.639 Y103.041 E240.82096
G1 X142.665 Y102.787 E240.84049
G1 X142.671 Y101.936 E240.90559
G1 X142.646 Y101.634 E240.92877
G1 X118.447 Y77.435 E243.54674
G1 X119.133 Y77.471 E243.59929
G1 X119.995 Y77.598 E243.66594
G1 X120.034 Y77.607 E243.669
G1 X142.381 Y99.955 E246.08667
G1 X142.18 Y99.214 E246.1454
G1 X141.713 Y97.872 E246.2541
G1 X122.122 Y78.281 E248.37355
G1 X122.415 Y78.41 E248.39804
G1 X123.188 Y78.835 E248.46552
G1 X124.632 Y79.841 E248.60015
G1 X125.443 Y80.498 E248.67999
G1 X126.187 Y81.151 E248.75572
G1 X126.76 Y81.522 E248.80794
G1 X126.792 Y81.537 E248.81064
G1 X138.612 Y93.357 E250.08939
G1 X138.43 Y93.065 E250.11571
G1 X138.144 Y92.445 E250.16794
G1 X137.939 Y91.793 E250.22023
G1 X137.822 Y91.153 E250.27
G1 X128.824 Y82.155 E251.24345
G1 X129.947 Y82.328 E251.33037
G1 X130.558 Y82.474 E251.37842
G1 X137.526 Y89.443 E252.13231
G1 X137.341 Y88.799 E252.18357
G1 X137.022 Y87.977 E252.25102
G1 X136.64 Y87.21 E252.31657
G1 X136.197 Y86.49 E252.38124
G1 X135.689 Y85.807 E252.44635
G1 X135.038 Y85.079 E252.52106
G1 X134.498 Y84.568 E252.57793
G1 X133.859 Y84.051 E252.64081
G1 X133.132 Y83.56 E252.70792
G1 X132.968 Y83.471 E252.7222
G1 X136.531 Y87.033 E253.10761
;;retract;;
G1 F6000 E245.10761
G0 F7200 X142.398 Y119.771
G1 F6000 E253.10761
G1 F1800 X100.163 Y77.536 E257.6768
G1 X100.078 Y77.547 E257.68335
G1 X99.236 Y77.731 E257.74929
G1 X99.014 Y77.8 E257.76707
G1 X142.076 Y120.862 E262.42573
G1 X141.711 Y121.912 E262.51077
G1 X97.973 Y78.174 E267.24256
G1 X97.622 Y78.321 E267.27167
G1 X97.026 Y78.641 E267.32342
G1 X141.28 Y122.895 E272.11104
G1 X141.138 Y123.194 E272.13636
G1 X140.767 Y123.797 E272.19052
G1 X96.162 Y79.192 E277.01611
G1 X95.33 Y79.773 E277.09374
G1 X140.174 Y124.618 E281.94524
G1 X139.498 Y125.355 E282.02174
G1 X94.555 Y80.413 E286.88384
G1 X93.787 Y81.059 E286.96061
G1 X138.844 Y126.116 E291.8351
G1 X138.609 Y126.448 E291.86622
G1 X138.314 Y127 E291.9141
G1 X92.932 Y81.618 E296.82375
G1 X92.402 Y81.862 E296.86838
G1 X91.914 Y82.015 E296.90751
G1 X137.954 Y128.054 E301.88829
G1 X137.883 Y128.349 E301.9115
G1 X137.759 Y129.274 E301.98289
G1 X90.714 Y82.229 E307.07245
G1 X90.463 Y82.258 E307.09178
G1 X89.622 Y82.421 E307.15731
G1 X89.521 Y82.45 E307.16535
G1 X137.545 Y130.474 E312.36083
G1 X137.476 Y130.769 E312.384
G1 X137.213 Y131.556 E312.44748
G1 X88.45 Y82.793 E317.7229
G1 X87.977 Y82.978 E317.76175
G1 X87.472 Y83.23 E317.80493
G1 X136.771 Y132.528 E323.13828
G1 X136.44 Y133.132 E323.19097
G1 X136.246 Y133.418 E323.21741
G1 X86.578 Y83.749 E328.59079
G1 X86.49 Y83.803 E328.59869
G1 X85.807 Y84.311 E328.66381
G1 X85.763 Y84.349 E328.66826
G1 X135.647 Y134.232 E334.0649
G1 X135.432 Y134.498 E334.09106
G1 X134.977 Y134.977 E334.1416
G1 X85.021 Y85.021 E339.54609
G1 X84.568 Y85.502 E339.59663
G1 X84.352 Y85.766 E339.62273
G1 X134.235 Y135.649 E345.01932
G1 X134.197 Y135.685 E345.02332
G1 X133.51 Y136.197 E345.08887
G1 X133.42 Y136.248 E345.09678
G1 X83.752 Y86.58 E350.47011
G1 X83.56 Y86.868 E350.49659
G1 X83.227 Y87.47 E350.54922
G1 X132.534 Y136.777 E355.88349
G1 X132.03 Y137.078 E355.9284
G1 X131.687 Y137.344 E355.9616
G1 X82.785 Y88.442 E361.25206
G1 X82.524 Y89.231 E361.31564
G1 X82.453 Y89.524 E361.3387
G1 X130.973 Y138.044 E366.58783
G1 X130.871 Y138.152 E366.5992
G1 X130.312 Y138.797 E366.66449
G1 X82.232 Y90.718 E371.86597
G1 X82.143 Y91.356 E371.91525
G1 X82.007 Y91.906 E371.95859
G1 X129.606 Y139.505 E377.10809
G1 X129.446 Y139.657 E377.12497
G1 X128.817 Y140.131 E377.18522
G1 X81.598 Y92.912 E382.2936
G1 X81.416 Y93.254 E382.32324
G1 X81.045 Y93.773 E382.37204
G1 X128.011 Y140.738 E387.453
G1 X127.198 Y141.268 E387.52724
G1 X127.149 Y141.291 E387.53139
G1 X80.359 Y94.501 E392.59336
G1 X79.816 Y95.113 E392.65595
G1 X79.704 Y95.26 E392.67009
G1 X126.206 Y141.762 E397.7009
G1 X125.642 Y141.998 E397.74767
G1 X125.172 Y142.143 E397.7853
G1 X79.121 Y96.092 E402.76732
G1 X78.841 Y96.556 E402.80878
G1 X78.623 Y97.007 E402.8471
G1 X124.041 Y142.426 E407.7607
G1 X124.001 Y142.436 E407.76385
G1 X123.149 Y142.543 E407.82954
G1 X122.75 Y142.549 E407.86007
G1 X78.209 Y98.008 E412.67873
G1 X77.845 Y99.058 E412.76375
G1 X121.364 Y142.577 E417.47185
G1 X120.353 Y142.529 E417.54927
G1 X119.822 Y142.449 E417.59035
G1 X77.545 Y100.172 E422.16409
G1 X77.421 Y100.827 E422.21508
G1 X77.362 Y101.404 E422.25945
G1 X117.909 Y141.95 E426.64597
G1 X117.85 Y141.932 E426.65069
G1 X117.065 Y141.587 E426.71629
G1 X116.298 Y141.165 E426.78326
G1 X114.847 Y140.154 E426.91854
G1 X114.057 Y139.513 E426.99637
G1 X77.349 Y102.805 E430.96762
G1 X77.395 Y103.378 E431.01159
G1 X77.541 Y104.234 E431.07802
G1 X77.607 Y104.477 E431.09729
G1 X111.066 Y137.936 E434.71705
G1 X110.856 Y137.896 E434.7334
G1 X109.894 Y137.85 E434.80707
G1 X109.583 Y137.868 E434.83091
G1 X78.268 Y106.553 E438.21872
G1 X78.388 Y106.895 E438.24644
G1 X78.719 Y107.604 E438.3063
G1 X78.99 Y108.282 E438.36216
G1 X79.127 Y108.825 E438.405
G1 X108.378 Y138.077 E441.56957
G1 X107.906 Y138.234 E441.60762
G1 X107.372 Y138.485 E441.65276
G1 X79.23 Y110.343 E444.6973
G1 X79.146 Y110.983 E444.74668
G1 X79 Y111.527 E444.78977
G1 X106.524 Y139.051 E447.76745
G1 X105.754 Y139.696 E447.84429
G1 X78.583 Y112.524 E450.78383
