;FLAVOR:Marlin
;TIME:1835
;Filament used:1.41143m
;Layer height: 0.2
;MINX:86.3
;MINY:86.3
;MINZ:0.24
;MAXX:133.699
;MAXY:133.698
;MAXZ:5.89
                                 
;Creality Print GCode Generated by CXEngine:NO_MAGE_VERSION_GIT_HEAD_BRANCH
;CXEngine Release Time:2022-09-30 09:53:04
;Gcode Generated Time:2023-06-04 20:00:07
;----------Machine Config--------------
;Machine Name:Ender-3 V2
;Machine Height:250
;Machine Width:220
;Machine Depth:220
;Material name:PLA
;Number of Extruders:1
;ExtruderParams[0] Nozzle Diameter1000
;----------Profile Config---------------
;Engine Version:275f99b
;Engine Release Time:2022-09-30 09:42:18
;Layer Height:0.2
;Wall Thickness:0.8
;Top/Bottom Thickness:1
;Out Wall Line Width:0.4
;Inner Wall Line Width:0.4
;Inital Layer Height:200
;Wall Line Count:2
;Infill Line Distance:4
;Infill Pattern:grid
;Infill Sparse Density:20
;Infill Wipe Distance:0
;Print Temperature:200
;Bed Temperature:60
;Support Enable:true
;Support Density:0
;Support Angle:60
;Adhesion Type:simpleraft
;machine is belt:false
;machine belt offset:10
;machine belt offset Y:0
;Raft Base Line Spacing:1.6
;Wait Heatup Sync:true
;----------Shell Config----------------
;Outer Wall Wipe Distance:200
;Outer Inset First:false
;Infill Before Walls:false
;Infill Overlap:0.16
;Fill Gaps Between Walls:everywhere
;Minimum Infill Area:1
;Top Surface Skin Layer:0
;Top Layers:3
;Z Seam Alignment:sharpest_corner
;Seam Corner Preference:z_seam_corner_inner
;Z Seam X:110
;Z Seam Y:110
;Horizontal Expansion:0
;Top/Bottom Pattern:zigzag
;Ironing Pattern:zigzag
;Vase Model:false
;----------Support Config----------------
;Support Type:everywhere
;Support Pattern:zigzag
;Support Infill Layer Thickness:0.2
;Minimum Support Area:5
;Enable Support Roof:false
;Support Roof Thickness:0.8
;Support Roof Pattern:lines
;Connect Support Lines:0
;Connect Support ZigZags:1
;Minimum Support X/Y Distance:0.2
;Support Line Distance:0
; ---------PrintSpeed & Travel----------
;Enable Print Cool:true
;Avoid Printed Parts Traveling:true
;Enable Retraction:true
;Retraction Distance:8
;Retraction Speed:100
;Retraction Prime Speed:100
;Maximum Retraction Count:100
;Minimum Extrusion Distance Window:1
;Z Hop When Retracted:false
;Z Hop Height:0.2
;Retract Before Outer Wall:true
;Print Speed:50
;Infill Speed:50

;Prime Tower Speed:50
;Travel Speed:120
;Initial Layer Speed:25
;Skirt/Brim Speed:25
;Combing Mode:infill
; --------SpecialModel&Mesh Fixes--------
;Union Overlapping Volum:true
;Remove All Holes:false
;Maximum Travel Resolution:0.6
;Maximum Deviation:0.05
;Maximum Model Angle:0.872665
;IS Mold Print:false
;Make Overhang Printable:false
;Enable Coasting:false
;Coasting Volumes:0.06
;Coasting Speed:0.9
;Raft AirGap:0.25
;Layer0 ZOverLap:0.13
;---------------------End of Head--------------------------
M140 S60
M105
M104 S200
M105
M109 S200
M105
M190 S60
M82 ;absolute extrusion mode
M220 S100 ;Reset Feedrate
M221 S100 ;Reset Flowrate

G28 ;Home

G92 E0 ;Reset Extruder
G1 Z2.0 F3000 ;Move Z Axis up
G1 X10.1 Y20 Z0.28 F5000.0 ;Move to start position
G1 X10.1 Y145.0 Z0.28 F1500.0 E15 ;Draw the first line
G1 X10.4 Y145.0 Z0.28 F5000.0 ;Move to side a little
G1 X10.4 Y20 Z0.28 F1500.0 E30 ;Draw the second line
G92 E0  ;Reset Extruder
G1 E-1.0000 F1800 ;Retract a bit
G1 Z2.0 F3000 ;Move Z Axis up
G1 E0.0000 F1800 

G92 E0
G92 E0
G1 F6000 E-8

;LAYER_COUNT:25

;LAYER:-4
M107
G0 F7200 X88 Y91.886 Z0.24
;TYPE:SUPPORT-INTERFACE
G1 F6000 E0
G1 F1200 X88 Y128.124 E3.18194
G1 X87.696 Y127.515 E3.24171
G1 X87.387 Y126.718 E3.31677
G1 X87.161 Y125.934 E3.38841
G1 X87.004 Y125.127 E3.4606
G1 X86.92 Y124.332 E3.53079
G1 X86.9 Y96.313 E5.99105
G1 X86.949 Y95.308 E6.0794
G1 X87.072 Y94.476 E6.15325
G1 X87.26 Y93.685 E6.22464
G1 X87.517 Y92.916 E6.29583
G1 X87.846 Y92.167 E6.36767
G1 X88.257 Y91.418 E6.44269
G1 X88.719 Y90.735 E6.51509
G1 X89.219 Y90.117 E6.58489
G1 X89.6 Y89.714 E6.63359
G1 X89.6 Y130.291 E10.19652
G1 X89.603 Y130.295 E10.19696
G1 X90.117 Y130.781 E10.25907
G1 X90.735 Y131.281 E10.32887
G1 X91.2 Y131.595 E10.37814
G1 X91.2 Y88.401 E14.17087
G1 X91.755 Y88.06 E14.22806
G1 X92.485 Y87.696 E14.29969
G1 X92.8 Y87.573 E14.32938
G1 X92.8 Y132.431 E18.26822
G1 X92.908 Y132.479 E18.27859
G1 X93.681 Y132.738 E18.35018
G1 X94.4 Y132.909 E18.41507
G1 X94.4 Y87.095 E22.43785
G1 X94.873 Y87.004 E22.48015
G1 X95.661 Y86.921 E22.54972
G1 X96 Y86.909 E22.5795
G1 X96 Y133.087 E26.63425
G1 X96.17 Y133.097 E26.6492
G1 X97.6 Y133.097 E26.77476
G1 X97.6 Y86.901 E30.83108
G1 X99.2 Y86.901 E30.97157
G1 X99.2 Y133.097 E35.02789
G1 X100.8 Y133.097 E35.16839
G1 X100.8 Y86.901 E39.22471
G1 X102.4 Y86.901 E39.3652
G1 X102.4 Y133.097 E43.42152
G1 X104 Y133.097 E43.56201
G1 X104 Y86.901 E47.61833
G1 X105.6 Y86.902 E47.75882
G1 X105.6 Y133.098 E51.81514
G1 X107.2 Y133.098 E51.95563
G1 X107.2 Y86.902 E56.01195
G1 X108.8 Y86.902 E56.15244
G1 X108.8 Y133.098 E60.20877
G1 X110.4 Y133.098 E60.34926
G1 X110.4 Y86.902 E64.40558
G1 X112 Y86.902 E64.54607
G1 X112 Y133.098 E68.60239
G1 X113.6 Y133.098 E68.74288
G1 X113.6 Y86.902 E72.7992
G1 X115.2 Y86.903 E72.93969
G1 X115.2 Y133.099 E76.99601
G1 X116.8 Y133.099 E77.1365
G1 X116.8 Y86.903 E81.19282
G1 X118.4 Y86.903 E81.33332
G1 X118.4 Y133.099 E85.38964
G1 X120 Y133.099 E85.53013
G1 X120 Y86.903 E89.58645
G1 X121.6 Y86.903 E89.72694
G1 X121.6 Y133.099 E93.78326
G1 X123.2 Y133.099 E93.92375
G1 X123.2 Y86.903 E97.98007
G1 X123.83 Y86.903 E98.03539
G1 X124.688 Y86.949 E98.11084
G1 X124.8 Y86.966 E98.12078
G1 X124.8 Y133.031 E102.1656
G1 X125.127 Y132.996 E102.19448
G1 X125.94 Y132.838 E102.2672
G1 X126.4 Y132.706 E102.30922
G1 X126.4 Y87.29 E106.29705
G1 X127.087 Y87.519 E106.36064
G1 X127.833 Y87.846 E106.43216
G1 X128 Y87.938 E106.4489
G1 X128 Y132.063 E110.32338
G1 X128.245 Y131.94 E110.34745
G1 X128.937 Y131.514 E110.4188
G1 X129.594 Y131.024 E110.49077
G1 X129.6 Y131.019 E110.49145
G1 X129.6 Y88.991 E114.1818
G1 X129.883 Y89.219 E114.21371
G1 X130.403 Y89.711 E114.27656
G1 X131.028 Y90.41 E114.3589
G1 X131.2 Y90.641 E114.38419
G1 X131.2 Y129.366 E117.7845
G1 X131.281 Y129.265 E117.79587
G1 X131.743 Y128.582 E117.86827
G1 X132.154 Y127.833 E117.94329
G1 X132.483 Y127.084 E118.01512
G1 X132.739 Y126.316 E118.08621
G1 X132.928 Y125.522 E118.15787
G1 X133.052 Y124.681 E118.23252
G1 X133.097 Y123.832 E118.30717
G1 X133.1 Y96.247 E120.72932
G1 X133.079 Y95.657 E120.78116
G1 X132.996 Y94.873 E120.85038
G1 X132.839 Y94.066 E120.92257
G1 X132.8 Y93.931 E120.93491
G1 X132.8 Y126.06 E123.75606
;;retract;;
G1 F6000 E115.75606
G0 F600 X132.8 Y126.06 Z0.47
G0 F7200 X133.089 Y93.491
;TIME_ELAPSED:76.664230

;LAYER:-3
;TYPE:SUPPORT
G1 F6000 E123.75606
G1 F1800 X126.498 Y86.9 E124.4691
G1 X127.232 Y87.146 E124.52832
G1 X128.017 Y87.49 E124.59389
G1 X128.782 Y87.91 E124.66065
G1 X129.216 Y88.204 E124.70075
G1 X131.83 Y90.817 E124.98349
G1 X131.847 Y90.84 E124.98568
G1 X132.29 Y91.56 E125.05035
G1 X132.672 Y92.327 E125.11589
G1 X132.991 Y93.149 E125.18335
G1 X133.23 Y93.978 E125.24935
G1 X133.392 Y94.813 E125.31441
G1 X133.438 Y95.254 E125.34833
G1 X124.734 Y86.55 E126.28997
G1 X123.832 Y86.503 E126.35907
G1 X123.272 Y86.503 E126.40191
G1 X133.498 Y96.729 E127.50821
G1 X133.498 Y98.143 E127.61638
G1 X121.858 Y86.503 E128.87565
G1 X120.444 Y86.503 E128.98382
G1 X133.498 Y99.557 E130.39606
G1 X133.498 Y100.972 E130.50431
G1 X119.03 Y86.503 E132.06958
G1 X117.615 Y86.502 E132.17783
G1 X133.498 Y102.386 E133.89618
G1 X133.498 Y103.8 E134.00435
G1 X116.2 Y86.502 E135.87573
G1 X114.786 Y86.502 E135.9839
G1 X133.498 Y105.214 E138.00826
G1 X133.498 Y106.628 E138.11643
G1 X113.372 Y86.502 E140.29376
G1 X111.957 Y86.501 E140.402
G1 X133.498 Y108.042 E142.73242
G1 X133.498 Y109.456 E142.84058
G1 X110.543 Y86.501 E145.32397
G1 X109.129 Y86.501 E145.43214
G1 X133.498 Y110.87 E148.0685
G1 X133.498 Y112.285 E148.17674
G1 X107.714 Y86.501 E150.96618
G1 X106.3 Y86.501 E151.07435
G1 X133.498 Y113.699 E154.01677
G1 X133.497 Y115.112 E154.12486
G1 X104.885 Y86.501 E157.22019
G1 X103.471 Y86.501 E157.32836
G1 X133.497 Y116.526 E160.57667
G1 X133.497 Y117.941 E160.68491
G1 X102.057 Y86.501 E164.08625
G1 X100.642 Y86.5 E164.19449
G1 X133.497 Y119.355 E167.74891
G1 X133.497 Y120.769 E167.85708
G1 X99.228 Y86.5 E171.56447
G1 X97.814 Y86.5 E171.67264
G1 X133.497 Y122.183 E175.533
G1 X133.497 Y123.598 E175.64125
G1 X96.399 Y86.5 E179.65469
G1 X96.254 Y86.5 E179.66578
G1 X95.634 Y86.521 E179.71324
G1 X95.066 Y86.581 E179.75693
G1 X133.419 Y124.933 E183.90609
G1 X133.322 Y125.595 E183.95728
G1 X133.195 Y126.124 E183.99889
G1 X93.871 Y86.8 E188.25316
G1 X93.145 Y87.01 E188.31097
G1 X92.8 Y87.143 E188.33926
G1 X132.863 Y127.206 E192.67347
G1 X132.855 Y127.232 E192.67555
G1 X132.51 Y128.017 E192.74115
G1 X132.421 Y128.178 E192.75522
G1 X91.822 Y87.579 E197.14742
G1 X91.554 Y87.713 E197.17034
G1 X90.927 Y88.099 E197.22667
G1 X131.896 Y129.068 E201.6589
G1 X131.599 Y129.509 E201.69957
G1 X131.297 Y129.882 E201.73629
G1 X90.113 Y88.699 E206.19172
G1 X89.429 Y89.312 E206.26198
G1 X89.371 Y89.371 E206.26831
G1 X130.628 Y130.628 E210.7317
G1 X130.572 Y130.687 E210.73792
G1 X129.884 Y131.299 E210.80836
G1 X88.702 Y90.116 E215.26369
G1 X88.401 Y90.491 E215.30047
G1 X88.102 Y90.931 E215.34117
G1 X129.071 Y131.9 E219.7734
G1 X128.446 Y132.287 E219.82963
G1 X128.177 Y132.419 E219.85255
G1 X87.578 Y91.82 E224.24476
G1 X87.49 Y91.983 E224.25893
G1 X87.145 Y92.768 E224.32452
G1 X87.136 Y92.792 E224.32648
G1 X127.198 Y132.855 E228.66064
G1 X126.855 Y132.99 E228.68884
G1 X126.128 Y133.199 E228.74671
G1 X86.803 Y93.874 E233.00108
G1 X86.678 Y94.403 E233.04266
G1 X86.579 Y95.064 E233.09379
G1 X124.932 Y133.417 E237.24301
G1 X124.366 Y133.479 E237.28656
G1 X123.746 Y133.5 E237.33402
G1 X123.599 Y133.498 E237.34527
G1 X86.5 Y96.399 E241.35882
G1 X86.501 Y97.814 E241.46707
G1 X122.185 Y133.498 E245.32754
G1 X120.771 Y133.498 E245.43571
G1 X86.501 Y99.229 E249.14315
G1 X86.503 Y100.645 E249.25147
G1 X119.356 Y133.498 E252.80567
G1 X117.941 Y133.498 E252.91392
G1 X86.503 Y102.06 E256.31504
G1 X86.505 Y103.475 E256.42328
G1 X116.527 Y133.498 E259.67126
G1 X115.113 Y133.498 E259.77943
G1 X86.506 Y104.89 E262.87433
G1 X86.506 Y106.305 E262.98258
G1 X113.699 Y133.498 E265.92445
G1 X112.284 Y133.497 E266.0327
G1 X86.508 Y107.721 E268.82127
G1 X86.508 Y109.136 E268.92952
G1 X110.87 Y133.497 E271.56506
G1 X109.455 Y133.497 E271.67331
G1 X86.51 Y110.551 E274.15567
G1 X86.51 Y111.966 E274.26391
G1 X108.041 Y133.497 E276.59324
G1 X106.626 Y133.496 E276.70149
G1 X86.512 Y113.382 E278.87752
G1 X86.513 Y114.797 E278.98576
G1 X105.212 Y133.496 E281.00871
G1 X103.798 Y133.496 E281.11688
G1 X86.513 Y116.212 E282.98681
G1 X86.515 Y117.627 E283.09505
G1 X102.384 Y133.496 E284.81184
G1 X100.969 Y133.496 E284.92008
G1 X86.515 Y119.042 E286.48379
G1 X86.517 Y120.458 E286.59211
G1 X99.554 Y133.496 E288.00257
G1 X98.14 Y133.496 E288.11074
G1 X86.518 Y121.873 E289.36812
G1 X86.518 Y123.288 E289.47636
G1 X96.726 Y133.496 E290.58072
G1 X96.168 Y133.497 E290.6234
G1 X95.265 Y133.449 E290.69258
G0 F7200 X95.264 Y133.448
G1 F1800 X86.561 Y124.744 E291.63417
G1 X86.608 Y125.187 E291.66825
G1 X86.77 Y126.022 E291.73331
G1 X87.009 Y126.851 E291.79931
G1 X87.328 Y127.673 E291.86676
G1 X87.71 Y128.44 E291.93231
G1 X88.153 Y129.16 E291.99698
G1 X88.169 Y129.181 E291.999
G1 X90.782 Y131.794 E292.28169
G1 X91.218 Y132.09 E292.322
G1 X91.979 Y132.508 E292.38842
G1 X92.762 Y132.852 E292.45384
G1 X93.5 Y133.098 E292.51335
G1 X86.909 Y126.507 E293.2264
G0 F600 X86.909 Y126.507 Z0.62
G0 F7200 X93.17 Y133.2
;TIME_ELAPSED:154.576116

;LAYER:-2
;TYPE:SUPPORT-INTERFACE
G1 F2400 X126.815 Y133.2 E294.06568
G1 X126.075 Y133.423 E294.08496
G1 X125.228 Y133.588 E294.10648
G1 X125.114 Y133.6 E294.10934
G1 X94.919 Y133.6 E294.86256
G1 X94.367 Y133.519 E294.87648
G1 X93.511 Y133.314 E294.89843
G1 X92.68 Y133.035 E294.9203
G1 X92.145 Y132.8 E294.93488
G1 X127.864 Y132.8 E295.82589
G1 X128.538 Y132.464 E295.84468
G1 X128.641 Y132.4 E295.8477
G1 X91.365 Y132.4 E296.77756
G1 X91.115 Y132.262 E296.78468
G1 X90.726 Y132 E296.79638
G1 X129.289 Y132 E297.75834
G1 X129.826 Y131.6 E297.77504
G1 X90.174 Y131.6 E298.76416
G1 X89.709 Y131.223 E298.7791
G1 X89.683 Y131.2 E298.77996
G1 X130.297 Y131.2 E299.79308
G1 X130.719 Y130.823 E299.8072
G1 X130.738 Y130.8 E299.80794
G1 X89.262 Y130.8 E300.84257
G1 X89.168 Y130.709 E300.84583
G1 X88.889 Y130.4 E300.85621
G1 X131.118 Y130.4 E301.90962
G1 X131.223 Y130.291 E301.9134
G1 X131.457 Y130 E301.92271
G1 X88.53 Y130 E302.99353
G1 X88.513 Y129.979 E302.9942
G1 X88.229 Y129.6 E303.00602
G1 X131.779 Y129.6 E304.09238
G1 X132.048 Y129.2 E304.1044
G1 X87.942 Y129.2 E305.20463
G1 X87.696 Y128.8 E305.21634
G1 X132.308 Y128.8 E306.3292
G1 X132.528 Y128.4 E306.34058
G1 X87.466 Y128.4 E307.46466
G1 X87.266 Y128 E307.47581
G1 X132.734 Y128 E308.61002
G1 X132.911 Y127.6 E308.62093
G1 X87.084 Y127.6 E309.76409
G1 X86.929 Y127.2 E309.77479
G1 X133.074 Y127.2 E310.92588
G1 X133.209 Y126.8 E310.93641
G1 X86.785 Y126.8 E312.09446
G1 X86.669 Y126.4 E312.10485
G1 X133.335 Y126.4 E313.26894
G1 X133.43 Y126 E313.2792
G1 X86.561 Y126 E314.44835
G1 X86.483 Y125.6 E314.45852
G1 X133.524 Y125.6 E315.63196
G1 X133.582 Y125.2 E315.64204
G1 X86.408 Y125.2 E316.8188
G1 X86.365 Y124.8 E316.82884
G1 X133.641 Y124.8 E318.00814
G1 X133.648 Y124.755 E318.00928
G1 X133.666 Y124.4 E318.01814
G1 X86.322 Y124.4 E319.19914
G1 X86.321 Y124.378 E319.19969
G1 X86.307 Y124 E319.20913
G1 X133.688 Y124 E320.39105
G1 X133.697 Y123.841 E320.39503
G1 X133.697 Y123.6 E320.40104
G1 X86.3 Y123.6 E321.58336
G1 X86.3 Y123.2 E321.59334
G1 X133.697 Y123.2 E322.77566
G1 X133.697 Y122.8 E322.78564
G1 X86.3 Y122.8 E323.96796
G1 X86.3 Y122.4 E323.97794
G1 X133.697 Y122.4 E325.16026
G1 X133.697 Y122 E325.17024
G1 X86.3 Y122 E326.35256
G1 X86.3 Y121.6 E326.36254
G1 X133.697 Y121.6 E327.54487
G1 X133.697 Y121.2 E327.55484
G1 X86.3 Y121.2 E328.73717
G1 X86.3 Y120.8 E328.74715
G1 X133.697 Y120.8 E329.92947
G1 X133.697 Y120.4 E329.93945
G1 X86.3 Y120.4 E331.12177
G1 X86.3 Y120 E331.13175
G1 X133.697 Y120 E332.31407
G1 X133.697 Y119.6 E332.32405
G1 X86.3 Y119.6 E333.50637
G1 X86.3 Y119.2 E333.51635
G1 X133.697 Y119.2 E334.69867
G1 X133.697 Y118.8 E334.70865
G1 X86.301 Y118.8 E335.89095
G1 X86.301 Y118.4 E335.90093
G1 X133.697 Y118.4 E337.08322
G1 X133.697 Y118 E337.0932
G1 X86.301 Y118 E338.2755
G1 X86.301 Y117.6 E338.28548
G1 X133.697 Y117.6 E339.46778
G1 X133.697 Y117.2 E339.47775
G1 X86.301 Y117.2 E340.66005
G1 X86.301 Y116.8 E340.67003
G1 X133.697 Y116.8 E341.85233
G1 X133.697 Y116.4 E341.86231
G1 X86.301 Y116.4 E343.0446
G1 X86.301 Y116 E343.05458
G1 X133.697 Y116 E344.23688
G1 X133.697 Y115.6 E344.24686
G1 X86.301 Y115.6 E345.42916
G1 X86.301 Y115.2 E345.43914
G1 X133.697 Y115.2 E346.62143
G1 X133.697 Y114.8 E346.63141
G1 X86.301 Y114.8 E347.81371
G1 X86.302 Y114.4 E347.82369
G1 X133.698 Y114.4 E349.00599
G1 X133.698 Y114 E349.01596
G1 X86.302 Y114 E350.19826
G1 X86.302 Y113.6 E350.20824
G1 X133.698 Y113.6 E351.39054
G1 X133.698 Y113.2 E351.40052
G1 X86.302 Y113.2 E352.58281
G1 X86.302 Y112.8 E352.59279
G1 X133.698 Y112.8 E353.77509
G1 X133.698 Y112.4 E353.78507
G1 X86.302 Y112.4 E354.96737
G1 X86.302 Y112 E354.97734
G1 X133.698 Y112 E356.15964
G1 X133.698 Y111.6 E356.16962
G1 X86.302 Y111.6 E357.35192
G1 X86.302 Y111.2 E357.3619
G1 X133.698 Y111.2 E358.54419
G1 X133.698 Y110.8 E358.55417
G1 X86.302 Y110.8 E359.73647
G1 X86.302 Y110.4 E359.74645
G1 X133.698 Y110.4 E360.92875
G1 X133.698 Y110 E360.93872
G1 X86.302 Y110 E362.12102
G1 X86.302 Y109.6 E362.131
G1 X133.698 Y109.6 E363.3133
G1 X133.698 Y109.2 E363.32328
G1 X86.302 Y109.2 E364.50557
G1 X86.302 Y108.8 E364.51555
G1 X133.698 Y108.8 E365.69785
G1 X133.698 Y108.4 E365.70783
G1 X86.302 Y108.4 E366.89013
G1 X86.302 Y108 E366.90011
G1 X133.698 Y108 E368.0824
G1 X133.698 Y107.6 E368.09238
G1 X86.302 Y107.6 E369.27468
G1 X86.302 Y107.2 E369.28466
G1 X133.698 Y107.2 E370.46696
G1 X133.698 Y106.8 E370.47693
G1 X86.302 Y106.8 E371.65923
G1 X86.302 Y106.4 E371.66921
G1 X133.698 Y106.4 E372.85151
G1 X133.698 Y106 E372.86149
