;FLAVOR:Marlin
;TIME:4502
;Filament used:3.23189m
;Layer height: 0.2
;MINX:81.7
;MINY:70.199
;MINZ:0.24
;MAXX:138.3
;MAXY:149.8
;MAXZ:11.49
                                  
;Creality Print GCode Generated by CXEngine:NO_MAGE_VERSION_GIT_HEAD_BRANCH
;CXEngine Release Time:2022-09-30 09:53:04
;Gcode Generated Time:2023-06-18 08:40:40
;----------Machine Config--------------
;Machine Name:Ender-3 V2
;Machine Height:250
;Machine Width:220
;Machine Depth:220
;Material name:PLA
;Number of Extruders:1
;ExtruderParams[0] Nozzle Diameter1000
;----------Profile Config---------------
;Engine Version:275f99b
;Engine Release Time:2022-09-30 09:42:18
;Layer Height:0.2
;Wall Thickness:0.8
;Top/Bottom Thickness:1
;Out Wall Line Width:0.4
;Inner Wall Line Width:0.4
;Inital Layer Height:200
;Wall Line Count:2
;Infill Line Distance:4
;Infill Pattern:grid
;Infill Sparse Density:20
;Infill Wipe Distance:0
;Print Temperature:200
;Bed Temperature:60
;Support Enable:true
;Support Density:0
;Support Angle:60
;Adhesion Type:simpleraft
;machine is belt:false
;machine belt offset:10
;machine belt offset Y:0
;Raft Base Line Spacing:1.6
;Wait Heatup Sync:true
;----------Shell Config----------------
;Outer Wall Wipe Distance:200
;Outer Inset First:false
;Infill Before Walls:false
;Infill Overlap:0.16
;Fill Gaps Between Walls:everywhere
;Minimum Infill Area:1
;Top Surface Skin Layer:0
;Top Layers:3
;Z Seam Alignment:sharpest_corner
;Seam Corner Preference:z_seam_corner_inner
;Z Seam X:110
;Z Seam Y:110
;Horizontal Expansion:0
;Top/Bottom Pattern:zigzag
;Ironing Pattern:zigzag
;Vase Model:false
;----------Support Config----------------
;Support Type:everywhere
;Support Pattern:zigzag
;Support Infill Layer Thickness:0.2
;Minimum Support Area:5
;Enable Support Roof:false
;Support Roof Thickness:0.8
;Support Roof Pattern:lines
;Connect Support Lines:0
;Connect Support ZigZags:1
;Minimum Support X/Y Distance:0.2
;Support Line Distance:0
; ---------PrintSpeed & Travel----------
;Enable Print Cool:true
;Avoid Printed Parts Traveling:true
;Enable Retraction:true
;Retraction Distance:8
;Retraction Speed:100
;Retraction Prime Speed:100
;Maximum Retraction Count:100
;Minimum Extrusion Distance Window:1
;Z Hop When Retracted:false
;Z Hop Height:0.2
;Retract Before Outer Wall:true
;Print Speed:50
;Infill Speed:50

;Prime Tower Speed:50
;Travel Speed:120
;Initial Layer Speed:25
;Skirt/Brim Speed:25
;Combing Mode:infill
; --------SpecialModel&Mesh Fixes--------
;Union Overlapping Volum:true
;Remove All Holes:false
;Maximum Travel Resolution:0.6
;Maximum Deviation:0.05
;Maximum Model Angle:0.872665
;IS Mold Print:false
;Make Overhang Printable:false
;Enable Coasting:false
;Coasting Volumes:0.06
;Coasting Speed:0.9
;Raft AirGap:0.25
;Layer0 ZOverLap:0.13
;---------------------End of Head--------------------------
M140 S60
M105
M104 S200
M105
M109 S200
M105
M190 S60
M82 ;absolute extrusion mode
M220 S100 ;Reset Feedrate
M221 S100 ;Reset Flowrate

G28 ;Home

G92 E0 ;Reset Extruder
G1 Z2.0 F3000 ;Move Z Axis up
G1 X10.1 Y20 Z0.28 F5000.0 ;Move to start position
G1 X10.1 Y145.0 Z0.28 F1500.0 E15 ;Draw the first line
G1 X10.4 Y145.0 Z0.28 F5000.0 ;Move to side a little
G1 X10.4 Y20 Z0.28 F1500.0 E30 ;Draw the second line
G92 E0  ;Reset Extruder
G1 E-1.0000 F1800 ;Retract a bit
G1 Z2.0 F3000 ;Move Z Axis up
G1 E0.0000 F1800 

G92 E0
G92 E0
G1 F6000 E-8

;LAYER_COUNT:53

;LAYER:-4
M107
G0 F7200 X83.2 Y76.171 Z0.24
;TYPE:SUPPORT-INTERFACE
G1 F6000 E0
G1 F1200 X83.2 Y130.823 E4.79882
G1 X83.096 Y130.615 E4.81923
G1 X82.787 Y129.818 E4.89429
G1 X82.561 Y129.034 E4.96594
G1 X82.404 Y128.227 E5.03812
G1 X82.32 Y127.432 E5.10832
G1 X82.3 Y80.213 E9.25447
G1 X82.349 Y79.208 E9.34282
G1 X82.472 Y78.376 E9.41667
G1 X82.66 Y77.585 E9.48806
G1 X82.917 Y76.816 E9.55925
G1 X83.246 Y76.067 E9.63108
G1 X83.657 Y75.318 E9.7061
G1 X84.119 Y74.635 E9.77851
G1 X84.619 Y74.017 E9.84831
G1 X84.8 Y73.825 E9.87148
G1 X84.8 Y133.168 E15.08219
G1 X85.003 Y133.395 E15.10893
G1 X85.517 Y133.881 E15.17104
G1 X86.135 Y134.381 E15.24085
G1 X86.4 Y134.56 E15.26893
G1 X86.4 Y72.432 E20.72418
G1 X86.462 Y72.386 E20.73096
G1 X87.155 Y71.96 E20.80239
G1 X87.885 Y71.596 E20.87402
G1 X88 Y71.551 E20.88486
G1 X88 Y135.443 E26.49501
G1 X88.308 Y135.579 E26.52457
G1 X89.081 Y135.838 E26.59616
G1 X89.6 Y135.962 E26.64301
G1 X89.6 Y71.034 E32.34413
G1 X90.273 Y70.904 E32.40431
G1 X91.058 Y70.821 E32.47363
G1 X91.2 Y70.82 E32.48609
G1 X91.2 Y136.177 E38.22488
G1 X91.57 Y136.197 E38.25742
G1 X92.8 Y136.198 E38.36542
G1 X92.8 Y70.814 E44.10658
G1 X94.4 Y70.808 E44.24707
G1 X94.4 Y136.199 E49.98884
G1 X96 Y136.201 E50.12933
G1 X96 Y70.802 E55.87181
G1 X96.788 Y70.8 E55.941
G1 X97.6 Y70.841 E56.01239
G1 X97.6 Y136.202 E61.75153
G1 X99.2 Y136.203 E61.89202
G1 X99.2 Y71.11 E67.60762
G1 X99.419 Y71.162 E67.62739
G1 X100.187 Y71.419 E67.6985
G1 X100.8 Y71.688 E67.75728
G1 X100.8 Y136.205 E73.42231
G1 X102.4 Y136.206 E73.5628
G1 X102.4 Y72.644 E79.14397
G1 X103.239 Y73.257 E79.23521
G1 X103.893 Y73.597 E79.29993
G1 X104 Y73.637 E79.30996
G1 X104 Y136.208 E84.80412
G1 X105.6 Y136.209 E84.94461
G1 X105.6 Y74.048 E90.40276
G1 X106.024 Y74.091 E90.44019
G1 X106.758 Y74.074 E90.50465
G1 X107.2 Y74.007 E90.54391
G1 X107.2 Y136.211 E96.00584
G1 X108.043 Y136.212 E96.07986
G1 X108.765 Y136.306 E96.14379
G1 X108.8 Y136.315 E96.14696
G1 X108.8 Y73.501 E101.66246
G1 X108.874 Y73.47 E101.6695
G1 X109.732 Y72.931 E101.75847
G1 X110.4 Y72.431 E101.83174
G1 X110.4 Y136.9 E107.49255
G1 X110.796 Y137.122 E107.53242
G1 X111.387 Y137.557 E107.59685
G1 X111.916 Y138.064 E107.66119
G1 X112 Y138.167 E107.67286
G1 X112 Y71.551 E113.52219
G1 X112.678 Y71.288 E113.58605
G1 X113.46 Y71.062 E113.65752
G1 X113.6 Y71.034 E113.67006
G1 X113.6 Y142.171 E119.91637
G1 X113.787 Y142.818 E119.97551
G1 X114.096 Y143.615 E120.05056
G1 X114.457 Y144.339 E120.1216
G1 X114.886 Y145.038 E120.19362
G1 X115.2 Y145.459 E120.23973
G1 X115.2 Y70.82 E126.79354
G1 X116.8 Y70.816 E126.93403
G1 X116.8 Y147.109 E133.63307
G1 X117.135 Y147.381 E133.67096
G1 X117.818 Y147.843 E133.74337
G1 X118.4 Y148.162 E133.80164
G1 X118.4 Y70.812 E140.5935
G1 X120 Y70.808 E140.73399
G1 X120 Y148.81 E147.58309
G1 X120.081 Y148.838 E147.59062
G1 X120.876 Y149.028 E147.66239
G1 X121.6 Y149.135 E147.72665
G1 X121.6 Y70.804 E154.60464
G1 X123.2 Y70.8 E154.74513
G1 X123.2 Y149.199 E161.6291
G1 X124.8 Y149.193 E161.76959
G1 X124.8 Y70.925 E168.64205
G1 X125.124 Y70.972 E168.67079
G1 X125.919 Y71.162 E168.74257
G1 X126.4 Y71.323 E168.7871
G1 X126.4 Y149.188 E175.62418
G1 X128 Y149.183 E175.76467
G1 X128 Y72.058 E182.53676
G1 X128.182 Y72.157 E182.55496
G1 X128.865 Y72.619 E182.62736
G1 X129.483 Y73.119 E182.69716
G1 X129.6 Y73.23 E182.71132
G1 X129.6 Y149.11 E189.3741
G1 X129.727 Y149.096 E189.38532
G1 X130.54 Y148.938 E189.45804
G1 X131.2 Y148.748 E189.51835
G1 X131.2 Y75.103 E195.98488
G1 X131.543 Y75.661 E196.04239
G1 X131.904 Y76.385 E196.11342
G1 X132.213 Y77.182 E196.18848
G1 X132.439 Y77.966 E196.26013
G1 X132.596 Y78.773 E196.33231
G1 X132.679 Y79.557 E196.40154
G1 X132.7 Y80.147 E196.45338
G1 X132.7 Y112.958 E199.33441
G1 X132.744 Y113.664 E199.39652
G1 X132.8 Y113.955 E199.42254
G1 X132.8 Y148.063 E202.41745
G1 X132.845 Y148.04 E202.42189
G1 X133.537 Y147.614 E202.49324
G1 X134.194 Y147.124 E202.56521
G1 X134.4 Y146.94 E202.58946
G1 X134.4 Y117.018 E205.21682
G1 X134.511 Y117.143 E205.23149
G1 X134.997 Y117.604 E205.29031
G1 X135.628 Y118.31 E205.37346
G1 X136 Y118.81 E205.42818
G1 X136 Y145.19 E207.74452
G1 X136.343 Y144.682 E207.79834
G1 X136.754 Y143.933 E207.87336
G1 X137.083 Y143.184 E207.94519
G1 X137.339 Y142.416 E208.01628
G1 X137.528 Y141.622 E208.08794
G1 X137.652 Y140.781 E208.16259
G1 X137.697 Y139.932 E208.23724
G1 X137.7 Y124.147 E209.62327
G1 X137.679 Y123.557 E209.67511
G1 X137.6 Y122.811 E209.74098
G1 X137.6 Y141.134 E211.34986
G0 F600 X137.6 Y141.134 Z0.47
G0 F7200 X113.011 Y141.295
;TIME_ELAPSED:126.379282

;LAYER:-3
;TYPE:SUPPORT
G1 F1800 X121.193 Y149.478 E212.23508
G1 X120.803 Y149.422 E212.26522
G1 X119.974 Y149.224 E212.33042
G1 X119.298 Y148.996 E212.385
G1 X113.507 Y143.206 E213.01144
G1 X113.409 Y142.951 E213.03234
G1 X113.17 Y142.122 E213.09834
G1 X112.901 Y140.718 E213.2077
G1 X112.698 Y140.066 E213.25994
G1 X112.413 Y139.445 E213.31221
G1 X112.149 Y139.02 E213.35048
G1 X122.728 Y149.599 E214.49497
G1 X124.138 Y149.594 E214.60283
G1 X81.911 Y107.367 E219.17116
G1 X81.911 Y108.781 E219.27933
G1 X110.615 Y137.485 E222.38467
G1 X110.579 Y137.459 E222.38807
G1 X109.983 Y137.126 E222.44029
G1 X109.349 Y136.871 E222.49257
G1 X108.689 Y136.699 E222.54474
G1 X108.372 Y136.656 E222.56922
G1 X81.911 Y110.196 E225.43184
G1 X81.912 Y111.611 E225.54009
G1 X106.911 Y136.609 E228.24455
G1 X105.495 Y136.608 E228.35287
G1 X81.913 Y113.026 E230.90409
G1 X81.914 Y114.44 E231.01226
G1 X104.08 Y136.607 E233.41034
G1 X102.664 Y136.605 E233.51866
G1 X81.914 Y115.855 E235.7635
G1 X81.914 Y117.27 E235.87174
G1 X101.249 Y136.604 E237.96345
G1 X99.834 Y136.603 E238.07169
G1 X81.915 Y118.685 E240.0102
G1 X81.916 Y120.099 E240.11837
G1 X98.418 Y136.602 E241.90369
G1 X97.003 Y136.601 E242.01194
G1 X81.916 Y121.514 E243.64413
G1 X81.917 Y122.929 E243.75237
G1 X95.587 Y136.599 E245.23126
G1 X94.172 Y136.598 E245.3395
G1 X81.918 Y124.344 E246.6652
G1 X81.918 Y125.758 E246.77337
G1 X92.756 Y136.597 E247.94593
G1 X91.568 Y136.597 E248.03681
G1 X91.328 Y136.583 E248.0552
G1 X81.919 Y127.173 E249.07317
G1 X81.92 Y127.455 E249.09474
G1 X82.008 Y128.287 E249.15874
G1 X82.17 Y129.122 E249.22381
G1 X82.409 Y129.951 E249.28981
G1 X82.728 Y130.773 E249.35726
G1 X82.767 Y130.85 E249.36387
G1 X87.637 Y135.72 E249.89073
G1 X88.162 Y135.952 E249.93463
G1 X88.974 Y136.224 E250.00014
G1 X89.736 Y136.405 E250.06006
G1 X82.101 Y128.77 E250.88605
G0 F7200 X81.909 Y104.537
G1 F1800 X126.957 Y149.584 E255.75951
G1 X125.548 Y149.589 E255.8673
G1 X81.91 Y105.952 E260.58822
G1 X81.909 Y103.122 E260.80471
G1 X128.366 Y149.579 E265.83066
G1 X128.966 Y149.579 E265.87656
G1 X129.701 Y149.5 E265.93311
G1 X81.908 Y101.707 E271.10359
G1 X81.907 Y100.292 E271.21183
G1 X130.872 Y149.257 E276.50911
G1 X131.455 Y149.09 E276.5555
G1 X131.932 Y148.903 E276.5947
G1 X81.907 Y98.878 E282.00665
G1 X81.907 Y97.463 E282.11489
G1 X132.901 Y148.457 E287.63168
G1 X133.046 Y148.387 E287.64399
G1 X133.76 Y147.947 E287.70815
G1 X133.784 Y147.926 E287.71059
G1 X81.906 Y96.048 E293.32301
G1 X81.905 Y94.633 E293.43125
G1 X134.583 Y147.311 E299.13022
G1 X135.172 Y146.787 E299.19053
G1 X135.318 Y146.632 E299.20682
G1 X81.904 Y93.218 E304.98541
G1 X81.904 Y91.803 E305.09365
G1 X135.98 Y145.879 E310.94386
G1 X136.199 Y145.609 E310.97046
G1 X136.572 Y145.057 E311.02142
G1 X81.904 Y90.389 E316.93568
G1 X81.903 Y88.974 E317.04392
G1 X137.087 Y144.158 E323.014
G1 X137.11 Y144.117 E323.0176
G1 X137.455 Y143.332 E323.08319
G1 X137.51 Y143.167 E323.0965
G1 X81.902 Y87.559 E329.11244
G1 X81.902 Y86.144 E329.22069
G1 X137.832 Y142.074 E335.27147
G1 X137.922 Y141.695 E335.30127
G1 X138.043 Y140.871 E335.36498
G1 X81.901 Y84.729 E341.4387
G1 X81.9 Y83.314 E341.54695
G1 X138.097 Y139.512 E347.62667
G1 X138.097 Y138.097 E347.73492
G1 X81.9 Y81.9 E353.81459
G1 X81.899 Y80.485 E353.92283
G1 X138.097 Y136.683 E360.00261
G1 X138.097 Y135.269 E360.11078
G1 X81.955 Y79.127 E366.1845
G1 X82.078 Y78.303 E366.24823
G1 X82.167 Y77.924 E366.27801
G1 X138.098 Y133.856 E372.32896
G1 X138.098 Y132.441 E372.4372
G1 X82.488 Y76.832 E378.45331
G1 X82.545 Y76.668 E378.4666
G1 X82.89 Y75.883 E378.53219
G1 X82.911 Y75.84 E378.53585
G1 X138.098 Y131.027 E384.50625
G1 X138.098 Y129.613 E384.61442
G1 X83.427 Y74.942 E390.529
G1 X83.801 Y74.391 E390.57995
G1 X84.019 Y74.119 E390.60661
G1 X138.099 Y128.199 E396.45725
G1 X138.099 Y126.785 E396.56542
G1 X84.68 Y73.367 E402.3445
G1 X84.829 Y73.212 E402.36095
G1 X85.415 Y72.687 E402.42113
G1 X138.099 Y125.371 E408.12075
G1 X138.1 Y124.147 E408.21438
G1 X138.093 Y123.95 E408.22946
G1 X86.214 Y72.072 E413.84194
G1 X86.24 Y72.053 E413.8444
G1 X86.954 Y71.613 E413.90856
G1 X87.097 Y71.541 E413.92081
G1 X137.924 Y122.368 E419.41952
G1 X137.83 Y121.878 E419.45769
G1 X137.591 Y121.049 E419.52369
G1 X137.318 Y120.347 E419.58131
G1 X88.066 Y71.096 E424.90958
G1 X88.545 Y70.91 E424.94889
G1 X89.126 Y70.741 E424.99518
G1 X133.632 Y115.247 E429.81006
G1 X133.484 Y114.933 E429.83661
G1 X133.271 Y114.284 E429.88886
G1 X133.142 Y113.613 E429.94113
G1 X133.124 Y113.325 E429.96321
G1 X90.298 Y70.499 E434.59634
G1 X91.034 Y70.421 E434.65296
G1 X91.631 Y70.418 E434.69863
G1 X133.099 Y111.886 E439.18484
G1 X133.099 Y110.471 E439.29308
G1 X93.041 Y70.413 E443.62676
G1 X94.45 Y70.408 E443.73454
G1 X133.099 Y109.057 E447.91578
G1 X133.099 Y107.643 E448.02395
G1 X95.859 Y70.403 E452.05276
G1 X96.807 Y70.4 E452.12528
G1 X97.295 Y70.425 E452.16266
G1 X133.099 Y106.229 E456.03611
G1 X133.099 Y104.815 E456.14428
G1 X98.914 Y70.63 E459.84259
G1 X99.526 Y70.776 E459.89072
G1 X100.332 Y71.046 E459.95574
G1 X101.066 Y71.367 E460.01703
G1 X133.099 Y103.4 E463.48251
G1 X133.099 Y101.986 E463.59068
G1 X104.515 Y73.402 E466.68304
G1 X104.696 Y73.469 E466.69781
G1 X105.362 Y73.622 E466.75008
G1 X106.04 Y73.691 E466.80221
G1 X106.214 Y73.687 E466.81553
G1 X133.099 Y100.572 E469.72408
G1 X133.099 Y99.158 E469.83225
G1 X107.487 Y73.546 E472.60308
G1 X108.055 Y73.384 E472.64827
G1 X108.534 Y73.179 E472.68812
G1 X133.099 Y97.744 E475.34569
G1 X133.099 Y96.329 E475.45393
G1 X109.423 Y72.653 E478.01532
G1 X109.506 Y72.601 E478.02281
G1 X110.237 Y72.053 E478.0927
G1 X133.099 Y94.915 E480.56602
G1 X133.099 Y93.501 E480.67419
G1 X111.125 Y71.527 E483.05145
G1 X111.727 Y71.228 E483.10287
G1 X112.096 Y71.084 E483.13317
G1 X133.099 Y92.087 E485.40538
G1 X133.099 Y90.673 E485.51355
G1 X113.159 Y70.732 E487.67081
G1 X113.372 Y70.671 E487.68776
G1 X114.213 Y70.508 E487.75329
G1 X114.335 Y70.495 E487.76268
G1 X133.099 Y89.258 E489.7926
G1 X133.099 Y87.844 E489.90077
G1 X115.674 Y70.419 E491.7859
G1 X117.084 Y70.415 E491.89376
G1 X133.099 Y86.43 E493.62634
G1 X133.099 Y85.016 E493.73451
G1 X118.495 Y70.412 E495.31444
G1 X119.906 Y70.408 E495.42238
G1 X133.099 Y83.601 E496.84967
G1 X133.099 Y82.187 E496.95783
G1 X121.316 Y70.405 E498.23252
G1 X122.728 Y70.402 E498.34054
G1 X133.099 Y80.773 E499.46253
G1 X133.1 Y80.147 E499.51041
G1 X133.079 Y79.529 E499.55772
G1 X133.056 Y79.316 E499.57411
G1 X124.184 Y70.444 E500.53392
G1 X124.335 Y70.451 E500.54549
G1 X125.197 Y70.578 E500.61214
G1 X125.901 Y70.746 E500.66751
G1 X132.747 Y77.592 E501.40814
G1 X132.591 Y77.049 E501.45136
G1 X132.272 Y76.227 E501.51881
G1 X131.89 Y75.46 E501.58436
G1 X131.447 Y74.74 E501.64903
G1 X130.939 Y74.057 E501.71414
G1 X130.288 Y73.329 E501.78885
G1 X129.748 Y72.818 E501.84573
G1 X129.109 Y72.301 E501.9086
G1 X128.382 Y71.81 E501.97571
G1 X128.375 Y71.807 E501.9763
G1 X131.666 Y75.098 E502.33233
G0 F600 X131.666 Y75.098 Z0.62
G0 F7200 X131.445 Y74.4
;TIME_ELAPSED:258.280908

;LAYER:-2
;TYPE:SUPPORT-INTERFACE
G1 F2400 X83.553 Y74.4 E503.527
G1 X83.633 Y74.281 E503.53058
G1 X83.861 Y74 E503.53961
G1 X131.147 Y74 E504.71916
G1 X131.607 Y74.619 E504.7384
G1 X131.719 Y74.8 E504.74371
G1 X83.284 Y74.8 E505.95193
G1 X83.133 Y75.023 E505.95864
G1 X83.036 Y75.2 E505.96368
G1 X131.965 Y75.2 E507.18422
G1 X132.064 Y75.362 E507.18895
G1 X132.184 Y75.6 E507.1956
G1 X82.817 Y75.6 E508.42707
G1 X82.717 Y75.781 E508.43223
G1 X82.621 Y76 E508.43819
G1 X132.384 Y76 E509.67953
G1 X132.45 Y76.135 E509.68328
G1 X132.554 Y76.4 E509.69038
G1 X82.445 Y76.4 E510.94036
G1 X82.365 Y76.58 E510.94527
G1 X82.292 Y76.8 E510.95105
G1 X132.71 Y76.8 E512.20874
G1 X132.78 Y76.983 E512.21362
G1 X132.844 Y77.2 E512.21927
G1 X82.157 Y77.2 E513.48366
G1 X82.086 Y77.411 E513.48921
G1 X82.041 Y77.6 E513.49406
G1 X132.959 Y77.6 E514.76421
G1 X133.022 Y77.819 E514.7699
G1 X133.058 Y78 E514.7745
G1 X81.946 Y78 E516.0495
G1 X81.879 Y78.276 E516.05658
G1 X81.861 Y78.4 E516.05971
G1 X133.136 Y78.4 E517.33877
G1 X133.188 Y78.672 E517.34567
G1 X133.202 Y78.8 E517.34889
G1 X81.803 Y78.8 E518.63104
G1 X81.752 Y79.145 E518.63974
