;FLAVOR:Marlin
;TIME:894
;Filament used:0.607897m
;Layer height: 0.2
;MINX:88.2
;MINY:94.45
;MINZ:0.24
;MAXX:131.8
;MAXY:125.549
;MAXZ:7.89
                                  
;Creality Print GCode Generated by CXEngine:NO_MAGE_VERSION_GIT_HEAD_BRANCH
;CXEngine Release Time:2022-09-30 09:53:04
;Gcode Generated Time:2023-06-04 20:25:22
;----------Machine Config--------------
;Machine Name:Ender-3 V2
;Machine Height:250
;Machine Width:220
;Machine Depth:220
;Material name:PLA
;Number of Extruders:1
;ExtruderParams[0] Nozzle Diameter1000
;----------Profile Config---------------
;Engine Version:275f99b
;Engine Release Time:2022-09-30 09:42:18
;Layer Height:0.2
;Wall Thickness:0.8
;Top/Bottom Thickness:1
;Out Wall Line Width:0.4
;Inner Wall Line Width:0.4
;Inital Layer Height:200
;Wall Line Count:2
;Infill Line Distance:4
;Infill Pattern:grid
;Infill Sparse Density:20
;Infill Wipe Distance:0
;Print Temperature:200
;Bed Temperature:60
;Support Enable:true
;Support Density:0
;Support Angle:60
;Adhesion Type:simpleraft
;machine is belt:false
;machine belt offset:10
;machine belt offset Y:0
;Raft Base Line Spacing:1.6
;Wait Heatup Sync:true
;----------Shell Config----------------
;Outer Wall Wipe Distance:200
;Outer Inset First:false
;Infill Before Walls:false
;Infill Overlap:0.16
;Fill Gaps Between Walls:everywhere
;Minimum Infill Area:1
;Top Surface Skin Layer:0
;Top Layers:3
;Z Seam Alignment:sharpest_corner
;Seam Corner Preference:z_seam_corner_inner
;Z Seam X:110
;Z Seam Y:110
;Horizontal Expansion:0
;Top/Bottom Pattern:zigzag
;Ironing Pattern:zigzag
;Vase Model:false
;----------Support Config----------------
;Support Type:everywhere
;Support Pattern:zigzag
;Support Infill Layer Thickness:0.2
;Minimum Support Area:5
;Enable Support Roof:false
;Support Roof Thickness:0.8
;Support Roof Pattern:lines
;Connect Support Lines:0
;Connect Support ZigZags:1
;Minimum Support X/Y Distance:0.2
;Support Line Distance:0
; ---------PrintSpeed & Travel----------
;Enable Print Cool:true
;Avoid Printed Parts Traveling:true
;Enable Retraction:true
;Retraction Distance:8
;Retraction Speed:100
;Retraction Prime Speed:100
;Maximum Retraction Count:100
;Minimum Extrusion Distance Window:1
;Z Hop When Retracted:false
;Z Hop Height:0.2
;Retract Before Outer Wall:true
;Print Speed:50
;Infill Speed:50

;Prime Tower Speed:50
;Travel Speed:120
;Initial Layer Speed:25
;Skirt/Brim Speed:25
;Combing Mode:infill
; --------SpecialModel&Mesh Fixes--------
;Union Overlapping Volum:true
;Remove All Holes:false
;Maximum Travel Resolution:0.6
;Maximum Deviation:0.05
;Maximum Model Angle:0.872665
;IS Mold Print:false
;Make Overhang Printable:false
;Enable Coasting:false
;Coasting Volumes:0.06
;Coasting Speed:0.9
;Raft AirGap:0.25
;Layer0 ZOverLap:0.13
;---------------------End of Head--------------------------
M140 S60
M105
M104 S200
M105
M109 S200
M105
M190 S60
M82 ;absolute extrusion mode
M220 S100 ;Reset Feedrate
M221 S100 ;Reset Flowrate

G28 ;Home

G92 E0 ;Reset Extruder
G1 Z2.0 F3000 ;Move Z Axis up
G1 X10.1 Y20 Z0.28 F5000.0 ;Move to start position
G1 X10.1 Y145.0 Z0.28 F1500.0 E15 ;Draw the first line
G1 X10.4 Y145.0 Z0.28 F5000.0 ;Move to side a little
G1 X10.4 Y20 Z0.28 F1500.0 E30 ;Draw the second line
G92 E0  ;Reset Extruder
G1 E-1.0000 F1800 ;Retract a bit
G1 Z2.0 F3000 ;Move Z Axis up
G1 E0.0000 F1800 

G92 E0
G92 E0
G1 F6000 E-8

;LAYER_COUNT:35

;LAYER:-4
M107
G0 F7200 X91.2 Y101.358 Z0.24
;TYPE:SUPPORT-INTERFACE
G1 F6000 E0
G1 F1200 X91.2 Y118.622 E1.5159
G1 X90.907 Y118.186 E1.56202
G1 X90.354 Y117.187 E1.66228
G1 X89.983 Y116.415 E1.73749
G1 X89.6 Y115.405 E1.83234
G1 X89.6 Y104.589 E2.78206
G1 X90.128 Y103.265 E2.90722
G1 X90.759 Y102.074 E3.02556
G1 X91.203 Y101.354 E3.09984
G1 X91.881 Y100.435 E3.20012
G1 X92.447 Y99.755 E3.2778
G1 X92.8 Y99.397 E3.32195
G1 X92.8 Y120.607 E5.18433
G1 X93.503 Y121.301 E5.27107
G1 X94.185 Y121.869 E5.349
G1 X94.4 Y122.027 E5.37243
G1 X94.4 Y97.975 E7.48436
G1 X94.846 Y97.638 E7.53344
G1 X95.552 Y97.165 E7.60806
G1 X96 Y96.916 E7.65307
G1 X96 Y123.084 E9.95079
G1 X96.871 Y123.555 E10.03774
G1 X97.6 Y123.87 E10.10747
G1 X97.6 Y96.132 E12.54306
G1 X98.442 Y95.812 E12.62215
G1 X99.2 Y95.574 E12.69191
G1 X99.2 Y124.415 E15.22434
G1 X99.595 Y124.524 E15.26032
G1 X100.72 Y124.763 E15.36131
G1 X100.8 Y124.772 E15.36838
G1 X100.8 Y95.241 E17.9614
G1 X101.61 Y95.127 E18.03323
G1 X102.4 Y95.084 E18.1027
G1 X102.4 Y124.915 E20.72206
G1 X102.992 Y124.949 E20.77413
G1 X104 Y124.949 E20.86264
G1 X104 Y95.051 E23.48788
G1 X105.6 Y95.051 E23.62837
G1 X105.6 Y124.948 E26.25353
G1 X107.2 Y124.947 E26.39402
G1 X107.2 Y95.051 E29.01909
G1 X108.8 Y95.051 E29.15958
G1 X108.8 Y124.945 E31.78448
G1 X110.4 Y124.944 E31.92497
G1 X110.4 Y95.051 E34.54978
G1 X112 Y95.051 E34.69027
G1 X112 Y124.943 E37.31499
G1 X113.6 Y124.942 E37.45548
G1 X113.6 Y95.051 E40.08011
G1 X115.2 Y95.051 E40.2206
G1 X115.2 Y124.941 E42.84515
G1 X116.8 Y124.94 E42.98564
G1 X116.8 Y95.051 E45.61009
G1 X117.008 Y95.051 E45.62836
G1 X118.4 Y95.13 E45.75078
G1 X118.4 Y124.857 E48.36101
G1 X118.754 Y124.835 E48.39216
G1 X119.619 Y124.697 E48.46907
G1 X120 Y124.612 E48.50335
G1 X120 Y95.39 E51.06924
G1 X120.397 Y95.474 E51.10487
G1 X121.282 Y95.716 E51.18543
G1 X121.6 Y95.833 E51.21518
G1 X121.6 Y124.173 E53.70362
G1 X122.668 Y123.766 E53.80398
G1 X123.2 Y123.51 E53.85582
G1 X123.2 Y96.484 E56.22889
G1 X124.183 Y97.014 E56.32695
G1 X124.8 Y97.412 E56.39142
G1 X124.8 Y122.598 E58.60292
G1 X125.256 Y122.29 E58.65124
G1 X126.094 Y121.65 E58.74382
G1 X126.4 Y121.375 E58.77995
G1 X126.4 Y98.617 E60.77825
G1 X127.311 Y99.502 E60.88978
G1 X127.894 Y100.148 E60.96618
G1 X128 Y100.288 E60.9816
G1 X128 Y119.708 E62.68681
G1 X128.131 Y119.55 E62.70483
G1 X128.793 Y118.652 E62.80279
G1 X129.235 Y117.935 E62.87675
G1 X129.872 Y116.735 E62.99604
G1 X130.425 Y115.347 E63.12724
G1 X130.776 Y114.152 E63.2366
G1 X131.035 Y112.884 E63.35024
G1 X131.171 Y111.49 E63.47322
G1 X131.2 Y109.253 E63.66966
G1 X131.121 Y107.841 E63.79384
G1 X130.951 Y106.659 E63.89869
G1 X130.7 Y105.529 E64.00033
G1 X130.439 Y104.697 E64.0769
G1 X130.017 Y103.585 E64.18133
G1 X129.646 Y102.813 E64.25654
G1 X129.6 Y102.731 E64.2648
G1 X129.6 Y117.248 E65.53949
G0 F600 X129.6 Y117.248 Z0.47
G0 F7200 X128.279 Y99.995
;TIME_ELAPSED:43.001190

;LAYER:-3
;TYPE:SUPPORT
G1 F1800 X126.338 Y98.053 E65.74953
G1 X126.633 Y98.284 E65.77819
G1 X127.597 Y99.222 E65.88109
G1 X128.205 Y99.896 E65.95052
G1 X128.922 Y100.842 E66.04133
G1 X129.428 Y101.595 E66.11073
G1 X129.996 Y102.619 E66.20031
G1 X130.388 Y103.434 E66.26949
G1 X130.439 Y103.569 E66.28053
G1 X122.689 Y95.819 E67.11896
G1 X122.473 Y95.725 E67.13698
G1 X121.403 Y95.334 E67.22413
G1 X120.558 Y95.103 E67.29114
G1 X131.144 Y105.688 E68.43634
G1 X131.346 Y106.593 E68.50727
G1 X131.465 Y107.423 E68.57141
G1 X118.819 Y94.777 E69.93952
G1 X118.45 Y94.732 E69.96796
G1 X117.294 Y94.667 E70.05653
G1 X131.582 Y108.955 E71.60228
G1 X131.6 Y109.253 E71.62511
G1 X131.584 Y110.371 E71.71065
G1 X115.864 Y94.651 E73.41132
G1 X114.45 Y94.651 E73.51948
G1 X131.547 Y111.748 E75.36912
G1 X131.431 Y112.945 E75.46112
G1 X131.412 Y113.028 E75.46763
G1 X113.035 Y94.651 E77.45575
G1 X111.621 Y94.651 E77.56392
G1 X131.173 Y114.202 E79.67909
G1 X131.164 Y114.251 E79.68291
G1 X130.856 Y115.3 E79.76654
G1 X110.207 Y94.651 E82.00045
G1 X108.792 Y94.65 E82.1087
G1 X130.466 Y116.324 E84.4535
G1 X130.239 Y116.896 E84.50057
G1 X130.025 Y117.297 E84.53534
G1 X107.378 Y94.65 E86.98541
G1 X105.964 Y94.65 E87.09358
G1 X129.53 Y118.216 E89.64306
G1 X129.123 Y118.878 E89.70251
G1 X128.976 Y119.076 E89.72138
G1 X104.549 Y94.65 E92.36396
G1 X103.135 Y94.65 E92.47212
G1 X128.371 Y119.886 E95.20228
G1 X127.852 Y120.512 E95.26449
G1 X127.718 Y120.647 E95.27904
G1 X101.788 Y94.716 E98.08433
G1 X101.567 Y94.729 E98.10126
G1 X100.532 Y94.876 E98.18123
G1 X127.014 Y121.357 E101.04613
G1 X126.354 Y121.955 E101.11426
G1 X126.264 Y122.021 E101.1228
G1 X99.364 Y95.122 E104.03292
G1 X99.162 Y95.167 E104.04875
G1 X98.317 Y95.432 E104.1165
G1 X98.276 Y95.448 E104.11986
G1 X125.461 Y122.632 E107.06082
G1 X124.655 Y123.178 E107.13529
G1 X124.614 Y123.199 E107.13882
G1 X97.251 Y95.837 E110.09903
G1 X97.184 Y95.862 E110.1045
G1 X96.369 Y96.254 E110.17368
G1 X96.295 Y96.295 E110.18015
G1 X123.704 Y123.704 E113.14539
G1 X123.631 Y123.746 E113.15184
G1 X122.824 Y124.135 E113.22037
G1 X122.748 Y124.163 E113.22656
G1 X95.385 Y96.8 E116.18683
G1 X95.346 Y96.822 E116.19025
G1 X94.616 Y97.311 E116.25747
G1 X94.539 Y97.367 E116.26475
G1 X121.723 Y124.551 E119.20565
G1 X121.704 Y124.561 E119.20729
G1 X120.855 Y124.829 E119.2754
G1 X120.634 Y124.877 E119.2927
G1 X93.734 Y97.977 E122.20288
G1 X93.657 Y98.036 E122.2103
G1 X92.984 Y98.641 E122.27952
G1 X119.468 Y125.125 E125.14469
G1 X118.801 Y125.233 E125.19638
G1 X118.197 Y125.268 E125.24267
G1 X92.28 Y99.352 E128.04644
G1 X92.148 Y99.488 E128.06094
G1 X91.627 Y100.112 E128.12313
G1 X116.853 Y125.338 E130.8522
G1 X115.44 Y125.339 E130.96029
G1 X91.023 Y100.922 E133.60184
G1 X90.877 Y101.122 E133.62079
G1 X90.467 Y101.781 E133.68016
G1 X114.026 Y125.34 E136.22889
G1 X112.613 Y125.341 E136.33698
G1 X89.973 Y102.701 E138.78629
G1 X89.761 Y103.104 E138.82112
G1 X89.533 Y103.675 E138.86815
G1 X111.2 Y125.342 E141.2122
G1 X109.786 Y125.343 E141.32037
G1 X89.142 Y104.699 E143.55374
G1 X88.837 Y105.749 E143.63738
G1 X88.826 Y105.797 E143.64115
G1 X108.374 Y125.344 E145.75589
G1 X106.96 Y125.345 E145.86406
G1 X88.586 Y106.971 E147.85185
G1 X88.569 Y107.057 E147.85856
G1 X88.453 Y108.252 E147.9504
G1 X105.547 Y125.345 E149.79966
G1 X104.133 Y125.346 E149.90783
G1 X88.413 Y109.626 E151.6085
G1 X88.4 Y110.761 E151.69533
G1 X88.415 Y111.042 E151.71686
G1 X102.704 Y125.331 E153.26271
G1 X101.55 Y125.268 E153.35112
G1 X101.179 Y125.221 E153.37973
G1 X88.534 Y112.576 E154.74773
G1 X88.654 Y113.408 E154.81203
G1 X88.855 Y114.31 E154.88273
G1 X99.44 Y124.896 E156.02792
G1 X98.601 Y124.667 E156.09445
G1 X97.532 Y124.277 E156.1815
G1 X97.309 Y124.179 E156.20013
G1 X89.56 Y116.43 E157.03846
G1 X89.612 Y116.566 E157.04959
G1 X90.004 Y117.381 E157.11878
G1 X90.564 Y118.392 E157.20719
G1 X91.069 Y119.145 E157.27655
G1 X91.786 Y120.093 E157.36747
G1 X92.403 Y120.778 E157.438
G1 X93.236 Y121.6 E157.52752
G1 X93.702 Y121.987 E157.57386
G1 X91.715 Y120 E157.78883
G0 F600 X91.715 Y120 Z0.62
G0 F7200 X99.887 Y125.2
;TIME_ELAPSED:86.012741

;LAYER:-2
;TYPE:SUPPORT-INTERFACE
G1 F2400 X120.112 Y125.2 E158.29334
G1 X119.729 Y125.287 E158.30314
G1 X118.818 Y125.433 E158.32615
G1 X117.071 Y125.539 E158.36981
G1 X102.98 Y125.549 E158.72131
G1 X101.532 Y125.467 E158.75749
G1 X100.611 Y125.353 E158.78064
G1 X99.444 Y125.106 E158.8104
G1 X98.546 Y124.86 E158.83362
G1 X98.38 Y124.8 E158.83803
G1 X121.61 Y124.8 E159.4175
G1 X121.761 Y124.754 E159.42144
G1 X122.668 Y124.4 E159.44573
G1 X97.311 Y124.4 E160.07826
G1 X96.598 Y124.09 E160.09765
G1 X96.43 Y124 E160.10241
G1 X123.525 Y124 E160.77829
G1 X124.281 Y123.6 E160.79963
G1 X95.69 Y123.6 E161.51284
G1 X95.514 Y123.504 E161.51784
G1 X95.02 Y123.2 E161.53231
G1 X124.976 Y123.2 E162.27956
G1 X125.517 Y122.84 E162.29577
G1 X125.567 Y122.8 E162.29737
G1 X94.435 Y122.8 E163.07396
G1 X93.894 Y122.4 E163.09074
G1 X126.095 Y122.4 E163.894
G1 X126.478 Y122.112 E163.90595
G1 X126.6 Y122 E163.91009
G1 X93.404 Y122 E164.73816
G1 X93.096 Y121.742 E164.74819
G1 X92.95 Y121.6 E164.75327
G1 X127.043 Y121.6 E165.60372
G1 X127.168 Y121.49 E165.60787
G1 X127.451 Y121.2 E165.61798
G1 X92.545 Y121.2 E166.48871
G1 X92.26 Y120.918 E166.49872
G1 X92.152 Y120.8 E166.50271
G1 X127.846 Y120.8 E167.3931
G1 X127.992 Y120.654 E167.39825
G1 X128.201 Y120.4 E167.40645
G1 X91.792 Y120.4 E168.31468
G1 X91.634 Y120.223 E168.3206
G1 X91.464 Y120 E168.32759
G1 X128.534 Y120 E169.25231
G1 X128.6 Y119.924 E169.25482
G1 X128.837 Y119.6 E169.26483
G1 X91.161 Y119.6 E170.20466
G1 X90.901 Y119.254 E170.21546
G1 X90.863 Y119.2 E170.21711
G1 X129.132 Y119.2 E171.17173
G1 X129.286 Y118.994 E171.17815
G1 X129.405 Y118.8 E171.18382
G1 X90.597 Y118.8 E172.15189
G1 X90.395 Y118.498 E172.16096
G1 X90.34 Y118.4 E172.16376
G1 X129.652 Y118.4 E173.1444
G1 X129.757 Y118.231 E173.14936
G1 X129.881 Y118 E173.1559
G1 X90.119 Y118 E174.14777
G1 X89.897 Y117.6 E174.15918
G1 X130.096 Y117.6 E175.16195
G1 X130.312 Y117.2 E175.17329
G1 X89.695 Y117.2 E176.18649
G1 X89.502 Y116.8 E176.19757
G1 X130.492 Y116.8 E177.22007
G1 X130.665 Y116.4 E177.23094
G1 X89.336 Y116.4 E178.26189
G1 X89.183 Y116 E178.27258
G1 X130.819 Y116 E179.31119
G1 X130.965 Y115.6 E179.32181
G1 X89.031 Y115.6 E180.36786
G1 X88.99 Y115.49 E180.37079
G1 X88.899 Y115.2 E180.37837
G1 X131.11 Y115.2 E181.43133
G1 X131.22 Y114.8 E181.44168
G1 X88.773 Y114.8 E182.50052
G1 X88.722 Y114.635 E182.50483
G1 X88.669 Y114.4 E182.51084
G1 X131.329 Y114.4 E183.575
G1 X131.358 Y114.298 E183.57764
G1 X131.418 Y114 E183.58522
G1 X88.58 Y114 E184.65382
G1 X88.491 Y113.6 E184.66405
G1 X131.5 Y113.6 E185.73691
G1 X131.581 Y113.2 E185.74709
G1 X88.417 Y113.2 E186.82382
G1 X88.353 Y112.8 E186.83393
G1 X131.644 Y112.8 E187.91382
G1 X131.682 Y112.4 E187.92385
G1 X88.301 Y112.4 E189.00599
G1 X88.269 Y112 E189.016
G1 X131.721 Y112 E190.09991
G1 X131.759 Y111.6 E190.10994
G1 X88.236 Y111.6 E191.19562
G1 X88.225 Y111.452 E191.19933
G1 X88.222 Y111.2 E191.20561
G1 X131.777 Y111.2 E192.2921
G1 X131.782 Y110.8 E192.30207
G1 X88.217 Y110.8 E193.38881
G1 X88.213 Y110.4 E193.39879
G1 X131.786 Y110.4 E194.48572
G1 X131.791 Y110 E194.4957
G1 X88.208 Y110 E195.58288
G1 X88.204 Y109.6 E195.59286
G1 X131.795 Y109.6 E196.68024
G1 X131.8 Y109.239 E196.68925
G1 X131.798 Y109.2 E196.69022
G1 X88.203 Y109.2 E197.7777
G1 X88.226 Y108.8 E197.7877
G1 X131.776 Y108.8 E198.87406
G1 X131.754 Y108.4 E198.88405
G1 X88.248 Y108.4 E199.96931
G1 X88.271 Y108 E199.97931
G1 X131.732 Y108 E201.06345
G1 X131.719 Y107.779 E201.06897
G1 X131.694 Y107.6 E201.07348
G1 X88.306 Y107.6 E202.15579
G1 X88.355 Y107.2 E202.16585
G1 X131.636 Y107.2 E203.2455
G1 X131.579 Y106.8 E203.25557
G1 X88.41 Y106.8 E204.33243
G1 X88.495 Y106.4 E204.34263
G1 X131.509 Y106.4 E205.41562
G1 X131.42 Y106 E205.42584
G1 X88.579 Y106 E206.49451
G1 X88.643 Y105.697 E206.50224
G1 X88.67 Y105.6 E206.50475
G1 X131.331 Y105.6 E207.56893
G1 X131.276 Y105.357 E207.57515
G1 X131.228 Y105.2 E207.57924
G1 X88.78 Y105.2 E208.63811
G1 X88.889 Y104.8 E208.64846
G1 X131.102 Y104.8 E209.70146
G1 X131.009 Y104.506 E209.70916
G1 X130.97 Y104.4 E209.71197
G1 X89.035 Y104.4 E210.75805
G1 X89.181 Y104 E210.76867
G1 X130.817 Y104 E211.80728
G1 X130.665 Y103.6 E211.81796
G1 X89.334 Y103.6 E212.84896
G1 X89.508 Y103.2 E212.85984
G1 X130.498 Y103.2 E213.88234
G1 X130.306 Y102.8 E213.89341
G1 X89.687 Y102.8 E214.90666
G1 X89.903 Y102.4 E214.918
G1 X130.103 Y102.4 E215.92079
G1 X129.882 Y102 E215.93219
G1 X90.119 Y102 E216.92408
G1 X90.243 Y101.769 E216.93062
G1 X90.348 Y101.6 E216.93558
G1 X129.66 Y101.6 E217.91623
G1 X129.601 Y101.495 E217.91923
G1 X129.404 Y101.2 E217.92808
G1 X90.595 Y101.2 E218.89617
G1 X90.714 Y101.006 E218.90185
G1 X90.867 Y100.8 E218.90825
G1 X129.136 Y100.8 E219.86288
G1 X129.09 Y100.733 E219.8649
G1 X128.839 Y100.4 E219.87531
G1 X91.162 Y100.4 E220.81516
G1 X91.413 Y100.06 E220.8257
G1 X91.463 Y100 E220.82765
G1 X128.536 Y100 E221.75244
G1 X128.362 Y99.772 E221.7596
G1 X128.208 Y99.6 E221.76536
G1 X91.797 Y99.6 E222.67363
G1 X92.008 Y99.346 E222.68187
G1 X92.152 Y99.2 E222.68698
G1 X127.848 Y99.2 E223.57743
G1 X127.74 Y99.082 E223.58142
G1 X127.455 Y98.8 E223.59142
G1 X92.547 Y98.8 E224.4622
G1 X92.832 Y98.51 E224.47234
G1 X92.955 Y98.4 E224.47646
G1 X127.05 Y98.4 E225.32696
G1 X126.904 Y98.258 E225.33204
G1 X126.596 Y98 E225.34207
G1 X93.398 Y98 E226.17019
G1 X93.522 Y97.888 E226.17436
G1 X93.903 Y97.6 E226.18628
G1 X126.107 Y97.6 E226.98961
G1 X125.565 Y97.2 E227.00641
G1 X94.432 Y97.2 E227.78303
G1 X94.496 Y97.151 E227.78504
G1 X95.021 Y96.8 E227.80079
G1 X124.98 Y96.8 E228.54812
G1 X124.481 Y96.493 E228.56274
G1 X124.311 Y96.4 E228.56757
G1 X95.695 Y96.4 E229.2814
G1 X96.281 Y96.075 E229.29811
G1 X96.437 Y96 E229.30243
