;FLAVOR:Marlin
;TIME:12775
;Filament used:5.51665m
;Layer height: 0.1
;MINX:66.874
;MINY:47.687
;MINZ:0.24
;MAXX:153.405
;MAXY:172.214
;MAXZ:17.89
                           
;Creality Print GCode Generated by CXEngine:NO_MAGE_VERSION_GIT_HEAD_BRANCH
;CXEngine Release Time:2022-09-30 09:53:04
;Gcode Generated Time:2023-05-04 14:48:04
;----------Machine Config--------------
;Machine Name:Ender-3 V2
;Machine Height:250
;Machine Width:220
;Machine Depth:220
;Material name:PLA
;Number of Extruders:1
;ExtruderParams[0] Nozzle Diameter1000
;----------Profile Config---------------
;Engine Version:275f99b
;Engine Release Time:2022-09-30 09:42:18
;Layer Height:0.1
;Wall Thickness:0.8
;Top/Bottom Thickness:0.5
;Out Wall Line Width:0.4
;Inner Wall Line Width:0.4
;Inital Layer Height:100
;Wall Line Count:2
;Infill Line Distance:4
;Infill Pattern:grid
;Infill Sparse Density:20
;Infill Wipe Distance:0
;Print Temperature:200
;Bed Temperature:60
;Support Enable:true
;Support Density:0
;Support Angle:60
;Adhesion Type:simpleraft
;machine is belt:false
;machine belt offset:10
;machine belt offset Y:0
;Raft Base Line Spacing:1.6
;Wait Heatup Sync:true
;----------Shell Config----------------
;Outer Wall Wipe Distance:200
;Outer Inset First:false
;Infill Before Walls:false
;Infill Overlap:0.16
;Fill Gaps Between Walls:everywhere
;Minimum Infill Area:1
;Top Surface Skin Layer:0
;Top Layers:4
;Z Seam Alignment:sharpest_corner
;Seam Corner Preference:z_seam_corner_inner
;Z Seam X:110
;Z Seam Y:110
;Horizontal Expansion:0
;Top/Bottom Pattern:zigzag
;Ironing Pattern:zigzag
;Vase Model:false
;----------Support Config----------------
;Support Type:everywhere
;Support Pattern:zigzag
;Support Infill Layer Thickness:0.1
;Minimum Support Area:5
;Enable Support Roof:false
;Support Roof Thickness:0.8
;Support Roof Pattern:lines
;Connect Support Lines:0
;Connect Support ZigZags:1
;Minimum Support X/Y Distance:0.2
;Support Line Distance:0
; ---------PrintSpeed & Travel----------
;Enable Print Cool:true
;Avoid Printed Parts Traveling:true
;Enable Retraction:true
;Retraction Distance:8
;Retraction Speed:100
;Retraction Prime Speed:100
;Maximum Retraction Count:100
;Minimum Extrusion Distance Window:1
;Z Hop When Retracted:false
;Z Hop Height:0.2
;Retract Before Outer Wall:true
;Print Speed:50
;Infill Speed:50

;Prime Tower Speed:50
;Travel Speed:120
;Initial Layer Speed:25
;Skirt/Brim Speed:25
;Combing Mode:infill
; --------SpecialModel&Mesh Fixes--------
;Union Overlapping Volum:true
;Remove All Holes:false
;Maximum Travel Resolution:0.6
;Maximum Deviation:0.05
;Maximum Model Angle:0.872665
;IS Mold Print:false
;Make Overhang Printable:false
;Enable Coasting:false
;Coasting Volumes:0.06
;Coasting Speed:0.9
;Raft AirGap:0.25
;Layer0 ZOverLap:0.13
;---------------------End of Head--------------------------
M140 S60
M105
M104 S200
M105
M109 S200
M105
M190 S60
M82 ;absolute extrusion mode
M220 S100 ;Reset Feedrate
M221 S100 ;Reset Flowrate

G28 ;Home

G92 E0 ;Reset Extruder
G1 Z2.0 F3000 ;Move Z Axis up
G1 X10.1 Y20 Z0.28 F5000.0 ;Move to start position
G1 X10.1 Y145.0 Z0.28 F1500.0 E15 ;Draw the first line
G1 X10.4 Y145.0 Z0.28 F5000.0 ;Move to side a little
G1 X10.4 Y20 Z0.28 F1500.0 E30 ;Draw the second line
G92 E0  ;Reset Extruder
G1 E-1.0000 F1800 ;Retract a bit
G1 Z2.0 F3000 ;Move Z Axis up
G1 E0.0000 F1800 

G92 E0
G92 E0
G1 F6000 E-8

;LAYER_COUNT:170

;LAYER:-4
M107
G0 F7200 X70.4 Y53.446 Z0.24
;TYPE:SUPPORT-INTERFACE
G1 F6000 E0
G1 F1200 X70.4 Y69.729 E1.29978
G1 X70.214 Y69.442 E1.32708
G1 X69.822 Y68.702 E1.39393
G1 X69.383 Y67.609 E1.48795
G1 X68.8 Y65.814 E1.6386
G1 X68.8 Y55.47 E2.4643
G1 X69.122 Y54.945 E2.51347
G1 X69.625 Y54.267 E2.58085
G1 X70.149 Y53.682 E2.64355
G1 X70.763 Y53.106 E2.71075
G1 X71.415 Y52.595 E2.77687
G1 X72 Y52.22 E2.83234
G1 X72 Y71.609 E4.38006
G1 X72.338 Y71.91 E4.41618
G1 X72.986 Y72.391 E4.4806
G1 X73.6 Y72.758 E4.5377
G1 X73.6 Y51.451 E6.23852
G1 X73.613 Y51.446 E6.23963
G1 X74.378 Y51.199 E6.3038
G1 X75.2 Y50.973 E6.37185
G1 X75.2 Y73.507 E8.17061
G1 X75.791 Y73.702 E8.22029
G1 X76.619 Y73.893 E8.28812
G1 X76.8 Y73.918 E8.30271
G1 X76.8 Y50.533 E10.1694
G1 X78.4 Y50.094 E10.30184
G1 X78.4 Y74.037 E12.21307
G1 X79.052 Y74.012 E12.26516
G1 X79.901 Y73.9 E12.33351
G1 X80 Y73.878 E12.34161
G1 X80 Y49.712 E14.27064
G1 X81.6 Y49.422 E14.40044
G1 X81.6 Y73.471 E16.32014
G1 X81.995 Y73.36 E16.35289
G1 X82.599 Y73.224 E16.40231
G1 X83.2 Y73.165 E16.45052
G1 X83.2 Y49.133 E18.36885
G1 X84.64 Y48.873 E18.48566
G1 X84.8 Y48.851 E18.49855
G1 X84.8 Y73.283 E20.44882
G1 X85.489 Y73.48 E20.50602
G1 X86.164 Y73.769 E20.56464
G1 X86.4 Y73.908 E20.5865
G1 X86.4 Y48.678 E22.60047
G1 X88 Y48.535 E22.72869
G1 X88 Y75.124 E24.85114
G1 X88.556 Y75.541 E24.90662
G1 X89.241 Y75.964 E24.97089
G1 X89.6 Y76.146 E25.00302
G1 X89.6 Y48.391 E27.21854
G1 X90.344 Y48.325 E27.27816
G1 X91.2 Y48.289 E27.34655
G1 X91.2 Y77.034 E29.6411
G1 X91.449 Y77.214 E29.66563
G1 X91.984 Y77.715 E29.72414
G1 X92.436 Y78.262 E29.78078
G1 X92.8 Y78.762 E29.83015
G1 X92.8 Y48.289 E32.26263
G1 X94.4 Y48.29 E32.39035
G1 X94.4 Y80.374 E34.95144
G1 X95.568 Y81.257 E35.06832
G1 X96 Y81.539 E35.1095
G1 X96 Y48.291 E37.7635
G1 X96.124 Y48.291 E37.77339
G1 X97.001 Y48.332 E37.84348
G1 X97.6 Y48.387 E37.89149
G1 X97.6 Y82.385 E40.60536
G1 X97.871 Y82.5 E40.62886
G1 X98.67 Y82.758 E40.69588
G1 X99.2 Y82.875 E40.73921
G1 X99.2 Y48.532 E43.48061
G1 X100.8 Y48.676 E43.60885
G1 X100.8 Y83.285 E46.37149
G1 X102.4 Y83.708 E46.5036
G1 X102.4 Y48.848 E49.28627
G1 X102.699 Y48.889 E49.31036
G1 X104 Y49.126 E49.41592
G1 X104 Y84.25 E52.21967
G1 X104.878 Y84.555 E52.29387
G1 X105.6 Y84.874 E52.35687
G1 X105.6 Y49.417 E55.18721
G1 X107.2 Y49.707 E55.31701
G1 X107.2 Y85.609 E58.18286
G1 X107.823 Y85.92 E58.23844
G1 X108.8 Y86.46 E58.32755
G1 X108.8 Y50.082 E61.2314
G1 X110.4 Y50.53 E61.36403
G1 X110.4 Y87.481 E64.31362
G1 X111.253 Y88.038 E64.39494
G1 X112 Y88.627 E64.47087
G1 X112 Y50.977 E67.47626
G1 X112.992 Y51.254 E67.55848
G1 X113.6 Y51.461 E67.60974
G1 X113.6 Y90.003 E70.68633
G1 X114.608 Y90.935 E70.79592
G1 X115.2 Y91.543 E70.86366
G1 X115.2 Y52.213 E74.00315
G1 X115.313 Y52.275 E74.01344
G1 X115.977 Y52.725 E74.07747
G1 X116.63 Y53.26 E74.14485
G1 X116.8 Y53.427 E74.16388
G1 X116.8 Y93.316 E77.34799
G1 X117.136 Y93.696 E77.38848
G1 X117.644 Y94.341 E77.45402
G1 X118.4 Y95.469 E77.56241
G1 X118.4 Y55.436 E80.75802
G1 X118.697 Y55.948 E80.80527
G1 X119.062 Y56.727 E80.87394
G1 X119.334 Y57.45 E80.9356
G1 X119.625 Y58.096 E80.99216
G1 X120 Y58.71 E81.04959
G1 X120 Y98.017 E84.18724
G1 X120.325 Y98.59 E84.23983
G1 X120.844 Y99.61 E84.33118
G1 X121.6 Y101.384 E84.48511
G1 X121.6 Y60.255 E87.76821
G1 X122.942 Y61.02 E87.89151
G1 X123.2 Y61.182 E87.91583
G1 X123.2 Y107.187 E91.58815
G1 X123.372 Y108.078 E91.66059
G1 X123.625 Y110.8 E91.8788
G1 X123.673 Y112.035 E91.97746
G1 X123.54 Y115.448 E92.25011
G1 X123.438 Y116.395 E92.32614
G1 X123.2 Y117.626 E92.42622
G1 X123.2 Y163.645 E96.09966
G1 X121.695 Y164.538 E96.23935
G1 X121.6 Y164.589 E96.24796
G1 X121.6 Y123.397 E99.53608
G1 X121.127 Y124.552 E99.63571
G1 X120.6 Y125.663 E99.73387
G1 X120 Y126.749 E99.83291
G1 X120 Y165.382 E102.91676
G1 X118.4 Y166.132 E103.05781
G1 X118.4 Y129.399 E105.99
G1 X117.122 Y131.136 E106.16214
G1 X116.8 Y131.538 E106.20326
G1 X116.8 Y166.882 E109.02457
G1 X116.518 Y167.014 E109.04942
G1 X115.627 Y167.376 E109.12619
G1 X115.2 Y167.528 E109.16237
G1 X115.2 Y133.353 E111.89037
G1 X113.6 Y134.889 E112.06741
G1 X113.6 Y168.095 E114.71806
G1 X112 Y168.663 E114.85359
G1 X112 Y136.247 E117.44117
G1 X111.106 Y136.937 E117.53132
G1 X110.4 Y137.393 E117.59841
G1 X110.4 Y169.192 E120.13674
G1 X110.179 Y169.257 E120.15513
G1 X108.8 Y169.599 E120.26854
G1 X108.8 Y138.38 E122.76058
G1 X107.2 Y139.21 E122.90446
G1 X107.2 Y169.996 E125.36193
G1 X105.6 Y170.392 E125.4935
G1 X105.6 Y140.01 E127.91873
G1 X104.958 Y140.289 E127.9746
G1 X104 Y140.628 E128.05572
G1 X104 Y170.683 E130.45484
G1 X102.4 Y170.918 E130.58393
G1 X102.4 Y141.196 E132.95647
G1 X102.293 Y141.234 E132.96553
G1 X100.8 Y141.597 E133.08818
G1 X100.8 Y171.152 E135.44739
G1 X99.781 Y171.301 E135.5296
G1 X99.2 Y171.355 E135.57618
G1 X99.2 Y142.033 E137.91678
G1 X98.995 Y142.101 E137.93402
G1 X98.24 Y142.423 E137.99954
G1 X97.6 Y142.769 E138.05762
G1 X97.6 Y171.448 E140.3469
G1 X96 Y171.525 E140.47477
G1 X96 Y143.755 E142.69149
G1 X95.599 Y144.008 E142.72934
G1 X94.945 Y144.519 E142.79559
G1 X94.4 Y145.028 E142.85512
G1 X94.4 Y171.603 E144.97645
G1 X94.158 Y171.614 E144.99579
G1 X93.243 Y171.607 E145.06883
G1 X92.8 Y171.562 E145.10437
G1 X92.8 Y146.911 E147.07212
G1 X92.453 Y147.24 E147.11029
G1 X91.862 Y147.674 E147.16882
G1 X91.223 Y148.03 E147.22721
G1 X91.2 Y148.039 E147.22918
G1 X91.2 Y171.254 E149.0823
G1 X90.862 Y171.159 E149.11033
G1 X90.07 Y170.856 E149.17802
G1 X89.6 Y170.626 E149.21979
G1 X89.6 Y148.717 E150.96866
G1 X89.062 Y149.003 E151.01729
G1 X88.371 Y149.454 E151.08316
G1 X88 Y149.745 E151.1208
G1 X88 Y169.604 E152.70603
G1 X87.975 Y169.586 E152.70849
G1 X87.218 Y168.91 E152.7895
G1 X86.643 Y168.299 E152.85648
G1 X86.4 Y167.99 E152.88786
G1 X86.4 Y151.374 E154.21422
G1 X86.235 Y151.569 E154.23461
G1 X85.773 Y152.249 E154.30023
G1 X85.365 Y152.992 E154.3679
G1 X85.036 Y153.741 E154.4332
G1 X84.779 Y154.51 E154.49792
G1 X84.591 Y155.301 E154.56282
G1 X84.467 Y156.144 E154.63084
G1 X84.422 Y156.993 E154.6987
G1 X84.419 Y162.234 E155.11706
G1 X84.457 Y163.077 E155.18442
G1 X84.561 Y163.885 E155.24945
G1 X84.739 Y164.693 E155.3155
G1 X84.8 Y164.886 E155.33165
G1 X84.8 Y154.447 E156.16494
;;retract;;
G1 F6000 E148.16494
G0 F7200 X142.316 Y146.075
G1 F6000 E156.16494
G1 F1200 X140.8 Y148.089 E156.36616
G1 X140.8 Y76.742 E162.06139
G1 X140.297 Y76.04 E162.13032
G1 X139.711 Y75.297 E162.20586
G1 X139.2 Y74.714 E162.26774
G1 X139.2 Y150.189 E168.29248
G1 X138.816 Y150.649 E168.34032
G1 X137.6 Y151.975 E168.48393
G1 X137.6 Y72.889 E174.79692
G1 X136.504 Y71.638 E174.92968
G1 X136 Y71.115 E174.98766
G1 X136 Y153.718 E181.58139
G1 X135.549 Y154.209 E181.63461
G1 X134.882 Y154.866 E181.70934
G1 X134.4 Y155.298 E181.76101
G1 X134.4 Y69.601 E188.60171
G1 X132.8 Y68.1 E188.77684
G1 X132.8 Y156.731 E195.85175
G1 X131.24 Y158.128 E196.01891
G1 X131.2 Y158.161 E196.02304
G1 X131.2 Y66.731 E203.32138
G1 X129.6 Y65.499 E203.48258
G1 X129.6 Y159.384 E210.97688
G1 X128 Y160.557 E211.13525
G1 X128 Y64.267 E218.82153
G1 X127.795 Y64.109 E218.84219
G1 X127.018 Y63.567 E218.91782
G1 X124.8 Y62.182 E219.12655
G1 X124.8 Y162.695 E227.14993
G1 X125.932 Y162.022 E227.25506
G1 X126.4 Y161.713 E227.29982
G1 X126.4 Y63.181 E235.16507
;;retract;;
G1 F6000 E227.16507
G0 F7200 X152 Y121.873
G1 F6000 E235.16507
G1 F1200 X152 Y102.83 E236.68517
G1 X152.549 Y106.892 E237.01236
G1 X152.629 Y107.857 E237.08966
G1 X152.808 Y112.655 E237.47292
G1 X152.794 Y113.628 E237.5506
G1 X152.504 Y118.418 E237.93366
G1 X152.397 Y119.374 E238.01044
G1 X151.643 Y124.12 E238.39404
G1 X151.458 Y125.001 E238.4659
G1 X150.4 Y129.055 E238.80035
G1 X150.4 Y95.728 E241.46065
G1 X150.361 Y95.591 E241.47202
G1 X148.807 Y91.044 E241.8556
G1 X148.8 Y91.027 E241.85706
G1 X148.8 Y133.727 E245.26556
G1 X148.286 Y135.124 E245.38439
G1 X147.897 Y136.034 E245.46338
G1 X147.2 Y137.477 E245.5913
G1 X147.2 Y87.396 E249.58899
G1 X146.447 Y85.743 E249.73398
G1 X146.018 Y84.904 E249.8092
G1 X145.6 Y84.183 E249.87573
G1 X145.6 Y140.736 E254.39003
G1 X145.356 Y141.18 E254.43047
G1 X144 Y143.404 E254.6384
G1 X144 Y81.419 E259.58631
G1 X143.613 Y80.75 E259.648
G1 X143.097 Y79.946 E259.72426
G1 X142.4 Y78.974 E259.81974
G1 X142.4 Y145.954 E265.16637
G1 X142.317 Y146.075 E265.17808
G0 F600 X142.317 Y146.075 Z0.47
G0 F7200 X150.375 Y130.576
;TIME_ELAPSED:175.967138

;LAYER:-3
;TYPE:SUPPORT
G1 F1800 X121.149 Y101.35 E268.3399
G1 X120.481 Y99.779 E268.47049
G1 X119.973 Y98.78 E268.55622
G1 X119.943 Y98.73 E268.56069
G1 X150.7 Y129.486 E271.88808
G1 X150.608 Y129.84 E271.91606
G1 X150.32 Y130.751 E271.98915
G1 X150.001 Y131.616 E272.05967
G1 X121.94 Y103.555 E275.09545
G1 X122.228 Y104.436 E275.16636
G1 X122.366 Y104.975 E275.20892
G1 X122.465 Y105.495 E275.24941
G1 X149.621 Y132.651 E278.18728
G1 X149.241 Y133.684 E278.27148
G1 X122.803 Y107.247 E281.13162
G1 X122.976 Y108.135 E281.20083
G1 X123.047 Y108.905 E281.25998
G1 X148.86 Y134.718 E284.05256
G1 X148.654 Y135.281 E284.09842
G1 X148.46 Y135.732 E284.13598
G1 X123.191 Y110.463 E286.8697
G1 X123.226 Y110.826 E286.8976
G1 X123.268 Y111.954 E286.98395
G1 X148.017 Y136.703 E289.66142
G1 X147.556 Y137.656 E289.74241
G1 X123.221 Y113.322 E292.37503
G1 X123.168 Y114.683 E292.47923
G1 X147.095 Y138.61 E295.06777
G1 X146.634 Y139.563 E295.14875
G1 X123.076 Y116.005 E297.69737
G1 X123.042 Y116.335 E297.72275
G1 X122.871 Y117.214 E297.79125
G1 X146.173 Y140.516 E300.31218
G1 X146.165 Y140.537 E300.3139
G1 X145.707 Y141.372 E300.38675
G1 X145.671 Y141.429 E300.39191
G1 X122.642 Y118.399 E302.88335
G1 X122.412 Y119.584 E302.9757
G1 X145.136 Y142.308 E305.43409
G1 X144.6 Y143.186 E305.51278
G1 X122.133 Y120.719 E307.94337
G1 X121.789 Y121.789 E308.02935
G1 X144.064 Y144.064 E310.43917
G1 X143.529 Y144.943 E310.51789
G1 X121.403 Y122.818 E312.91154
G1 X120.993 Y123.821 E312.99443
G1 X142.981 Y145.809 E315.3732
G1 X142.636 Y146.316 E315.42011
G1 X142.394 Y146.636 E315.4508
G1 X120.563 Y124.805 E317.81259
G1 X120.244 Y125.48 E317.8697
G1 X120.093 Y125.75 E317.89337
G1 X141.786 Y147.443 E320.24022
G1 X141.179 Y148.25 E320.31747
G1 X119.59 Y126.661 E322.65308
G1 X119.087 Y127.572 E322.73268
G1 X140.571 Y149.056 E325.05693
G1 X139.964 Y149.863 E325.13418
G1 X118.564 Y128.463 E327.44933
G1 X118.433 Y128.68 E327.46872
G1 X117.98 Y129.293 E327.52703
G1 X139.336 Y150.649 E329.83743
G1 X139.111 Y150.919 E329.86432
G1 X138.67 Y151.398 E329.91412
G1 X117.38 Y130.108 E332.21738
G1 X116.805 Y130.892 E332.29176
G1 X116.78 Y130.922 E332.29474
G1 X137.994 Y152.136 E334.58978
G1 X137.317 Y152.873 E334.66634
G1 X116.151 Y131.707 E336.95618
G1 X116.006 Y131.891 E336.9741
G1 X115.494 Y132.465 E337.03294
G1 X136.64 Y153.611 E339.32062
G1 X135.963 Y154.348 E339.39717
G1 X114.798 Y133.183 E341.68691
G1 X114.077 Y133.876 E341.76341
G1 X135.257 Y155.056 E344.05477
G1 X135.158 Y155.156 E344.06553
G1 X134.515 Y155.728 E344.13137
G1 X113.355 Y134.568 E346.42056
G1 X112.874 Y135.031 E346.47163
G1 X112.622 Y135.249 E346.49712
G1 X133.769 Y156.397 E348.78496
G1 X133.023 Y157.065 E348.86157
G1 X111.831 Y135.872 E351.15428
G1 X111.032 Y136.488 E351.23145
G1 X132.277 Y157.733 E353.52984
G1 X131.531 Y158.401 E353.60645
G1 X110.185 Y137.055 E355.91576
G1 X109.326 Y137.61 E355.994
G1 X130.75 Y159.034 E358.31175
G1 X129.934 Y159.632 E358.38914
G1 X108.424 Y138.123 E360.71615
G1 X107.494 Y138.607 E360.79635
G1 X129.119 Y160.231 E363.13579
G1 X128.303 Y160.83 E363.21323
G1 X106.563 Y139.09 E365.56517
G1 X105.787 Y139.494 E365.6321
G1 X105.623 Y139.564 E365.64574
G1 X127.487 Y161.428 E368.01109
G1 X126.884 Y161.872 E368.06838
G1 X126.662 Y162.017 E368.08866
G1 X104.626 Y139.981 E370.47262
G1 X103.582 Y140.352 E370.55738
G1 X125.796 Y162.565 E372.96055
G1 X124.908 Y163.092 E373.03954
G1 X102.538 Y140.722 E375.45964
G1 X102.179 Y140.85 E375.48879
G1 X101.433 Y141.031 E375.54752
G1 X124.022 Y163.62 E377.99131
G1 X123.134 Y164.147 E378.0703
G1 X100.295 Y141.307 E380.54119
G1 X99.652 Y141.464 E380.59182
G1 X99.189 Y141.615 E380.62908
G1 X122.247 Y164.673 E383.12361
G1 X121.891 Y164.887 E383.15538
G1 X121.336 Y165.177 E383.20328
G1 X98.174 Y142.015 E385.70906
G1 X98.067 Y142.062 E385.718
G1 X97.249 Y142.503 E385.7891
G1 X120.385 Y165.64 E388.29212
G1 X119.423 Y166.092 E388.37343
G1 X96.375 Y143.044 E390.86687
G1 X95.508 Y143.591 E390.94529
G1 X118.46 Y166.543 E393.42835
G1 X117.497 Y166.995 E393.50973
G1 X94.702 Y144.2 E395.97581
G1 X94.678 Y144.22 E395.9782
G1 X94.069 Y144.791 E396.04206
G1 X93.978 Y144.89 E396.05235
G1 X116.529 Y167.44 E398.49197
G1 X115.779 Y167.747 E398.55397
G1 X115.513 Y167.839 E398.5755
G1 X93.324 Y145.65 E400.97601
G1 X92.704 Y146.444 E401.05308
G1 X114.469 Y168.21 E403.40778
