; HEADER_BLOCK_START
; generated by OrcaSlicer 2.1.1 on 2024-12-15 at 21:56:38
; total layer number: 60
; filament_density: 1.27
; filament_diameter: 1.75
; max_z_height: 4.92
; HEADER_BLOCK_END

; THUMBNAIL_BLOCK_START

;
; THUMBNAIL_BLOCK_END







; external perimeters extrusion width = 0.40mm
; perimeters extrusion width = 0.45mm
; infill extrusion width = 0.45mm
; solid infill extrusion width = 0.45mm
; top infill extrusion width = 0.38mm
; first layer extrusion width = 0.42mm

; EXECUTABLE_BLOCK_START
EXCLUDE_OBJECT_DEFINE NAME=履带轮外支架_-_弹簧轮.STL_id_0_copy_0 CENTER=117.5,115 POLYGON=[[93,115],[93.1018,113.577],[93.4051,112.183],[93.9037,110.846],[94.5875,109.594],[95.4425,108.451],[96.4514,107.443],[97.5936,106.587],[98.8458,105.904],[100.183,105.405],[101.577,105.102],[103,105],[142,105],[142,125],[103,125],[101.577,124.898],[100.183,124.595],[98.8458,124.096],[97.5936,123.413],[96.4514,122.557],[95.4425,121.549],[94.5875,120.406],[93.9037,119.154],[93.4051,117.817],[93.1018,116.423],[93,115]]
M73 P0 R14
;TYPE:Custom
;ELEGOO NEPTUNE 4 PRO
M220 S100 ;Set the feed speed to 100%
M221 S100 ;Set the flow rate to 100%
M104 S140
M190 S70
G90
G28 ;home
G1 Z10 F300
G1 X67.5 Y0 F6000
G1 Z0 F300
M109 S240
G92 E0 ;Reset Extruder
G1 X67.5 Y0 Z0.4 F300 ;Move to start position
G1 X167.5 E30 F400 ;Draw the first line
G1 Z0.6 F120.0 ;Move to side a little
M73 P2 R14
G1 X162.5 F3000
G92 E0 ;Reset Extruder
G90
G21
M83 ; use relative distances for extrusion
; filament start gcode
M106 S0
;LAYER_CHANGE
;Z:0.2
;HEIGHT:0.2
;BEFORE_LAYER_CHANGE
G92 E0
;0.2


G1 E-.8 F3600
;AFTER_LAYER_CHANGE
;0.2
;_SET_FAN_SPEED_CHANGING_LAYER
SET_VELOCITY_LIMIT ACCEL=1000 ACCEL_TO_DECEL=500
SET_VELOCITY_LIMIT SQUARE_CORNER_VELOCITY=7
; printing object 履带轮外支架 - 弹簧轮.STL id:0 copy 0
EXCLUDE_OBJECT_START NAME=履带轮外支架_-_弹簧轮.STL_id_0_copy_0
G1 X136.565 Y123.857 F21000
G1 Z.4
G1 Z.2
G1 E.8 F2700
;TYPE:Inner wall
;WIDTH:0.577369
G1 F3000
G1 X135.675 Y123.867 E.03761
;WIDTH:0.556932
G1 X135.52 Y123.89 E.00634
;WIDTH:0.511288
G1 X135.365 Y123.913 E.00578
;WIDTH:0.465644
G1 X135.211 Y123.936 E.00522
;WIDTH:0.419999
G1 X103.038 Y123.936 E.95832
G1 X101.729 Y123.842 E.0391
G1 X100.483 Y123.571 E.03796
G1 X99.289 Y123.126 E.03797
G1 X98.17 Y122.515 E.03796
G1 X97.15 Y121.751 E.03796
G1 X96.249 Y120.85 E.03796
G1 X95.485 Y119.83 E.03797
G1 X94.874 Y118.711 E.03796
G1 X94.429 Y117.517 E.03796
G1 X94.158 Y116.271 E.03797
G1 X94.067 Y115 E.03796
G1 X94.158 Y113.729 E.03796
G1 X94.429 Y112.483 E.03796
G1 X94.874 Y111.289 E.03797
G1 X95.485 Y110.17 E.03796
G1 X96.249 Y109.15 E.03797
G1 X97.15 Y108.249 E.03796
G1 X98.17 Y107.485 E.03796
G1 X99.289 Y106.874 E.03796
G1 X100.483 Y106.429 E.03797
G1 X101.729 Y106.158 E.03796
G1 X103.038 Y106.064 E.0391
G1 X135.207 Y106.064 E.95821
;WIDTH:0.461319
G1 X135.461 Y106.085 E.0084
;WIDTH:0.502639
G1 X135.714 Y106.105 E.00923
;WIDTH:0.543958
G1 X135.967 Y106.126 E.01006
;WIDTH:0.575754
G1 X136.55 Y106.142 E.02456
G1 X136.666 Y106.123 E.00495
;WIDTH:0.536816
G1 X136.783 Y106.103 E.00459
;WIDTH:0.497877
G1 X136.899 Y106.084 E.00423
;WIDTH:0.458938
G1 X137.015 Y106.064 E.00387
;WIDTH:0.419999
G1 X140.936 Y106.064 E.1168
G1 X140.936 Y123.936 E.53234
G1 X138 Y123.936 E.08745
;WIDTH:0.42319
G1 X137.012 Y123.934 E.02968
;WIDTH:0.461735
G1 X136.9 Y123.915 E.00375
;WIDTH:0.50028
G1 X136.789 Y123.896 E.0041
;WIDTH:0.538825
G1 X136.677 Y123.876 E.00444
;WIDTH:0.577369
G1 X136.605 Y123.864 E.0031
G1 E-.68 F3600
;WIPE_START
G1 F3000
G1 X135.675 Y123.867 E-.11163
G1 X135.606 Y123.878 E-.00837
;WIPE_END
G1 X141.313 Y124.313 Z.6 F21000
G1 Z.2
G1 E.8 F2700
;WIDTH:0.419999
G1 F3000
G1 X103.025 Y124.313 E1.14048
G1 X101.675 Y124.216 E.0403
G1 X100.377 Y123.934 E.03957
G1 X99.132 Y123.47 E.03957
G1 X97.966 Y122.833 E.03957
G1 X96.902 Y122.037 E.03957
G1 X95.963 Y121.098 E.03957
G1 X95.167 Y120.034 E.03957
G1 X94.53 Y118.868 E.03957
G1 X94.066 Y117.623 E.03957
G1 X93.784 Y116.325 E.03957
M73 P2 R13
G1 X93.689 Y115 E.03957
G1 X93.784 Y113.675 E.03957
G1 X94.066 Y112.377 E.03957
G1 X94.53 Y111.132 E.03957
G1 X95.167 Y109.966 E.03957
G1 X95.963 Y108.902 E.03957
G1 X96.902 Y107.963 E.03957
G1 X97.966 Y107.167 E.03957
G1 X99.132 Y106.53 E.03957
G1 X100.377 Y106.066 E.03957
G1 X101.675 Y105.784 E.03957
G1 X103.025 Y105.687 E.0403
G1 X141.313 Y105.687 E1.14048
G1 X141.313 Y124.273 E.55361
M73 P3 R13
G1 X141.69 Y124.69 F21000
;TYPE:Outer wall
G1 F3000
G1 X103.011 Y124.69 E1.15211
G1 X101.621 Y124.591 E.04151
G1 X100.27 Y124.297 E.04118
G1 X98.975 Y123.814 E.04118
G1 X97.762 Y123.151 E.04118
G1 X96.655 Y122.323 E.04118
G1 X95.677 Y121.345 E.04118
G1 X94.849 Y120.238 E.04118
G1 X94.186 Y119.025 E.04118
G1 X93.703 Y117.73 E.04118
G1 X93.409 Y116.379 E.04118
G1 X93.311 Y115 E.04118
G1 X93.409 Y113.621 E.04118
G1 X93.703 Y112.27 E.04118
G1 X94.186 Y110.975 E.04118
G1 X94.849 Y109.762 E.04118
G1 X95.677 Y108.655 E.04118
G1 X96.655 Y107.677 E.04118
G1 X97.762 Y106.849 E.04118
G1 X98.975 Y106.186 E.04118
G1 X100.27 Y105.703 E.04118
G1 X101.621 Y105.409 E.04118
G1 X103.011 Y105.31 E.04151
G1 X141.69 Y105.31 E1.15211
G1 X141.69 Y124.65 E.57607
G1 E-.68 F3600
;WIPE_START
G1 F3000
G1 X140.69 Y124.651 E-.12
;WIPE_END
G1 X137.927 Y119.751 Z.6 F21000
G1 Z.2
G1 E.8 F2700
;TYPE:Inner wall
G1 F3000
G1 X138.022 Y119.892 E.00508
G1 X138.153 Y120.177 E.00935
G1 X138.31 Y120.884 E.02155
G1 X138.267 Y121.426 E.01619
G1 X138.129 Y121.862 E.01364
G1 X137.996 Y122.157 E.00962
G1 X137.817 Y122.421 E.00949
G1 X137.496 Y122.755 E.01381
G1 X137.24 Y122.945 E.00949
;WIDTH:0.460468
G1 X137.075 Y123.039 E.00627
;WIDTH:0.500937
G1 X136.909 Y123.132 E.00688
;WIDTH:0.541406
G1 X136.744 Y123.226 E.00749
;WIDTH:0.581875
G1 X136.579 Y123.32 E.0081
G1 X136.07 Y123.369 E.02177
;WIDTH:0.556932
G1 X135.729 Y123.359 E.01385
G1 X135.485 Y123.265 E.01062
;WIDTH:0.511288
G1 X135.241 Y123.171 E.00968
;WIDTH:0.465644
G1 X134.996 Y123.077 E.00873
;WIDTH:0.419999
G1 X134.613 Y122.843 E.01337
G1 X134.377 Y122.637 E.00935
G1 X134.074 Y122.267 E.01424
G1 X133.913 Y121.983 E.00971
G1 X133.759 Y121.546 E.01381
G1 X133.705 Y121.232 E.00949
G1 X133.706 Y120.72 E.01525
G1 X133.759 Y120.454 E.00807
G1 X133.969 Y119.891 E.01791
G1 X134.284 Y119.472 E.01562
G1 X134.57 Y119.186 E.01203
G1 X135.132 Y118.854 E.01944
G1 X135.726 Y118.71 E.01821
G1 X136.246 Y118.699 E.01551
G1 X136.894 Y118.874 E.01996
G1 X137.178 Y119.017 E.00949
G1 X137.551 Y119.293 E.01381
G1 X137.77 Y119.521 E.00941
G1 X137.904 Y119.718 E.00711
G1 X137.588 Y119.942 F21000
G1 F3000
G1 X137.711 Y120.104 E.00605
G1 X137.913 Y120.737 E.01979
G1 X137.931 Y120.932 E.00582
G1 X137.885 Y121.443 E.01531
G1 X137.652 Y122.001 E.018
G1 X137.224 Y122.494 E.01945
G1 X136.656 Y122.817 E.01945
G1 X136.014 Y122.932 E.01945
G1 X135.823 Y122.924 E.00569
G1 X135.193 Y122.755 E.0194
G1 X134.668 Y122.397 E.01893
G1 X134.269 Y121.858 E.02
G1 X134.082 Y121.232 E.01945
G1 X134.09 Y120.673 E.01664
G1 X134.269 Y120.142 E.01668
G1 X134.654 Y119.615 E.01945
G1 X135.084 Y119.312 E.01569
G1 X135.368 Y119.174 E.00938
G1 X135.879 Y119.068 E.01555
G1 X136.339 Y119.098 E.01375
G1 X136.868 Y119.268 E.01653
G1 X137.327 Y119.596 E.01681
G1 X137.564 Y119.91 E.01172
G1 X137.301 Y120.183 F21000
;TYPE:Outer wall
G1 F3000
G1 X137.425 Y120.373 E.00675
G1 X137.555 Y120.884 E.0157
G1 X137.499 Y121.423 E.01616
G1 X137.273 Y121.899 E.01569
G1 X136.901 Y122.271 E.01569
G1 X136.434 Y122.497 E.01544
G1 X135.902 Y122.555 E.01595
G1 X135.39 Y122.434 E.01567
G1 X134.96 Y122.158 E.01522
G1 X134.625 Y121.732 E.01615
G1 X134.459 Y121.232 E.01569
G1 X134.468 Y120.712 E.0155
G1 X134.636 Y120.243 E.01483
G1 X134.967 Y119.831 E.01575
G1 X135.417 Y119.553 E.01576
G1 X135.911 Y119.443 E.01506
G1 X136.229 Y119.459 E.00948
G1 X136.73 Y119.623 E.01571
G1 X137.146 Y119.945 E.01567
G1 X137.28 Y120.15 E.00728
G1 E-.68 F3600
;WIPE_START
G1 F3000
G1 X137.425 Y120.373 E-.03199
G1 X137.555 Y120.884 E-.06324
G1 X137.534 Y121.089 E-.02477
;WIPE_END
G1 X132.151 Y115.678 Z.6 F21000
G1 X131.294 Y114.817 Z.6
G1 Z.2
G1 E.8 F2700
;TYPE:Inner wall
G1 F3000
G1 X131.306 Y114.963 E.00436
G1 X131.247 Y115.556 E.01776
G1 X131.048 Y116.042 E.01563
G1 X130.841 Y116.395 E.01219
G1 X130.479 Y116.773 E.01559
G1 X130.24 Y116.945 E.00875
G1 X129.709 Y117.203 E.01761
G1 X129.062 Y117.306 E.01952
G1 X128.743 Y117.292 E.00949
G1 X128.136 Y117.147 E.0186
G1 X127.613 Y116.843 E.01801
G1 X127.377 Y116.637 E.00935
G1 X127.005 Y116.173 E.0177
G1 X126.759 Y115.546 E.02005
G1 X126.705 Y115.232 E.00949
G1 X126.708 Y114.697 E.01594
G1 X126.913 Y114.017 E.02115
G1 X127.069 Y113.739 E.00949
G1 X127.467 Y113.266 E.01841
G1 X127.994 Y112.924 E.01871
G1 X128.287 Y112.806 E.00941
G1 X128.927 Y112.689 E.01938
G1 X129.45 Y112.738 E.01563
G1 X129.955 Y112.895 E.01578
G1 X130.178 Y113.017 E.00757
G1 X130.604 Y113.335 E.01581
G1 X130.83 Y113.61 E.01061
G1 X131.145 Y114.137 E.0183
G1 X131.279 Y114.645 E.01565
G1 X131.29 Y114.777 E.00395
G1 X130.915 Y114.938 F21000
G1 F3000
G1 X130.891 Y115.394 E.0136
G1 X130.704 Y115.886 E.0157
G1 X130.545 Y116.16 E.00942
G1 X130.158 Y116.553 E.01644
G1 X129.657 Y116.817 E.01686
G1 X129.474 Y116.873 E.0057
G1 X128.942 Y116.936 E.01597
G1 X128.369 Y116.826 E.01737
G1 X127.81 Y116.521 E.01897
G1 X127.365 Y116.028 E.01979
G1 X127.269 Y115.858 E.00582
G1 X127.115 Y115.42 E.01381
G1 X127.082 Y115 E.01256
G1 X127.115 Y114.58 E.01255
G1 X127.292 Y114.087 E.01559
G1 X127.654 Y113.615 E.01772
G1 X127.797 Y113.489 E.00569
G1 X128.275 Y113.203 E.01659
G1 X128.806 Y113.079 E.01625
G1 X129.192 Y113.074 E.01148
G1 X129.783 Y113.234 E.01826
G1 X129.954 Y113.32 E.0057
G1 X130.358 Y113.621 E.01501
G1 X130.719 Y114.118 E.01829
G1 X130.797 Y114.292 E.00569
G1 X130.924 Y114.783 E.01509
G1 X130.918 Y114.898 E.00342
G1 X130.544 Y114.921 F21000
;TYPE:Outer wall
G1 F3000
G1 X130.515 Y115.362 E.01316
G1 X130.308 Y115.846 E.01569
G1 X129.952 Y116.233 E.01569
G1 X129.487 Y116.48 E.01567
G1 X128.966 Y116.558 E.01571
G1 X128.449 Y116.457 E.01569
G1 X128.007 Y116.199 E.01523
G1 X127.657 Y115.789 E.01609
G1 X127.47 Y115.295 E.01573
G1 X127.459 Y114.768 E.01569
G1 X127.625 Y114.268 E.01569
G1 X127.947 Y113.852 E.01569
G1 X128.39 Y113.566 E.01569
G1 X128.887 Y113.447 E.01523
G1 X129.229 Y113.459 E.01019
G1 X129.72 Y113.616 E.01535
G1 X130.123 Y113.917 E.01499
G1 X130.406 Y114.329 E.01491
G1 X130.549 Y114.835 E.01567
G1 X130.546 Y114.881 E.00136
G1 E-.68 F3600
;WIPE_START
G1 F3000
G1 X130.515 Y115.362 E-.05781
G1 X130.312 Y115.838 E-.06219
;WIPE_END
G1 X135.632 Y110.365 Z.6 F21000
G1 X138.017 Y107.911 Z.6
G1 Z.2
G1 E.8 F2700
;TYPE:Inner wall
G1 F3000
G1 X138.123 Y108.078 E.00589
G1 X138.279 Y108.646 E.01755
G1 X138.306 Y108.964 E.00949
G1 X138.256 Y109.509 E.0163
G1 X137.996 Y110.157 E.0208
G1 X137.817 Y110.421 E.00949
G1 X137.496 Y110.755 E.01381
G1 X137.24 Y110.945 E.00949
G1 X136.683 Y111.212 E.01842
G1 X136.062 Y111.306 E.01871
G1 X135.743 Y111.292 E.00949
G1 X135.225 Y111.178 E.01579
G1 X134.613 Y110.843 E.02079
G1 X134.377 Y110.637 E.00935
G1 X134.032 Y110.213 E.01627
G1 X133.913 Y109.983 E.00769
G1 X133.738 Y109.479 E.01591
G1 X133.705 Y108.768 E.02119
G1 X133.759 Y108.454 E.00949
G1 X133.913 Y108.017 E.01381
G1 X134.069 Y107.739 E.00949
G1 X134.36 Y107.378 E.01381
G1 X134.599 Y107.167 E.00949
G1 X134.994 Y106.924 E.01381
;WIDTH:0.458535
G1 X135.234 Y106.834 E.00841
;WIDTH:0.497071
G1 X135.474 Y106.744 E.00919
;WIDTH:0.535607
G1 X135.714 Y106.654 E.00997
;WIDTH:0.547889
G1 X136.206 Y106.633 E.01965
;WIDTH:0.575754
G1 X136.472 Y106.663 E.0113
G1 X136.649 Y106.752 E.00831
;WIDTH:0.536816
G1 X136.825 Y106.84 E.0077
;WIDTH:0.497877
G1 X137.002 Y106.929 E.00709
;WIDTH:0.458938
G1 X137.178 Y107.017 E.00649
;WIDTH:0.419999
G1 X137.551 Y107.293 E.01381
G1 X137.771 Y107.523 E.00949
G1 X137.996 Y107.877 E.01249
G1 X137.699 Y108.105 F21000
G1 F3000
G1 X137.774 Y108.221 E.00411
G1 X137.914 Y108.741 E.01605
G1 X137.891 Y109.394 E.01945
G1 X137.652 Y110.001 E.01945
G1 X137.224 Y110.494 E.01945
G1 X136.656 Y110.817 E.01945
G1 X136.474 Y110.873 E.00569
G1 X135.958 Y110.936 E.01547
G1 X135.369 Y110.826 E.01784
G1 X135.193 Y110.755 E.00565
G1 X134.744 Y110.474 E.0158
G1 X134.34 Y109.995 E.01865
G1 X134.115 Y109.42 E.0184
G1 X134.082 Y109.232 E.00569
G1 X134.115 Y108.58 E.01945
G1 X134.362 Y107.976 E.01945
G1 X134.797 Y107.489 E.01945
G1 X135.368 Y107.174 E.0194
G1 X135.927 Y107.066 E.01697
G1 X136.339 Y107.098 E.01231
G1 X136.954 Y107.32 E.01947
G1 X137.459 Y107.734 E.01945
G1 X137.677 Y108.071 E.01196
G1 X137.385 Y108.304 F21000
;TYPE:Outer wall
G1 F3000
G1 X137.425 Y108.364 E.00215
G1 X137.555 Y108.884 E.01598
G1 X137.499 Y109.423 E.01616
G1 X137.273 Y109.899 E.01569
G1 X136.901 Y110.271 E.01569
G1 X136.431 Y110.498 E.01553
G1 X135.927 Y110.559 E.01512
G1 X135.436 Y110.454 E.01495
G1 X134.996 Y110.192 E.01525
G1 X134.641 Y109.767 E.01651
G1 X134.47 Y109.295 E.01495
G1 X134.459 Y108.768 E.01569
G1 X134.625 Y108.268 E.01569
G1 X134.947 Y107.852 E.01569
G1 X135.39 Y107.566 E.01569
G1 X135.887 Y107.447 E.01523
G1 X136.229 Y107.459 E.01019
G1 X136.73 Y107.623 E.01571
G1 X137.147 Y107.945 E.01569
G1 X137.363 Y108.27 E.01162
G1 E-.68 F3600
;WIPE_START
G1 F3000
G1 X137.425 Y108.364 E-.01345
G1 X137.555 Y108.884 E-.06436
G1 X137.519 Y109.233 E-.04219
;WIPE_END
G1 X130.067 Y110.882 Z.6 F21000
G1 X100.36 Y117.451 Z.6
G1 Z.2
M73 P4 R13
G1 E.8 F2700
;TYPE:Inner wall
G1 F3000
G1 X100.053 Y117.088 E.01416
G1 X99.742 Y116.56 E.01825
G1 X99.525 Y115.987 E.01825
G1 X99.397 Y115.294 E.021
G1 X99.395 Y114.773 E.0155
G1 X99.485 Y114.167 E.01825
G1 X99.668 Y113.611 E.01746
G1 X99.959 Y113.052 E.01877
G1 X100.332 Y112.566 E.01825
G1 X100.788 Y112.144 E.01851
G1 X101.303 Y111.811 E.01825
G1 X101.866 Y111.571 E.01825
G1 X102.462 Y111.428 E.01825
G1 X103.047 Y111.39 E.01746
G1 X103.674 Y111.452 E.01877
G1 X104.272 Y111.619 E.01851
G1 X104.825 Y111.883 E.01825
G1 X105.326 Y112.236 E.01825
G1 X105.759 Y112.669 E.01825
G1 X106.114 Y113.169 E.01825
G1 X106.378 Y113.722 E.01825
G1 X106.546 Y114.311 E.01825
G1 X106.611 Y114.92 E.01825
G1 X106.573 Y115.531 E.01825
G1 X106.432 Y116.128 E.01825
G1 X106.192 Y116.691 E.01825
G1 X105.86 Y117.206 E.01825
G1 X105.464 Y117.639 E.01746
G1 X104.969 Y118.028 E.01877
G1 X104.421 Y118.321 E.01851
G1 X103.839 Y118.513 E.01825
G1 X103.233 Y118.605 E.01825
G1 X102.621 Y118.592 E.01825
G1 X102.019 Y118.476 E.01825
G1 X101.446 Y118.261 E.01825
G1 X101.007 Y118.006 E.0151
G1 X100.448 Y117.556 E.02137
G1 X100.385 Y117.482 E.0029
G1 X100.643 Y117.208 F21000
G1 F3000
G1 X100.346 Y116.852 E.01381
G1 X100.071 Y116.376 E.01635
G1 X99.881 Y115.862 E.01635
G1 X99.774 Y115.267 E.018
G1 X99.774 Y114.733 E.0159
G1 X99.857 Y114.231 E.01515
G1 X100.023 Y113.736 E.01555
G1 X100.29 Y113.233 E.01697
G1 X100.625 Y112.803 E.01624
G1 X101.038 Y112.427 E.01661
G1 X101.501 Y112.133 E.01635
G1 X102.007 Y111.92 E.01635
G1 X102.541 Y111.797 E.01635
G1 X103.063 Y111.767 E.01555
G1 X103.629 Y111.826 E.01697
G1 X104.162 Y111.98 E.01651
G1 X104.656 Y112.22 E.01635
G1 X105.102 Y112.54 E.01635
G1 X105.487 Y112.93 E.01635
G1 X105.801 Y113.38 E.01635
G1 X106.035 Y113.877 E.01635
G1 X106.181 Y114.406 E.01635
G1 X106.235 Y114.952 E.01635
G1 X106.197 Y115.5 E.01635
G1 X106.067 Y116.033 E.01635
G1 X105.848 Y116.536 E.01635
G1 X105.547 Y116.995 E.01635
G1 X105.192 Y117.378 E.01555
G1 X104.742 Y117.727 E.01697
G1 X104.251 Y117.984 E.01651
G1 X103.729 Y118.153 E.01635
G1 X103.185 Y118.231 E.01635
G1 X102.637 Y118.215 E.01635
G1 X102.098 Y118.108 E.01635
G1 X101.586 Y117.911 E.01635
G1 X101.115 Y117.63 E.01635
G1 X100.697 Y117.273 E.01635
G1 X100.668 Y117.239 E.00135
G1 X100.939 Y116.978 F21000
;TYPE:Outer wall
G1 F3000
G1 X100.919 Y116.96 E.0008
G1 X100.622 Y116.588 E.01418
G1 X100.388 Y116.163 E.01445
G1 X100.23 Y115.713 E.0142
G1 X100.149 Y115.227 E.0147
G1 X100.162 Y114.685 E.01613
G1 X100.237 Y114.264 E.01274
G1 X100.391 Y113.834 E.0136
G1 X100.635 Y113.391 E.01508
G1 X100.946 Y113.01 E.01466
G1 X101.402 Y112.636 E.01756
G1 X101.727 Y112.439 E.0113
G1 X102.178 Y112.261 E.01445
G1 X102.653 Y112.161 E.01445
G1 X103.109 Y112.144 E.0136
G1 X103.618 Y112.208 E.01528
G1 X104.081 Y112.352 E.01445
