; HEADER_BLOCK_START
; generated by OrcaSlicer 2.1.1 on 2024-12-15 at 21:56:08
; total layer number: 45
; filament_density: 1.27
; filament_diameter: 1.75
; max_z_height: 3.72
; HEADER_BLOCK_END

; THUMBNAIL_BLOCK_START

;
; THUMBNAIL_BLOCK_END







; external perimeters extrusion width = 0.40mm
; perimeters extrusion width = 0.45mm
; infill extrusion width = 0.45mm
; solid infill extrusion width = 0.45mm
; top infill extrusion width = 0.38mm
; first layer extrusion width = 0.42mm

; EXECUTABLE_BLOCK_START
EXCLUDE_OBJECT_DEFINE NAME=履带轮_轴片2.STL_id_0_copy_0 CENTER=117.5,115 POLYGON=[[104.5,115],[104.569,113.663],[104.775,112.341],[105.116,111.046],[105.588,109.794],[106.186,108.597],[106.905,107.468],[107.735,106.418],[108.669,105.459],[109.697,104.602],[110.808,103.855],[111.989,103.226],[113.229,102.722],[114.514,102.348],[115.831,102.108],[117.165,102.004],[118.503,102.039],[119.831,102.211],[121.133,102.518],[122.397,102.958],[123.61,103.525],[124.757,104.214],[125.828,105.018],[126.81,105.927],[127.694,106.932],[128.469,108.023],[129.128,109.188],[129.664,110.414],[130.071,111.689],[130.345,112.999],[130.483,114.331],[130.5,115],[130.483,115.669],[130.345,117.001],[130.071,118.311],[129.664,119.586],[129.128,120.812],[128.469,121.977],[127.694,123.068],[126.81,124.073],[125.828,124.982],[124.757,125.786],[123.61,126.475],[122.397,127.042],[121.133,127.482],[119.831,127.789],[118.503,127.961],[117.165,127.996],[115.831,127.892],[114.514,127.652],[113.229,127.278],[111.989,126.774],[110.808,126.145],[109.697,125.398],[108.669,124.54],[107.735,123.582],[106.905,122.532],[106.186,121.403],[105.588,120.206],[105.116,118.953],[104.775,117.659],[104.569,116.337],[104.5,115]]
M73 P0 R15
;TYPE:Custom
;ELEGOO NEPTUNE 4 PRO
M220 S100 ;Set the feed speed to 100%
M221 S100 ;Set the flow rate to 100%
M104 S140
M190 S70
G90
G28 ;home
G1 Z10 F300
G1 X67.5 Y0 F6000
G1 Z0 F300
M109 S240
G92 E0 ;Reset Extruder
G1 X67.5 Y0 Z0.4 F300 ;Move to start position
M73 P0 R14
G1 X167.5 E30 F400 ;Draw the first line
G1 Z0.6 F120.0 ;Move to side a little
M73 P2 R14
G1 X162.5 F3000
G92 E0 ;Reset Extruder
G90
G21
M83 ; use relative distances for extrusion
; filament start gcode
M106 S0
;LAYER_CHANGE
;Z:0.2
;HEIGHT:0.2
;BEFORE_LAYER_CHANGE
G92 E0
;0.2


G1 E-.8 F3600
;AFTER_LAYER_CHANGE
;0.2
;_SET_FAN_SPEED_CHANGING_LAYER
SET_VELOCITY_LIMIT ACCEL=1000 ACCEL_TO_DECEL=500
SET_VELOCITY_LIMIT SQUARE_CORNER_VELOCITY=7
; printing object 履带轮 轴片2.STL id:0 copy 0
EXCLUDE_OBJECT_START NAME=履带轮_轴片2.STL_id_0_copy_0
G1 X129.041 Y111.961 F21000
G1 Z.4
G1 Z.2
G1 E.8 F2700
;TYPE:Inner wall
;WIDTH:0.419999
G1 F3000
G1 X129.292 Y113.163 E.0366
G1 X129.422 Y114.493 E.03979
G1 X129.434 Y115.069 E.01716
G1 X129.42 Y115.601 E.01585
G1 X129.292 Y116.837 E.03701
G1 X129.041 Y118.039 E.0366
G1 X128.667 Y119.21 E.0366
G1 X128.175 Y120.336 E.0366
G1 X127.57 Y121.405 E.0366
G1 X126.858 Y122.407 E.0366
G1 X126.047 Y123.33 E.0366
G1 X125.145 Y124.164 E.0366
G1 X124.162 Y124.902 E.0366
G1 X123.109 Y125.534 E.0366
G1 X121.996 Y126.055 E.0366
G1 X120.836 Y126.459 E.0366
G1 X119.64 Y126.741 E.0366
G1 X118.421 Y126.899 E.0366
G1 X117.193 Y126.93 E.0366
G1 X115.968 Y126.836 E.0366
G1 X114.759 Y126.615 E.0366
G1 X113.579 Y126.272 E.0366
G1 X112.441 Y125.809 E.0366
G1 X111.356 Y125.232 E.0366
G1 X110.337 Y124.546 E.0366
G1 X109.393 Y123.758 E.0366
G1 X108.536 Y122.879 E.0366
G1 X107.773 Y121.915 E.0366
G1 X107.114 Y120.878 E.0366
G1 X106.564 Y119.779 E.0366
G1 X106.131 Y118.629 E.0366
G1 X105.818 Y117.441 E.0366
G1 X105.629 Y116.227 E.0366
G1 X105.566 Y115 E.0366
G1 X105.629 Y113.773 E.0366
G1 X105.818 Y112.559 E.0366
G1 X106.131 Y111.371 E.0366
G1 X106.564 Y110.221 E.0366
G1 X107.114 Y109.122 E.0366
G1 X107.773 Y108.085 E.0366
G1 X108.536 Y107.121 E.0366
G1 X109.393 Y106.241 E.0366
G1 X110.337 Y105.454 E.0366
G1 X111.356 Y104.768 E.0366
G1 X112.441 Y104.191 E.0366
G1 X113.579 Y103.728 E.0366
G1 X114.759 Y103.385 E.0366
G1 X115.968 Y103.164 E.0366
G1 X117.193 Y103.07 E.0366
G1 X118.421 Y103.101 E.0366
G1 X119.64 Y103.259 E.0366
G1 X120.836 Y103.541 E.0366
G1 X121.996 Y103.945 E.0366
G1 X123.109 Y104.466 E.0366
G1 X124.162 Y105.098 E.0366
G1 X125.145 Y105.836 E.0366
G1 X126.047 Y106.67 E.0366
G1 X126.858 Y107.593 E.0366
G1 X127.57 Y108.595 E.0366
G1 X128.175 Y109.664 E.0366
G1 X128.667 Y110.79 E.0366
G1 X129.029 Y111.923 E.03541
G1 X129.406 Y111.864 F21000
G1 F3000
G1 X129.665 Y113.105 E.03776
G1 X129.799 Y114.483 E.04124
G1 X129.811 Y115.078 E.01773
G1 X129.797 Y115.625 E.01629
G1 X129.665 Y116.895 E.03802
G1 X129.406 Y118.136 E.03776
G1 X129.021 Y119.343 E.03776
G1 X128.513 Y120.505 E.03776
G1 X127.889 Y121.608 E.03776
G1 X127.154 Y122.641 E.03776
G1 X126.317 Y123.593 E.03776
G1 X125.387 Y124.454 E.03776
G1 X124.373 Y125.215 E.03776
G1 X123.286 Y125.868 E.03776
G1 X122.138 Y126.405 E.03776
G1 X120.941 Y126.821 E.03776
G1 X119.707 Y127.113 E.03776
G1 X118.45 Y127.275 E.03776
G1 X117.183 Y127.308 E.03776
G1 X115.919 Y127.21 E.03776
G1 X114.672 Y126.983 E.03776
G1 X113.455 Y126.629 E.03776
G1 X112.281 Y126.151 E.03776
G1 X111.162 Y125.555 E.03776
G1 X110.11 Y124.848 E.03776
G1 X109.137 Y124.036 E.03776
G1 X108.252 Y123.128 E.03776
G1 X107.465 Y122.134 E.03776
G1 X106.785 Y121.064 E.03776
G1 X106.218 Y119.93 E.03776
G1 X105.771 Y118.744 E.03776
G1 X105.448 Y117.518 E.03776
G1 X105.253 Y116.266 E.03776
G1 X105.188 Y115 E.03776
G1 X105.253 Y113.734 E.03776
G1 X105.448 Y112.482 E.03776
G1 X105.771 Y111.256 E.03776
G1 X106.218 Y110.07 E.03776
G1 X106.785 Y108.936 E.03776
G1 X107.465 Y107.866 E.03776
G1 X108.252 Y106.872 E.03776
G1 X109.137 Y105.964 E.03776
G1 X110.11 Y105.152 E.03776
G1 X111.162 Y104.445 E.03776
G1 X112.281 Y103.849 E.03776
G1 X113.455 Y103.371 E.03776
G1 X114.672 Y103.017 E.03776
G1 X115.919 Y102.79 E.03776
G1 X117.183 Y102.692 E.03776
G1 X118.45 Y102.725 E.03776
G1 X119.707 Y102.887 E.03776
G1 X120.941 Y103.179 E.03776
G1 X122.138 Y103.595 E.03776
G1 X123.286 Y104.132 E.03776
G1 X124.373 Y104.785 E.03776
G1 X125.387 Y105.546 E.03776
G1 X126.317 Y106.407 E.03776
G1 X127.154 Y107.359 E.03776
G1 X127.889 Y108.392 E.03776
G1 X128.513 Y109.495 E.03776
G1 X129.021 Y110.657 E.03776
G1 X129.394 Y111.826 E.03657
G1 X129.771 Y111.768 F21000
;TYPE:Outer wall
G1 F3000
G1 X130.038 Y113.047 E.03892
G1 X130.176 Y114.473 E.04268
G1 X130.188 Y115.088 E.01831
G1 X130.173 Y115.649 E.01672
G1 X130.038 Y116.953 E.03903
G1 X129.771 Y118.232 E.03892
G1 X129.374 Y119.476 E.03892
G1 X128.851 Y120.673 E.03892
G1 X128.207 Y121.81 E.03892
G1 X127.45 Y122.875 E.03892
G1 X126.588 Y123.857 E.03892
G1 X125.629 Y124.744 E.03892
G1 X124.584 Y125.528 E.03892
G1 X123.464 Y126.201 E.03892
G1 X122.281 Y126.755 E.03891
G1 X121.047 Y127.184 E.03892
G1 X119.775 Y127.484 E.03892
G1 X118.479 Y127.652 E.03892
G1 X117.173 Y127.685 E.03892
G1 X115.871 Y127.585 E.03892
G1 X114.585 Y127.35 E.03891
G1 X113.331 Y126.985 E.03892
G1 X112.121 Y126.493 E.03892
G1 X110.967 Y125.879 E.03892
G1 X109.884 Y125.15 E.03892
G1 X108.88 Y124.313 E.03892
G1 X107.968 Y123.377 E.03892
G1 X107.158 Y122.353 E.03892
G1 X106.456 Y121.25 E.03891
G1 X105.872 Y120.082 E.03892
G1 X105.411 Y118.859 E.03892
G1 X105.079 Y117.596 E.03892
G1 X104.878 Y116.305 E.03892
G1 X104.81 Y115 E.03892
G1 X104.878 Y113.695 E.03892
G1 X105.079 Y112.404 E.03892
G1 X105.411 Y111.141 E.03892
G1 X105.872 Y109.918 E.03892
G1 X106.456 Y108.75 E.03892
G1 X107.158 Y107.647 E.03892
G1 X107.968 Y106.623 E.03892
G1 X108.88 Y105.687 E.03892
G1 X109.884 Y104.85 E.03892
G1 X110.967 Y104.121 E.03892
G1 X112.121 Y103.507 E.03892
G1 X113.331 Y103.015 E.03892
G1 X114.585 Y102.65 E.03892
G1 X115.871 Y102.415 E.03891
G1 X117.173 Y102.315 E.03892
G1 X118.479 Y102.348 E.03892
G1 X119.775 Y102.516 E.03892
G1 X121.047 Y102.816 E.03892
G1 X122.281 Y103.245 E.03892
G1 X123.464 Y103.799 E.03892
G1 X124.584 Y104.472 E.03892
G1 X125.629 Y105.256 E.03892
G1 X126.588 Y106.143 E.03892
G1 X127.45 Y107.125 E.03891
G1 X128.207 Y108.19 E.03892
G1 X128.851 Y109.327 E.03892
G1 X129.374 Y110.524 E.03892
G1 X129.759 Y111.73 E.03772
G1 E-.68 F3600
;WIPE_START
G1 F3000
G1 X129.967 Y112.708 E-.12
;WIPE_END
G1 X124.459 Y117.992 Z.6 F21000
G1 X122.632 Y119.744 Z.6
G1 Z.2
G1 E.8 F2700
;TYPE:Inner wall
G1 F3000
G1 X122.506 Y119.399 E.01097
G1 X122.478 Y118.827 E.01704
G1 X122.532 Y118.514 E.00948
G1 X122.757 Y117.971 E.01748
G1 X123.114 Y117.539 E.01671
G1 X123.553 Y117.249 E.01567
G1 X123.853 Y117.129 E.00961
G1 X124.411 Y117.038 E.01684
G1 X124.859 Y117.093 E.01346
G1 X125.389 Y117.287 E.01679
G1 X125.746 Y117.55 E.01322
G1 X125.947 Y117.764 E.00875
G1 X126.232 Y118.222 E.01607
G1 X126.388 Y118.86 E.01956
G1 X126.356 Y119.337 E.01424
G1 X126.276 Y119.646 E.00949
G1 X126.003 Y120.171 E.01765
G1 X125.698 Y120.492 E.01318
G1 X125.152 Y120.819 E.01896
G1 X124.84 Y120.913 E.00969
G1 X124.245 Y120.953 E.01778
G1 X123.706 Y120.827 E.01647
G1 X123.266 Y120.575 E.0151
G1 X123.029 Y120.368 E.0094
G1 X122.705 Y119.943 E.0159
G1 X122.646 Y119.782 E.00511
G1 X122.982 Y119.605 F21000
G1 F3000
G1 X122.862 Y119.257 E.01096
G1 X122.871 Y118.694 E.01678
G1 X123.068 Y118.184 E.01629
G1 X123.429 Y117.769 E.01638
G1 X123.836 Y117.527 E.0141
G1 X124.327 Y117.417 E.015
G1 X124.739 Y117.45 E.01229
G1 X125.224 Y117.627 E.01539
G1 X125.612 Y117.945 E.01494
G1 X125.883 Y118.365 E.0149
G1 X126.011 Y118.881 E.01585
G1 X125.953 Y119.438 E.01668
G1 X125.712 Y119.932 E.01636
G1 X125.291 Y120.327 E.0172
G1 X124.799 Y120.538 E.01593
G1 X124.301 Y120.58 E.0149
G1 X123.843 Y120.476 E.014
G1 X123.375 Y120.187 E.01637
G1 X123.037 Y119.765 E.01608
G1 X122.995 Y119.643 E.00387
G1 X123.332 Y119.468 F21000
;TYPE:Outer wall
G1 F3000
G1 X123.232 Y119.113 E.01099
G1 X123.243 Y118.765 E.01038
G1 X123.389 Y118.384 E.01215
G1 X123.654 Y118.072 E.01218
G1 X124.013 Y117.866 E.01232
G1 X124.384 Y117.792 E.01128
G1 X124.618 Y117.808 E.00698
G1 X125.055 Y117.966 E.01384
G1 X125.322 Y118.187 E.01032
G1 X125.542 Y118.532 E.01218
G1 X125.634 Y118.929 E.01216
M73 P3 R14
G1 X125.589 Y119.335 E.01216
G1 X125.411 Y119.703 E.01216
G1 X125.103 Y119.999 E.01271
G1 X124.745 Y120.165 E.01178
G1 X124.345 Y120.205 E.01196
G1 X123.918 Y120.09 E.01316
G1 X123.613 Y119.891 E.01087
G1 X123.358 Y119.561 E.0124
G1 X123.343 Y119.507 E.00169
G1 E-.68 F3600
;WIPE_START
G1 F3000
G1 X123.232 Y119.113 E-.04907
G1 X123.243 Y118.765 E-.04184
G1 X123.33 Y118.538 E-.0291
;WIPE_END
G1 X123.762 Y110.918 Z.6 F21000
G1 X123.864 Y109.136 Z.6
G1 Z.2
G1 E.8 F2700
;TYPE:Inner wall
G1 F3000
G1 X124.24 Y109.047 E.01151
G1 X124.744 Y109.062 E.01502
G1 X125.374 Y109.28 E.01986
G1 X125.727 Y109.535 E.01296
G1 X125.946 Y109.764 E.00944
G1 X126.244 Y110.257 E.01717
G1 X126.362 Y110.691 E.01339
G1 X126.376 Y111.108 E.01244
G1 X126.276 Y111.646 E.01629
G1 X125.981 Y112.196 E.0186
G1 X125.586 Y112.587 E.01656
G1 X125.09 Y112.847 E.01669
G1 X124.505 Y112.956 E.01772
G1 X124.173 Y112.94 E.00988
G1 X123.695 Y112.823 E.01466
G1 X123.259 Y112.57 E.01503
G1 X123.021 Y112.361 E.00944
G1 X122.71 Y111.952 E.01529
G1 X122.487 Y111.299 E.02054
G1 X122.486 Y110.709 E.01758
G1 X122.647 Y110.188 E.01627
G1 X122.803 Y109.909 E.0095
G1 X123.2 Y109.469 E.01767
G1 X123.707 Y109.173 E.01747
G1 X123.825 Y109.145 E.00361
G1 X123.806 Y109.564 F21000
G1 F3000
G1 X123.928 Y109.499 E.00412
G1 X124.397 Y109.415 E.01421
G1 X124.723 Y109.445 E.00975
G1 X125.225 Y109.633 E.01594
G1 X125.62 Y109.955 E.01519
G1 X125.889 Y110.383 E.01506
G1 X126.01 Y110.961 E.01759
G1 X125.933 Y111.49 E.01593
G1 X125.699 Y111.947 E.01527
G1 X125.306 Y112.318 E.0161
G1 X124.839 Y112.532 E.01528
G1 X124.333 Y112.584 E.01516
G1 X123.836 Y112.473 E.01518
G1 X123.382 Y112.194 E.01589
G1 X123.042 Y111.773 E.0161
G1 X122.855 Y111.177 E.01859
G1 X122.888 Y110.639 E.01607
G1 X123.096 Y110.146 E.01593
G1 X123.458 Y109.75 E.01597
G1 X123.771 Y109.583 E.01057
G1 X123.971 Y109.889 F21000
;TYPE:Outer wall
G1 F3000
G1 X124.008 Y109.867 E.00128
G1 X124.384 Y109.792 E.01143
G1 X124.613 Y109.806 E.00682
G1 X125 Y109.936 E.01218
G1 X125.322 Y110.187 E.01215
G1 X125.552 Y110.575 E.01343
G1 X125.634 Y110.929 E.01083
G1 X125.589 Y111.335 E.01216
G1 X125.411 Y111.703 E.01216
G1 X125.121 Y111.99 E.01216
G1 X124.751 Y112.164 E.01216
G1 X124.332 Y112.202 E.01254
G1 X123.948 Y112.109 E.01177
G1 X123.607 Y111.886 E.01215
G1 X123.363 Y111.568 E.01193
G1 X123.232 Y111.173 E.0124
G1 X123.243 Y110.764 E.01216
G1 X123.389 Y110.383 E.01216
G1 X123.655 Y110.072 E.01219
G1 X123.936 Y109.909 E.00967
G1 E-.68 F3600
;WIPE_START
G1 F3000
G1 X124.008 Y109.867 E-.00997
G1 X124.384 Y109.792 E-.04605
G1 X124.613 Y109.806 E-.02749
G1 X124.901 Y109.903 E-.03649
;WIPE_END
G1 X117.514 Y107.982 Z.6 F21000
G1 X115.616 Y107.488 Z.6
G1 Z.2
G1 E.8 F2700
;TYPE:Inner wall
G1 F3000
G1 X115.561 Y107.313 E.00546
G1 X115.568 Y106.643 E.01996
G1 X115.75 Y106.111 E.01676
G1 X116.091 Y105.641 E.01731
G1 X116.331 Y105.43 E.00949
G1 X116.655 Y105.231 E.01135
G1 X116.919 Y105.131 E.00839
G1 X117.474 Y105.038 E.01676
G1 X117.905 Y105.085 E.01294
G1 X118.241 Y105.188 E.01045
G1 X118.69 Y105.455 E.01555
G1 X119.019 Y105.765 E.01348
G1 X119.212 Y106.051 E.01029
G1 X119.343 Y106.342 E.00949
G1 X119.458 Y106.845 E.01537
G1 X119.411 Y107.455 E.01825
G1 X119.206 Y107.961 E.01623
G1 X119.027 Y108.224 E.00949
G1 X118.691 Y108.562 E.01421
G1 X118.224 Y108.819 E.01587
G1 X117.919 Y108.912 E.00949
G1 X117.371 Y108.96 E.01638
G1 X116.747 Y108.815 E.01908
G1 X116.257 Y108.52 E.01704
G1 X115.874 Y108.091 E.01713
G1 X115.719 Y107.812 E.00949
G1 X115.628 Y107.526 E.00895
G1 X115.978 Y107.386 F21000
G1 F3000
G1 X115.934 Y107.257 E.00405
G1 X115.938 Y106.717 E.01609
G1 X116.093 Y106.267 E.01417
G1 X116.397 Y105.863 E.01506
G1 X116.822 Y105.57 E.01539
G1 X117.329 Y105.427 E.01568
G1 X117.649 Y105.421 E.00954
G1 X118.129 Y105.548 E.01477
G1 X118.574 Y105.838 E.01585
G1 X118.9 Y106.262 E.01593
G1 X119.066 Y106.771 E.01593
G1 X119.053 Y107.305 E.01593
G1 X118.862 Y107.805 E.01593
G1 X118.516 Y108.213 E.01593
G1 X118.01 Y108.502 E.01736
G1 X117.475 Y108.586 E.01612
G1 X116.896 Y108.468 E.01762
G1 X116.44 Y108.182 E.01604
G1 X116.108 Y107.763 E.01591
G1 X115.991 Y107.423 E.01071
G1 X116.333 Y107.261 F21000
;TYPE:Outer wall
G1 F3000
G1 X116.304 Y107.173 E.00277
G1 X116.315 Y106.764 E.01216
G1 X116.461 Y106.383 E.01216
G1 X116.726 Y106.072 E.01216
G1 X117.079 Y105.868 E.01215
G1 X117.456 Y105.792 E.01146
G1 X117.817 Y105.847 E.01088
G1 X118.072 Y105.936 E.00805
G1 X118.394 Y106.187 E.01216
G1 X118.614 Y106.532 E.01216
G1 X118.706 Y106.929 E.01216
G1 X118.661 Y107.335 E.01216
G1 X118.483 Y107.703 E.01216
G1 X118.224 Y107.97 E.01107
G1 X117.823 Y108.164 E.01328
G1 X117.4 Y108.202 E.01266
G1 X117.02 Y108.109 E.01165
G1 X116.678 Y107.886 E.01216
G1 X116.43 Y107.561 E.01216
G1 X116.345 Y107.299 E.0082
G1 E-.68 F3600
;WIPE_START
G1 F3000
G1 X116.304 Y107.173 E-.01596
G1 X116.315 Y106.764 E-.049
G1 X116.461 Y106.383 E-.049
G1 X116.494 Y106.345 E-.00604
;WIPE_END
G1 X115.543 Y113.918 Z.6 F21000
G1 X115.37 Y115.304 Z.6
G1 Z.2
G1 E.8 F2700
;TYPE:Inner wall
G1 F3000
G1 X115.353 Y115.208 E.0029
G1 X115.361 Y114.671 E.01598
G1 X115.543 Y114.093 E.01806
G1 X115.7 Y113.812 E.00958
G1 X116.039 Y113.403 E.01582
G1 X116.495 Y113.098 E.01634
G1 X116.845 Y112.945 E.01138
G1 X117.362 Y112.841 E.01571
G1 X117.821 Y112.86 E.01369
G1 X118.326 Y113.008 E.01568
G1 X118.611 Y113.151 E.00949
G1 X119.017 Y113.457 E.01515
G1 X119.391 Y113.963 E.01875
G1 X119.522 Y114.252 E.00943
G1 X119.656 Y114.809 E.01706
G1 X119.622 Y115.388 E.01728
G1 X119.541 Y115.696 E.00949
G1 X119.314 Y116.181 E.01594
G1 X118.907 Y116.635 E.01816
G1 X118.651 Y116.824 E.00949
G1 X118.165 Y117.06 E.01609
G1 X117.568 Y117.156 E.01801
G1 X117.245 Y117.141 E.00962
G1 X116.695 Y117.009 E.01686
G1 X116.198 Y116.72 E.01712
G1 X115.959 Y116.509 E.00949
G1 X115.603 Y116.043 E.01748
G1 X115.407 Y115.521 E.01662
G1 X115.376 Y115.343 E.00537
G1 X115.742 Y115.175 F21000
G1 F3000
G1 X115.73 Y114.799 E.01121
G1 X115.899 Y114.217 E.01806
G1 X116.072 Y113.951 E.00946
G1 X116.396 Y113.601 E.0142
G1 X116.835 Y113.341 E.01518
G1 X117.323 Y113.227 E.01494
G1 X117.755 Y113.231 E.01285
