; HEADER_BLOCK_START
; generated by OrcaSlicer 2.1.1 on 2024-12-15 at 21:57:21
; total layer number: 61
; filament_density: 1.27
; filament_diameter: 1.75
; max_z_height: 5.00
; HEADER_BLOCK_END

; THUMBNAIL_BLOCK_START

;
; THUMBNAIL_BLOCK_END







; external perimeters extrusion width = 0.40mm
; perimeters extrusion width = 0.45mm
; infill extrusion width = 0.45mm
; solid infill extrusion width = 0.45mm
; top infill extrusion width = 0.38mm
; first layer extrusion width = 0.42mm

; EXECUTABLE_BLOCK_START
EXCLUDE_OBJECT_DEFINE NAME=履带轮外支架1.STL_id_0_copy_0 CENTER=117.5,115 POLYGON=[[19.5342,114.174],[19.6217,113.444],[19.806,112.545],[20.3423,110.983],[21.1283,109.531],[22.1428,108.227],[23.3579,107.109],[24.7405,106.205],[26.253,105.542],[27.854,105.136],[29.5,105],[205.5,105],[207.146,105.136],[208.747,105.542],[210.259,106.205],[211.642,107.109],[212.857,108.227],[213.872,109.531],[214.658,110.983],[215.194,112.545],[215.254,112.797],[215.466,114.174],[215.466,115.826],[215.194,117.455],[214.658,119.017],[213.872,120.469],[212.857,121.773],[211.642,122.891],[210.259,123.795],[208.747,124.458],[207.146,124.864],[205.5,125],[29.5,125],[27.854,124.864],[26.253,124.458],[24.7405,123.795],[23.3579,122.891],[22.1428,121.773],[21.1283,120.469],[20.3423,119.017],[19.806,117.455],[19.5342,115.826],[19.5342,114.174]]
M73 P0 R58
;TYPE:Custom
;ELEGOO NEPTUNE 4 PRO
M220 S100 ;Set the feed speed to 100%
M221 S100 ;Set the flow rate to 100%
M104 S140
M190 S70
G90
G28 ;home
G1 Z10 F300
G1 X67.5 Y0 F6000
G1 Z0 F300
M109 S240
G92 E0 ;Reset Extruder
G1 X67.5 Y0 Z0.4 F300 ;Move to start position
G1 X167.5 E30 F400 ;Draw the first line
G1 Z0.6 F120.0 ;Move to side a little
G1 X162.5 F3000
G92 E0 ;Reset Extruder
G90
G21
M83 ; use relative distances for extrusion
; filament start gcode
M106 S0
;LAYER_CHANGE
;Z:0.2
;HEIGHT:0.2
;BEFORE_LAYER_CHANGE
G92 E0
;0.2


G1 E-.8 F3600
;AFTER_LAYER_CHANGE
;0.2
;_SET_FAN_SPEED_CHANGING_LAYER
SET_VELOCITY_LIMIT ACCEL=1000 ACCEL_TO_DECEL=500
SET_VELOCITY_LIMIT SQUARE_CORNER_VELOCITY=7
; printing object 履带轮外支架1.STL id:0 copy 0
EXCLUDE_OBJECT_START NAME=履带轮外支架1.STL_id_0_copy_0
G1 X85.134 Y106.064 F21000
G1 Z.4
G1 Z.2
G1 E.8 F2700
;TYPE:Inner wall
;WIDTH:0.419999
G1 F3000
G1 X85.009 Y106.22 E.00595
G1 X84.743 Y106.666 E.01547
G1 X84.558 Y107.151 E.01547
G1 X84.457 Y107.661 E.01547
G1 X84.443 Y108.18 E.01547
G1 X84.517 Y108.694 E.01547
G1 X84.678 Y109.188 E.01547
G1 X84.919 Y109.648 E.01547
G1 X85.235 Y110.06 E.01547
G1 X85.615 Y110.414 E.01547
G1 X86.05 Y110.697 E.01547
G1 X86.527 Y110.904 E.01547
G1 X87.032 Y111.026 E.01547
G1 X87.55 Y111.062 E.01547
G1 X88.067 Y111.009 E.01547
G1 X88.567 Y110.87 E.01547
G1 X89.037 Y110.649 E.01547
G1 X89.462 Y110.351 E.01547
G1 X89.832 Y109.985 E.01547
G1 X90.133 Y109.563 E.01547
G1 X90.36 Y109.095 E.01547
G1 X90.504 Y108.596 E.01547
G1 X90.561 Y108.08 E.01547
G1 X90.531 Y107.561 E.01548
G1 X90.406 Y107.037 E.01605
G1 X90.211 Y106.577 E.01488
G1 X89.871 Y106.064 E.01832
G1 X149.632 Y106.064 E1.78007
G1 X149.193 Y106.231 E.01399
G1 X148.744 Y106.491 E.01547
G1 X148.345 Y106.824 E.01547
G1 X148.009 Y107.22 E.01547
G1 X147.743 Y107.666 E.01547
G1 X147.558 Y108.151 E.01547
G1 X147.457 Y108.661 E.01547
G1 X147.443 Y109.041 E.01133
G1 X147.493 Y109.554 E.01537
G1 X147.631 Y110.053 E.01541
G1 X147.919 Y110.648 E.01969
G1 X148.235 Y111.06 E.01547
G1 X148.615 Y111.414 E.01547
G1 X149.05 Y111.697 E.01547
G1 X149.527 Y111.904 E.01547
G1 X150.032 Y112.026 E.01547
G1 X150.55 Y112.062 E.01547
G1 X151.067 Y112.009 E.01547
G1 X151.567 Y111.87 E.01547
G1 X152.037 Y111.649 E.01547
G1 X152.462 Y111.351 E.01547
G1 X152.863 Y110.951 E.01686
G1 X153.152 Y110.534 E.01511
G1 X153.366 Y110.076 E.01506
G1 X153.504 Y109.596 E.01487
G1 X153.561 Y109.08 E.01547
G1 X153.531 Y108.561 E.01547
G1 X153.413 Y108.056 E.01547
G1 X153.211 Y107.577 E.01547
G1 X152.932 Y107.139 E.01547
G1 X152.582 Y106.755 E.01547
G1 X152.173 Y106.435 E.01547
G1 X151.716 Y106.189 E.01547
G1 X151.353 Y106.064 E.01142
G1 X205.456 Y106.064 E1.61154
G1 X206.97 Y106.19 E.04526
G1 X208.4 Y106.552 E.04394
G1 X209.751 Y107.144 E.04394
G1 X210.986 Y107.951 E.04394
G1 X212.072 Y108.95 E.04394
G1 X212.978 Y110.115 E.04394
G1 X213.68 Y111.412 E.04394
G1 X213.956 Y112.218 E.02537
G1 X214.207 Y112.992 E.02424
G1 X214.402 Y114.256 E.03809
G1 X214.402 Y115.738 E.04414
G1 X214.159 Y117.193 E.04394
G1 X213.68 Y118.588 E.04394
G1 X212.978 Y119.885 E.04394
G1 X212.072 Y121.05 E.04394
G1 X210.986 Y122.049 E.04394
G1 X209.751 Y122.856 E.04394
G1 X208.4 Y123.448 E.04394
G1 X206.97 Y123.81 E.04394
G1 X205.456 Y123.936 E.04526
G1 X151.353 Y123.936 E1.61154
G1 X151.567 Y123.87 E.00667
G1 X152.037 Y123.649 E.01547
G1 X152.462 Y123.351 E.01547
G1 X152.832 Y122.985 E.01547
G1 X153.134 Y122.562 E.01548
G1 X153.366 Y122.076 E.01605
G1 X153.504 Y121.596 E.01487
G1 X153.561 Y121.08 E.01547
G1 X153.531 Y120.561 E.01547
G1 X153.413 Y120.056 E.01547
G1 X153.211 Y119.577 E.01547
G1 X152.932 Y119.139 E.01547
G1 X152.582 Y118.755 E.01547
G1 X152.173 Y118.435 E.01547
G1 X151.716 Y118.189 E.01547
G1 X151.223 Y118.024 E.01547
G1 X150.729 Y117.95 E.01489
G1 X150.19 Y117.953 E.01604
G1 X149.68 Y118.05 E.01547
G1 X149.193 Y118.231 E.01547
G1 X148.744 Y118.491 E.01547
G1 X148.345 Y118.824 E.01547
G1 X148.008 Y119.22 E.01548
G1 X147.736 Y119.685 E.01605
G1 X147.558 Y120.151 E.01488
G1 X147.457 Y120.661 E.01547
G1 X147.443 Y121.18 E.01547
G1 X147.517 Y121.694 E.01547
G1 X147.678 Y122.188 E.01547
G1 X147.919 Y122.648 E.01547
G1 X148.235 Y123.06 E.01547
G1 X148.615 Y123.414 E.01547
G1 X149.05 Y123.697 E.01547
G1 X149.632 Y123.936 E.01873
G1 X89.871 Y123.936 E1.78007
G1 X90.133 Y123.563 E.01358
G1 X90.36 Y123.095 E.01547
G1 X90.504 Y122.596 E.01547
G1 X90.561 Y122.08 E.01547
G1 X90.531 Y121.561 E.01548
G1 X90.406 Y121.037 E.01605
G1 X90.211 Y120.577 E.01488
G1 X89.923 Y120.126 E.01594
G1 X89.582 Y119.755 E.01501
G1 X89.173 Y119.435 E.01547
G1 X88.716 Y119.189 E.01547
G1 X88.223 Y119.024 E.01547
G1 X87.735 Y118.95 E.01469
G1 X87.19 Y118.953 E.01623
G1 X86.68 Y119.05 E.01547
G1 X86.193 Y119.231 E.01547
G1 X85.744 Y119.491 E.01547
G1 X85.345 Y119.824 E.01547
G1 X85.009 Y120.22 E.01547
G1 X84.743 Y120.666 E.01547
G1 X84.558 Y121.151 E.01547
G1 X84.457 Y121.661 E.01547
G1 X84.443 Y122.18 E.01547
G1 X84.517 Y122.694 E.01547
G1 X84.678 Y123.188 E.01547
G1 X84.919 Y123.648 E.01547
G1 X85.134 Y123.936 E.0107
G1 X61.871 Y123.936 E.69291
G1 X62.133 Y123.563 E.01358
G1 X62.36 Y123.095 E.01547
G1 X62.504 Y122.596 E.01547
G1 X62.561 Y122.08 E.01547
G1 X62.531 Y121.561 E.01547
G1 X62.413 Y121.056 E.01547
G1 X62.211 Y120.577 E.01547
G1 X61.923 Y120.126 E.01594
G1 X61.582 Y119.755 E.01501
G1 X61.173 Y119.435 E.01547
G1 X60.716 Y119.189 E.01547
G1 X60.223 Y119.024 E.01547
G1 X59.735 Y118.95 E.01469
G1 X59.19 Y118.953 E.01623
G1 X58.68 Y119.05 E.01547
G1 X58.193 Y119.231 E.01547
G1 X57.744 Y119.491 E.01547
G1 X57.345 Y119.824 E.01547
G1 X57.042 Y120.181 E.01394
G1 X56.743 Y120.666 E.01698
G1 X56.558 Y121.151 E.01547
G1 X56.457 Y121.661 E.01547
G1 X56.443 Y122.18 E.01548
G1 X56.523 Y122.713 E.01605
G1 X56.678 Y123.188 E.01487
G1 X56.919 Y123.648 E.01547
G1 X57.134 Y123.936 E.0107
G1 X29.544 Y123.936 E.82181
G1 X28.03 Y123.81 E.04526
G1 X26.6 Y123.448 E.04394
G1 X25.249 Y122.856 E.04394
G1 X24.014 Y122.049 E.04394
G1 X22.928 Y121.05 E.04394
G1 X22.022 Y119.885 E.04394
G1 X21.32 Y118.588 E.04394
G1 X20.841 Y117.193 E.04394
G1 X20.598 Y115.738 E.04394
G1 X20.598 Y114.239 E.04464
G1 X20.677 Y113.598 E.01923
G1 X20.835 Y112.826 E.02348
G1 X21.32 Y111.412 E.04453
G1 X22.022 Y110.115 E.04394
G1 X22.928 Y108.95 E.04394
G1 X24.014 Y107.951 E.04394
G1 X25.249 Y107.144 E.04394
G1 X26.6 Y106.552 E.04394
G1 X28.03 Y106.19 E.04394
G1 X29.544 Y106.064 E.04526
G1 X57.135 Y106.064 E.82185
G1 X56.998 Y106.237 E.00657
G1 X56.743 Y106.666 E.01487
G1 X56.558 Y107.151 E.01547
G1 X56.457 Y107.661 E.01547
G1 X56.443 Y108.18 E.01547
G1 X56.517 Y108.694 E.01547
G1 X56.678 Y109.188 E.01547
G1 X56.919 Y109.648 E.01547
G1 X57.235 Y110.06 E.01547
G1 X57.615 Y110.414 E.01547
G1 X58.05 Y110.697 E.01547
G1 X58.527 Y110.904 E.01547
G1 X59.032 Y111.026 E.01547
G1 X59.55 Y111.062 E.01547
G1 X60.067 Y111.009 E.01547
G1 X60.567 Y110.87 E.01547
G1 X61.037 Y110.649 E.01547
G1 X61.462 Y110.351 E.01547
G1 X61.832 Y109.985 E.01547
G1 X62.133 Y109.563 E.01547
G1 X62.36 Y109.095 E.01547
G1 X62.504 Y108.596 E.01547
G1 X62.561 Y108.08 E.01547
G1 X62.531 Y107.561 E.01547
G1 X62.413 Y107.056 E.01547
G1 X62.211 Y106.577 E.01547
G1 X61.871 Y106.064 E.01833
G1 X85.094 Y106.064 E.69172
G1 E-.68 F3600
;WIPE_START
G1 F3000
G1 X85.009 Y106.22 E-.02129
G1 X84.743 Y106.666 E-.06233
G1 X84.635 Y106.949 E-.03639
;WIPE_END
G1 X86.145 Y105.687 Z.6 F21000
G1 Z.2
G1 E.8 F2700
G1 F3000
G1 X85.942 Y105.812 E.00712
G1 X85.594 Y106.107 E.01357
G1 X85.302 Y106.456 E.01357
G1 X85.073 Y106.85 E.01357
G1 X84.913 Y107.277 E.01357
G1 X84.828 Y107.724 E.01357
G1 X84.82 Y108.18 E.01357
G1 X84.889 Y108.63 E.01357
G1 X85.033 Y109.062 E.01357
G1 X85.248 Y109.464 E.01357
G1 X85.528 Y109.824 E.01357
G1 X85.865 Y110.131 E.01357
G1 X86.248 Y110.376 E.01357
G1 X86.668 Y110.554 E.01357
G1 X87.111 Y110.658 E.01357
G1 X87.552 Y110.685 E.01315
G1 X87.986 Y110.639 E.01301
G1 X88.457 Y110.51 E.01453
G1 X88.867 Y110.312 E.01357
G1 X89.238 Y110.048 E.01357
G1 X89.559 Y109.724 E.01357
G1 X89.821 Y109.352 E.01357
G1 X90.016 Y108.94 E.01357
G1 X90.139 Y108.501 E.01357
G1 X90.185 Y108.048 E.01357
G1 X90.155 Y107.593 E.01358
G1 X90.041 Y107.134 E.01408
G1 X89.868 Y106.732 E.01305
G1 X89.62 Y106.35 E.01357
G1 X89.31 Y106.016 E.01357
G1 X88.867 Y105.688 E.01642
G1 X149.521 Y105.687 E1.80666
;WIDTH:0.462454
G1 X149.694 Y105.708 E.00579
;WIDTH:0.504908
G1 X149.868 Y105.73 E.00638
;WIDTH:0.547362
G1 X150.042 Y105.751 E.00697
G1 X150.539 Y105.75 E.01981
;WIDTH:0.571218
G1 X151.056 Y105.763 E.02158
G1 X151.186 Y105.744 E.00549
;WIDTH:0.533414
G1 X151.316 Y105.725 E.0051
;WIDTH:0.495609
G1 X151.447 Y105.706 E.00471
;WIDTH:0.457804
G1 X151.577 Y105.687 E.00432
;WIDTH:0.419999
G1 X205.472 Y105.687 E1.60533
G1 X207.032 Y105.816 E.04665
G1 X208.523 Y106.194 E.0458
G1 X209.931 Y106.812 E.0458
G1 X211.219 Y107.653 E.0458
G1 X212.35 Y108.694 E.0458
G1 X213.294 Y109.908 E.0458
G1 X214.026 Y111.26 E.0458
G1 X214.313 Y112.095 E.0263
G1 X214.577 Y112.919 E.02577
G1 X214.779 Y114.227 E.03941
G1 X214.779 Y115.769 E.04593
G1 X214.526 Y117.286 E.0458
G1 X214.026 Y118.74 E.0458
G1 X213.294 Y120.092 E.0458
G1 X212.35 Y121.306 E.0458
G1 X211.219 Y122.347 E.0458
G1 X209.931 Y123.188 E.0458
G1 X208.523 Y123.806 E.0458
G1 X207.032 Y124.184 E.0458
G1 X205.472 Y124.313 E.04665
G1 X151.577 Y124.313 E1.60533
;WIDTH:0.45791
G1 X151.448 Y124.294 E.00427
;WIDTH:0.495821
M73 P1 R58
G1 X151.32 Y124.275 E.00466
;WIDTH:0.533732
G1 X151.191 Y124.256 E.00504
;WIDTH:0.571642
G1 X151.062 Y124.237 E.00543
G1 X150.553 Y124.25 E.02128
;WIDTH:0.562819
G1 X150.042 Y124.242 E.021
G1 X149.868 Y124.265 E.00719
;WIDTH:0.515213
G1 X149.694 Y124.289 E.00653
;WIDTH:0.467606
G1 X149.521 Y124.313 E.00588
;WIDTH:0.419999
G1 X88.868 Y124.312 E1.80665
G1 X89.251 Y124.035 E.01408
G1 X89.559 Y123.724 E.01305
G1 X89.821 Y123.352 E.01357
G1 X90.016 Y122.94 E.01357
G1 X90.139 Y122.501 E.01357
G1 X90.185 Y122.048 E.01357
G1 X90.155 Y121.593 E.01358
G1 X90.041 Y121.134 E.01408
G1 X89.868 Y120.732 E.01305
G1 X89.62 Y120.35 E.01357
G1 X89.31 Y120.016 E.01357
G1 X88.949 Y119.738 E.01357
G1 X88.546 Y119.526 E.01357
G1 X88.113 Y119.385 E.01357
G1 X87.69 Y119.325 E.01272
G1 X87.206 Y119.33 E.0144
G1 X86.759 Y119.418 E.01357
G1 X86.334 Y119.58 E.01357
G1 X85.942 Y119.812 E.01357
G1 X85.594 Y120.107 E.01357
G1 X85.302 Y120.456 E.01357
G1 X85.073 Y120.85 E.01357
G1 X84.913 Y121.277 E.01357
G1 X84.828 Y121.724 E.01357
G1 X84.82 Y122.18 E.01357
G1 X84.889 Y122.63 E.01357
G1 X85.033 Y123.062 E.01357
G1 X85.248 Y123.464 E.01357
G1 X85.528 Y123.824 E.01357
G1 X85.865 Y124.131 E.01357
G1 X86.145 Y124.313 E.00997
G1 X60.868 Y124.312 E.75292
G1 X61.251 Y124.035 E.01408
G1 X61.559 Y123.724 E.01305
G1 X61.821 Y123.352 E.01357
G1 X62.016 Y122.94 E.01357
G1 X62.139 Y122.501 E.01357
G1 X62.185 Y122.048 E.01357
G1 X62.155 Y121.593 E.01357
G1 X62.048 Y121.151 E.01357
G1 X61.868 Y120.732 E.01357
G1 X61.62 Y120.35 E.01357
G1 X61.31 Y120.016 E.01357
G1 X60.949 Y119.738 E.01357
G1 X60.546 Y119.526 E.01357
G1 X60.113 Y119.385 E.01357
G1 X59.69 Y119.325 E.01272
G1 X59.206 Y119.33 E.0144
G1 X58.759 Y119.418 E.01357
G1 X58.334 Y119.58 E.01357
G1 X57.942 Y119.812 E.01357
G1 X57.594 Y120.107 E.01357
G1 X57.337 Y120.416 E.01196
G1 X57.073 Y120.85 E.01515
G1 X56.913 Y121.277 E.01357
G1 X56.828 Y121.724 E.01357
G1 X56.82 Y122.18 E.01358
G1 X56.894 Y122.647 E.01408
G1 X57.033 Y123.062 E.01305
G1 X57.248 Y123.464 E.01357
G1 X57.528 Y123.824 E.01357
G1 X57.865 Y124.131 E.01357
G1 X58.145 Y124.313 E.00997
G1 X29.528 Y124.313 E.85239
G1 X27.968 Y124.184 E.04665
G1 X26.477 Y123.806 E.0458
G1 X25.069 Y123.188 E.0458
G1 X23.781 Y122.347 E.0458
G1 X22.65 Y121.306 E.0458
G1 X21.706 Y120.092 E.0458
G1 X20.974 Y118.74 E.0458
G1 X20.474 Y117.286 E.0458
G1 X20.221 Y115.769 E.0458
G1 X20.221 Y114.216 E.04625
G1 X20.304 Y113.537 E.02037
G1 X20.47 Y112.726 E.02465
G1 X20.974 Y111.26 E.04618
G1 X21.706 Y109.908 E.0458
G1 X22.65 Y108.694 E.0458
G1 X23.781 Y107.653 E.0458
G1 X25.069 Y106.812 E.0458
G1 X26.477 Y106.194 E.0458
G1 X27.968 Y105.816 E.0458
G1 X29.528 Y105.687 E.04665
G1 X58.145 Y105.687 E.85239
G1 X57.942 Y105.812 E.00712
G1 X57.594 Y106.107 E.01358
G1 X57.293 Y106.472 E.01408
G1 X57.073 Y106.85 E.01305
G1 X56.913 Y107.277 E.01357
G1 X56.828 Y107.724 E.01357
G1 X56.82 Y108.18 E.01357
G1 X56.889 Y108.63 E.01357
G1 X57.033 Y109.062 E.01357
G1 X57.248 Y109.464 E.01357
G1 X57.492 Y109.778 E.01184
G1 X57.865 Y110.131 E.01528
G1 X58.248 Y110.376 E.01357
G1 X58.668 Y110.554 E.01357
G1 X59.111 Y110.658 E.01357
G1 X59.552 Y110.685 E.01315
G1 X59.986 Y110.639 E.01301
G1 X60.457 Y110.51 E.01453
G1 X60.867 Y110.312 E.01357
G1 X61.238 Y110.048 E.01357
G1 X61.559 Y109.724 E.01357
G1 X61.821 Y109.352 E.01357
G1 X62.016 Y108.94 E.01357
G1 X62.139 Y108.501 E.01357
G1 X62.185 Y108.048 E.01357
G1 X62.155 Y107.593 E.01357
G1 X62.048 Y107.151 E.01357
G1 X61.868 Y106.732 E.01357
G1 X61.62 Y106.35 E.01357
G1 X61.31 Y106.016 E.01357
G1 X60.867 Y105.688 E.01642
G1 X86.105 Y105.687 E.75175
G1 X86.87 Y105.31 F21000
;TYPE:Outer wall
;WIDTH:0.423882
G1 F3000
G1 X88.427 Y105.31 E.04687
;WIDTH:0.419999
G1 X205.487 Y105.31 E3.48681
G1 X207.095 Y105.443 E.04805
G1 X208.646 Y105.836 E.04767
G1 X210.111 Y106.479 E.04766
G1 X211.451 Y107.354 E.04767
G1 X212.628 Y108.438 E.04766
G1 X213.611 Y109.701 E.04766
G1 X214.373 Y111.108 E.04766
G1 X214.67 Y111.973 E.02723
G1 X214.947 Y112.846 E.0273
G1 X215.156 Y114.198 E.04074
G1 X215.156 Y115.8 E.04772
G1 X214.892 Y117.378 E.04766
G1 X214.373 Y118.892 E.04766
G1 X213.611 Y120.299 E.04766
G1 X212.628 Y121.562 E.04766
G1 X211.451 Y122.646 E.04766
G1 X210.111 Y123.521 E.04767
G1 X208.646 Y124.164 E.04766
G1 X207.095 Y124.557 E.04767
G1 X205.487 Y124.69 E.04805
G1 X88.427 Y124.69 E3.48681
;WIDTH:0.422367
G1 X86.714 Y124.69 E.05135
;WIDTH:0.419999
G1 X60.427 Y124.69 E.783
;WIDTH:0.422367
G1 X58.714 Y124.69 E.05135
;WIDTH:0.419999
G1 X29.513 Y124.69 E.86981
G1 X27.905 Y124.557 E.04805
G1 X26.354 Y124.164 E.04767
G1 X24.889 Y123.521 E.04766
G1 X23.549 Y122.646 E.04767
G1 X22.372 Y121.562 E.04766
G1 X21.389 Y120.299 E.04766
G1 X20.627 Y118.892 E.04767
G1 X20.108 Y117.378 E.04766
G1 X19.844 Y115.8 E.04767
G1 X19.844 Y114.193 E.04787
G1 X19.932 Y113.476 E.0215
G1 X20.106 Y112.627 E.02583
G1 X20.627 Y111.108 E.04784
G1 X21.389 Y109.701 E.04767
G1 X22.372 Y108.438 E.04766
G1 X23.549 Y107.354 E.04766
G1 X24.889 Y106.479 E.04767
G1 X26.354 Y105.836 E.04766
G1 X27.905 Y105.443 E.04767
G1 X29.513 Y105.31 E.04805
G1 X58.266 Y105.31 E.85646
;WIDTH:0.420729
G1 X58.788 Y105.31 E.01558
;WIDTH:0.423883
M73 P1 R57
G1 X60.427 Y105.31 E.04933
;WIDTH:0.419999
G1 X86.266 Y105.31 E.76965
;WIDTH:0.420729
G1 X86.788 Y105.31 E.01558
;WIDTH:0.423882
G1 X86.83 Y105.31 E.00126
G1 E-.68 F3600
