; HEADER_BLOCK_START
; generated by OrcaSlicer 2.1.1 on 2024-12-19 at 21:53:27
; total layer number: 61
; filament_density: 1.27
; filament_diameter: 1.75
; max_z_height: 5.00
; HEADER_BLOCK_END

; THUMBNAIL_BLOCK_START

;
; THUMBNAIL_BLOCK_END







; external perimeters extrusion width = 0.40mm
; perimeters extrusion width = 0.45mm
; infill extrusion width = 0.45mm
; solid infill extrusion width = 0.45mm
; top infill extrusion width = 0.38mm
; first layer extrusion width = 0.42mm

; EXECUTABLE_BLOCK_START
EXCLUDE_OBJECT_DEFINE NAME=履带轮外支架2_-_镜像.STL_id_0_copy_0 CENTER=117.5,115 POLYGON=[[19.5342,114.174],[19.806,112.545],[20.3423,110.983],[21.1283,109.531],[22.1428,108.227],[23.3579,107.109],[24.7405,106.205],[26.253,105.542],[27.854,105.136],[29.5,105],[205.5,105],[207.146,105.136],[208.747,105.542],[210.259,106.205],[211.642,107.109],[212.857,108.227],[213.872,109.531],[214.658,110.983],[215.194,112.545],[215.254,112.797],[215.466,114.174],[215.466,115.826],[215.336,116.805],[215.194,117.455],[214.658,119.017],[213.872,120.469],[212.857,121.773],[211.642,122.891],[210.259,123.795],[208.747,124.458],[207.146,124.864],[205.5,125],[29.5,125],[27.854,124.864],[26.253,124.458],[24.7405,123.795],[23.3579,122.891],[22.1428,121.773],[21.1283,120.469],[20.3423,119.017],[19.806,117.455],[19.5342,115.826],[19.5342,114.174]]
M73 P0 R59
;TYPE:Custom
;ELEGOO NEPTUNE 4 PRO
M220 S100 ;Set the feed speed to 100%
M221 S100 ;Set the flow rate to 100%
M104 S140
M190 S70
G90
G28 ;home
G1 Z10 F300
G1 X67.5 Y0 F6000
G1 Z0 F300
M109 S240
G92 E0 ;Reset Extruder
G1 X67.5 Y0 Z0.4 F300 ;Move to start position
G1 X167.5 E30 F400 ;Draw the first line
G1 Z0.6 F120.0 ;Move to side a little
G1 X162.5 F3000
G92 E0 ;Reset Extruder
G90
G21
M83 ; use relative distances for extrusion
; filament start gcode
M106 S0
;LAYER_CHANGE
;Z:0.2
;HEIGHT:0.2
;BEFORE_LAYER_CHANGE
G92 E0
;0.2


G1 E-.8 F3600
;AFTER_LAYER_CHANGE
;0.2
;_SET_FAN_SPEED_CHANGING_LAYER
SET_VELOCITY_LIMIT ACCEL=1000 ACCEL_TO_DECEL=500
SET_VELOCITY_LIMIT SQUARE_CORNER_VELOCITY=7
; printing object 履带轮外支架2 - 镜像.STL id:0 copy 0
EXCLUDE_OBJECT_START NAME=履带轮外支架2_-_镜像.STL_id_0_copy_0
G1 X42.729 Y116.992 F21000
G1 Z.4
G1 Z.2
G1 E.8 F2700
;TYPE:Inner wall
;WIDTH:0.419999
G1 F3000
G1 X42.336 Y117.295 E.0148
G1 X42.051 Y117.439 E.00948
G1 X41.495 Y117.609 E.01732
G1 X41.114 Y117.647 E.01142
G1 X40.597 Y117.625 E.0154
G1 X40.286 Y117.558 E.00949
G1 X39.746 Y117.341 E.01732
G1 X39.302 Y117.051 E.01582
G1 X38.763 Y116.432 E.02443
G1 X38.608 Y116.154 E.00949
G1 X38.414 Y115.605 E.01734
G1 X38.36 Y115.291 E.00949
G1 X38.36 Y114.709 E.01734
G1 X38.414 Y114.395 E.00949
G1 X38.608 Y113.846 E.01734
G1 X38.763 Y113.568 E.00949
G1 X39.129 Y113.115 E.01734
G1 X39.368 Y112.905 E.00949
G1 X39.864 Y112.6 E.01734
G1 X40.157 Y112.481 E.00943
G1 X40.712 Y112.36 E.01692
G1 X41.251 Y112.35 E.01603
G1 X41.595 Y112.421 E.01047
G1 X42.202 Y112.622 E.01907
G1 X42.804 Y113.051 E.02199
G1 X43.024 Y113.281 E.00949
G1 X43.35 Y113.763 E.01734
G1 X43.481 Y114.053 E.00948
G1 X43.628 Y114.616 E.01732
G1 X43.658 Y115.146 E.01582
G1 X43.551 Y115.68 E.01623
G1 X43.419 Y116.117 E.0136
G1 X42.931 Y116.836 E.02587
G1 X42.761 Y116.967 E.00641
G1 X42.5 Y116.69 F21000
G1 F3000
G1 X42.112 Y116.992 E.01466
G1 X41.941 Y117.078 E.00569
G1 X41.385 Y117.249 E.01732
G1 X40.785 Y117.256 E.01788
G1 X40.426 Y117.208 E.01076
G1 X39.887 Y116.991 E.01732
G1 X39.477 Y116.707 E.01485
G1 X39.057 Y116.195 E.01973
G1 X38.963 Y116.028 E.00569
G1 X38.77 Y115.479 E.01734
G1 X38.737 Y115.291 E.00569
G1 X38.737 Y114.709 E.01734
G1 X38.77 Y114.521 E.00569
G1 X38.963 Y113.972 E.01734
G1 X39.057 Y113.805 E.00569
G1 X39.422 Y113.352 E.01734
G1 X39.803 Y113.08 E.01394
G1 X40.238 Y112.85 E.01465
G1 X40.793 Y112.729 E.01692
G1 X41.304 Y112.733 E.01524
G1 X41.941 Y112.922 E.01978
G1 X42.112 Y113.008 E.0057
G1 X42.579 Y113.354 E.01734
G1 X42.798 Y113.619 E.01023
G1 X43.079 Y114.046 E.01523
G1 X43.263 Y114.711 E.02055
G1 X43.276 Y115.221 E.01521
G1 X43.116 Y115.852 E.01937
G1 X42.991 Y116.095 E.00815
G1 X42.683 Y116.547 E.01629
G1 X42.531 Y116.665 E.00573
G1 X42.269 Y116.397 F21000
;TYPE:Outer wall
G1 F3000
G1 X41.887 Y116.689 E.01431
G1 X41.356 Y116.863 E.01664
G1 X41.146 Y116.894 E.00634
G1 X40.629 Y116.872 E.0154
G1 X40.027 Y116.641 E.01919
G1 X39.67 Y116.354 E.01366
G1 X39.35 Y115.958 E.01517
G1 X39.125 Y115.354 E.01921
G1 X39.114 Y114.709 E.01921
G1 X39.319 Y114.097 E.01921
G1 X39.716 Y113.589 E.01921
G1 X40.318 Y113.218 E.02107
G1 X40.873 Y113.097 E.01692
G1 X41.273 Y113.112 E.01194
G1 X41.83 Y113.282 E.01735
G1 X42.355 Y113.657 E.01921
G1 X42.751 Y114.243 E.02108
G1 X42.898 Y114.806 E.01732
G1 X42.898 Y115.194 E.01155
G1 X42.751 Y115.757 E.01734
G1 X42.399 Y116.297 E.01921
G1 X42.3 Y116.373 E.00371
G1 E-.68 F3600
;WIPE_START
G1 F3000
G1 X41.887 Y116.689 E-.06244
G1 X41.431 Y116.838 E-.05756
;WIPE_END
G1 X48.427 Y113.785 Z.6 F21000
G1 X48.515 Y113.747 Z.6
G1 Z.2
G1 E.8 F2700
;TYPE:Inner wall
G1 F3000
G1 X48.719 Y113.511 E.00929
G1 X49.265 Y113.178 E.01905
G1 X49.758 Y113.057 E.01512
G1 X50.17 Y113.045 E.01227
G1 X50.736 Y113.186 E.01739
G1 X51.049 Y113.351 E.01054
G1 X51.448 Y113.673 E.01528
G1 X51.739 Y114.094 E.01523
G1 X51.843 Y114.342 E.00801
G1 X51.959 Y114.849 E.0155
G1 X51.925 Y115.372 E.01562
G1 X51.81 Y115.731 E.01121
G1 X51.569 Y116.178 E.01512
G1 X51.208 Y116.548 E.0154
G1 X50.724 Y116.819 E.01654
G1 X50.419 Y116.912 E.00949
G1 X49.916 Y116.963 E.01505
G1 X49.42 Y116.87 E.01503
G1 X49.125 Y116.751 E.00949
G1 X48.667 Y116.443 E.01643
G1 X48.286 Y115.96 E.01831
G1 X48.104 Y115.487 E.01512
G1 X48.05 Y115.146 E.01028
G1 X48.079 Y114.597 E.01637
G1 X48.196 Y114.253 E.01084
G1 X48.374 Y113.909 E.01153
G1 X48.489 Y113.777 E.00521
G1 X48.813 Y113.988 F21000
G1 F3000
G1 X49.028 Y113.751 E.00953
G1 X49.5 Y113.499 E.01593
G1 X49.981 Y113.414 E.01454
G1 X50.295 Y113.446 E.00942
G1 X50.796 Y113.633 E.01593
G1 X51.206 Y113.976 E.01593
G1 X51.479 Y114.437 E.01593
G1 X51.583 Y114.942 E.01538
G1 X51.517 Y115.46 E.01553
G1 X51.28 Y115.935 E.01584
G1 X50.894 Y116.309 E.01602
G1 X50.397 Y116.534 E.01624
G1 X49.859 Y116.578 E.01608
G1 X49.322 Y116.43 E.01658
G1 X48.897 Y116.138 E.01537
G1 X48.575 Y115.687 E.01651
G1 X48.427 Y115.173 E.01593
G1 X48.459 Y114.639 E.01593
G1 X48.668 Y114.146 E.01593
G1 X48.786 Y114.017 E.00521
G1 X49.084 Y114.239 F21000
;TYPE:Outer wall
G1 F3000
G1 X49.226 Y114.072 E.00653
G1 X49.579 Y113.867 E.01216
G1 X49.965 Y113.791 E.01171
G1 X50.185 Y113.806 E.00658
G1 X50.601 Y113.957 E.01318
G1 X50.928 Y114.238 E.01284
G1 X51.114 Y114.532 E.01035
G1 X51.206 Y114.929 E.01216
G1 X51.161 Y115.335 E.01216
G1 X50.983 Y115.703 E.01216
G1 X50.693 Y115.99 E.01216
G1 X50.323 Y116.164 E.01216
G1 X49.917 Y116.205 E.01216
G1 X49.52 Y116.109 E.01216
G1 X49.178 Y115.886 E.01216
G1 X48.93 Y115.561 E.01216
G1 X48.804 Y115.146 E.01292
G1 X48.815 Y114.764 E.01137
G1 X48.961 Y114.383 E.01216
G1 X49.058 Y114.27 E.00445
G1 E-.68 F3600
;WIPE_START
G1 F3000
G1 X49.226 Y114.072 E-.03109
G1 X49.579 Y113.867 E-.049
G1 X49.905 Y113.802 E-.0399
;WIPE_END
G1 X42.693 Y116.301 Z.6 F21000
G1 X31.085 Y120.322 Z.6
G1 Z.2
G1 E.8 F2700
;TYPE:Inner wall
G1 F3000
G1 X30.286 Y120.506 E.02443
G1 X29.542 Y120.551 E.02219
G1 X29.184 Y120.553 E.01067
G1 X28.407 Y120.453 E.02335
G1 X27.643 Y120.234 E.02365
G1 X27.352 Y120.13 E.0092
G1 X26.652 Y119.777 E.02335
G1 X26.058 Y119.355 E.02172
G1 X25.766 Y119.122 E.01113
G1 X25.223 Y118.556 E.02335
G1 X24.684 Y117.782 E.0281
G1 X24.411 Y117.212 E.01883
G1 X24.23 Y116.777 E.01402
G1 X24.032 Y116.019 E.02335
G1 X23.971 Y115.454 E.01691
G1 X23.939 Y114.92 E.01594
G1 X24.005 Y114.139 E.02335
G1 X24.119 Y113.649 E.01498
G1 X24.268 Y113.125 E.01621
G1 X24.602 Y112.366 E.02472
G1 X25.123 Y111.569 E.02837
G1 X25.766 Y110.878 E.0281
G1 X26.516 Y110.306 E.0281
G1 X27.352 Y109.87 E.0281
G1 X28.25 Y109.58 E.0281
G1 X29.138 Y109.453 E.02671
G1 X30.118 Y109.473 E.0292
G1 X31.052 Y109.659 E.02837
G1 X31.932 Y109.998 E.0281
G1 X32.743 Y110.481 E.0281
G1 X33.46 Y111.094 E.0281
G1 X33.935 Y111.661 E.02203
G1 X34.214 Y112.062 E.01454
G1 X34.535 Y112.636 E.01961
G1 X34.862 Y113.521 E.0281
G1 X34.975 Y114.102 E.01763
G1 X35.048 Y114.608 E.01522
G1 X35.048 Y115.392 E.02335
G1 X34.975 Y115.898 E.01522
G1 X34.862 Y116.479 E.01763
G1 X34.6 Y117.218 E.02335
G1 X34.214 Y117.938 E.02435
G1 X34.063 Y118.18 E.0085
G1 X33.57 Y118.79 E.02335
G1 X32.975 Y119.333 E.024
G1 X32.743 Y119.519 E.00886
G1 X32.075 Y119.93 E.02335
G1 X31.205 Y120.294 E.0281
G1 X31.124 Y120.313 E.00247
G1 X30.999 Y119.959 F21000
G1 F3000
G1 X30.206 Y120.137 E.0242
G1 X29.232 Y120.179 E.02904
G1 X28.454 Y120.079 E.02335
G1 X27.754 Y119.873 E.02175
G1 X27.522 Y119.794 E.0073
G1 X26.822 Y119.441 E.02335
G1 X26.038 Y118.861 E.02905
G1 X25.496 Y118.295 E.02335
G1 X24.996 Y117.571 E.0262
G1 X24.595 Y116.682 E.02905
G1 X24.397 Y115.924 E.02335
G1 X24.346 Y115.422 E.01501
G1 X24.315 Y114.952 E.01404
G1 X24.381 Y114.171 E.02335
G1 X24.583 Y113.363 E.02481
G1 X24.947 Y112.518 E.02741
G1 X25.435 Y111.78 E.02636
G1 X26.038 Y111.139 E.0262
G1 X26.74 Y110.61 E.0262
G1 X27.522 Y110.206 E.0262
G1 X28.361 Y109.941 E.0262
G1 X29.186 Y109.827 E.02481
G1 X30.106 Y109.85 E.02741
G1 X30.973 Y110.028 E.02636
G1 X31.792 Y110.348 E.0262
G1 X32.545 Y110.802 E.0262
G1 X33.21 Y111.377 E.0262
G1 X33.641 Y111.898 E.02013
G1 X33.884 Y112.246 E.01264
G1 X34.205 Y112.82 E.01961
G1 X34.506 Y113.647 E.0262
G1 X34.603 Y114.166 E.01573
G1 X34.671 Y114.709 E.0163
G1 X34.671 Y115.392 E.02034
G1 X34.53 Y116.26 E.0262
G1 X34.323 Y116.871 E.01922
G1 X34.205 Y117.18 E.00983
G1 X33.823 Y117.864 E.02335
G1 X33.21 Y118.623 E.02905
G1 X32.622 Y119.141 E.02335
G1 X31.792 Y119.652 E.02904
G1 X31.064 Y119.944 E.02335
G1 X31.038 Y119.95 E.00081
G1 X30.933 Y119.59 F21000
;TYPE:Outer wall
G1 F3000
G1 X30.924 Y119.594 E.00031
G1 X30.127 Y119.769 E.0243
G1 X29.28 Y119.805 E.02525
G1 X28.502 Y119.705 E.02335
G1 X27.864 Y119.513 E.01985
G1 X26.965 Y119.087 E.02964
G1 X26.334 Y118.621 E.02335
G1 X25.938 Y118.212 E.01696
G1 X25.748 Y118.009 E.00829
G1 X25.309 Y117.36 E.02335
G1 X24.96 Y116.587 E.02525
G1 X24.762 Y115.829 E.02335
G1 X24.69 Y115.016 E.0243
G1 X24.757 Y114.203 E.0243
G1 X24.948 Y113.458 E.02291
G1 X25.292 Y112.67 E.02562
G1 X25.748 Y111.991 E.02436
G1 X26.31 Y111.4 E.0243
G1 X26.965 Y110.913 E.0243
G1 X27.692 Y110.543 E.0243
G1 X28.471 Y110.302 E.0243
G1 X29.234 Y110.201 E.02291
G1 X30.093 Y110.227 E.02562
G1 X30.893 Y110.396 E.02436
G1 X31.651 Y110.698 E.0243
G1 X32.347 Y111.123 E.0243
G1 X32.961 Y111.66 E.0243
G1 X33.348 Y112.135 E.01823
G1 X33.555 Y112.43 E.01073
G1 X33.876 Y113.004 E.01961
G1 X34.151 Y113.773 E.0243
G1 X34.291 Y114.576 E.0243
G1 X34.294 Y115.291 E.02129
G1 X34.159 Y116.196 E.02727
G1 X33.876 Y116.996 E.02525
G1 X33.494 Y117.68 E.02335
G1 X33.074 Y118.204 E.02
G1 X32.476 Y118.767 E.02444
G1 X31.798 Y119.215 E.02422
G1 X30.97 Y119.574 E.02689
G1 E-.68 F3600
;WIPE_START
G1 F3000
G1 X30.924 Y119.594 E-.00607
G1 X30.127 Y119.769 E-.0979
G1 X29.993 Y119.774 E-.01604
;WIPE_END
G1 X37.604 Y119.198 Z.6 F21000
G1 X118.448 Y113.069 Z.6
G1 Z.2
G1 E.8 F2700
;TYPE:Inner wall
G1 F3000
G1 X118.611 Y113.151 E.00541
G1 X119.067 Y113.506 E.01722
G1 X119.394 Y113.969 E.01688
G1 X119.526 Y114.259 E.00947
G1 X119.648 Y114.744 E.01491
G1 X119.622 Y115.387 E.01915
G1 X119.541 Y115.696 E.00953
G1 X119.325 Y116.162 E.01528
G1 X118.907 Y116.635 E.01881
G1 X118.651 Y116.824 E.00948
G1 X118.136 Y117.069 E.01698
G1 X117.448 Y117.163 E.02069
G1 X116.846 Y117.055 E.01823
G1 X116.552 Y116.937 E.00944
G1 X116.075 Y116.629 E.01691
G1 X115.703 Y116.192 E.0171
G1 X115.544 Y115.91 E.00963
G1 X115.381 Y115.436 E.01495
G1 X115.353 Y114.793 E.01914
G1 X115.406 Y114.481 E.00944
G1 X115.578 Y114.008 E.01499
G1 X115.956 Y113.494 E.019
G1 X116.198 Y113.28 E.00963
G1 X116.69 Y112.993 E.01695
G1 X117.24 Y112.859 E.01686
G1 X117.688 Y112.846 E.01337
G1 X118.326 Y113.008 E.01959
G1 X118.413 Y113.051 E.00289
G1 X118.351 Y113.457 F21000
G1 F3000
G1 X118.718 Y113.7 E.01311
G1 X119.082 Y114.18 E.01794
G1 X119.161 Y114.354 E.00568
G1 X119.281 Y114.854 E.01532
G1 X119.246 Y115.355 E.01497
G1 X119.198 Y115.541 E.00572
G1 X118.965 Y116.024 E.01598
G1 X118.565 Y116.436 E.01709
G1 X118.113 Y116.673 E.01522
G1 X117.956 Y116.725 E.00493
G1 X117.448 Y116.786 E.01523
G1 X116.925 Y116.687 E.01586
G1 X116.404 Y116.404 E.01767
G1 X115.995 Y115.953 E.01812
G1 X115.9 Y115.784 E.00578
G1 X115.737 Y115.295 E.01535
G1 X115.73 Y114.793 E.01495
G1 X115.762 Y114.606 E.00567
G1 X115.949 Y114.114 E.01569
G1 X116.316 Y113.661 E.01734
G1 X116.748 Y113.385 E.01529
G1 X117.32 Y113.228 E.01767
G1 X117.675 Y113.223 E.01058
G1 X118.216 Y113.368 E.01668
G1 X118.318 Y113.435 E.00364
G1 X118.056 Y113.722 F21000
;TYPE:Outer wall
G1 F3000
G1 X118.162 Y113.757 E.00334
G1 X118.538 Y114.049 E.01418
G1 X118.796 Y114.449 E.01417
G1 X118.905 Y114.91 E.0141
G1 X118.854 Y115.386 E.01426
G1 X118.648 Y115.815 E.01418
G1 X118.311 Y116.151 E.01418
G1 X117.891 Y116.354 E.01392
G1 X117.408 Y116.405 E.01445
G1 X116.946 Y116.295 E.01417
G1 X116.553 Y116.041 E.01392
G1 X116.255 Y115.659 E.01444
G1 X116.107 Y115.207 E.01418
G1 X116.118 Y114.731 E.01417
G1 X116.283 Y114.294 E.01392
G1 X116.594 Y113.922 E.01444
G1 X117.004 Y113.682 E.01417
G1 X117.447 Y113.592 E.01345
G1 X117.71 Y113.608 E.00786
G1 X118.018 Y113.71 E.00966
G1 E-.68 F3600
;WIPE_START
G1 F3000
G1 X118.162 Y113.757 E-.01825
G1 X118.538 Y114.049 E-.05711
G1 X118.74 Y114.362 E-.04464
;WIPE_END
G1 X126.326 Y115.197 Z.6 F21000
G1 X145.501 Y117.308 Z.6
G1 Z.2
G1 E.8 F2700
;TYPE:Inner wall
G1 F3000
G1 X145.173 Y117.565 E.01241
G1 X144.716 Y117.811 E.01547
G1 X144.223 Y117.976 E.01547
G1 X143.71 Y118.055 E.01547
G1 X143.19 Y118.047 E.01547
G1 X142.68 Y117.95 E.01547
G1 X142.193 Y117.769 E.01547
G1 X141.744 Y117.509 E.01547
G1 X141.345 Y117.176 E.01547
G1 X141.009 Y116.78 E.01547
G1 X140.743 Y116.334 E.01547
G1 X140.558 Y115.849 E.01547
G1 X140.457 Y115.339 E.01547
G1 X140.443 Y114.82 E.01547
G1 X140.517 Y114.306 E.01547
G1 X140.678 Y113.812 E.01547
G1 X140.919 Y113.352 E.01547
G1 X141.235 Y112.94 E.01547
G1 X141.615 Y112.586 E.01547
G1 X142.05 Y112.303 E.01547
G1 X142.527 Y112.096 E.01547
G1 X143.032 Y111.974 E.01547
G1 X143.536 Y111.939 E.01506
G1 X144.06 Y111.99 E.01569
G1 X144.567 Y112.13 E.01566
G1 X145.037 Y112.351 E.01547
G1 X145.462 Y112.649 E.01547
G1 X145.832 Y113.015 E.01547
G1 X146.133 Y113.437 E.01547
G1 X146.354 Y113.892 E.01506
G1 X146.502 Y114.398 E.01569
G1 X146.561 Y114.92 E.01566
G1 X146.531 Y115.439 E.01547
G1 X146.413 Y115.944 E.01547
G1 X146.211 Y116.423 E.01547
G1 X145.932 Y116.861 E.01547
G1 X145.582 Y117.245 E.01547
G1 X145.533 Y117.284 E.00187
G1 X145.313 Y116.973 F21000
G1 F3000
G1 X145.238 Y117.048 E.00314
G1 X144.867 Y117.312 E.01357
G1 X144.457 Y117.51 E.01357
G1 X144.019 Y117.635 E.01357
G1 X143.566 Y117.685 E.01357
G1 X143.111 Y117.658 E.01357
G1 X142.668 Y117.554 E.01357
G1 X142.248 Y117.376 E.01357
G1 X141.865 Y117.131 E.01357
G1 X141.528 Y116.824 E.01357
G1 X141.248 Y116.464 E.01357
G1 X141.033 Y116.062 E.01357
G1 X140.889 Y115.63 E.01357
G1 X140.82 Y115 E.01889
G1 X140.899 Y114.324 E.02026
G1 X141.073 Y113.85 E.01504
G1 X141.302 Y113.456 E.01357
G1 X141.594 Y113.107 E.01357
G1 X141.942 Y112.812 E.01357
G1 X142.334 Y112.58 E.01357
G1 X142.759 Y112.418 E.01357
G1 X143.206 Y112.33 E.01357
G1 X143.644 Y112.319 E.01305
G1 X144.248 Y112.426 E.01827
G1 X144.679 Y112.593 E.01376
G1 X145.059 Y112.82 E.01319
G1 X145.394 Y113.103 E.01304
G1 X145.688 Y113.451 E.01357
G1 X145.92 Y113.847 E.01368
G1 X146.085 Y114.298 E.01429
G1 X146.168 Y114.743 E.0135
G1 X146.168 Y115.257 E.01531
G1 X146.048 Y115.849 E.018
G1 X145.836 Y116.329 E.01562
G1 X145.559 Y116.724 E.01437
G1 X145.341 Y116.944 E.00924
G1 X145.048 Y116.709 F21000
;TYPE:Outer wall
G1 F3000
G1 X145.014 Y116.744 E.00147
G1 X144.697 Y116.975 E.01167
G1 X144.138 Y117.213 E.01811
G1 X143.614 Y117.307 E.01585
G1 X143.191 Y117.289 E.01262
G1 X142.808 Y117.204 E.01167
G1 X142.446 Y117.055 E.01167
G1 X142.114 Y116.848 E.01167
G1 X141.821 Y116.587 E.01167
G1 X141.577 Y116.28 E.01167
