; HEADER_BLOCK_START
; generated by OrcaSlicer 2.1.1 on 2024-12-15 at 21:55:16
; total layer number: 98
; filament_density: 1.27
; filament_diameter: 1.75
; max_z_height: 7.96
; HEADER_BLOCK_END

; THUMBNAIL_BLOCK_START

;
; THUMBNAIL_BLOCK_END







; external perimeters extrusion width = 0.40mm
; perimeters extrusion width = 0.45mm
; infill extrusion width = 0.45mm
; solid infill extrusion width = 0.45mm
; top infill extrusion width = 0.38mm
; first layer extrusion width = 0.42mm

; EXECUTABLE_BLOCK_START
EXCLUDE_OBJECT_DEFINE NAME=齿套模0_5齿10厚5.STL_id_0_copy_0 CENTER=117.5,115 POLYGON=[[104.5,115],[104.571,113.641],[104.784,112.297],[105.136,110.983],[105.624,109.712],[106.242,108.5],[106.983,107.359],[107.839,106.301],[108.801,105.339],[109.859,104.483],[111,103.742],[112.212,103.124],[113.483,102.636],[114.797,102.284],[116.141,102.071],[117.5,102],[118.859,102.071],[120.203,102.284],[121.517,102.636],[122.788,103.124],[124,103.742],[125.141,104.483],[126.199,105.339],[127.161,106.301],[128.017,107.359],[128.758,108.5],[129.376,109.712],[129.864,110.983],[130.216,112.297],[130.429,113.641],[130.5,115],[130.429,116.359],[130.216,117.703],[129.864,119.017],[129.376,120.288],[128.758,121.5],[128.017,122.641],[127.161,123.699],[126.199,124.661],[125.141,125.517],[124,126.258],[122.788,126.876],[121.517,127.364],[120.203,127.716],[118.859,127.929],[117.5,128],[116.141,127.929],[114.797,127.716],[113.483,127.364],[112.212,126.876],[111,126.258],[109.859,125.517],[108.801,124.661],[107.839,123.699],[106.983,122.641],[106.242,121.5],[105.624,120.288],[105.136,119.017],[104.784,117.703],[104.571,116.359],[104.5,115]]
M73 P0 R17
;TYPE:Custom
;ELEGOO NEPTUNE 4 PRO
M220 S100 ;Set the feed speed to 100%
M221 S100 ;Set the flow rate to 100%
M104 S140
M190 S70
G90
G28 ;home
G1 Z10 F300
G1 X67.5 Y0 F6000
G1 Z0 F300
M109 S240
G92 E0 ;Reset Extruder
G1 X67.5 Y0 Z0.4 F300 ;Move to start position
G1 X167.5 E30 F400 ;Draw the first line
G1 Z0.6 F120.0 ;Move to side a little
M73 P1 R17
G1 X162.5 F3000
G92 E0 ;Reset Extruder
G90
G21
M83 ; use relative distances for extrusion
; filament start gcode
M106 S0
;LAYER_CHANGE
;Z:0.2
;HEIGHT:0.2
;BEFORE_LAYER_CHANGE
G92 E0
;0.2


G1 E-.8 F3600
;AFTER_LAYER_CHANGE
;0.2
;_SET_FAN_SPEED_CHANGING_LAYER
SET_VELOCITY_LIMIT ACCEL=1000 ACCEL_TO_DECEL=500
SET_VELOCITY_LIMIT SQUARE_CORNER_VELOCITY=7
; printing object 齿套模0_5齿10厚5.STL id:0 copy 0
EXCLUDE_OBJECT_START NAME=齿套模0_5齿10厚5.STL_id_0_copy_0
G1 X124.515 Y124.655 F21000
G1 Z.4
G1 Z.2
G1 E.8 F2700
;TYPE:Inner wall
;WIDTH:0.419999
G1 F3000
G1 X123.467 Y125.335 E.03721
G1 X122.354 Y125.903 E.03721
G1 X121.188 Y126.35 E.03721
G1 X119.981 Y126.674 E.03721
G1 X118.873 Y126.849 E.03343
G1 X119.19 Y126.569 E.01261
G1 X119.39 Y126.322 E.00948
G1 X119.533 Y126.066 E.00873
G1 X119.723 Y125.616 E.01452
G1 X119.801 Y125.159 E.01381
G1 X119.8 Y124.833 E.00971
G1 X119.641 Y124.13 E.02149
G1 X119.389 Y123.676 E.01546
G1 X119.122 Y123.37 E.0121
G1 X118.697 Y123.019 E.01641
G1 X118.14 Y122.784 E.01803
G1 X117.727 Y122.702 E.01255
G1 X117.273 Y122.715 E.01353
G1 X116.775 Y122.803 E.01506
G1 X116.26 Y123.055 E.01708
G1 X115.984 Y123.265 E.01033
G1 X115.574 Y123.716 E.01814
G1 X115.313 Y124.266 E.01813
G1 X115.233 Y124.575 E.00952
G1 X115.196 Y125.222 E.01929
G1 X115.338 Y125.803 E.01781
G1 X115.449 Y126.062 E.00838
G1 X115.729 Y126.477 E.01492
G1 X116.145 Y126.852 E.01668
M73 P2 R17
G1 X115.019 Y126.674 E.03396
G1 X113.812 Y126.35 E.03721
G1 X112.646 Y125.903 E.03721
G1 X111.533 Y125.335 E.03721
G1 X110.485 Y124.655 E.03721
G1 X109.514 Y123.869 E.03721
G1 X108.631 Y122.986 E.03721
G1 X107.845 Y122.015 E.03721
G1 X107.165 Y120.967 E.03721
G1 X106.597 Y119.854 E.03721
G1 X106.15 Y118.688 E.03721
G1 X105.826 Y117.481 E.03721
G1 X105.631 Y116.247 E.03721
G1 X105.566 Y115 E.03721
G1 X105.631 Y113.753 E.03721
G1 X105.826 Y112.519 E.03721
G1 X106.15 Y111.312 E.03721
G1 X106.549 Y110.271 E.03322
G1 X106.677 Y110.8 E.01619
G1 X106.809 Y111.093 E.00958
G1 X107.068 Y111.477 E.01381
G1 X107.289 Y111.707 E.00949
G1 X107.662 Y111.983 E.01381
G1 X108.046 Y112.157 E.01257
G1 X108.568 Y112.298 E.0161
G1 X109.19 Y112.278 E.01856
G1 X109.497 Y112.211 E.00935
G1 X110.094 Y111.944 E.01947
G1 X110.53 Y111.57 E.01713
G1 X110.73 Y111.322 E.00949
G1 X111.002 Y110.823 E.01692
G1 X111.108 Y110.352 E.01437
G1 X111.148 Y109.887 E.01391
G1 X111.062 Y109.384 E.01521
G1 X110.956 Y109.083 E.00949
G1 X110.676 Y108.593 E.01682
G1 X110.35 Y108.272 E.01363
G1 X109.91 Y107.957 E.01611
G1 X109.48 Y107.784 E.01383
G1 X108.917 Y107.688 E.017
G1 X108.316 Y107.754 E.01801
G1 X107.918 Y107.895 E.01256
G1 X108.631 Y107.014 E.03374
G1 X109.514 Y106.131 E.03721
G1 X110.485 Y105.345 E.03721
G1 X111.533 Y104.665 E.03721
G1 X112.646 Y104.097 E.03721
G1 X113.812 Y103.65 E.03721
G1 X115.019 Y103.326 E.03721
G1 X116.253 Y103.131 E.03721
G1 X117.5 Y103.066 E.03721
G1 X118.747 Y103.131 E.03721
G1 X119.981 Y103.326 E.03721
G1 X121.188 Y103.65 E.03721
G1 X122.354 Y104.097 E.03721
G1 X123.467 Y104.665 E.03721
G1 X124.515 Y105.345 E.03721
G1 X125.486 Y106.131 E.03721
G1 X126.369 Y107.014 E.03721
G1 X127.085 Y107.898 E.03388
G1 X126.8 Y107.784 E.00914
G1 X126.314 Y107.694 E.01474
G1 X125.636 Y107.754 E.02025
G1 X125.25 Y107.889 E.0122
G1 X124.697 Y108.212 E.01905
G1 X124.343 Y108.579 E.01522
G1 X124.16 Y108.853 E.00979
G1 X123.929 Y109.386 E.01731
G1 X123.865 Y109.896 E.01531
G1 X123.866 Y110.28 E.01146
G1 X123.997 Y110.8 E.01595
G1 X124.129 Y111.093 E.00958
G1 X124.536 Y111.647 E.02047
G1 X124.982 Y111.983 E.01664
G1 X125.288 Y112.133 E.01015
G1 X125.949 Y112.303 E.02034
G1 X126.489 Y112.283 E.01609
G1 X126.789 Y112.22 E.00912
G1 X127.186 Y112.067 E.01267
G1 X127.458 Y111.905 E.00945
G1 X127.84 Y111.579 E.01495
G1 X128.051 Y111.322 E.0099
G1 X128.277 Y110.917 E.01381
G1 X128.383 Y110.616 E.00949
G1 X128.445 Y110.256 E.0109
G1 X128.85 Y111.312 E.0337
G1 X129.174 Y112.519 E.03721
G1 X129.377 Y113.897 E.04149
G1 X129.427 Y115.143 E.03714
G1 X129.369 Y116.247 E.03296
G1 X129.174 Y117.481 E.03721
G1 X128.85 Y118.688 E.03721
G1 X128.403 Y119.854 E.03721
G1 X127.835 Y120.967 E.03721
G1 X127.155 Y122.015 E.03721
G1 X126.369 Y122.986 E.03721
G1 X125.486 Y123.869 E.03721
G1 X124.546 Y124.63 E.03602
G1 X124.737 Y124.961 F21000
G1 F3000
G1 X123.656 Y125.662 E.03839
G1 X122.508 Y126.248 E.03839
G1 X121.305 Y126.709 E.03839
G1 X120.06 Y127.043 E.03839
G1 X118.555 Y127.257 E.04526
;WIDTH:0.425874
G1 X117.831 Y127.292 E.02193
;WIDTH:0.430432
G1 X117.092 Y127.285 E.02264
G1 X116.213 Y127.245 E.02693
;WIDTH:0.419999
G1 X114.94 Y127.043 E.03839
G1 X113.695 Y126.709 E.03839
G1 X112.492 Y126.248 E.03839
G1 X111.344 Y125.662 E.03839
G1 X110.263 Y124.961 E.03839
G1 X109.262 Y124.15 E.03839
G1 X108.35 Y123.238 E.03839
G1 X107.539 Y122.237 E.03839
G1 X106.838 Y121.156 E.03839
G1 X106.252 Y120.008 E.03839
G1 X105.791 Y118.805 E.03839
G1 X105.457 Y117.56 E.03839
G1 X105.255 Y116.287 E.03839
G1 X105.188 Y115 E.03839
G1 X105.255 Y113.713 E.03839
G1 X105.457 Y112.44 E.03839
G1 X105.791 Y111.195 E.03839
G1 X106.306 Y109.887 E.04189
;WIDTH:0.43354
G1 X106.916 Y108.721 E.04061
;WIDTH:0.419999
G1 X107.539 Y107.763 E.03403
G1 X108.35 Y106.762 E.03839
G1 X109.262 Y105.85 E.03839
G1 X110.263 Y105.039 E.03839
G1 X111.344 Y104.338 E.03839
G1 X112.492 Y103.752 E.03839
G1 X113.695 Y103.291 E.03839
G1 X114.94 Y102.957 E.03839
G1 X116.213 Y102.755 E.03839
G1 X117.5 Y102.688 E.03839
G1 X118.787 Y102.755 E.03839
G1 X120.06 Y102.957 E.03839
G1 X121.305 Y103.291 E.03839
G1 X122.508 Y103.752 E.03839
G1 X123.656 Y104.338 E.03839
G1 X124.737 Y105.039 E.03839
G1 X125.738 Y105.85 E.03839
G1 X126.65 Y106.762 E.03839
G1 X127.185 Y107.423 E.02533
G1 X127.654 Y108.061 E.0236
;WIDTH:0.428031
G1 X128.159 Y108.846 E.0284
G1 X128.391 Y109.3 E.01551
;WIDTH:0.426471
G1 X128.748 Y109.992 E.02359
;WIDTH:0.419999
G1 X129.209 Y111.195 E.03839
G1 X129.543 Y112.44 E.03839
G1 X129.753 Y113.877 E.04325
G1 X129.803 Y115.162 E.03831
G1 X129.745 Y116.287 E.03354
G1 X129.543 Y117.56 E.03839
G1 X129.209 Y118.805 E.03839
G1 X128.748 Y120.008 E.03839
G1 X128.162 Y121.156 E.03839
G1 X127.461 Y122.237 E.03839
G1 X126.65 Y123.238 E.03839
G1 X125.738 Y124.15 E.03839
G1 X124.768 Y124.935 E.0372
G1 X124.963 Y125.263 F21000
;TYPE:Outer wall
G1 F3000
G1 X124.959 Y125.266 E.00016
G1 X123.845 Y125.989 E.03956
G1 X122.661 Y126.593 E.03956
G1 X121.421 Y127.069 E.03956
G1 X120.138 Y127.412 E.03956
G1 X118.826 Y127.62 E.03956
G1 X117.5 Y127.69 E.03956
G1 X116.174 Y127.62 E.03956
G1 X114.862 Y127.412 E.03956
G1 X113.579 Y127.069 E.03956
G1 X112.339 Y126.593 E.03956
G1 X111.155 Y125.989 E.03956
G1 X110.041 Y125.266 E.03956
G1 X109.009 Y124.43 E.03956
G1 X108.07 Y123.491 E.03956
G1 X107.234 Y122.459 E.03956
G1 X106.511 Y121.345 E.03956
G1 X105.907 Y120.161 E.03956
G1 X105.431 Y118.921 E.03956
G1 X105.088 Y117.638 E.03956
G1 X104.88 Y116.326 E.03956
G1 X104.81 Y115 E.03956
G1 X104.88 Y113.674 E.03956
G1 X105.088 Y112.362 E.03956
G1 X105.431 Y111.079 E.03956
G1 X105.907 Y109.839 E.03956
G1 X106.511 Y108.655 E.03956
G1 X107.234 Y107.541 E.03956
G1 X108.07 Y106.509 E.03956
G1 X109.009 Y105.57 E.03956
G1 X110.041 Y104.734 E.03956
G1 X111.155 Y104.011 E.03956
G1 X112.339 Y103.407 E.03956
G1 X113.579 Y102.931 E.03956
G1 X114.862 Y102.588 E.03956
G1 X116.174 Y102.38 E.03956
G1 X117.5 Y102.31 E.03956
G1 X118.826 Y102.38 E.03956
G1 X120.138 Y102.588 E.03956
G1 X121.421 Y102.931 E.03956
G1 X122.661 Y103.407 E.03956
G1 X123.845 Y104.011 E.03956
G1 X124.959 Y104.734 E.03956
G1 X125.991 Y105.57 E.03956
G1 X126.93 Y106.509 E.03956
G1 X127.766 Y107.541 E.03956
G1 X128.489 Y108.655 E.03956
G1 X129.093 Y109.839 E.03956
G1 X129.569 Y111.079 E.03956
G1 X129.912 Y112.362 E.03956
G1 X130.039 Y113.164 E.02419
G1 X130.13 Y113.857 E.02084
G1 X130.18 Y115.182 E.03949
G1 X130.12 Y116.326 E.03413
G1 X129.912 Y117.638 E.03956
G1 X129.569 Y118.921 E.03956
G1 X129.093 Y120.161 E.03956
G1 X128.489 Y121.345 E.03956
G1 X127.766 Y122.459 E.03956
G1 X126.93 Y123.491 E.03956
G1 X125.991 Y124.43 E.03956
G1 X124.994 Y125.237 E.03821
G1 E-.68 F3600
;WIPE_START
G1 F3000
G1 X124.959 Y125.266 E-.00546
G1 X124.158 Y125.786 E-.11454
;WIPE_END
G1 X124.642 Y118.169 Z.6 F21000
G1 X125.061 Y111.571 Z.6
G1 Z.2
G1 E.8 F2700
;TYPE:Inner wall
G1 F3000
G1 X124.789 Y111.368 E.01009
G1 X124.442 Y110.882 E.0178
G1 X124.245 Y110.25 E.01972
G1 X124.241 Y109.928 E.00957
G1 X124.317 Y109.421 E.01527
G1 X124.573 Y108.89 E.01756
G1 X124.936 Y108.506 E.01576
G1 X125.419 Y108.226 E.01663
G1 X125.685 Y108.127 E.00844
G1 X126.27 Y108.068 E.0175
G1 X126.66 Y108.134 E.01178
G1 X127.253 Y108.407 E.01947
;WIDTH:0.420761
G1 X127.702 Y108.83 E.01841
;WIDTH:0.422691
G1 X127.953 Y109.272 E.01525
G1 X128.089 Y109.9 E.01928
;WIDTH:0.419999
G1 X128.011 Y110.553 E.01957
G1 X127.768 Y111.055 E.01662
G1 X127.595 Y111.292 E.00875
G1 X127.213 Y111.618 E.01495
G1 X126.696 Y111.852 E.0169
G1 X126.473 Y111.906 E.00684
G1 X125.964 Y111.926 E.01518
G1 X125.398 Y111.772 E.01746
G1 X125.206 Y111.68 E.00635
G1 X125.093 Y111.595 E.00422
G1 X125.29 Y111.269 F21000
;TYPE:Outer wall
G1 F3000
G1 X125.058 Y111.101 E.00855
G1 X124.754 Y110.671 E.01569
G1 X124.61 Y110.156 E.01592
G1 X124.645 Y109.638 E.01546
G1 X124.848 Y109.163 E.01537
G1 X125.208 Y108.767 E.01597
G1 X125.674 Y108.52 E.01569
G1 X126.179 Y108.443 E.01523
G1 X126.519 Y108.484 E.01019
G1 X127.004 Y108.69 E.01571
G1 X127.386 Y109.035 E.01533
G1 X127.628 Y109.474 E.01493
G1 X127.718 Y109.967 E.01491
G1 X127.64 Y110.489 E.01573
G1 X127.392 Y110.954 E.01569
G1 X126.968 Y111.331 E.01691
G1 X126.462 Y111.529 E.01618
G1 X125.955 Y111.547 E.01514
G1 X125.468 Y111.398 E.01514
G1 X125.323 Y111.293 E.00536
G1 E-.68 F3600
;WIPE_START
G1 F3000
G1 X125.058 Y111.101 E-.03926
G1 X124.754 Y110.671 E-.0632
G1 X124.715 Y110.53 E-.01754
;WIPE_END
G1 X120.003 Y116.535 Z.6 F21000
G1 X118.489 Y118.464 Z.6
G1 Z.2
G1 E.8 F2700
;TYPE:Inner wall
G1 F3000
G1 X118.038 Y118.572 E.01382
G1 X117.427 Y118.611 E.01825
G1 X116.817 Y118.547 E.01825
G1 X116.296 Y118.401 E.01614
G1 X115.675 Y118.117 E.02034
G1 X115.194 Y117.779 E.0175
G1 X114.747 Y117.337 E.01874
G1 X114.386 Y116.831 E.0185
G1 X114.122 Y116.278 E.01825
G1 X113.954 Y115.689 E.01825
G1 X113.889 Y115.08 E.01825
G1 X113.927 Y114.469 E.01825
G1 X114.062 Y113.897 E.0175
G1 X114.285 Y113.361 E.0173
G1 X114.64 Y112.794 E.01992
G1 X115.054 Y112.342 E.01825
G1 X115.539 Y111.967 E.01825
G1 X116.079 Y111.679 E.01825
G1 X116.661 Y111.487 E.01825
G1 X117.217 Y111.402 E.01674
G1 X117.871 Y111.408 E.01949
G1 X118.481 Y111.524 E.0185
G1 X119.054 Y111.739 E.01825
G1 X119.583 Y112.049 E.01825
G1 X120.052 Y112.444 E.01825
G1 X120.447 Y112.912 E.01825
G1 X120.758 Y113.44 E.01825
G1 X120.975 Y114.013 E.01825
G1 X121.091 Y114.614 E.01825
G1 X121.105 Y115.204 E.01758
G1 X121.015 Y115.833 E.01891
G1 X120.824 Y116.415 E.01825
G1 X120.537 Y116.956 E.01825
G1 X120.162 Y117.441 E.01825
G1 X119.776 Y117.799 E.01568
G1 X119.266 Y118.146 E.0184
G1 X118.634 Y118.429 E.02063
G1 X118.528 Y118.455 E.00324
G1 X118.399 Y118.101 F21000
G1 F3000
G1 X117.959 Y118.203 E.01347
G1 X117.411 Y118.235 E.01635
G1 X116.865 Y118.173 E.01635
G1 X116.406 Y118.041 E.01424
G1 X115.844 Y117.78 E.01844
G1 X115.419 Y117.475 E.0156
G1 X115.016 Y117.074 E.01694
G1 X114.699 Y116.62 E.0165
G1 X114.465 Y116.123 E.01635
G1 X114.319 Y115.594 E.01635
G1 X114.265 Y115.048 E.01635
G1 X114.303 Y114.5 E.01635
G1 X114.427 Y113.992 E.0156
G1 X114.63 Y113.513 E.0155
G1 X114.953 Y113.005 E.01792
G1 X115.326 Y112.603 E.01635
G1 X115.763 Y112.27 E.01635
G1 X116.249 Y112.016 E.01635
G1 X116.771 Y111.847 E.01635
G1 X117.29 Y111.773 E.0156
G1 X117.858 Y111.784 E.01694
G1 X118.402 Y111.892 E.0165
G1 X118.914 Y112.089 E.01635
G1 X119.385 Y112.37 E.01635
G1 X119.803 Y112.727 E.01635
G1 X120.154 Y113.148 E.01635
G1 X120.429 Y113.624 E.01635
G1 X120.619 Y114.138 E.01635
G1 X120.72 Y114.678 E.01635
G1 X120.728 Y115.204 E.01568
G1 X120.643 Y115.769 E.01701
G1 X120.468 Y116.289 E.01635
G1 X120.207 Y116.772 E.01635
G1 X119.869 Y117.204 E.01635
G1 X119.462 Y117.573 E.01635
G1 X118.999 Y117.867 E.01635
G1 X118.493 Y118.08 E.01635
G1 X118.438 Y118.092 E.00168
G1 X118.312 Y117.741 F21000
;TYPE:Outer wall
G1 F3000
G1 X117.774 Y117.842 E.01631
G1 X117.363 Y117.857 E.01225
G1 X116.882 Y117.792 E.01445
G1 X116.516 Y117.68 E.01139
G1 X116.014 Y117.444 E.01654
G1 X115.62 Y117.152 E.0146
G1 X115.266 Y116.785 E.0152
G1 X114.996 Y116.381 E.01449
G1 X114.798 Y115.938 E.01445
G1 X114.679 Y115.468 E.01445
G1 X114.64 Y114.984 E.01445
G1 X114.709 Y114.404 E.01739
G1 X114.802 Y114.058 E.01067
G1 X115.011 Y113.591 E.01524
G1 X115.413 Y113.057 E.01991
G1 X115.623 Y112.843 E.00893
G1 X116.187 Y112.469 E.02015
G1 X116.539 Y112.313 E.01149
G1 X116.913 Y112.201 E.01163
G1 X117.368 Y112.145 E.01365
G1 X117.869 Y112.164 E.01493
G1 X118.353 Y112.27 E.01476
G1 X118.911 Y112.521 E.01825
G1 X119.213 Y112.71 E.01061
G1 X119.671 Y113.151 E.01892
G1 X119.987 Y113.606 E.0165
G1 X120.112 Y113.837 E.00783
G1 X120.272 Y114.295 E.01445
G1 X120.351 Y114.773 E.01445
G1 X120.348 Y115.258 E.01445
G1 X120.254 Y115.763 E.01529
G1 X120.099 Y116.193 E.01359
G1 X119.86 Y116.615 E.01445
G1 X119.449 Y117.082 E.01854
G1 X119.188 Y117.309 E.01032
G1 X118.773 Y117.561 E.01445
G1 X118.35 Y117.728 E.01357
G1 E-.68 F3600
;WIPE_START
G1 F3000
G1 X117.774 Y117.842 E-.07044
G1 X117.363 Y117.857 E-.04936
G1 X117.361 Y117.856 E-.00021
;WIPE_END
G1 X116.361 Y125.423 Z.6 F21000
G1 X116.229 Y126.42 Z.6
G1 Z.2
G1 E.8 F2700
;TYPE:Inner wall
G1 F3000
G1 X116.041 Y126.266 E.00725
G1 X115.703 Y125.708 E.01944
G1 X115.571 Y125.181 E.01618
G1 X115.609 Y124.607 E.01712
G1 X115.848 Y123.999 E.01947
G1 X115.96 Y123.835 E.00591
G1 X116.345 Y123.444 E.01634
G1 X116.844 Y123.183 E.01677
G1 X117.322 Y123.089 E.01451
G1 X117.726 Y123.082 E.01204
G1 X117.999 Y123.134 E.0083
G1 X118.506 Y123.344 E.01635
G1 X118.941 Y123.714 E.01699
G1 X119.28 Y124.252 E.01897
G1 X119.429 Y124.9 E.01979
G1 X119.351 Y125.553 E.01957
G1 X119.061 Y126.138 E.01945
G1 X118.594 Y126.592 E.01942
;WIDTH:0.428082
G1 X118.001 Y126.87 E.0199
G1 X117.492 Y126.924 E.01559
;WIDTH:0.430432
