; HEADER_BLOCK_START
; generated by OrcaSlicer 2.1.1 on 2024-12-19 at 11:53:25
; total layer number: 121
; filament_density: 1.27
; filament_diameter: 1.75
; max_z_height: 7.96
; HEADER_BLOCK_END

; THUMBNAIL_BLOCK_START

;
; THUMBNAIL_BLOCK_END







; external perimeters extrusion width = 0.40mm
; perimeters extrusion width = 0.45mm
; infill extrusion width = 0.45mm
; solid infill extrusion width = 0.45mm
; top infill extrusion width = 0.38mm
; support material extrusion width = 0.38mm
; first layer extrusion width = 0.42mm

; EXECUTABLE_BLOCK_START
EXCLUDE_OBJECT_DEFINE NAME=齿轮槽.STL_id_0_copy_0 CENTER=117.5,112.015 POLYGON=[[107.5,105.265],[107.573,104.06],[107.791,102.872],[108.15,101.719],[108.645,100.618],[109.27,99.5843],[110.015,98.6337],[110.869,97.7798],[111.819,97.0351],[112.853,96.4104],[113.954,95.9148],[115.107,95.5555],[116.295,95.3378],[117.5,95.2649],[118.705,95.3378],[119.893,95.5555],[121.046,95.9148],[122.147,96.4104],[123.181,97.0351],[124.131,97.7798],[124.985,98.6337],[125.73,99.5843],[126.355,100.618],[126.85,101.719],[127.209,102.872],[127.427,104.06],[127.5,105.265],[127.5,128.765],[107.5,128.765],[107.5,105.265]]
M73 P0 R27
;TYPE:Custom
;ELEGOO NEPTUNE 4 PRO
M220 S100 ;Set the feed speed to 100%
M221 S100 ;Set the flow rate to 100%
M104 S140
M190 S70
G90
G28 ;home
G1 Z10 F300
G1 X67.5 Y0 F6000
G1 Z0 F300
M109 S240
G92 E0 ;Reset Extruder
G1 X67.5 Y0 Z0.4 F300 ;Move to start position
G1 X167.5 E30 F400 ;Draw the first line
G1 Z0.6 F120.0 ;Move to side a little
M73 P1 R27
G1 X162.5 F3000
G92 E0 ;Reset Extruder
G90
G21
M83 ; use relative distances for extrusion
; filament start gcode
M106 S0
;LAYER_CHANGE
;Z:0.2
;HEIGHT:0.2
;BEFORE_LAYER_CHANGE
G92 E0
;0.2


G1 E-.8 F3600
;AFTER_LAYER_CHANGE
;0.2
;_SET_FAN_SPEED_CHANGING_LAYER
SET_VELOCITY_LIMIT ACCEL=1000 ACCEL_TO_DECEL=500
SET_VELOCITY_LIMIT SQUARE_CORNER_VELOCITY=7
; printing object 齿轮槽.STL id:0 copy 0
EXCLUDE_OBJECT_START NAME=齿轮槽.STL_id_0_copy_0
G1 X119.07 Y97.483 F21000
G1 Z.4
G1 Z.2
G1 E.8 F2700
;TYPE:Support
;WIDTH:0.42
G1 F3000
G1 X120.087 Y97.759 E.03137
G1 X121.057 Y98.168 E.03137
G1 X121.965 Y98.701 E.03137
G1 X122.795 Y99.35 E.03137
G1 X123.531 Y100.103 E.03137
G1 X124.161 Y100.946 E.03137
G1 X124.674 Y101.866 E.03137
G1 X125.061 Y102.846 E.03137
G1 X125.315 Y103.868 E.03137
G1 X125.431 Y104.914 E.03137
G1 X125.408 Y105.967 E.03137
G1 X125.245 Y107.008 E.03137
G1 X124.946 Y108.017 E.03137
G1 X124.516 Y108.979 E.03137
G1 X123.97 Y109.864 E.03099
G1 X123.296 Y110.69 E.03175
G1 X122.527 Y111.409 E.03136
G1 X121.67 Y112.02 E.03137
G1 X120.451 Y112.665 E.04107
G1 X120.375 Y113.237 E.01718
G1 X120.602 Y113.45 E.00927
G1 X121.085 Y113.986 E.0215
G1 X113.916 Y113.986 E.21354
G1 X114.631 Y113.199 E.03169
G1 X114.537 Y112.659 E.01634
G1 X113.33 Y112.02 E.04065
G1 X112.473 Y111.409 E.03137
G1 X111.704 Y110.69 E.03137
G1 X111.037 Y109.875 E.03137
G1 X110.484 Y108.979 E.03137
G1 X110.054 Y108.017 E.03137
G1 X109.755 Y107.008 E.03137
G1 X109.592 Y105.967 E.03137
G1 X109.569 Y104.914 E.03137
G1 X109.685 Y103.868 E.03137
G1 X109.939 Y102.846 E.03137
G1 X110.326 Y101.866 E.03137
G1 X110.839 Y100.946 E.03137
G1 X111.469 Y100.103 E.03137
G1 X112.205 Y99.35 E.03137
G1 X113.035 Y98.701 E.03137
G1 X113.943 Y98.168 E.03137
G1 X114.913 Y97.759 E.03137
G1 X115.93 Y97.483 E.03137
G1 X116.973 Y97.344 E.03137
G1 X118.027 Y97.344 E.03137
G1 X119.014 Y97.476 E.02968
G1 X120.138 Y112.447 F21000
G1 F3000
G1 X120.015 Y113.365 E.0276
G1 X120.316 Y113.647 E.01227
G1 X114.683 Y113.647 E.16779
G1 X114.994 Y113.304 E.01379
G1 X114.842 Y112.436 E.02624
G1 X113.509 Y111.731 E.04493
G1 X112.688 Y111.146 E.03002
G1 X111.952 Y110.457 E.03002
G1 X111.314 Y109.677 E.03002
G1 X110.784 Y108.82 E.03002
G1 X110.373 Y107.899 E.03002
G1 X110.087 Y106.933 E.03002
G1 X109.931 Y105.937 E.03002
G1 X109.909 Y104.929 E.03002
G1 X110.02 Y103.927 E.03002
G1 X110.263 Y102.949 E.03002
G1 X110.633 Y102.012 E.03002
G1 X111.124 Y101.131 E.03002
G1 X111.727 Y100.324 E.03002
G1 X112.432 Y99.603 E.03002
G1 X113.226 Y98.982 E.03002
G1 X114.095 Y98.472 E.03002
G1 X115.024 Y98.081 E.03002
G1 X115.997 Y97.816 E.03002
G1 X116.996 Y97.683 E.03002
G1 X118.004 Y97.683 E.03002
G1 X119.003 Y97.816 E.03002
G1 X119.976 Y98.081 E.03002
G1 X120.905 Y98.472 E.03002
G1 X121.774 Y98.982 E.03002
G1 X122.568 Y99.603 E.03002
G1 X123.273 Y100.324 E.03002
G1 X123.876 Y101.131 E.03002
G1 X124.367 Y102.012 E.03002
G1 X124.737 Y102.949 E.03002
G1 X124.98 Y103.927 E.03002
G1 X125.091 Y104.929 E.03002
G1 X125.069 Y105.937 E.03002
G1 X124.913 Y106.933 E.03002
G1 X124.627 Y107.899 E.03002
G1 X124.216 Y108.82 E.03003
G1 X123.693 Y109.667 E.02965
G1 X123.047 Y110.458 E.03041
G1 X122.312 Y111.146 E.03001
G1 X121.491 Y111.731 E.03002
G1 X120.138 Y112.447 E.0456
G1 X119.751 Y112.178 F21000
G1 F3000
G1 X119.611 Y113.228 E.03156
G1 X115.406 Y113.228 E.12524
G1 X115.219 Y112.162 E.03223
G1 X113.73 Y111.374 E.05021
G1 X112.954 Y110.821 E.02837
G1 X112.259 Y110.17 E.02836
G1 X111.656 Y109.433 E.02836
G1 X111.155 Y108.623 E.02836
G1 X110.767 Y107.754 E.02837
G1 X110.496 Y106.841 E.02837
G1 X110.349 Y105.9 E.02836
G1 X110.328 Y104.948 E.02836
G1 X110.433 Y104.001 E.02837
G1 X110.663 Y103.077 E.02836
G1 X111.012 Y102.191 E.02837
G1 X111.476 Y101.36 E.02837
G1 X112.046 Y100.597 E.02836
G1 X112.712 Y99.916 E.02836
G1 X113.462 Y99.329 E.02837
G1 X114.283 Y98.847 E.02836
G1 X115.161 Y98.478 E.02836
G1 X116.08 Y98.228 E.02837
G1 X117.024 Y98.102 E.02837
G1 X117.976 Y98.102 E.02836
G1 X118.92 Y98.228 E.02837
G1 X119.839 Y98.478 E.02837
G1 X120.717 Y98.847 E.02836
G1 X121.538 Y99.329 E.02836
G1 X122.288 Y99.916 E.02837
G1 X122.954 Y100.597 E.02836
G1 X123.524 Y101.36 E.02836
G1 X123.988 Y102.191 E.02837
G1 X124.337 Y103.077 E.02836
G1 X124.567 Y104.001 E.02836
G1 X124.672 Y104.948 E.02837
G1 X124.651 Y105.9 E.02836
G1 X124.504 Y106.841 E.02837
G1 X124.233 Y107.754 E.02836
G1 X123.845 Y108.623 E.02837
G1 X123.351 Y109.423 E.028
G1 X122.741 Y110.171 E.02875
G1 X122.046 Y110.821 E.02834
G1 X121.27 Y111.374 E.02837
G1 X119.751 Y112.178 E.0512
G1 X119.364 Y111.908 F21000
G1 F3000
G1 X119.244 Y112.809 E.02707
G1 X115.758 Y112.809 E.10383
G1 X115.597 Y111.888 E.02786
G1 X113.95 Y111.016 E.05549
G1 X113.22 Y110.496 E.02671
G1 X112.565 Y109.883 E.02671
G1 X111.997 Y109.19 E.02671
G1 X111.526 Y108.427 E.02671
G1 X111.16 Y107.608 E.02671
G1 X110.906 Y106.749 E.02671
G1 X110.768 Y105.863 E.02671
G1 X110.748 Y104.966 E.02671
G1 X110.847 Y104.075 E.02671
G1 X111.063 Y103.205 E.02671
G1 X111.392 Y102.371 E.02671
G1 X111.829 Y101.588 E.02671
G1 X112.365 Y100.87 E.02671
G1 X112.992 Y100.229 E.02671
G1 X113.698 Y99.677 E.02671
G1 X114.471 Y99.223 E.02671
G1 X115.298 Y98.875 E.02671
G1 X116.163 Y98.64 E.02671
G1 X117.052 Y98.521 E.02671
G1 X117.948 Y98.521 E.02671
G1 X118.837 Y98.64 E.02671
G1 X119.702 Y98.875 E.02671
G1 X120.529 Y99.223 E.02671
G1 X121.302 Y99.677 E.02671
G1 X122.008 Y100.229 E.02671
G1 X122.635 Y100.87 E.02671
G1 X123.171 Y101.588 E.02671
G1 X123.608 Y102.371 E.02671
G1 X123.937 Y103.205 E.02671
G1 X124.153 Y104.075 E.02671
G1 X124.252 Y104.966 E.02671
G1 X124.232 Y105.863 E.02671
G1 X124.094 Y106.749 E.02671
G1 X123.84 Y107.608 E.02671
G1 X123.473 Y108.427 E.02672
G1 X123.009 Y109.18 E.02634
G1 X122.434 Y109.884 E.02708
G1 X121.78 Y110.496 E.02668
G1 X121.05 Y111.016 E.02671
G1 X119.364 Y111.908 E.0568
G1 X118.978 Y111.639 F21000
G1 F3000
G1 X118.877 Y112.39 E.02257
G1 X116.11 Y112.39 E.08243
G1 X115.974 Y111.613 E.02349
G1 X114.171 Y110.659 E.06077
G1 X113.486 Y110.171 E.02505
G1 X112.872 Y109.597 E.02505
G1 X112.339 Y108.946 E.02505
G1 X111.897 Y108.23 E.02505
G1 X111.554 Y107.463 E.02505
G1 X111.316 Y106.656 E.02505
G1 X111.186 Y105.826 E.02505
G1 X111.167 Y104.985 E.02505
G1 X111.26 Y104.149 E.02505
G1 X111.463 Y103.333 E.02505
G1 X111.771 Y102.551 E.02505
G1 X112.181 Y101.817 E.02505
G1 X112.684 Y101.143 E.02505
G1 X113.272 Y100.542 E.02505
G1 X113.935 Y100.024 E.02505
G1 X114.66 Y99.598 E.02505
G1 X115.435 Y99.272 E.02505
G1 X116.246 Y99.051 E.02505
G1 X117.08 Y98.94 E.02505
G1 X117.92 Y98.94 E.02505
G1 X118.754 Y99.051 E.02505
G1 X119.565 Y99.272 E.02505
G1 X120.34 Y99.598 E.02505
G1 X121.065 Y100.024 E.02505
G1 X121.728 Y100.542 E.02505
G1 X122.316 Y101.143 E.02505
G1 X122.819 Y101.817 E.02505
G1 X123.229 Y102.551 E.02505
G1 X123.537 Y103.333 E.02505
G1 X123.74 Y104.149 E.02505
G1 X123.833 Y104.985 E.02505
G1 X123.814 Y105.826 E.02505
G1 X123.684 Y106.656 E.02505
G1 X123.446 Y107.463 E.02505
G1 X123.102 Y108.231 E.02506
G1 X122.667 Y108.936 E.02469
G1 X122.127 Y109.597 E.02542
G1 X121.514 Y110.171 E.02501
G1 X120.829 Y110.659 E.02505
G1 X118.978 Y111.639 E.0624
G1 X118.591 Y111.369 F21000
G1 F3000
G1 X118.511 Y111.971 E.01808
G1 X116.462 Y111.971 E.06102
G1 X116.351 Y111.339 E.01911
G1 X114.391 Y110.302 E.06606
G1 X113.752 Y109.846 E.02339
G1 X113.178 Y109.31 E.02339
G1 X112.681 Y108.702 E.02339
G1 X112.269 Y108.034 E.02339
G1 X111.948 Y107.317 E.02339
G1 X111.725 Y106.564 E.02339
G1 X111.604 Y105.788 E.02339
G1 X111.587 Y105.004 E.02339
G1 X111.673 Y104.223 E.02339
G1 X111.863 Y103.461 E.02339
G1 X112.151 Y102.731 E.02339
G1 X112.533 Y102.045 E.02339
G1 X113.003 Y101.416 E.02339
G1 X113.552 Y100.855 E.02339
G1 X114.171 Y100.371 E.02339
G1 X114.848 Y99.973 E.02339
G1 X115.571 Y99.669 E.02339
G1 X116.329 Y99.463 E.02339
G1 X117.107 Y99.359 E.02339
G1 X117.893 Y99.359 E.02339
G1 X118.671 Y99.463 E.02339
G1 X119.429 Y99.669 E.02339
G1 X120.152 Y99.973 E.02339
G1 X120.829 Y100.371 E.02339
G1 X121.448 Y100.855 E.02339
G1 X121.997 Y101.416 E.02339
G1 X122.467 Y102.045 E.02339
G1 X122.849 Y102.731 E.02339
G1 X123.137 Y103.461 E.02339
G1 X123.327 Y104.223 E.02339
G1 X123.413 Y105.004 E.02339
G1 X123.396 Y105.788 E.02339
G1 X123.275 Y106.564 E.02339
G1 X123.052 Y107.317 E.02339
G1 X122.731 Y108.034 E.0234
G1 X122.325 Y108.693 E.02304
G1 X121.82 Y109.311 E.02376
G1 X121.248 Y109.846 E.02334
G1 X120.609 Y110.302 E.02339
G1 X118.591 Y111.369 E.068
G1 X118.204 Y111.1 F21000
G1 F3000
G1 X118.144 Y111.552 E.01359
G1 X116.814 Y111.552 E.03961
G1 X116.729 Y111.064 E.01474
G1 X114.612 Y109.944 E.07134
G1 X114.018 Y109.521 E.02173
G1 X113.485 Y109.023 E.02173
G1 X113.023 Y108.458 E.02173
G1 X112.64 Y107.837 E.02173
G1 X112.342 Y107.172 E.02173
G1 X112.135 Y106.472 E.02173
G1 X112.022 Y105.751 E.02173
G1 X112.006 Y105.022 E.02173
G1 X112.087 Y104.297 E.02173
G1 X112.262 Y103.589 E.02173
G1 X112.53 Y102.911 E.02173
G1 X112.886 Y102.273 E.02173
G1 X113.322 Y101.689 E.02173
G1 X113.832 Y101.168 E.02173
G1 X114.407 Y100.718 E.02173
G1 X115.036 Y100.349 E.02173
G1 X115.708 Y100.066 E.02173
G1 X116.412 Y99.874 E.02173
G1 X117.135 Y99.778 E.02173
G1 X117.865 Y99.778 E.02173
G1 X118.588 Y99.874 E.02173
G1 X119.292 Y100.066 E.02173
G1 X119.964 Y100.349 E.02173
G1 X120.593 Y100.718 E.02173
G1 X121.168 Y101.168 E.02173
G1 X121.678 Y101.689 E.02173
G1 X122.114 Y102.273 E.02173
G1 X122.47 Y102.911 E.02173
G1 X122.738 Y103.589 E.02173
G1 X122.913 Y104.297 E.02173
G1 X122.994 Y105.022 E.02173
G1 X122.978 Y105.751 E.02173
G1 X122.865 Y106.472 E.02173
G1 X122.658 Y107.172 E.02173
G1 X122.36 Y107.838 E.02175
G1 X121.983 Y108.449 E.02139
G1 X121.514 Y109.024 E.0221
G1 X120.982 Y109.521 E.02168
G1 X120.388 Y109.944 E.02173
G1 X118.204 Y111.1 E.0736
G1 X117.777 Y111.133 F21000
G1 F3000
G1 X117.166 Y111.133 E.0182
G1 X117.106 Y110.79 E.01037
G1 X114.832 Y109.587 E.07662
G1 X114.284 Y109.196 E.02007
G1 X113.792 Y108.736 E.02007
G1 X113.365 Y108.214 E.02007
G1 X113.011 Y107.641 E.02007
G1 X112.736 Y107.026 E.02007
G1 X112.545 Y106.38 E.02007
G1 X112.441 Y105.714 E.02007
G1 X112.426 Y105.041 E.02007
G1 X112.5 Y104.371 E.02007
G1 X112.662 Y103.717 E.02007
G1 X112.91 Y103.09 E.02007
G1 X113.238 Y102.502 E.02007
G1 X113.641 Y101.962 E.02007
G1 X114.112 Y101.48 E.02007
G1 X114.643 Y101.065 E.02007
G1 X115.224 Y100.724 E.02007
G1 X115.845 Y100.463 E.02007
G1 X116.495 Y100.286 E.02007
G1 X117.163 Y100.197 E.02007
G1 X117.837 Y100.197 E.02007
G1 X118.505 Y100.286 E.02007
G1 X119.155 Y100.463 E.02007
G1 X119.776 Y100.724 E.02007
G1 X120.357 Y101.065 E.02007
G1 X120.888 Y101.48 E.02007
G1 X121.359 Y101.962 E.02007
G1 X121.762 Y102.502 E.02007
G1 X122.09 Y103.09 E.02007
G1 X122.338 Y103.717 E.02007
G1 X122.5 Y104.371 E.02007
G1 X122.574 Y105.041 E.02007
G1 X122.559 Y105.714 E.02007
G1 X122.455 Y106.38 E.02007
G1 X122.264 Y107.026 E.02007
G1 X121.989 Y107.642 E.02009
G1 X121.641 Y108.206 E.01974
G1 X121.207 Y108.737 E.02044
G1 X120.716 Y109.196 E.02001
G1 X120.168 Y109.587 E.02007
G1 X117.818 Y110.83 E.07919
G1 X117.777 Y111.133 E.00909
G1 X117.5 Y110.525 F21000
G1 F3000
G1 X115.053 Y109.23 E.08247
G1 X114.55 Y108.871 E.01841
G1 X114.098 Y108.449 E.01841
G1 X113.707 Y107.97 E.01841
G1 X113.382 Y107.445 E.01841
G1 X113.13 Y106.88 E.01841
G1 X112.954 Y106.288 E.01841
G1 X112.859 Y105.677 E.01841
G1 X112.845 Y105.059 E.01841
G1 X112.913 Y104.445 E.01841
G1 X113.062 Y103.845 E.01841
G1 X113.289 Y103.27 E.01841
G1 X113.59 Y102.73 E.01841
G1 X113.96 Y102.235 E.01841
G1 X114.392 Y101.793 E.01841
G1 X114.879 Y101.413 E.01841
G1 X115.412 Y101.1 E.01841
G1 X115.982 Y100.86 E.01841
G1 X116.578 Y100.698 E.01841
G1 X117.191 Y100.616 E.01841
G1 X117.809 Y100.616 E.01841
G1 X118.422 Y100.698 E.01841
G1 X119.018 Y100.86 E.01841
G1 X119.588 Y101.1 E.01841
G1 X120.121 Y101.412 E.01841
G1 X120.608 Y101.793 E.01841
G1 X121.04 Y102.235 E.01841
G1 X121.41 Y102.73 E.01841
G1 X121.711 Y103.27 E.01841
G1 X121.938 Y103.845 E.01841
G1 X122.087 Y104.445 E.01841
G1 X122.155 Y105.059 E.01841
G1 X122.141 Y105.677 E.01841
G1 X122.046 Y106.288 E.01841
G1 X121.87 Y106.88 E.01841
G1 X121.618 Y107.445 E.01843
G1 X121.299 Y107.962 E.01808
G1 X120.9 Y108.45 E.01878
G1 X120.45 Y108.871 E.01835
G1 X119.947 Y109.23 E.01841
G1 X117.5 Y110.525 E.08247
G1 X117.5 Y110.051 F21000
G1 F3000
G1 X115.273 Y108.873 E.07503
G1 X114.815 Y108.546 E.01675
G1 X114.405 Y108.162 E.01675
G1 X114.049 Y107.727 E.01675
G1 X113.753 Y107.248 E.01675
G1 X113.524 Y106.735 E.01675
G1 X113.364 Y106.196 E.01675
G1 X113.277 Y105.64 E.01675
G1 X113.265 Y105.078 E.01675
G1 X113.327 Y104.519 E.01675
G1 X113.462 Y103.973 E.01675
G1 X113.669 Y103.45 E.01675
G1 X113.943 Y102.959 E.01675
G1 X114.279 Y102.508 E.01675
G1 X114.672 Y102.106 E.01675
G1 X115.115 Y101.76 E.01675
G1 X115.6 Y101.475 E.01675
G1 X116.119 Y101.257 E.01675
G1 X116.661 Y101.109 E.01675
G1 X117.219 Y101.035 E.01675
G1 X117.781 Y101.035 E.01675
G1 X118.339 Y101.109 E.01675
G1 X118.881 Y101.257 E.01675
G1 X119.4 Y101.475 E.01675
G1 X119.885 Y101.76 E.01675
G1 X120.328 Y102.106 E.01675
G1 X120.721 Y102.508 E.01675
G1 X121.057 Y102.959 E.01675
G1 X121.331 Y103.45 E.01675
G1 X121.538 Y103.973 E.01675
G1 X121.673 Y104.519 E.01675
G1 X121.735 Y105.078 E.01675
G1 X121.723 Y105.64 E.01675
G1 X121.636 Y106.196 E.01675
G1 X121.476 Y106.735 E.01675
G1 X121.247 Y107.249 E.01678
G1 X120.957 Y107.718 E.01643
G1 X120.594 Y108.163 E.01711
G1 X120.185 Y108.546 E.01668
G1 X119.727 Y108.873 E.01675
G1 X117.5 Y110.051 E.07503
G1 X117.5 Y109.577 F21000
G1 F3000
G1 X115.494 Y108.515 E.0676
G1 X115.081 Y108.221 E.01509
G1 X114.711 Y107.875 E.01509
G1 X114.39 Y107.483 E.01509
G1 X114.124 Y107.052 E.01509
G1 X113.917 Y106.589 E.01509
G1 X113.774 Y106.103 E.01509
G1 X113.695 Y105.603 E.01509
G1 X113.684 Y105.096 E.01509
G1 X113.74 Y104.593 E.01509
G1 X113.862 Y104.101 E.01509
G1 X114.048 Y103.63 E.01509
G1 X114.295 Y103.187 E.01509
G1 X114.598 Y102.781 E.01509
G1 X114.953 Y102.419 E.01509
G1 X115.352 Y102.107 E.01509
G1 X115.789 Y101.85 E.01509
G1 X116.256 Y101.654 E.01509
G1 X116.744 Y101.521 E.01509
G1 X117.247 Y101.454 E.01509
G1 X117.753 Y101.454 E.01509
G1 X118.256 Y101.521 E.01509
G1 X118.744 Y101.654 E.01509
G1 X119.211 Y101.85 E.01509
G1 X119.648 Y102.107 E.01509
G1 X120.047 Y102.419 E.01509
G1 X120.402 Y102.781 E.01509
G1 X120.705 Y103.187 E.01509
G1 X120.952 Y103.63 E.01509
G1 X121.138 Y104.101 E.01509
G1 X121.26 Y104.593 E.01509
G1 X121.316 Y105.096 E.01509
G1 X121.305 Y105.603 E.01509
G1 X121.226 Y106.103 E.01509
G1 X121.083 Y106.589 E.01509
G1 X120.875 Y107.053 E.01512
