; HEADER_BLOCK_START
; generated by OrcaSlicer 2.1.1 on 2024-12-19 at 21:51:38
; total layer number: 121
; filament_density: 1.27
; filament_diameter: 1.75
; max_z_height: 7.96
; HEADER_BLOCK_END

; THUMBNAIL_BLOCK_START

;
; THUMBNAIL_BLOCK_END







; external perimeters extrusion width = 0.40mm
; perimeters extrusion width = 0.45mm
; infill extrusion width = 0.45mm
; solid infill extrusion width = 0.45mm
; top infill extrusion width = 0.38mm
; support material extrusion width = 0.38mm
; first layer extrusion width = 0.42mm

; EXECUTABLE_BLOCK_START
EXCLUDE_OBJECT_DEFINE NAME=齿轮槽_-_镜像.STL_id_0_copy_0 CENTER=117.5,115 POLYGON=[[107.5,98.25],[127.5,98.25],[127.5,121.75],[127.427,122.955],[127.209,124.143],[126.85,125.296],[126.355,126.397],[125.73,127.431],[124.985,128.381],[124.131,129.235],[123.181,129.98],[122.147,130.605],[121.046,131.1],[119.893,131.459],[118.705,131.677],[117.5,131.75],[116.295,131.677],[115.107,131.459],[113.954,131.1],[112.853,130.605],[111.819,129.98],[110.869,129.235],[110.015,128.381],[109.27,127.431],[108.645,126.397],[108.15,125.296],[107.791,124.143],[107.573,122.955],[107.5,121.75],[107.5,98.25]]
M73 P0 R27
;TYPE:Custom
;ELEGOO NEPTUNE 4 PRO
M220 S100 ;Set the feed speed to 100%
M221 S100 ;Set the flow rate to 100%
M104 S140
M190 S70
G90
G28 ;home
G1 Z10 F300
G1 X67.5 Y0 F6000
G1 Z0 F300
M109 S240
G92 E0 ;Reset Extruder
G1 X67.5 Y0 Z0.4 F300 ;Move to start position
G1 X167.5 E30 F400 ;Draw the first line
G1 Z0.6 F120.0 ;Move to side a little
M73 P1 R27
G1 X162.5 F3000
G92 E0 ;Reset Extruder
G90
G21
M83 ; use relative distances for extrusion
; filament start gcode
M106 S0
;LAYER_CHANGE
;Z:0.2
;HEIGHT:0.2
;BEFORE_LAYER_CHANGE
G92 E0
;0.2


G1 E-.8 F3600
;AFTER_LAYER_CHANGE
;0.2
;_SET_FAN_SPEED_CHANGING_LAYER
SET_VELOCITY_LIMIT ACCEL=1000 ACCEL_TO_DECEL=500
SET_VELOCITY_LIMIT SQUARE_CORNER_VELOCITY=7
; printing object 齿轮槽 - 镜像.STL id:0 copy 0
EXCLUDE_OBJECT_START NAME=齿轮槽_-_镜像.STL_id_0_copy_0
G1 X120.612 Y113.554 F21000
G1 Z.4
G1 Z.2
G1 E.8 F2700
;TYPE:Support
;WIDTH:0.42
G1 F3000
G1 X120.373 Y113.79 E.01
G1 X120.455 Y114.352 E.01691
G1 X121.67 Y114.994 E.04093
G1 X122.527 Y115.606 E.03137
G1 X123.296 Y116.325 E.03137
G1 X123.963 Y117.14 E.03137
G1 X124.516 Y118.036 E.03137
G1 X124.946 Y118.998 E.03137
G1 X125.245 Y120.007 E.03137
G1 X125.408 Y121.048 E.03137
G1 X125.431 Y122.101 E.03137
G1 X125.315 Y123.147 E.03137
G1 X125.061 Y124.169 E.03137
G1 X124.674 Y125.149 E.03137
G1 X124.161 Y126.069 E.03137
G1 X123.531 Y126.912 E.03137
G1 X122.795 Y127.665 E.03137
G1 X121.965 Y128.314 E.03137
G1 X121.057 Y128.847 E.03137
G1 X120.087 Y129.256 E.03137
G1 X119.07 Y129.532 E.03137
G1 X118.027 Y129.671 E.03137
G1 X116.973 Y129.671 E.03137
G1 X115.93 Y129.532 E.03137
G1 X114.913 Y129.256 E.03137
G1 X113.943 Y128.847 E.03137
G1 X113.035 Y128.314 E.03137
G1 X112.205 Y127.665 E.03137
G1 X111.469 Y126.912 E.03137
G1 X110.839 Y126.069 E.03137
G1 X110.326 Y125.149 E.03137
G1 X109.939 Y124.169 E.03137
G1 X109.685 Y123.147 E.03137
G1 X109.569 Y122.101 E.03137
G1 X109.592 Y121.048 E.03137
G1 X109.755 Y120.007 E.03137
G1 X110.054 Y118.998 E.03137
G1 X110.484 Y118.036 E.03137
G1 X111.03 Y117.151 E.03099
G1 X111.704 Y116.325 E.03175
G1 X112.473 Y115.606 E.03136
G1 X113.33 Y114.994 E.03137
G1 X114.537 Y114.356 E.04065
G1 X114.631 Y113.816 E.01634
G1 X113.916 Y113.029 E.03169
G1 X121.085 Y113.029 E.21354
G1 X120.65 Y113.512 E.01938
G1 X120.144 Y114.571 F21000
G1 F3000
G1 X121.491 Y115.284 E.04539
G1 X122.312 Y115.869 E.03002
G1 X123.048 Y116.558 E.03002
G1 X123.686 Y117.338 E.03002
G1 X124.216 Y118.195 E.03002
G1 X124.627 Y119.115 E.03002
G1 X124.913 Y120.082 E.03002
G1 X125.069 Y121.078 E.03002
G1 X125.091 Y122.086 E.03002
G1 X124.98 Y123.087 E.03002
G1 X124.737 Y124.066 E.03002
G1 X124.367 Y125.003 E.03002
G1 X123.876 Y125.884 E.03002
G1 X123.273 Y126.691 E.03002
G1 X122.568 Y127.412 E.03002
G1 X121.774 Y128.033 E.03002
G1 X120.905 Y128.543 E.03002
G1 X119.976 Y128.934 E.03002
G1 X119.003 Y129.198 E.03002
G1 X118.004 Y129.332 E.03002
G1 X116.996 Y129.332 E.03002
G1 X115.997 Y129.198 E.03002
G1 X115.024 Y128.934 E.03002
G1 X114.095 Y128.543 E.03002
G1 X113.226 Y128.033 E.03002
G1 X112.432 Y127.412 E.03002
G1 X111.727 Y126.691 E.03002
G1 X111.124 Y125.884 E.03002
G1 X110.633 Y125.003 E.03002
G1 X110.263 Y124.066 E.03002
G1 X110.02 Y123.087 E.03002
G1 X109.909 Y122.086 E.03002
G1 X109.931 Y121.078 E.03002
G1 X110.087 Y120.082 E.03002
G1 X110.373 Y119.115 E.03002
G1 X110.784 Y118.195 E.03003
G1 X111.307 Y117.348 E.02965
G1 X111.953 Y116.557 E.03041
G1 X112.688 Y115.869 E.03001
G1 X113.509 Y115.284 E.03002
G1 X114.842 Y114.579 E.04493
G1 X114.994 Y113.711 E.02624
G1 X114.683 Y113.368 E.01379
G1 X120.317 Y113.368 E.16783
G1 X120.012 Y113.669 E.01277
G1 X120.144 Y114.571 E.02716
G1 X119.761 Y114.842 F21000
G1 F3000
G1 X121.271 Y115.641 E.05088
G1 X122.046 Y116.194 E.02836
G1 X122.741 Y116.845 E.02837
G1 X123.344 Y117.581 E.02836
G1 X123.845 Y118.392 E.02836
G1 X124.233 Y119.261 E.02837
G1 X124.504 Y120.174 E.02837
G1 X124.651 Y121.115 E.02836
G1 X124.672 Y122.067 E.02836
G1 X124.567 Y123.014 E.02837
G1 X124.337 Y123.938 E.02837
G1 X123.988 Y124.823 E.02837
G1 X123.524 Y125.655 E.02836
G1 X122.954 Y126.418 E.02836
G1 X122.288 Y127.099 E.02837
G1 X121.538 Y127.686 E.02836
G1 X120.717 Y128.168 E.02837
G1 X119.839 Y128.537 E.02836
G1 X118.92 Y128.787 E.02836
G1 X117.976 Y128.913 E.02837
G1 X117.024 Y128.913 E.02836
G1 X116.08 Y128.787 E.02837
G1 X115.161 Y128.537 E.02836
G1 X114.283 Y128.168 E.02836
G1 X113.462 Y127.686 E.02837
G1 X112.712 Y127.099 E.02836
G1 X112.046 Y126.418 E.02837
G1 X111.476 Y125.655 E.02836
G1 X111.012 Y124.823 E.02837
G1 X110.663 Y123.938 E.02836
G1 X110.433 Y123.014 E.02837
G1 X110.328 Y122.067 E.02837
G1 X110.349 Y121.115 E.02836
G1 X110.496 Y120.174 E.02837
G1 X110.767 Y119.261 E.02836
G1 X111.155 Y118.391 E.02837
G1 X111.649 Y117.592 E.028
G1 X112.259 Y116.844 E.02875
G1 X112.954 Y116.194 E.02834
G1 X113.73 Y115.641 E.02837
G1 X115.219 Y114.853 E.05021
G1 X115.406 Y113.787 E.03223
G1 X119.606 Y113.787 E.12509
G1 X119.761 Y114.842 E.03177
G1 X119.377 Y115.113 F21000
G1 F3000
G1 X121.05 Y115.998 E.05638
G1 X121.78 Y116.519 E.02671
G1 X122.435 Y117.131 E.02671
G1 X123.003 Y117.825 E.02671
G1 X123.474 Y118.588 E.02671
G1 X123.84 Y119.407 E.02671
G1 X124.094 Y120.266 E.02671
G1 X124.232 Y121.152 E.02671
G1 X124.252 Y122.049 E.02671
G1 X124.153 Y122.94 E.02671
G1 X123.937 Y123.81 E.02671
G1 X123.608 Y124.644 E.02671
G1 X123.171 Y125.427 E.02671
G1 X122.635 Y126.145 E.02671
G1 X122.008 Y126.786 E.02671
G1 X121.302 Y127.338 E.02671
G1 X120.529 Y127.792 E.02671
G1 X119.702 Y128.14 E.02671
G1 X118.837 Y128.375 E.02671
G1 X117.948 Y128.494 E.02671
G1 X117.052 Y128.494 E.02671
G1 X116.163 Y128.375 E.02671
G1 X115.298 Y128.14 E.02671
G1 X114.471 Y127.792 E.02671
G1 X113.698 Y127.338 E.02671
G1 X112.992 Y126.786 E.02671
G1 X112.365 Y126.145 E.02671
G1 X111.829 Y125.427 E.02671
G1 X111.392 Y124.644 E.02671
G1 X111.063 Y123.81 E.02671
G1 X110.847 Y122.94 E.02671
G1 X110.748 Y122.049 E.02671
G1 X110.768 Y121.152 E.02671
G1 X110.906 Y120.266 E.02671
G1 X111.16 Y119.407 E.02671
G1 X111.527 Y118.588 E.02672
G1 X111.991 Y117.835 E.02634
G1 X112.566 Y117.131 E.02708
G1 X113.22 Y116.519 E.02668
G1 X113.95 Y115.998 E.02671
G1 X115.597 Y115.127 E.05549
G1 X115.758 Y114.206 E.02786
G1 X119.244 Y114.206 E.10382
G1 X119.377 Y115.113 E.02732
G1 X118.993 Y115.384 F21000
G1 F3000
G1 X120.829 Y116.356 E.06188
G1 X121.514 Y116.844 E.02505
G1 X122.128 Y117.418 E.02505
G1 X122.661 Y118.069 E.02505
G1 X123.103 Y118.785 E.02505
G1 X123.446 Y119.552 E.02505
G1 X123.684 Y120.359 E.02505
G1 X123.814 Y121.189 E.02505
G1 X123.833 Y122.03 E.02505
G1 X123.74 Y122.866 E.02505
G1 X123.537 Y123.682 E.02505
G1 X123.229 Y124.464 E.02505
G1 X122.819 Y125.198 E.02505
G1 X122.316 Y125.872 E.02505
G1 X121.728 Y126.473 E.02505
G1 X121.065 Y126.991 E.02505
G1 X120.34 Y127.417 E.02505
G1 X119.565 Y127.743 E.02505
G1 X118.754 Y127.964 E.02505
G1 X117.92 Y128.075 E.02505
G1 X117.08 Y128.075 E.02505
G1 X116.246 Y127.964 E.02505
G1 X115.435 Y127.743 E.02505
G1 X114.66 Y127.417 E.02505
G1 X113.935 Y126.991 E.02505
G1 X113.272 Y126.473 E.02505
G1 X112.684 Y125.872 E.02505
G1 X112.181 Y125.198 E.02505
G1 X111.771 Y124.464 E.02505
G1 X111.463 Y123.682 E.02505
G1 X111.26 Y122.866 E.02505
G1 X111.167 Y122.03 E.02505
G1 X111.186 Y121.189 E.02505
G1 X111.316 Y120.359 E.02505
G1 X111.554 Y119.552 E.02505
G1 X111.898 Y118.784 E.02506
G1 X112.333 Y118.079 E.02469
G1 X112.873 Y117.418 E.02542
G1 X113.486 Y116.844 E.02501
G1 X114.171 Y116.356 E.02505
G1 X115.974 Y115.402 E.06077
G1 X116.11 Y114.625 E.02349
G1 X118.882 Y114.625 E.08256
G1 X118.993 Y115.384 E.02286
G1 X118.609 Y115.655 F21000
G1 F3000
G1 X120.609 Y116.713 E.06738
G1 X121.248 Y117.169 E.02339
G1 X121.822 Y117.705 E.02339
G1 X122.319 Y118.313 E.02339
G1 X122.731 Y118.981 E.02339
G1 X123.052 Y119.698 E.02339
G1 X123.275 Y120.451 E.02339
G1 X123.396 Y121.226 E.02339
G1 X123.413 Y122.011 E.02339
G1 X123.327 Y122.792 E.02339
G1 X123.137 Y123.554 E.02339
G1 X122.849 Y124.284 E.02339
G1 X122.467 Y124.97 E.02339
G1 X121.997 Y125.599 E.02339
G1 X121.448 Y126.16 E.02339
G1 X120.829 Y126.644 E.02339
G1 X120.152 Y127.042 E.02339
G1 X119.429 Y127.346 E.02339
G1 X118.671 Y127.552 E.02339
G1 X117.893 Y127.656 E.02339
G1 X117.107 Y127.656 E.02339
G1 X116.329 Y127.552 E.02339
G1 X115.571 Y127.346 E.02339
G1 X114.848 Y127.042 E.02339
G1 X114.171 Y126.644 E.02339
G1 X113.552 Y126.16 E.02339
G1 X113.003 Y125.599 E.02339
G1 X112.533 Y124.97 E.02339
G1 X112.151 Y124.284 E.02339
G1 X111.863 Y123.554 E.02339
G1 X111.673 Y122.792 E.02339
G1 X111.587 Y122.011 E.02339
G1 X111.604 Y121.226 E.02339
G1 X111.725 Y120.451 E.02339
G1 X111.948 Y119.698 E.02339
G1 X112.269 Y118.98 E.0234
G1 X112.675 Y118.322 E.02304
G1 X113.18 Y117.704 E.02376
G1 X113.752 Y117.169 E.02334
G1 X114.391 Y116.713 E.02339
G1 X116.351 Y115.676 E.06606
G1 X116.462 Y115.044 E.01911
G1 X118.52 Y115.044 E.06129
G1 X118.609 Y115.655 E.01841
G1 X118.226 Y115.926 F21000
G1 F3000
G1 X120.388 Y117.07 E.07287
G1 X120.982 Y117.494 E.02173
G1 X121.515 Y117.992 E.02173
G1 X121.977 Y118.557 E.02173
G1 X122.36 Y119.177 E.02173
G1 X122.658 Y119.843 E.02173
G1 X122.865 Y120.543 E.02173
G1 X122.978 Y121.264 E.02173
G1 X122.994 Y121.993 E.02173
G1 X122.913 Y122.718 E.02173
G1 X122.738 Y123.426 E.02173
G1 X122.47 Y124.104 E.02173
G1 X122.114 Y124.741 E.02173
G1 X121.678 Y125.326 E.02173
G1 X121.168 Y125.847 E.02173
G1 X120.593 Y126.297 E.02173
G1 X119.964 Y126.666 E.02173
G1 X119.292 Y126.949 E.02173
G1 X118.588 Y127.14 E.02173
G1 X117.865 Y127.237 E.02173
G1 X117.135 Y127.237 E.02173
G1 X116.412 Y127.14 E.02173
G1 X115.708 Y126.949 E.02173
G1 X115.036 Y126.666 E.02173
G1 X114.407 Y126.297 E.02173
G1 X113.832 Y125.847 E.02173
G1 X113.322 Y125.326 E.02173
G1 X112.886 Y124.741 E.02173
G1 X112.53 Y124.104 E.02173
G1 X112.262 Y123.426 E.02173
G1 X112.087 Y122.718 E.02173
G1 X112.006 Y121.993 E.02173
G1 X112.022 Y121.264 E.02173
G1 X112.135 Y120.543 E.02173
G1 X112.342 Y119.843 E.02173
G1 X112.64 Y119.177 E.02175
G1 X113.017 Y118.566 E.02139
G1 X113.486 Y117.991 E.0221
G1 X114.018 Y117.494 E.02168
G1 X114.612 Y117.07 E.02173
G1 X116.729 Y115.95 E.07134
G1 X116.814 Y115.463 E.01474
G1 X118.158 Y115.463 E.04002
G1 X118.226 Y115.926 E.01395
G1 X117.796 Y115.882 F21000
G1 F3000
G1 X117.842 Y116.197 E.0095
G1 X120.168 Y117.428 E.07837
G1 X120.716 Y117.819 E.02007
G1 X121.208 Y118.279 E.02007
G1 X121.635 Y118.801 E.02007
G1 X121.989 Y119.374 E.02007
G1 X122.264 Y119.989 E.02007
G1 X122.455 Y120.635 E.02007
G1 X122.559 Y121.301 E.02007
G1 X122.574 Y121.974 E.02007
G1 X122.5 Y122.644 E.02007
G1 X122.338 Y123.298 E.02007
G1 X122.09 Y123.925 E.02007
G1 X121.762 Y124.513 E.02007
G1 X121.359 Y125.053 E.02007
G1 X120.888 Y125.535 E.02007
G1 X120.357 Y125.95 E.02007
G1 X119.776 Y126.291 E.02007
G1 X119.155 Y126.552 E.02007
G1 X118.505 Y126.729 E.02007
G1 X117.837 Y126.818 E.02007
G1 X117.163 Y126.818 E.02007
G1 X116.495 Y126.729 E.02007
G1 X115.845 Y126.552 E.02007
G1 X115.224 Y126.291 E.02007
G1 X114.643 Y125.95 E.02007
G1 X114.112 Y125.535 E.02007
G1 X113.641 Y125.053 E.02007
G1 X113.238 Y124.513 E.02007
G1 X112.91 Y123.925 E.02007
G1 X112.662 Y123.298 E.02007
G1 X112.5 Y122.644 E.02007
G1 X112.426 Y121.974 E.02007
G1 X112.441 Y121.301 E.02007
G1 X112.545 Y120.635 E.02007
G1 X112.736 Y119.989 E.02007
G1 X113.011 Y119.373 E.02009
G1 X113.359 Y118.809 E.01974
G1 X113.793 Y118.278 E.02044
G1 X114.284 Y117.819 E.02001
G1 X114.832 Y117.428 E.02007
G1 X117.106 Y116.225 E.07662
G1 X117.166 Y115.882 E.01037
G1 X117.796 Y115.882 E.01876
G1 X117.5 Y116.49 F21000
G1 F3000
G1 X119.947 Y117.785 E.08247
G1 X120.451 Y118.144 E.01841
G1 X120.902 Y118.566 E.01841
G1 X121.293 Y119.044 E.01841
G1 X121.618 Y119.57 E.01841
G1 X121.87 Y120.135 E.01841
G1 X122.046 Y120.727 E.01841
G1 X122.141 Y121.338 E.01841
G1 X122.155 Y121.956 E.01841
G1 X122.087 Y122.57 E.01841
G1 X121.938 Y123.17 E.01841
G1 X121.711 Y123.745 E.01841
G1 X121.41 Y124.285 E.01841
G1 X121.04 Y124.78 E.01841
G1 X120.608 Y125.222 E.01841
G1 X120.121 Y125.602 E.01841
G1 X119.588 Y125.915 E.01841
G1 X119.018 Y126.155 E.01841
G1 X118.422 Y126.317 E.01841
G1 X117.809 Y126.399 E.01841
G1 X117.191 Y126.399 E.01841
G1 X116.578 Y126.317 E.01841
G1 X115.982 Y126.155 E.01841
G1 X115.412 Y125.915 E.01841
G1 X114.879 Y125.602 E.01841
G1 X114.392 Y125.222 E.01841
G1 X113.96 Y124.78 E.01841
G1 X113.59 Y124.285 E.01841
G1 X113.289 Y123.745 E.01841
G1 X113.062 Y123.17 E.01841
G1 X112.913 Y122.57 E.01841
G1 X112.845 Y121.956 E.01841
G1 X112.859 Y121.338 E.01841
G1 X112.954 Y120.727 E.01841
G1 X113.13 Y120.135 E.01841
G1 X113.382 Y119.57 E.01843
G1 X113.701 Y119.053 E.01808
G1 X114.1 Y118.565 E.01878
G1 X114.55 Y118.144 E.01835
G1 X115.053 Y117.785 E.01841
G1 X117.5 Y116.49 E.08247
G1 X117.5 Y116.964 F21000
G1 F3000
G1 X119.727 Y118.142 E.07503
G1 X120.185 Y118.469 E.01675
G1 X120.595 Y118.853 E.01675
G1 X120.951 Y119.288 E.01675
G1 X121.247 Y119.767 E.01675
G1 X121.476 Y120.28 E.01675
G1 X121.636 Y120.819 E.01675
G1 X121.723 Y121.375 E.01675
G1 X121.735 Y121.937 E.01675
G1 X121.673 Y122.496 E.01675
G1 X121.538 Y123.042 E.01675
G1 X121.331 Y123.565 E.01675
G1 X121.057 Y124.056 E.01675
G1 X120.721 Y124.507 E.01675
G1 X120.328 Y124.909 E.01675
G1 X119.885 Y125.255 E.01675
G1 X119.4 Y125.54 E.01675
G1 X118.881 Y125.758 E.01675
G1 X118.339 Y125.906 E.01675
G1 X117.781 Y125.98 E.01675
G1 X117.219 Y125.98 E.01675
G1 X116.661 Y125.906 E.01675
G1 X116.119 Y125.758 E.01675
G1 X115.6 Y125.54 E.01675
G1 X115.115 Y125.255 E.01675
G1 X114.672 Y124.909 E.01675
G1 X114.279 Y124.507 E.01675
G1 X113.943 Y124.056 E.01675
G1 X113.669 Y123.565 E.01675
G1 X113.462 Y123.042 E.01675
G1 X113.327 Y122.496 E.01675
G1 X113.265 Y121.937 E.01675
G1 X113.277 Y121.375 E.01675
G1 X113.364 Y120.819 E.01675
G1 X113.524 Y120.28 E.01675
G1 X113.753 Y119.766 E.01678
G1 X114.043 Y119.296 E.01643
G1 X114.406 Y118.851 E.01711
G1 X114.815 Y118.469 E.01668
G1 X115.273 Y118.142 E.01675
G1 X117.5 Y116.964 E.07503
G1 X117.5 Y117.438 F21000
G1 F3000
G1 X119.506 Y118.5 E.0676
G1 X119.919 Y118.794 E.01509
G1 X120.289 Y119.14 E.01509
G1 X120.61 Y119.532 E.01509
G1 X120.876 Y119.963 E.01509
G1 X121.083 Y120.426 E.01509
G1 X121.226 Y120.912 E.01509
G1 X121.305 Y121.412 E.01509
G1 X121.316 Y121.919 E.01509
G1 X121.26 Y122.422 E.01509
G1 X121.138 Y122.914 E.01509
G1 X120.952 Y123.385 E.01509
G1 X120.705 Y123.828 E.01509
G1 X120.402 Y124.234 E.01509
G1 X120.047 Y124.596 E.01509
G1 X119.648 Y124.908 E.01509
G1 X119.211 Y125.165 E.01509
G1 X118.744 Y125.361 E.01509
G1 X118.256 Y125.494 E.01509
G1 X117.753 Y125.561 E.01509
G1 X117.247 Y125.561 E.01509
G1 X116.744 Y125.494 E.01509
G1 X116.256 Y125.361 E.01509
G1 X115.789 Y125.165 E.01509
G1 X115.352 Y124.908 E.01509
G1 X114.953 Y124.596 E.01509
G1 X114.598 Y124.234 E.01509
G1 X114.295 Y123.828 E.01509
G1 X114.048 Y123.385 E.01509
G1 X113.862 Y122.914 E.01509
G1 X113.74 Y122.422 E.01509
G1 X113.684 Y121.919 E.01509
G1 X113.695 Y121.412 E.01509
