;FLAVOR:Marlin
;TIME:126
;Filament used: 0.04735m
;Layer height: 0.2
;MINX:134.563
;MINY:134.563
;MINZ:0.2
;MAXX:165.437
;MAXY:165.437
;MAXZ:2
;Generated with Creality Slicer 4.8.2-191
M140 S50
M105
M190 S50
M104 S200
M105
M109 S200
M82 ;absolute extrusion mode

G28 ;Home

G92 E0 ;Reset Extruder
G1 Z2.0 F3000 ;Move Z Axis up
G1 X10.1 Y20 Z0.28 F5000.0 ;Move to start position
G1 X10.1 Y200.0 Z0.28 F1500.0 E15 ;Draw the first line
G1 X10.4 Y200.0 Z0.28 F5000.0 ;Move to side a little
G1 X10.4 Y20 Z0.28 F1500.0 E30 ;Draw the second line
G92 E0 ;Reset Extruder
G1 Z2.0 F3000 ;Move Z Axis up

G92 E0
G92 E0
G1 F2700 E-5
;LAYER_COUNT:11
;LAYER:0
M107
G0 F6000 X138.883 Y139.284 Z0.2
;TYPE:SKIRT
G1 F2700 E0
G1 F1200 X139.646 Y138.532 E0.03563
G1 X140.341 Y137.902 E0.06683
G1 X141.091 Y137.332 E0.09816
G1 X141.281 Y137.2 E0.10586
G1 X141.969 Y136.759 E0.13304
G1 X142.086 Y136.69 E0.13756
G1 X143.297 Y136.073 E0.18276
G1 X143.629 Y135.929 E0.1948
G1 X143.866 Y135.83 E0.20334
G1 X144.789 Y135.455 E0.23648
G1 X145.672 Y135.139 E0.26767
G1 X146.573 Y134.901 E0.29866
G1 X146.915 Y134.826 E0.31031
G1 X147.839 Y134.665 E0.3415
G1 X149.122 Y134.572 E0.38429
G1 X149.712 Y134.564 E0.40391
G1 X149.951 Y134.563 E0.41186
G1 X150.809 Y134.57 E0.4404
G1 X151.745 Y134.618 E0.47157
G1 X152.452 Y134.707 E0.49527
G1 X152.546 Y134.722 E0.49844
G1 X153.064 Y134.818 E0.51596
G1 X153.284 Y134.864 E0.52344
G1 X154.193 Y135.095 E0.55463
G1 X155.013 Y135.376 E0.58346
G1 X155.281 Y135.48 E0.59302
G1 X155.577 Y135.6 E0.60365
G1 X156.627 Y136.043 E0.64155
G1 X157.475 Y136.444 E0.67275
G1 X158.26 Y136.9 E0.70294
G1 X158.439 Y137.014 E0.71
G1 X158.815 Y137.264 E0.72502
G1 X159.567 Y137.824 E0.75621
G1 X160.264 Y138.441 E0.78717
G1 X160.519 Y138.687 E0.79895
G1 X160.716 Y138.883 E0.80819
G1 X161.468 Y139.646 E0.84383
G1 X162.098 Y140.341 E0.87502
G1 X162.668 Y141.091 E0.90636
G1 X162.8 Y141.281 E0.91405
G1 X163.241 Y141.969 E0.94123
G1 X163.31 Y142.086 E0.94575
G1 X163.927 Y143.297 E0.99095
G1 X164.071 Y143.629 E1.00299
G1 X164.17 Y143.866 E1.01153
G1 X164.545 Y144.789 E1.04467
G1 X164.861 Y145.672 E1.07586
G1 X165.105 Y146.604 E1.1079
G1 X165.182 Y146.96 E1.12002
G1 X165.341 Y147.884 E1.1512
G1 X165.43 Y149.17 E1.19408
G1 X165.437 Y149.951 E1.22006
G1 X165.43 Y150.808 E1.24856
G1 X165.382 Y151.745 E1.27977
G1 X165.295 Y152.434 E1.30286
G1 X165.28 Y152.529 E1.30606
G1 X165.186 Y153.047 E1.32357
G1 X165.141 Y153.264 E1.33094
G1 X164.911 Y154.173 E1.36213
G1 X164.627 Y155.004 E1.39134
G1 X164.522 Y155.275 E1.40101
G1 X164.402 Y155.572 E1.41166
G1 X163.96 Y156.621 E1.44952
G1 X163.559 Y157.469 E1.48072
G1 X163.082 Y158.288 E1.51224
G1 X162.964 Y158.472 E1.51951
G1 X162.749 Y158.796 E1.53245
G1 X162.19 Y159.55 E1.56366
G1 X161.559 Y160.264 E1.59536
G1 X161.313 Y160.519 E1.60714
G1 X161.117 Y160.717 E1.61641
G1 X160.355 Y161.468 E1.65199
G1 X159.66 Y162.097 E1.68317
G1 X158.919 Y162.661 E1.71414
G1 X158.738 Y162.787 E1.72148
G1 X158.124 Y163.185 E1.74581
G1 X158.001 Y163.259 E1.75059
G1 X157.177 Y163.707 E1.78178
G1 X156.688 Y163.933 E1.7997
G1 X156.352 Y164.078 E1.81187
G1 X156.142 Y164.166 E1.81945
G1 X155.216 Y164.543 E1.8527
G1 X154.333 Y164.859 E1.88389
G1 X153.383 Y165.109 E1.91656
G1 X153.03 Y165.185 E1.92857
G1 X152.106 Y165.343 E1.95975
G1 X150.83 Y165.43 E2.00229
G1 X150.049 Y165.437 E2.02827
G1 X149.192 Y165.43 E2.05677
G1 X148.255 Y165.382 E2.08798
G1 X147.566 Y165.295 E2.11108
G1 X147.471 Y165.28 E2.11428
G1 X146.936 Y165.182 E2.13237
G1 X146.716 Y165.136 E2.13984
G1 X145.807 Y164.905 E2.17104
G1 X144.987 Y164.624 E2.19987
G1 X144.719 Y164.52 E2.20943
G1 X144.423 Y164.4 E2.22005
G1 X143.373 Y163.957 E2.25796
G1 X142.525 Y163.556 E2.28915
G1 X141.724 Y163.09 E2.31998
G1 X141.541 Y162.973 E2.3272
G1 X141.195 Y162.742 E2.34104
G1 X141.097 Y162.674 E2.345
G1 X140.35 Y162.107 E2.3762
G1 X139.734 Y161.556 E2.40369
G1 X139.484 Y161.315 E2.41523
G1 X139.284 Y161.118 E2.42457
G1 X138.531 Y160.354 E2.46025
G1 X137.901 Y159.658 E2.49147
G1 X137.324 Y158.898 E2.52321
G1 X137.193 Y158.709 E2.53086
G1 X136.759 Y158.031 E2.55763
G1 X136.69 Y157.914 E2.56215
G1 X136.073 Y156.703 E2.60736
G1 X135.929 Y156.371 E2.61939
G1 X135.83 Y156.134 E2.62794
G1 X135.455 Y155.211 E2.66107
G1 X135.139 Y154.328 E2.69227
G1 X134.887 Y153.36 E2.72553
G1 X134.81 Y152.998 E2.73784
G1 X134.654 Y152.073 E2.76904
G1 X134.57 Y150.825 E2.81065
G1 X134.563 Y150.049 E2.83646
G1 X134.57 Y149.192 E2.86496
G1 X134.618 Y148.255 E2.89617
G1 X134.705 Y147.566 E2.91927
G1 X134.72 Y147.471 E2.92246
G1 X134.815 Y146.947 E2.94018
G1 X134.862 Y146.721 E2.94785
G1 X135.092 Y145.812 E2.97904
G1 X135.395 Y144.936 E3.00987
G1 X135.498 Y144.674 E3.01923
G1 X135.6 Y144.423 E3.02825
G1 X136.043 Y143.373 E3.06615
G1 X136.444 Y142.525 E3.09735
G1 X136.91 Y141.724 E3.12817
G1 X137.027 Y141.541 E3.13539
G1 X137.251 Y141.204 E3.14885
G1 X137.81 Y140.45 E3.18007
G1 X138.441 Y139.736 E3.21176
G1 X138.687 Y139.481 E3.22355
G1 X138.883 Y139.284 E3.23279
G0 F6000 X139.163 Y139.568
G1 F1200 X139.926 Y138.816 E3.26842
G1 X140.609 Y138.199 E3.29904
G1 X141.319 Y137.661 E3.32866
G1 X141.509 Y137.529 E3.33636
G1 X142.172 Y137.104 E3.36255
G1 X142.289 Y137.035 E3.36707
G1 X143.456 Y136.44 E3.41064
G1 X143.788 Y136.296 E3.42268
G1 X144.016 Y136.201 E3.43089
G1 X144.939 Y135.826 E3.46403
G1 X145.806 Y135.516 E3.49465
G1 X146.658 Y135.292 E3.52395
G1 X147 Y135.217 E3.5356
G1 X147.907 Y135.059 E3.56622
G1 X149.127 Y134.972 E3.6069
G1 X149.717 Y134.964 E3.62652
G1 X149.947 Y134.963 E3.63417
G1 X150.805 Y134.97 E3.66271
G1 X151.725 Y135.018 E3.69335
G1 X152.389 Y135.102 E3.71561
G1 X152.483 Y135.117 E3.71878
G1 X152.982 Y135.209 E3.73566
G1 X153.202 Y135.255 E3.74313
G1 X154.095 Y135.483 E3.77379
G1 X154.868 Y135.749 E3.80098
G1 X155.136 Y135.853 E3.81054
G1 X155.421 Y135.969 E3.82077
G1 X156.471 Y136.412 E3.85868
G1 X157.303 Y136.806 E3.88929
G1 X158.045 Y137.237 E3.91783
G1 X158.224 Y137.351 E3.92489
G1 X158.59 Y137.594 E3.9395
G1 X159.328 Y138.145 E3.97014
G1 X159.986 Y138.729 E3.9994
G1 X160.241 Y138.975 E4.01118
G1 X160.432 Y139.163 E4.0201
G1 X161.184 Y139.926 E4.05573
G1 X161.801 Y140.609 E4.08634
G1 X162.339 Y141.319 E4.11597
G1 X162.471 Y141.509 E4.12367
G1 X162.896 Y142.172 E4.14986
G1 X162.965 Y142.289 E4.15438
G1 X163.56 Y143.456 E4.19794
G1 X163.704 Y143.788 E4.20998
G1 X163.799 Y144.016 E4.2182
G1 X164.174 Y144.939 E4.25133
G1 X164.484 Y145.806 E4.28196
G1 X164.714 Y146.688 E4.31227
G1 X164.791 Y147.044 E4.32439
G1 X164.947 Y147.952 E4.35503
G1 X165.03 Y149.175 E4.3958
G1 X165.037 Y149.948 E4.42151
G1 X165.03 Y150.805 E4.45002
G1 X164.982 Y151.724 E4.48062
G1 X164.9 Y152.371 E4.50232
G1 X164.885 Y152.466 E4.50552
G1 X164.794 Y152.965 E4.52239
G1 X164.749 Y153.182 E4.52976
G1 X164.523 Y154.075 E4.56039
G1 X164.254 Y154.86 E4.58799
G1 X164.149 Y155.131 E4.59766
G1 X164.033 Y155.417 E4.60793
G1 X163.591 Y156.466 E4.64579
G1 X163.197 Y157.298 E4.6764
G1 X162.746 Y158.072 E4.7062
G1 X162.628 Y158.256 E4.71347
G1 X162.418 Y158.572 E4.72609
G1 X161.869 Y159.311 E4.75671
G1 X161.271 Y159.986 E4.7867
G1 X161.025 Y160.241 E4.79849
G1 X160.837 Y160.432 E4.8074
G1 X160.075 Y161.183 E4.84299
G1 X159.391 Y161.8 E4.87362
G1 X158.69 Y162.333 E4.90291
G1 X158.509 Y162.459 E4.91025
G1 X157.918 Y162.842 E4.93367
G1 X157.795 Y162.916 E4.93845
G1 X156.986 Y163.356 E4.96908
G1 X156.53 Y163.565 E4.98576
G1 X155.991 Y163.796 E5.00526
G1 X155.065 Y164.173 E5.03852
G1 X154.198 Y164.482 E5.06913
G1 X153.299 Y164.718 E5.10004
G1 X152.946 Y164.794 E5.11205
G1 X152.038 Y164.948 E5.14269
G1 X150.825 Y165.03 E5.18312
G1 X150.052 Y165.037 E5.20883
G1 X149.195 Y165.03 E5.23734
G1 X148.276 Y164.982 E5.26795
G1 X147.629 Y164.9 E5.28964
G1 X147.534 Y164.885 E5.29284
G1 X147.018 Y164.791 E5.31028
G1 X146.798 Y164.745 E5.31776
G1 X145.905 Y164.517 E5.34841
G1 X145.132 Y164.251 E5.3756
G1 X144.864 Y164.147 E5.38516
G1 X144.579 Y164.031 E5.3954
G1 X143.529 Y163.588 E5.4333
G1 X142.697 Y163.194 E5.46392
G1 X141.939 Y162.753 E5.49309
G1 X141.756 Y162.636 E5.50031
G1 X141.423 Y162.414 E5.51362
G1 X141.325 Y162.346 E5.51759
G1 X140.592 Y161.789 E5.54821
G1 X140.011 Y161.268 E5.57416
G1 X139.761 Y161.027 E5.58571
G1 X139.569 Y160.837 E5.5947
G1 X138.816 Y160.073 E5.63038
G1 X138.198 Y159.39 E5.66101
G1 X137.653 Y158.67 E5.69105
G1 X137.522 Y158.481 E5.69869
G1 X137.104 Y157.828 E5.72448
G1 X137.035 Y157.711 E5.729
G1 X136.44 Y156.544 E5.77257
G1 X136.296 Y156.212 E5.7846
G1 X136.201 Y155.984 E5.79282
G1 X135.826 Y155.061 E5.82596
G1 X135.516 Y154.194 E5.85658
G1 X135.278 Y153.276 E5.88812
G1 X135.201 Y152.914 E5.90043
G1 X135.049 Y152.006 E5.93105
G1 X134.97 Y150.821 E5.97055
G1 X134.963 Y150.052 E5.99613
G1 X134.97 Y149.195 E6.02464
G1 X135.018 Y148.276 E6.05524
G1 X135.1 Y147.629 E6.07694
G1 X135.115 Y147.534 E6.08013
G1 X135.207 Y147.029 E6.09721
G1 X135.254 Y146.803 E6.10488
G1 X135.48 Y145.91 E6.13552
G1 X135.767 Y145.083 E6.16464
G1 X135.87 Y144.821 E6.174
G1 X135.969 Y144.579 E6.1827
G1 X136.412 Y143.529 E6.2206
G1 X136.806 Y142.697 E6.25122
G1 X137.247 Y141.939 E6.28039
G1 X137.364 Y141.756 E6.28761
G1 X137.582 Y141.428 E6.30071
G1 X138.131 Y140.689 E6.33133
G1 X138.729 Y140.014 E6.36132
G1 X138.975 Y139.759 E6.37311
G1 X139.163 Y139.568 E6.38202
G0 F6000 X139.444 Y139.853
G1 F1200 X140.207 Y139.101 E6.41765
G1 X140.878 Y138.496 E6.4477
G1 X141.547 Y137.989 E6.47562
G1 X141.737 Y137.857 E6.48332
G1 X142.376 Y137.448 E6.50855
G1 X142.493 Y137.379 E6.51307
G1 X143.615 Y136.807 E6.55496
G1 X143.947 Y136.663 E6.56699
G1 X144.167 Y136.571 E6.57492
G1 X145.09 Y136.196 E6.60806
G1 X145.941 Y135.894 E6.63809
G1 X146.744 Y135.683 E6.66571
G1 X147.086 Y135.608 E6.67735
G1 X147.976 Y135.454 E6.7074
G1 X149.133 Y135.372 E6.74597
G1 X149.723 Y135.364 E6.7656
G1 X149.944 Y135.363 E6.77295
G1 X150.802 Y135.37 E6.80149
G1 X151.704 Y135.418 E6.83153
G1 X152.326 Y135.497 E6.85239
G1 X152.42 Y135.512 E6.85555
G1 X152.901 Y135.601 E6.87182
G1 X153.121 Y135.647 E6.8793
G1 X153.996 Y135.871 E6.90934
G1 X154.723 Y136.122 E6.93492
G1 X154.991 Y136.226 E6.94448
G1 X155.266 Y136.337 E6.95434
G1 X156.316 Y136.78 E6.99225
G1 X157.132 Y137.168 E7.0223
G1 X157.83 Y137.575 E7.04917
G1 X158.009 Y137.689 E7.05623
G1 X158.365 Y137.925 E7.07044
G1 X159.088 Y138.466 E7.10047
G1 X159.709 Y139.017 E7.12808
G1 X159.964 Y139.263 E7.13987
G1 X160.147 Y139.444 E7.14843
G1 X160.899 Y140.207 E7.18406
G1 X161.504 Y140.878 E7.21411
G1 X162.011 Y141.547 E7.24203
G1 X162.143 Y141.737 E7.24973
G1 X162.552 Y142.376 E7.27496
G1 X162.621 Y142.493 E7.27948
G1 X163.193 Y143.615 E7.32136
G1 X163.337 Y143.947 E7.3334
G1 X163.429 Y144.167 E7.34133
G1 X163.804 Y145.09 E7.37447
G1 X164.106 Y145.941 E7.4045
G1 X164.323 Y146.773 E7.4331
G1 X164.4 Y147.129 E7.44521
G1 X164.552 Y148.019 E7.47524
G1 X164.63 Y149.179 E7.51391
G1 X164.637 Y149.944 E7.53936
G1 X164.63 Y150.801 E7.56786
G1 X164.582 Y151.703 E7.59791
G1 X164.505 Y152.309 E7.61822
G1 X164.49 Y152.404 E7.62142
G1 X164.403 Y152.884 E7.63765
G1 X164.358 Y153.101 E7.64502
G1 X164.135 Y153.976 E7.67505
G1 X163.881 Y154.715 E7.70104
G1 X163.776 Y154.986 E7.71071
G1 X163.665 Y155.262 E7.7206
G1 X163.223 Y156.311 E7.75846
G1 X162.835 Y157.126 E7.78849
G1 X162.409 Y157.856 E7.8166
G1 X162.15 Y158.255 E7.83242
G1 X162.087 Y158.348 E7.83616
G1 X161.548 Y159.072 E7.86618
G1 X160.983 Y159.709 E7.8945
G1 X160.737 Y159.964 E7.90628
G1 X160.556 Y160.147 E7.91484
G1 X159.794 Y160.898 E7.95043
G1 X159.123 Y161.503 E7.98048
G1 X158.462 Y162.004 E8.00806
G1 X158.281 Y162.13 E8.0154
G1 X157.711 Y162.499 E8.03798
G1 X157.588 Y162.573 E8.04276
G1 X156.795 Y163.004 E8.07277
G1 X156.372 Y163.198 E8.08825
G1 X156.036 Y163.343 E8.10042
G1 X155.84 Y163.425 E8.10749
G1 X154.914 Y163.802 E8.14074
G1 X154.063 Y164.105 E8.17079
G1 X153.215 Y164.327 E8.19994
G1 X152.862 Y164.403 E8.21195
G1 X151.971 Y164.553 E8.24201
G1 X150.821 Y164.63 E8.28034
G1 X150.056 Y164.637 E8.30579
G1 X149.199 Y164.63 E8.33429
G1 X148.297 Y164.582 E8.36433
G1 X147.691 Y164.505 E8.38465
G1 X147.596 Y164.49 E8.38785
G1 X147.099 Y164.399 E8.40466
G1 X146.879 Y164.353 E8.41213
G1 X146.004 Y164.129 E8.44217
G1 X145.277 Y163.878 E8.46775
G1 X145.009 Y163.774 E8.47731
G1 X144.734 Y163.663 E8.48718
G1 X143.684 Y163.22 E8.52508
G1 X142.868 Y162.832 E8.55513
G1 X142.155 Y162.416 E8.58259
G1 X141.972 Y162.299 E8.58981
G1 X141.651 Y162.085 E8.60265
G1 X141.553 Y162.017 E8.60661
G1 X140.835 Y161.47 E8.63663
G1 X140.289 Y160.98 E8.66103
G1 X140.039 Y160.739 E8.67258
G1 X139.853 Y160.556 E8.68126
G1 X139.1 Y159.792 E8.71694
G1 X138.496 Y159.121 E8.74697
G1 X137.982 Y158.443 E8.77527
G1 X137.851 Y158.254 E8.78292
G1 X137.448 Y157.624 E8.80779
G1 X137.379 Y157.507 E8.81231
G1 X136.807 Y156.385 E8.8542
G1 X136.663 Y156.053 E8.86623
G1 X136.571 Y155.833 E8.87416
G1 X136.196 Y154.91 E8.9073
G1 X135.894 Y154.059 E8.93733
G1 X135.669 Y153.193 E8.96709
G1 X135.592 Y152.831 E8.9794
G1 X135.444 Y151.94 E9.00944
G1 X135.37 Y150.816 E9.04691
G1 X135.363 Y150.056 E9.07219
G1 X135.37 Y149.199 E9.10069
G1 X135.418 Y148.297 E9.13073
G1 X135.495 Y147.691 E9.15105
G1 X135.51 Y147.596 E9.15425
G1 X135.599 Y147.11 E9.17068
G1 X135.646 Y146.884 E9.17836
G1 X135.869 Y146.009 E9.20839
G1 X136.139 Y145.229 E9.23585
G1 X136.242 Y144.967 E9.24521
G1 X136.337 Y144.734 E9.25358
G1 X136.78 Y143.684 E9.29148
G1 X137.168 Y142.868 E9.32154
G1 X137.584 Y142.155 E9.34899
G1 X137.701 Y141.972 E9.35622
G1 X137.913 Y141.652 E9.36898
G1 X138.452 Y140.928 E9.399
G1 X139.017 Y140.291 E9.42732
G1 X139.263 Y140.036 E9.43911
G1 X139.444 Y139.853 E9.44767
G1 F2700 E4.44767
;MESH:16????????????.STL
G0 F6000 X149.689 Y149.646
G0 X148.635 Y148.644
G0 X148.413 Y149.884
G0 X148.457 Y150.402
G0 X148.678 Y150.894
G0 X148.979 Y151.209
G0 X150.076 Y151.757
;TYPE:WALL-INNER
G1 F2700 E9.44767
G1 F1200 X150.657 Y151.631 E9.46744
G1 X151.162 Y151.32 E9.48717
G1 X151.535 Y150.858 E9.50692
G1 X151.733 Y150.296 E9.52674
G1 X151.733 Y149.704 E9.54643
G1 X151.535 Y149.142 E9.56625
G1 X151.162 Y148.68 E9.58599
G1 X150.657 Y148.369 E9.60572
G1 X150.076 Y148.243 E9.62549
G1 X149.485 Y148.318 E9.64531
G1 X148.954 Y148.586 E9.66509
G1 X148.543 Y149.015 E9.68485
G1 X148.308 Y149.533 E9.70377
G1 X148.25 Y149.876 E9.71534
G1 X148.298 Y150.443 E9.73427
G1 X148.543 Y150.985 E9.75405
G1 X148.954 Y151.414 E9.77381
G1 X149.485 Y151.682 E9.79359
G1 X150.076 Y151.757 E9.81341
G0 F6000 X150.058 Y151.352
;TYPE:WALL-OUTER
G1 F1200 X150.505 Y151.255 E9.82862
G1 X150.894 Y151.015 E9.84382
G1 X151.181 Y150.66 E9.85901
G1 X151.333 Y150.228 E9.87424
G1 X151.333 Y149.772 E9.8894
G1 X151.181 Y149.34 E9.90464
G1 X150.894 Y148.985 E9.91982
G1 X150.505 Y148.745 E9.93502
G1 X150.058 Y148.648 E9.95024
G1 X149.604 Y148.706 E9.96546
G1 X149.195 Y148.912 E9.98069
G1 X148.879 Y149.242 E9.99589
G1 X148.694 Y149.651 E10.01082
G1 X148.653 Y149.893 E10.01898
G1 X148.691 Y150.341 E10.03393
G1 X148.879 Y150.758 E10.04915
G1 X149.195 Y151.088 E10.06434
G1 X149.604 Y151.294 E10.07958
G1 X150.058 Y151.352 E10.0948
G0 F6000 X150.077 Y151.791
G0 X149.567 Y151.885
G0 X149.339 Y152.505
G0 X149.456 Y152.751
;TYPE:WALL-INNER
G1 F1200 X148.933 Y152.56 E10.11332
G1 X148.439 Y152.329 E10.13146
G1 X148.039 Y151.962 E10.14951
G1 X147.663 Y151.55 E10.16806
G1 X147.436 Y151.056 E10.18614
G1 X147.248 Y150.531 E10.20469
G1 X147.228 Y149.999 E10.2224
G1 X147.249 Y149.456 E10.24047
G1 X147.44 Y148.933 E10.25899
G1 X147.671 Y148.438 E10.27716
G1 X148.036 Y148.041 E10.2951
G1 X148.449 Y147.664 E10.3137
G1 X148.949 Y147.435 E10.33199
G1 X149.466 Y147.248 E10.35027
G1 X149.998 Y147.228 E10.36798
G1 X150.545 Y147.249 E10.38619
G1 X151.065 Y147.439 E10.4046
G1 X151.562 Y147.671 E10.42284
G1 X151.959 Y148.036 E10.44078
G1 X152.337 Y148.45 E10.45943
G1 X152.564 Y148.944 E10.47751
G1 X152.752 Y149.468 E10.49602
G1 X152.772 Y149.998 E10.51366
G1 X152.751 Y150.544 E10.53184
G1 X152.56 Y151.067 E10.55036
G1 X152.329 Y151.562 E10.56852
G1 X151.964 Y151.959 E10.58646
G1 X151.551 Y152.336 E10.60506
G1 X151.051 Y152.565 E10.62335
G1 X150.534 Y152.752 E10.64164
G1 X150.002 Y152.772 E10.65934
G1 X149.456 Y152.751 E10.67752
