;FLAVOR:Marlin
;TIME:5527
;Filament used: 2.84222m
;Layer height: 0.2
;MINX:124.5
;MINY:124.5
;MINZ:0.2
;MAXX:175.5
;MAXY:175.5
;MAXZ:48.8
;Generated with Creality Slicer 4.8.2-191
M140 S50
M105
M190 S50
M104 S200
M105
M109 S200
M82 ;absolute extrusion mode

G28 ;Home

G92 E0 ;Reset Extruder
G1 Z2.0 F3000 ;Move Z Axis up
G1 X10.1 Y20 Z0.28 F5000.0 ;Move to start position
G1 X10.1 Y200.0 Z0.28 F1500.0 E15 ;Draw the first line
G1 X10.4 Y200.0 Z0.28 F5000.0 ;Move to side a little
G1 X10.4 Y20 Z0.28 F1500.0 E30 ;Draw the second line
G92 E0 ;Reset Extruder
G1 Z2.0 F3000 ;Move Z Axis up

G92 E0
G92 E0
G1 F2700 E-5
;LAYER_COUNT:244
;LAYER:0
M107
G0 F6000 X127.732 Y127.844 Z0.2
;TYPE:SKIRT
G1 F2700 E0
G1 F1200 X127.844 Y127.732 E0.00527
G1 X128.535 Y127.098 E0.03646
G1 X129.277 Y126.524 E0.06766
G1 X130.066 Y126.017 E0.09885
G1 X130.894 Y125.578 E0.13002
G1 X131.758 Y125.211 E0.16125
G1 X132.649 Y124.919 E0.19243
G1 X133.562 Y124.705 E0.22362
G1 X134.49 Y124.568 E0.25482
G1 X135.251 Y124.516 E0.28019
G1 X135.636 Y124.506 E0.293
G1 X136.179 Y124.5 E0.31106
G1 X163.676 Y124.5 E1.22562
G1 X164.535 Y124.511 E1.25419
G1 X165.471 Y124.564 E1.28537
G1 X166.399 Y124.697 E1.31655
G1 X167.313 Y124.909 E1.34776
G1 X168.206 Y125.197 E1.37897
G1 X169.07 Y125.561 E1.41015
G1 X169.901 Y125.997 E1.44136
G1 X170.691 Y126.502 E1.47255
G1 X171.435 Y127.072 E1.50372
G1 X172.156 Y127.732 E1.53623
G1 X172.268 Y127.844 E1.5415
G1 X172.902 Y128.535 E1.57269
G1 X173.476 Y129.277 E1.60389
G1 X173.983 Y130.066 E1.63508
G1 X174.422 Y130.894 E1.66625
G1 X174.789 Y131.758 E1.69748
G1 X175.081 Y132.649 E1.72866
G1 X175.295 Y133.562 E1.75985
G1 X175.432 Y134.49 E1.79105
G1 X175.483 Y135.221 E1.81542
G1 X175.494 Y135.613 E1.82847
G1 X175.5 Y136.136 E1.84586
G1 X175.499 Y163.8 E2.76597
G1 X175.489 Y164.529 E2.79022
G1 X175.436 Y165.465 E2.8214
G1 X175.304 Y166.394 E2.85261
G1 X175.093 Y167.308 E2.88381
G1 X174.805 Y168.2 E2.91499
G1 X174.442 Y169.065 E2.94619
G1 X174.006 Y169.896 E2.9774
G1 X173.502 Y170.686 E3.00857
G1 X172.931 Y171.431 E3.03979
G1 X172.268 Y172.156 E3.07246
G1 X172.156 Y172.268 E3.07773
G1 X171.465 Y172.902 E3.10892
G1 X170.723 Y173.476 E3.14012
G1 X169.934 Y173.983 E3.17132
G1 X169.106 Y174.422 E3.20249
G1 X168.242 Y174.789 E3.23371
G1 X167.351 Y175.081 E3.26489
G1 X166.438 Y175.295 E3.29608
G1 X165.51 Y175.432 E3.32728
G1 X164.749 Y175.484 E3.35265
G1 X164.364 Y175.494 E3.36546
G1 X163.821 Y175.5 E3.38352
G1 X136.167 Y175.499 E4.3033
G1 X135.465 Y175.489 E4.32665
G1 X134.529 Y175.436 E4.35783
G1 X133.601 Y175.303 E4.38901
G1 X132.687 Y175.091 E4.42022
G1 X131.794 Y174.803 E4.45143
G1 X130.93 Y174.439 E4.48261
G1 X130.099 Y174.003 E4.51382
G1 X129.309 Y173.498 E4.54501
G1 X128.565 Y172.928 E4.57618
G1 X127.844 Y172.268 E4.60869
G1 X127.732 Y172.156 E4.61396
G1 X127.098 Y171.465 E4.64515
G1 X126.524 Y170.723 E4.67635
G1 X126.017 Y169.934 E4.70754
G1 X125.578 Y169.106 E4.73872
G1 X125.211 Y168.242 E4.76994
G1 X124.919 Y167.351 E4.80112
G1 X124.705 Y166.438 E4.83231
G1 X124.568 Y165.51 E4.86351
G1 X124.516 Y164.749 E4.88888
G1 X124.506 Y164.352 E4.90209
G1 X124.5 Y163.778 E4.92118
G1 X124.501 Y136.143 E5.84033
G1 X124.511 Y135.461 E5.86301
G1 X124.565 Y134.524 E5.89423
G1 X124.698 Y133.596 E5.92541
G1 X124.91 Y132.682 E5.95662
G1 X125.199 Y131.79 E5.9878
G1 X125.563 Y130.926 E6.01899
G1 X125.999 Y130.096 E6.05017
G1 X126.504 Y129.305 E6.08138
G1 X127.075 Y128.561 E6.11258
G1 X127.732 Y127.844 E6.14492
G0 F6000 X128.015 Y128.127
G1 F1200 X128.127 Y128.015 E6.15019
G1 X128.805 Y127.393 E6.18079
G1 X129.535 Y126.832 E6.21141
G1 X130.311 Y126.336 E6.24204
G1 X131.127 Y125.91 E6.27266
G1 X131.977 Y125.556 E6.30329
G1 X132.855 Y125.278 E6.33392
G1 X133.753 Y125.076 E6.36453
G1 X134.666 Y124.953 E6.39517
G1 X135.264 Y124.916 E6.4151
G1 X135.64 Y124.906 E6.42761
G1 X136.179 Y124.9 E6.44554
G1 X163.676 Y124.9 E7.36009
G1 X164.529 Y124.911 E7.38846
G1 X165.448 Y124.964 E7.41908
G1 X166.359 Y125.097 E7.4497
G1 X167.255 Y125.308 E7.48032
G1 X168.13 Y125.596 E7.51096
G1 X168.976 Y125.959 E7.54158
G1 X169.787 Y126.394 E7.57219
G1 X170.558 Y126.898 E7.60282
G1 X171.282 Y127.466 E7.63343
G1 X171.873 Y128.015 E7.66026
G1 X171.985 Y128.127 E7.66553
G1 X172.607 Y128.805 E7.69613
G1 X173.168 Y129.535 E7.72675
G1 X173.664 Y130.311 E7.75738
G1 X174.09 Y131.127 E7.788
G1 X174.444 Y131.977 E7.81862
G1 X174.722 Y132.855 E7.84925
G1 X174.924 Y133.753 E7.87987
G1 X175.047 Y134.666 E7.91051
G1 X175.083 Y135.235 E7.92947
G1 X175.094 Y135.618 E7.94222
G1 X175.1 Y136.136 E7.95945
G1 X175.099 Y163.794 E8.87935
G1 X175.089 Y164.523 E8.9036
G1 X175.036 Y165.443 E8.93425
G1 X174.904 Y166.354 E8.96487
G1 X174.694 Y167.25 E8.99548
G1 X174.406 Y168.124 E9.02609
G1 X174.043 Y168.971 E9.05673
G1 X173.609 Y169.782 E9.08733
G1 X173.105 Y170.553 E9.11796
G1 X172.537 Y171.278 E9.1486
G1 X171.985 Y171.873 E9.17559
G1 X171.873 Y171.985 E9.18086
G1 X171.195 Y172.607 E9.21146
G1 X170.465 Y173.168 E9.24208
G1 X169.689 Y173.664 E9.27272
G1 X168.873 Y174.09 E9.30333
G1 X168.023 Y174.444 E9.33396
G1 X167.145 Y174.722 E9.36459
G1 X166.247 Y174.924 E9.3952
G1 X165.334 Y175.047 E9.42584
G1 X164.736 Y175.084 E9.44577
G1 X164.36 Y175.094 E9.45828
G1 X163.821 Y175.1 E9.47621
G1 X136.173 Y175.099 E10.39578
G1 X135.471 Y175.089 E10.41914
G1 X134.552 Y175.036 E10.44975
G1 X133.641 Y174.903 E10.48037
G1 X132.745 Y174.692 E10.51099
G1 X131.87 Y174.404 E10.54163
G1 X131.024 Y174.041 E10.57225
G1 X130.213 Y173.606 E10.60286
G1 X129.442 Y173.102 E10.63349
G1 X128.718 Y172.534 E10.6641
G1 X128.127 Y171.985 E10.69093
G1 X128.015 Y171.873 E10.6962
G1 X127.393 Y171.195 E10.7268
G1 X126.832 Y170.465 E10.75742
G1 X126.336 Y169.689 E10.78805
G1 X125.91 Y168.873 E10.81867
G1 X125.556 Y168.023 E10.84929
G1 X125.278 Y167.145 E10.87993
G1 X125.076 Y166.247 E10.91054
G1 X124.953 Y165.334 E10.94118
G1 X124.916 Y164.736 E10.96111
G1 X124.906 Y164.347 E10.97405
G1 X124.9 Y163.778 E10.99298
G1 X124.901 Y136.149 E11.91192
G1 X124.911 Y135.467 E11.93461
G1 X124.965 Y134.547 E11.96526
G1 X125.098 Y133.637 E11.99585
G1 X125.309 Y132.74 E12.0265
G1 X125.598 Y131.866 E12.05711
G1 X125.961 Y131.02 E12.08773
G1 X126.396 Y130.209 E12.11834
G1 X126.9 Y129.439 E12.14895
G1 X127.469 Y128.715 E12.17958
G1 X128.015 Y128.127 E12.20626
G0 F6000 X128.298 Y128.41
G1 F1200 X128.41 Y128.298 E12.21153
G1 X129.076 Y127.688 E12.24157
G1 X129.793 Y127.139 E12.27161
G1 X130.557 Y126.657 E12.30165
G1 X131.36 Y126.243 E12.3317
G1 X132.196 Y125.903 E12.36172
G1 X133.059 Y125.637 E12.39175
G1 X133.942 Y125.449 E12.42178
G1 X135.278 Y125.316 E12.46644
G1 X135.645 Y125.306 E12.47865
G1 X136.179 Y125.3 E12.49641
G1 X163.676 Y125.3 E13.41096
G1 X164.523 Y125.311 E13.43914
G1 X165.425 Y125.364 E13.46919
G1 X166.318 Y125.496 E13.49921
G1 X167.196 Y125.707 E13.52925
G1 X168.052 Y125.995 E13.55929
G1 X168.88 Y126.357 E13.58934
G1 X169.672 Y126.791 E13.61938
G1 X170.422 Y127.294 E13.64942
G1 X171.125 Y127.86 E13.67943
G1 X171.59 Y128.298 E13.70068
G1 X171.702 Y128.41 E13.70595
G1 X172.312 Y129.076 E13.73599
G1 X172.861 Y129.793 E13.76602
G1 X173.343 Y130.557 E13.79607
G1 X173.757 Y131.36 E13.82612
G1 X174.097 Y132.196 E13.85613
G1 X174.363 Y133.059 E13.88617
G1 X174.551 Y133.942 E13.9162
G1 X174.683 Y135.25 E13.95992
G1 X174.694 Y135.624 E13.97237
G1 X174.7 Y136.136 E13.9894
G1 X174.699 Y163.789 E14.90914
G1 X174.689 Y164.518 E14.93339
G1 X174.637 Y165.419 E14.9634
G1 X174.505 Y166.313 E14.99346
G1 X174.294 Y167.191 E15.0235
G1 X174.007 Y168.047 E15.05352
G1 X173.645 Y168.875 E15.08358
G1 X173.212 Y169.667 E15.1136
G1 X172.71 Y170.418 E15.14365
G1 X172.143 Y171.121 E15.17369
G1 X171.702 Y171.59 E15.1951
G1 X171.59 Y171.702 E15.20037
G1 X170.924 Y172.312 E15.2304
G1 X170.207 Y172.861 E15.26044
G1 X169.443 Y173.343 E15.29049
G1 X168.64 Y173.757 E15.32053
G1 X167.804 Y174.097 E15.35055
G1 X166.941 Y174.363 E15.38059
G1 X166.058 Y174.551 E15.41061
G1 X164.722 Y174.684 E15.45527
G1 X164.355 Y174.694 E15.46748
G1 X163.821 Y174.7 E15.48524
G1 X136.179 Y174.699 E16.40462
G1 X135.477 Y174.689 E16.42797
G1 X134.575 Y174.636 E16.45802
G1 X133.682 Y174.504 E16.48805
G1 X132.804 Y174.293 E16.51808
G1 X131.948 Y174.005 E16.54812
G1 X131.12 Y173.643 E16.57818
G1 X130.328 Y173.209 E16.60821
G1 X129.578 Y172.706 E16.63825
G1 X128.875 Y172.14 E16.66827
G1 X128.41 Y171.702 E16.68951
G1 X128.298 Y171.59 E16.69478
G1 X127.688 Y170.924 E16.72482
G1 X127.139 Y170.207 E16.75486
G1 X126.657 Y169.443 E16.7849
G1 X126.243 Y168.64 E16.81495
G1 X125.903 Y167.804 E16.84497
G1 X125.637 Y166.941 E16.875
G1 X125.449 Y166.058 E16.90503
G1 X125.316 Y164.722 E16.94968
G1 X125.306 Y164.343 E16.96229
G1 X125.3 Y163.778 E16.98109
G1 X125.301 Y136.154 E17.89987
G1 X125.311 Y135.472 E17.92255
G1 X125.364 Y134.571 E17.95257
G1 X125.497 Y133.678 E17.9826
G1 X125.708 Y132.8 E18.01263
G1 X125.996 Y131.944 E18.04267
G1 X126.359 Y131.117 E18.07271
G1 X126.793 Y130.325 E18.10275
G1 X127.296 Y129.575 E18.13279
G1 X127.863 Y128.872 E18.16282
G1 X128.298 Y128.41 E18.18393
G1 F2700 E13.18393
G0 F6000 X135.088 Y135.089
G0 X135.7 Y135.7
;TYPE:SUPPORT-INTERFACE
G1 F2700 E18.18393
G1 F1200 X164.3 Y135.7 E19.13517
G1 X164.3 Y164.3 E20.08641
G1 X135.7 Y164.3 E21.03765
G1 X135.7 Y135.7 E21.98889
G1 F2700 E16.98889
G0 F6000 X134.835 Y135.7
G0 X134.835 Y140.829
G0 X140.091 Y140.829
G1 F2700 E21.98889
G1 F1200 X139.164 Y141.946 E22.03717
G1 X138.366 Y143.15 E22.08521
G1 X137.7 Y144.433 E22.13329
G1 X137.192 Y145.732 E22.17968
G1 X137.054 Y146.172 E22.19502
G1 X136.801 Y147.159 E22.22891
G1 X136.577 Y148.549 E22.27574
G1 X136.5 Y149.995 E22.3239
G1 X136.576 Y151.437 E22.37193
G1 X136.801 Y152.843 E22.41928
G1 X137.181 Y154.238 E22.46737
G1 X137.704 Y155.577 E22.51519
G1 X138.363 Y156.845 E22.56271
G1 X139.156 Y158.044 E22.61053
G1 X140.08 Y159.16 E22.65872
G1 X141.1 Y160.153 E22.70606
G1 X142.233 Y161.043 E22.75398
G1 X143.456 Y161.81 E22.802
G1 X144.745 Y162.437 E22.84967
G1 X146.099 Y162.926 E22.89755
G1 X147.492 Y163.267 E22.94525
G1 X148.915 Y163.458 E22.99301
G1 X150.358 Y163.497 E23.04102
G1 X151.779 Y163.383 E23.08843
G1 X153.195 Y163.117 E23.13635
G1 X153.834 Y162.944 E23.15837
G1 X154.586 Y162.699 E23.18468
G1 X155.897 Y162.144 E23.23203
G1 X157.164 Y161.444 E23.28017
G1 X158.331 Y160.625 E23.32759
G1 X159.417 Y159.675 E23.37558
G1 X160.391 Y158.621 E23.42331
G1 X161.248 Y157.466 E23.47115
G1 X161.978 Y156.231 E23.51887
G1 X162.571 Y154.923 E23.56663
G1 X163.028 Y153.548 E23.61482
G1 X163.329 Y152.158 E23.66213
G1 X163.481 Y150.723 E23.71012
G1 X163.482 Y149.289 E23.75782
G1 X163.33 Y147.853 E23.80585
G1 X163.028 Y146.452 E23.85351
G1 X162.576 Y145.087 E23.90134
G1 X161.983 Y143.779 E23.94911
G1 X161.255 Y142.543 E23.99682
G1 X160.391 Y141.379 E24.04503
G1 X159.424 Y140.333 E24.09241
G1 X158.34 Y139.383 E24.14035
G1 X157.164 Y138.556 E24.18817
G1 X155.907 Y137.86 E24.23596
G1 X154.583 Y137.301 E24.28376
G1 X153.218 Y136.887 E24.3312
G1 X151.791 Y136.619 E24.37949
G1 X150.37 Y136.503 E24.42691
G1 X148.925 Y136.541 E24.47499
G1 X147.503 Y136.731 E24.5227
G1 X146.11 Y137.071 E24.5704
G1 X144.756 Y137.559 E24.61827
G1 X143.466 Y138.184 E24.66594
G1 X142.241 Y138.951 E24.71401
G1 X141.109 Y139.84 E24.76189
G1 X140.091 Y140.829 E24.80909
G0 F6000 X140.323 Y140.323
G1 F1200 X135.899 Y135.899 E25.01718
G1 F2700 E20.01718
G0 F6000 X134.835 Y135.899
G0 X134.835 Y139.022
G0 X135.9 Y139.022
G1 F2700 E25.01718
G1 F1200 X139.023 Y135.899 E25.16408
G0 F6000 X139.294 Y135.9
G1 F1200 X142.158 Y138.764 E25.29879
G0 F6000 X144.017 Y137.694
G1 F1200 X145.811 Y135.899 E25.3832
G0 F6000 X146.082 Y135.9
G1 F1200 X146.862 Y136.68 E25.41989
G0 F6000 X148.741 Y136.364
G1 F1200 X149.205 Y135.899 E25.44174
G0 F6000 X149.476 Y135.9
G1 F1200 X149.891 Y136.315 E25.46126
G0 F6000 X152.037 Y136.462
G1 F1200 X152.6 Y135.899 E25.48774
G0 F6000 X152.87 Y135.9
G1 F1200 X153.836 Y136.865 E25.53316
G0 F6000 X154.741 Y137.151
G1 F1200 X155.994 Y135.899 E25.59207
G0 F6000 X156.264 Y135.9
G1 F1200 X164.099 Y143.735 E25.9606
G0 F6000 X164.099 Y144.764
G1 F1200 X163.032 Y145.831 E26.01079
G0 F6000 X163.145 Y146.175
G1 F1200 X164.099 Y147.129 E26.05566
G0 F6000 X164.099 Y148.158
G1 F1200 X163.614 Y148.643 E26.07848
G0 F6000 X163.679 Y150.103
G1 F1200 X164.099 Y150.523 E26.09823
G0 F6000 X164.099 Y151.552
G1 F1200 X163.533 Y152.118 E26.12486
G0 F6000 X163.319 Y153.137
G1 F1200 X164.099 Y153.917 E26.16155
G0 F6000 X164.099 Y154.946
G1 F1200 X161.254 Y157.791 E26.29537
G0 F6000 X161.225 Y157.831
G1 F1200 X164.099 Y160.705 E26.43055
G0 F6000 X164.099 Y161.735
G1 F1200 X161.735 Y164.099 E26.54174
G0 F6000 X160.705 Y164.099
G1 F1200 X157.828 Y161.222 E26.67707
G0 F6000 X157.815 Y161.23
G1 F1200 X154.946 Y164.099 E26.81202
G0 F6000 X153.917 Y164.099
G1 F1200 X153.146 Y163.328 E26.84828
G0 F6000 X152.133 Y163.519
G1 F1200 X151.552 Y164.099 E26.87559
G0 F6000 X150.523 Y164.099
G1 F1200 X150.113 Y163.689 E26.89487
G0 F6000 X148.636 Y163.621
G1 F1200 X148.158 Y164.099 E26.91736
G0 F6000 X147.129 Y164.099
G1 F1200 X146.181 Y163.152 E26.96193
G0 F6000 X145.825 Y163.039
G1 F1200 X144.764 Y164.099 E27.01181
G0 F6000 X143.735 Y164.099
G1 F1200 X135.899 Y156.264 E27.38037
G0 F6000 X135.9 Y155.993
G1 F1200 X137.159 Y154.734 E27.43959
G0 F6000 X136.864 Y153.834
G1 F1200 X135.899 Y152.87 E27.48495
G0 F6000 X135.9 Y152.599
G1 F1200 X136.468 Y152.03 E27.51169
G0 F6000 X136.306 Y149.883
G1 F1200 X135.899 Y149.476 E27.53084
G0 F6000 X135.9 Y149.205
G1 F1200 X136.366 Y148.739 E27.55276
G0 F6000 X136.673 Y146.855
G1 F1200 X135.899 Y146.081 E27.58916
G0 F6000 X135.9 Y145.811
G1 F1200 X137.685 Y144.026 E27.67312
G0 F6000 X137.532 Y144.321
G1 F1200 X135.899 Y142.687 E27.74996
G0 F6000 X135.9 Y142.416
G1 F1200 X142.417 Y135.899 E28.0565
G0 F6000 X142.688 Y135.9
G1 F1200 X144.329 Y137.541 E28.13369
G1 F2700 E23.13369
G0 F6000 X144.329 Y134.835
G0 X135.343 Y134.839
G0 X134.839 Y135.343
G0 X134.835 Y142.169
G0 X138.775 Y142.169
G1 F2700 E28.13369
G1 F1200 X135.899 Y139.293 E28.26896
G1 F2700 E23.26896
G0 F6000 X134.835 Y139.293
G0 X134.835 Y157.037
G0 X138.249 Y157.037
G1 F2700 E28.26896
G1 F1200 X135.9 Y159.387 E28.37948
G0 F6000 X135.899 Y159.658
G1 F1200 X140.34 Y164.099 E28.58837
G0 F6000 X141.37 Y164.099
G1 F1200 X143.445 Y162.025 E28.68595
G0 F6000 X141.419 Y160.656
G1 F1200 X137.976 Y164.099 E28.84789
G0 F6000 X136.946 Y164.099
G1 F1200 X135.899 Y163.052 E28.89714
G0 F6000 X135.9 Y162.781
G1 F1200 X139.685 Y158.996 E29.07518
G1 F2700 E24.07518
G0 F6000 X134.835 Y158.996
G0 X134.839 Y164.657
G0 X135.343 Y165.161
G0 X155.669 Y165.165
G0 X155.669 Y162.457
G1 F2700 E29.07518
G1 F1200 X157.311 Y164.099 E29.15241
G0 F6000 X158.341 Y164.099
G1 F1200 X164.099 Y158.341 E29.42325
G0 F6000 X164.099 Y157.311
G1 F1200 X162.452 Y155.664 E29.50072
G0 F6000 X159.681 Y159.681
G1 F1200 X164.099 Y164.099 E29.70853
G1 F2700 E24.70853
G0 F6000 X165.165 Y164.099
G0 X165.165 Y143.449
G0 X162.02 Y143.449
G1 F2700 E29.70853
G1 F1200 X164.099 Y141.37 E29.80632
G0 F6000 X164.099 Y140.34
G1 F1200 X159.659 Y135.9 E30.01516
G0 F6000 X159.388 Y135.899
G1 F1200 X157.032 Y138.254 E30.12596
G0 F6000 X158.992 Y139.689
G1 F1200 X162.782 Y135.899 E30.30423
G0 F6000 X163.053 Y135.9
G1 F1200 X164.099 Y136.946 E30.35343
G0 F6000 X164.099 Y137.976
G1 F1200 X160.663 Y141.412 E30.51505
G1 F2700 E25.51505
;MESH:130??????1?????????????????????.STL
G0 F6000 X159.361 Y142.374
G0 X160.922 Y145.724
G0 X161.319 Y146.928
G0 X161.578 Y148.122
G0 X161.581 Y148.472
G0 X159.347 Y146.367
G0 X157.416 Y146.508
G0 X156.82 Y146.662
G0 X156.261 Y146.916
G0 X155.755 Y147.263
G0 X155.161 Y147.849
G0 X155.069 Y149.789
G0 X155.218 Y151.349
;TYPE:WALL-INNER
G1 F2700 E30.51505
G1 F1200 X154.974 Y152.2 E30.54449
G1 X155.653 Y152.863 E30.57606
G1 X156.182 Y153.225 E30.59738
G1 X156.766 Y153.491 E30.61872
G1 X157.389 Y153.651 E30.64011
G1 X158.029 Y153.703 E30.66147
G1 X158.667 Y153.641 E30.68279
G1 X159.287 Y153.472 E30.70416
G1 X159.868 Y153.197 E30.72554
G1 X160.392 Y152.825 E30.74692
G1 X160.844 Y152.37 E30.76825
G1 X161.211 Y151.843 E30.78961
G1 X161.396 Y151.446 E30.80418
G1 X161.482 Y151.26 E30.81099
