;FLAVOR:Marlin
;TIME:4788
;Filament used: 3.07042m
;Layer height: 0.2
;MINX:124.5
;MINY:125.5
;MINZ:0.2
;MAXX:175.5
;MAXY:174.5
;MAXZ:38.2
;Generated with Creality Slicer 4.8.2-191
M140 S50
M105
M190 S50
M104 S200
M105
M109 S200
M82 ;absolute extrusion mode

G28 ;Home

G92 E0 ;Reset Extruder
G1 Z2.0 F3000 ;Move Z Axis up
G1 X10.1 Y20 Z0.28 F5000.0 ;Move to start position
G1 X10.1 Y200.0 Z0.28 F1500.0 E15 ;Draw the first line
G1 X10.4 Y200.0 Z0.28 F5000.0 ;Move to side a little
G1 X10.4 Y20 Z0.28 F1500.0 E30 ;Draw the second line
G92 E0 ;Reset Extruder
G1 Z2.0 F3000 ;Move Z Axis up

G92 E0
G92 E0
G1 F2700 E-5
;LAYER_COUNT:191
;LAYER:0
M107
G0 F6000 X127.698 Y128.764 Z0.2
;TYPE:SKIRT
G1 F2700 E0
G1 F1200 X128.386 Y128.127 E0.03119
G1 X129.126 Y127.551 E0.06237
G1 X129.912 Y127.039 E0.09357
G1 X130.739 Y126.597 E0.12476
G1 X131.601 Y126.227 E0.15596
G1 X132.491 Y125.931 E0.18716
G1 X133.403 Y125.713 E0.21835
G1 X134.33 Y125.572 E0.24953
G1 X135.201 Y125.513 E0.27857
G1 X135.522 Y125.504 E0.28925
G1 X135.83 Y125.5 E0.29949
G1 X163.793 Y125.5 E1.22955
G1 X164.649 Y125.511 E1.25802
G1 X165.585 Y125.565 E1.2892
G1 X166.513 Y125.697 E1.32038
G1 X167.427 Y125.909 E1.35159
G1 X168.319 Y126.198 E1.38277
G1 X169.184 Y126.561 E1.41397
G1 X170.014 Y126.997 E1.44516
G1 X170.805 Y127.502 E1.47637
G1 X171.549 Y128.073 E1.50756
G1 X172.242 Y128.705 E1.53876
G1 X172.879 Y129.393 E1.56994
G1 X173.454 Y130.134 E1.60114
G1 X173.965 Y130.92 E1.63232
G1 X174.407 Y131.748 E1.66354
G1 X174.776 Y132.61 E1.69472
G1 X175.071 Y133.5 E1.72591
G1 X175.289 Y134.412 E1.7571
G1 X175.429 Y135.34 E1.78831
G1 X175.487 Y136.201 E1.81701
G1 X175.496 Y136.521 E1.82766
G1 X175.5 Y136.83 E1.83794
G1 X175.499 Y162.9 E2.70503
G1 X175.49 Y163.627 E2.72921
G1 X175.439 Y164.564 E2.76042
G1 X175.307 Y165.492 E2.7916
G1 X175.098 Y166.406 E2.82278
G1 X174.811 Y167.299 E2.85398
G1 X174.449 Y168.165 E2.8852
G1 X174.015 Y168.996 E2.91638
G1 X173.511 Y169.787 E2.94758
G1 X172.942 Y170.532 E2.97876
G1 X172.311 Y171.227 E3.00998
G1 X171.624 Y171.865 E3.04116
G1 X170.885 Y172.442 E3.07235
G1 X170.099 Y172.954 E3.10355
G1 X169.273 Y173.397 E3.13472
G1 X168.411 Y173.769 E3.16595
G1 X167.522 Y174.065 E3.19711
G1 X166.61 Y174.285 E3.22831
G1 X165.683 Y174.426 E3.2595
G1 X164.799 Y174.487 E3.28897
G1 X164.478 Y174.496 E3.29965
G1 X164.17 Y174.5 E3.3099
G1 X136.065 Y174.499 E4.24467
G1 X135.367 Y174.49 E4.26789
G1 X134.431 Y174.438 E4.29907
G1 X133.502 Y174.306 E4.33028
G1 X132.588 Y174.096 E4.36147
G1 X131.695 Y173.809 E4.39267
G1 X130.83 Y173.446 E4.42387
G1 X129.999 Y173.012 E4.45505
G1 X129.208 Y172.508 E4.48625
G1 X128.463 Y171.938 E4.51745
G1 X127.769 Y171.307 E4.54864
G1 X127.132 Y170.62 E4.5798
G1 X126.555 Y169.88 E4.61101
G1 X126.043 Y169.094 E4.64221
G1 X125.6 Y168.267 E4.67342
G1 X125.229 Y167.406 E4.7046
G1 X124.933 Y166.516 E4.7358
G1 X124.714 Y165.604 E4.76699
G1 X124.573 Y164.677 E4.79818
G1 X124.513 Y163.788 E4.82781
G1 X124.504 Y163.455 E4.83889
G1 X124.5 Y163.158 E4.84877
G1 X124.501 Y137.025 E5.71796
G1 X124.51 Y136.36 E5.74008
G1 X124.563 Y135.424 E5.77126
G1 X124.695 Y134.495 E5.80247
G1 X124.906 Y133.581 E5.83367
G1 X125.194 Y132.689 E5.86485
G1 X125.557 Y131.824 E5.89605
G1 X125.992 Y130.993 E5.92724
G1 X126.496 Y130.203 E5.95841
G1 X127.066 Y129.458 E5.98961
G1 X127.698 Y128.764 E6.02083
G0 F6000 X128.089 Y128.939
G1 F1200 X128.774 Y128.323 E6.05147
G1 X129.51 Y127.77 E6.08209
G1 X130.291 Y127.282 E6.11272
G1 X131.111 Y126.864 E6.14333
G1 X131.965 Y126.519 E6.17397
G1 X132.845 Y126.249 E6.20458
G1 X133.745 Y126.057 E6.23519
G1 X134.659 Y125.943 E6.26583
G1 X135.212 Y125.913 E6.28425
G1 X135.533 Y125.904 E6.29493
G1 X135.83 Y125.9 E6.30481
G1 X163.793 Y125.9 E7.23486
G1 X164.643 Y125.911 E7.26313
G1 X165.562 Y125.964 E7.29375
G1 X166.473 Y126.097 E7.32437
G1 X167.369 Y126.308 E7.35499
G1 X168.243 Y126.596 E7.38559
G1 X169.09 Y126.959 E7.41624
G1 X169.901 Y127.394 E7.44685
G1 X170.671 Y127.898 E7.47746
G1 X171.395 Y128.467 E7.50809
G1 X172.067 Y129.097 E7.53872
G1 X172.682 Y129.782 E7.56934
G1 X173.235 Y130.518 E7.59996
G1 X173.722 Y131.299 E7.63057
G1 X174.139 Y132.12 E7.6612
G1 X174.484 Y132.974 E7.69184
G1 X174.753 Y133.854 E7.72244
G1 X174.945 Y134.755 E7.75308
G1 X175.058 Y135.668 E7.78368
G1 X175.087 Y136.212 E7.8018
G1 X175.096 Y136.532 E7.81245
G1 X175.1 Y136.83 E7.82236
G1 X175.099 Y162.895 E8.68928
G1 X175.09 Y163.622 E8.71347
G1 X175.039 Y164.541 E8.74408
G1 X174.908 Y165.453 E8.77472
G1 X174.698 Y166.349 E8.80533
G1 X174.412 Y167.224 E8.83595
G1 X174.051 Y168.071 E8.86657
G1 X173.617 Y168.883 E8.8972
G1 X173.115 Y169.655 E8.92783
G1 X172.547 Y170.38 E8.95846
G1 X171.919 Y171.053 E8.98907
G1 X171.235 Y171.669 E9.01969
G1 X170.5 Y172.223 E9.0503
G1 X169.72 Y172.712 E9.08092
G1 X168.9 Y173.131 E9.11155
G1 X168.047 Y173.477 E9.14217
G1 X167.167 Y173.748 E9.17279
G1 X166.267 Y173.941 E9.20341
G1 X165.353 Y174.056 E9.23404
G1 X164.788 Y174.087 E9.25287
G1 X164.467 Y174.096 E9.26355
G1 X164.17 Y174.1 E9.27342
G1 X136.07 Y174.099 E10.20803
G1 X135.372 Y174.09 E10.23125
G1 X134.453 Y174.038 E10.26187
G1 X133.542 Y173.907 E10.29248
G1 X132.646 Y173.697 E10.32309
G1 X131.771 Y173.41 E10.35372
G1 X130.924 Y173.048 E10.38435
G1 X130.112 Y172.614 E10.41497
G1 X129.341 Y172.112 E10.44557
G1 X128.616 Y171.544 E10.47621
G1 X127.943 Y170.915 E10.50685
G1 X127.328 Y170.231 E10.53744
G1 X126.774 Y169.496 E10.56805
G1 X126.286 Y168.715 E10.59868
G1 X125.867 Y167.895 E10.62931
G1 X125.521 Y167.042 E10.65993
G1 X125.251 Y166.162 E10.69054
G1 X125.058 Y165.261 E10.72119
G1 X124.944 Y164.348 E10.75179
G1 X124.913 Y163.777 E10.77081
G1 X124.904 Y163.444 E10.78189
G1 X124.9 Y163.158 E10.7914
G1 X124.901 Y137.031 E11.66039
G1 X124.91 Y136.366 E11.68251
G1 X124.962 Y135.446 E11.71316
G1 X125.094 Y134.535 E11.74378
G1 X125.305 Y133.639 E11.77439
G1 X125.592 Y132.764 E11.80502
G1 X125.955 Y131.918 E11.83564
G1 X126.389 Y131.106 E11.86626
G1 X126.892 Y130.335 E11.89688
G1 X127.461 Y129.611 E11.92751
G1 X128.089 Y128.939 E11.9581
G0 F6000 X128.481 Y129.117
G1 F1200 X129.162 Y128.524 E11.98813
G1 X129.894 Y127.994 E12.01819
G1 X130.669 Y127.531 E12.04822
G1 X131.482 Y127.138 E12.07825
G1 X132.327 Y126.818 E12.1083
G1 X133.196 Y126.575 E12.13832
G1 X134.084 Y126.409 E12.16836
G1 X135.223 Y126.313 E12.20638
G1 X135.544 Y126.304 E12.21706
G1 X135.83 Y126.3 E12.22657
G1 X163.793 Y126.3 E13.15663
G1 X164.637 Y126.311 E13.1847
G1 X165.539 Y126.364 E13.21475
G1 X166.432 Y126.496 E13.24478
G1 X167.31 Y126.707 E13.27481
G1 X168.166 Y126.995 E13.30485
G1 X168.993 Y127.357 E13.33488
G1 X169.785 Y127.792 E13.36493
G1 X170.536 Y128.294 E13.39497
G1 X171.239 Y128.861 E13.42501
G1 X171.889 Y129.488 E13.45505
G1 X172.481 Y130.17 E13.48509
G1 X173.011 Y130.901 E13.51512
G1 X173.473 Y131.677 E13.54516
G1 X173.866 Y132.49 E13.57519
G1 X174.184 Y133.335 E13.60522
G1 X174.427 Y134.205 E13.63527
G1 X174.592 Y135.093 E13.66531
G1 X174.687 Y136.223 E13.70302
G1 X174.696 Y136.543 E13.71367
G1 X174.7 Y136.83 E13.72322
G1 X174.699 Y162.89 E14.58998
G1 X174.69 Y163.617 E14.61416
G1 X174.639 Y164.519 E14.64421
G1 X174.508 Y165.413 E14.67426
G1 X174.299 Y166.291 E14.70428
G1 X174.013 Y167.148 E14.73433
G1 X173.652 Y167.976 E14.76437
G1 X173.22 Y168.768 E14.79437
G1 X172.719 Y169.52 E14.82443
G1 X172.153 Y170.224 E14.85447
G1 X171.528 Y170.875 E14.88449
G1 X170.847 Y171.469 E14.91454
G1 X170.116 Y172 E14.9446
G1 X169.342 Y172.464 E14.97461
G1 X168.529 Y172.858 E15.00466
G1 X167.685 Y173.178 E15.03468
G1 X166.815 Y173.423 E15.06474
G1 X165.928 Y173.589 E15.09476
G1 X164.777 Y173.687 E15.13318
G1 X164.456 Y173.696 E15.14386
G1 X164.17 Y173.7 E15.15337
G1 X136.075 Y173.699 E16.08781
G1 X135.377 Y173.69 E16.11103
G1 X134.476 Y173.639 E16.14105
G1 X133.582 Y173.507 E16.1711
G1 X132.704 Y173.298 E16.20112
G1 X131.847 Y173.011 E16.23118
G1 X131.02 Y172.65 E16.26119
G1 X130.227 Y172.217 E16.29125
G1 X129.476 Y171.716 E16.32127
G1 X128.772 Y171.15 E16.35132
G1 X128.121 Y170.524 E16.38136
G1 X127.528 Y169.843 E16.41139
G1 X126.998 Y169.112 E16.44142
G1 X126.534 Y168.337 E16.47146
G1 X126.14 Y167.524 E16.50151
G1 X125.82 Y166.68 E16.53153
G1 X125.576 Y165.81 E16.56159
G1 X125.41 Y164.922 E16.59163
G1 X125.313 Y163.767 E16.63018
G1 X125.304 Y163.434 E16.64126
G1 X125.3 Y163.158 E16.65044
G1 X125.301 Y137.036 E17.51927
G1 X125.31 Y136.371 E17.54139
G1 X125.362 Y135.469 E17.57144
G1 X125.494 Y134.576 E17.60146
G1 X125.704 Y133.698 E17.63149
G1 X125.991 Y132.841 E17.66155
G1 X126.353 Y132.014 E17.69157
G1 X126.786 Y131.222 E17.72159
G1 X127.288 Y130.471 E17.75164
G1 X127.855 Y129.767 E17.7817
G1 X128.481 Y129.117 E17.81172
G1 F2700 E12.81172
;MESH:130??????1?????????????????????.STL
G0 F6000 X134.839 Y163.657
G0 X135.343 Y164.161
G0 X147.204 Y164.165
G0 X147.204 Y157.704
G0 X147.4 Y160.1
;TYPE:WALL-INNER
G1 F2700 E17.81172
G1 F1200 X152.6 Y160.1 E17.98467
G1 X152.6 Y157.9 E18.05784
G1 X147.4 Y157.9 E18.2308
G1 X147.4 Y160.1 E18.30397
G0 F6000 X147.8 Y159.7
;TYPE:WALL-OUTER
G1 F1200 X152.2 Y159.7 E18.45031
G1 X152.2 Y158.3 E18.49688
G1 X147.8 Y158.3 E18.64322
G1 X147.8 Y159.7 E18.68979
G1 F2700 E13.68979
G0 F6000 X147.5 Y159.7
G0 X152.796 Y160.296
G0 X152.796 Y162.69
G0 X163.9 Y162.9
;TYPE:WALL-INNER
G1 F2700 E18.68979
G1 F1200 X136.1 Y162.9 E19.61442
G1 X136.1 Y137.1 E20.47253
G1 X163.9 Y137.1 E21.39716
G1 X163.9 Y162.9 E22.25527
G0 F6000 X164.3 Y163.3
;TYPE:WALL-OUTER
G1 F1200 X135.7 Y163.3 E23.20651
G1 X135.7 Y136.7 E24.09123
G1 X164.3 Y136.7 E25.04247
G1 X164.3 Y163.3 E25.92719
G0 F6000 X164.03 Y163.03
G0 X163.79 Y162.51
G0 X163.51 Y162.51
;TYPE:SKIN
G1 F1200 X136.49 Y162.51 E26.82588
G1 X136.49 Y137.49 E27.65805
G1 X163.51 Y137.49 E28.55674
G1 X163.51 Y162.51 E29.38891
G1 F2700 E24.38891
G0 F6000 X163.79 Y162.51
G0 X152.71 Y162.69
G0 X152.71 Y160.29
G0 X152.99 Y160.49
G1 F2700 E29.38891
G1 F1200 X152.99 Y157.51 E29.48802
G1 X147.01 Y157.51 E29.68692
G1 X147.01 Y160.49 E29.78603
G1 X152.99 Y160.49 E29.98493
G1 F2700 E24.98493
G0 F6000 X152.71 Y160.24
G0 X147.204 Y160.296
G0 X147.204 Y162.69
G0 X136.893 Y162.79
G0 X136.893 Y162.348
G1 F2700 E29.98493
G1 F1200 X136.649 Y162.105 E29.99638
G0 F6000 X136.649 Y161.539
G1 F1200 X137.458 Y162.348 E30.03443
G0 F6000 X138.024 Y162.348
G1 F1200 X136.649 Y160.974 E30.09909
G0 F6000 X136.649 Y160.408
G1 F1200 X138.59 Y162.348 E30.19036
G0 F6000 X139.155 Y162.348
G1 F1200 X136.649 Y159.842 E30.30824
G0 F6000 X136.649 Y159.277
G1 F1200 X139.721 Y162.348 E30.45271
G0 F6000 X140.287 Y162.348
G1 F1200 X136.649 Y158.711 E30.62381
G0 F6000 X136.649 Y158.145
G1 F1200 X140.852 Y162.348 E30.8215
G0 F6000 X141.418 Y162.348
G1 F1200 X136.649 Y157.58 E31.0458
G0 F6000 X136.649 Y157.014
G1 F1200 X141.984 Y162.348 E31.29672
G0 F6000 X142.549 Y162.348
G1 F1200 X136.649 Y156.448 E31.57424
G0 F6000 X136.649 Y155.883
G1 F1200 X143.115 Y162.348 E31.87835
G0 F6000 X143.681 Y162.348
G1 F1200 X136.649 Y155.317 E32.20909
G0 F6000 X136.649 Y154.751
G1 F1200 X144.246 Y162.348 E32.56643
G0 F6000 X144.812 Y162.348
G1 F1200 X136.649 Y154.186 E32.95037
G0 F6000 X136.649 Y153.62
G1 F1200 X145.378 Y162.348 E33.36093
G0 F6000 X145.944 Y162.348
G1 F1200 X136.649 Y153.054 E33.79812
G0 F6000 X136.649 Y152.488
G1 F1200 X146.509 Y162.348 E34.2619
G0 F6000 X147.075 Y162.348
G1 F1200 X136.649 Y151.923 E34.75229
G0 F6000 X136.649 Y151.357
G1 F1200 X147.641 Y162.348 E35.26929
G0 F6000 X148.206 Y162.348
G1 F1200 X136.649 Y150.791 E35.8129
G0 F6000 X136.649 Y150.226
G1 F1200 X146.849 Y160.426 E36.29267
G0 F6000 X147.073 Y160.649
G1 F1200 X148.772 Y162.348 E36.37259
G0 F6000 X149.338 Y162.348
G1 F1200 X147.638 Y160.649 E36.45253
G0 F6000 X148.204 Y160.649
G1 F1200 X149.903 Y162.348 E36.53245
G0 F6000 X150.469 Y162.348
G1 F1200 X148.77 Y160.649 E36.61236
G0 F6000 X149.336 Y160.649
G1 F1200 X151.035 Y162.348 E36.69228
G0 F6000 X151.6 Y162.348
G1 F1200 X149.901 Y160.649 E36.77219
G0 F6000 X150.467 Y160.649
G1 F1200 X152.166 Y162.348 E36.85211
G0 F6000 X152.732 Y162.348
G1 F1200 X151.033 Y160.649 E36.93202
G0 F6000 X151.598 Y160.649
G1 F1200 X153.297 Y162.348 E37.01194
G0 F6000 X153.863 Y162.348
G1 F1200 X152.164 Y160.649 E37.09186
G0 F6000 X152.73 Y160.649
G1 F1200 X154.429 Y162.348 E37.17177
G0 F6000 X154.994 Y162.348
G1 F1200 X153.15 Y160.504 E37.25851
G0 F6000 X153.15 Y159.938
G1 F1200 X155.56 Y162.348 E37.37187
G0 F6000 X156.126 Y162.348
G1 F1200 X153.15 Y159.372 E37.51185
G0 F6000 X153.15 Y158.806
G1 F1200 X156.692 Y162.348 E37.67845
G0 F6000 X157.257 Y162.348
G1 F1200 X153.15 Y158.241 E37.87163
G0 F6000 X153.15 Y157.675
G1 F1200 X157.823 Y162.348 E38.09144
G0 F6000 X158.389 Y162.348
G1 F1200 X136.649 Y140.609 E39.114
G0 F6000 X136.649 Y140.043
G1 F1200 X158.954 Y162.348 E40.16316
G0 F6000 X159.52 Y162.348
G1 F1200 X136.649 Y139.478 E41.23891
G0 F6000 X136.649 Y138.912
G1 F1200 X160.086 Y162.348 E42.3413
G0 F6000 X160.651 Y162.348
G1 F1200 X136.649 Y138.346 E43.47028
G0 F6000 X136.649 Y137.781
G1 F1200 X161.217 Y162.348 E44.62586
G0 F6000 X161.783 Y162.348
G1 F1200 X137.084 Y137.65 E45.7876
G0 F6000 X137.65 Y137.65
G1 F1200 X162.348 Y162.348 E46.94932
G0 F6000 X162.914 Y162.348
G1 F1200 X138.216 Y137.65 E48.11103
G0 F6000 X138.781 Y137.65
G1 F1200 X163.349 Y162.218 E49.26664
G0 F6000 X163.349 Y161.652
G1 F1200 X139.347 Y137.65 E50.39562
G0 F6000 X139.913 Y137.65
G1 F1200 X163.349 Y161.086 E51.49798
G0 F6000 X163.349 Y160.521
G1 F1200 X140.478 Y137.65 E52.57376
G0 F6000 X141.044 Y137.65
G1 F1200 X163.349 Y159.955 E53.62292
G0 F6000 X163.349 Y159.389
G1 F1200 X141.61 Y137.65 E54.64545
G0 F6000 X142.175 Y137.65
G1 F1200 X163.349 Y158.823 E55.64139
G0 F6000 X163.349 Y158.258
G1 F1200 X142.741 Y137.65 E56.61073
G0 F6000 X143.307 Y137.65
G1 F1200 X163.349 Y157.692 E57.55344
G0 F6000 X163.349 Y157.126
G1 F1200 X143.872 Y137.65 E58.46955
G0 F6000 X144.438 Y137.65
G1 F1200 X163.349 Y156.561 E59.35907
G0 F6000 X163.349 Y155.995
G1 F1200 X145.004 Y137.65 E60.22196
G0 F6000 X145.569 Y137.65
G1 F1200 X163.349 Y155.429 E61.05826
G0 F6000 X163.349 Y154.864
G1 F1200 X146.135 Y137.65 E61.86795
G0 F6000 X146.701 Y137.65
G1 F1200 X163.349 Y154.298 E62.65102
G0 F6000 X163.349 Y153.732
G1 F1200 X147.267 Y137.65 E63.40747
G0 F6000 X147.832 Y137.65
G1 F1200 X163.349 Y153.167 E64.13734
G0 F6000 X163.349 Y152.601
G1 F1200 X148.398 Y137.65 E64.84059
G0 F6000 X148.964 Y137.65
G1 F1200 X163.349 Y152.035 E65.51722
G0 F6000 X163.349 Y151.47
G1 F1200 X149.529 Y137.65 E66.16727
G0 F6000 X150.095 Y137.65
G1 F1200 X163.349 Y150.904 E66.79069
G0 F6000 X163.349 Y150.338
G1 F1200 X150.661 Y137.65 E67.3875
G0 F6000 X151.226 Y137.65
G1 F1200 X163.349 Y149.772 E67.9577
G0 F6000 X163.349 Y149.207
G1 F1200 X151.792 Y137.65 E68.50131
G0 F6000 X152.358 Y137.65
G1 F1200 X163.349 Y148.641 E69.01829
G0 F6000 X163.349 Y148.075
G1 F1200 X152.923 Y137.65 E69.50868
G0 F6000 X153.489 Y137.65
G1 F1200 X163.349 Y147.51 E69.97246
G0 F6000 X163.349 Y146.944
G1 F1200 X154.055 Y137.65 E70.40962
G0 F6000 X154.62 Y137.65
G1 F1200 X163.349 Y146.378 E70.82018
G0 F6000 X163.349 Y145.813
G1 F1200 X155.186 Y137.65 E71.20415
G0 F6000 X155.752 Y137.65
G1 F1200 X163.349 Y145.247 E71.56149
G0 F6000 X163.349 Y144.681
G1 F1200 X156.317 Y137.65 E71.89223
G0 F6000 X156.883 Y137.65
G1 F1200 X163.349 Y144.116 E72.19637
G0 F6000 X163.349 Y143.55
G1 F1200 X157.449 Y137.65 E72.47388
G0 F6000 X158.015 Y137.65
G1 F1200 X163.349 Y142.984 E72.72478
G0 F6000 X163.349 Y142.419
G1 F1200 X158.58 Y137.65 E72.9491
G0 F6000 X159.146 Y137.65
G1 F1200 X163.349 Y141.853 E73.14679
G0 F6000 X163.349 Y141.287
G1 F1200 X159.712 Y137.65 E73.31787
G0 F6000 X160.277 Y137.65
G1 F1200 X163.349 Y140.722 E73.46237
G0 F6000 X163.349 Y140.156
G1 F1200 X160.843 Y137.65 E73.58024
G0 F6000 X161.409 Y137.65
G1 F1200 X163.349 Y139.59 E73.67149
G0 F6000 X163.349 Y139.024
G1 F1200 X161.974 Y137.65 E73.73614
G0 F6000 X162.54 Y137.65
G1 F1200 X163.349 Y138.459 E73.7742
G0 F6000 X163.349 Y137.893
G1 F1200 X163.106 Y137.65 E73.78563
G1 F2700 E68.78563
G0 F6000 X163.106 Y137.21
G0 X152.74 Y137.31
G0 X152.74 Y135.835
G0 X164.657 Y135.839
G0 X165.161 Y136.343
G0 X165.161 Y163.657
G0 X164.657 Y164.161
