;FLAVOR:Marlin
;TIME:574
;Filament used: 0.164819m
;Layer height: 0.2
;MINX:134.018
;MINY:134.013
;MINZ:0.2
;MAXX:165.986
;MAXY:165.978
;MAXZ:11.6
;Generated with Creality Slicer 4.8.2-191
M140 S50
M105
M190 S50
M104 S200
M105
M109 S200
M82 ;absolute extrusion mode

G28 ;Home

G92 E0 ;Reset Extruder
G1 Z2.0 F3000 ;Move Z Axis up
G1 X10.1 Y20 Z0.28 F5000.0 ;Move to start position
G1 X10.1 Y200.0 Z0.28 F1500.0 E15 ;Draw the first line
G1 X10.4 Y200.0 Z0.28 F5000.0 ;Move to side a little
G1 X10.4 Y20 Z0.28 F1500.0 E30 ;Draw the second line
G92 E0 ;Reset Extruder
G1 Z2.0 F3000 ;Move Z Axis up

G92 E0
G92 E0
G1 F2700 E-5
;LAYER_COUNT:58
;LAYER:0
M107
G0 F6000 X138.485 Y138.911 Z0.2
;TYPE:SKIRT
G1 F2700 E0
G1 F1200 X139.158 Y138.257 E0.03121
G1 X139.535 Y137.921 E0.04801
G1 X139.83 Y137.668 E0.06093
G1 X139.924 Y137.59 E0.065
G1 X140.657 Y137.031 E0.09566
G1 X141.007 Y136.787 E0.10985
G1 X141.371 Y136.543 E0.12442
G1 X142.216 Y136.039 E0.15715
G1 X142.607 Y135.829 E0.17191
G1 X142.993 Y135.632 E0.18632
G1 X143.112 Y135.574 E0.19073
G1 X143.92 Y135.219 E0.22008
G1 X144.395 Y135.033 E0.23705
G1 X144.804 Y134.882 E0.25155
G1 X144.905 Y134.847 E0.2551
G1 X145.733 Y134.596 E0.28388
G1 X146.159 Y134.485 E0.29852
G1 X146.622 Y134.375 E0.31435
G1 X147.577 Y134.203 E0.34662
G1 X148.081 Y134.135 E0.36354
G1 X148.786 Y134.063 E0.38711
G1 X149.13 Y134.039 E0.39858
G1 X150.026 Y134.013 E0.42839
G1 X150.364 Y134.017 E0.43963
G1 X151.315 Y134.069 E0.47131
G1 X151.73 Y134.11 E0.48518
G1 X152.14 Y134.159 E0.49892
G1 X152.33 Y134.185 E0.50529
G1 X153.225 Y134.345 E0.53553
G1 X153.657 Y134.441 E0.55025
G1 X154.063 Y134.539 E0.56414
G1 X154.204 Y134.576 E0.56899
G1 X155.052 Y134.836 E0.59849
G1 X155.457 Y134.978 E0.61277
G1 X155.841 Y135.121 E0.6264
G1 X155.986 Y135.178 E0.63158
G1 X156.819 Y135.545 E0.66185
G1 X157.26 Y135.762 E0.6782
G1 X157.629 Y135.952 E0.69201
G1 X158.478 Y136.45 E0.72474
G1 X158.848 Y136.69 E0.73941
G1 X159.183 Y136.916 E0.75285
G1 X159.324 Y137.015 E0.75858
G1 X160.014 Y137.542 E0.78746
G1 X160.338 Y137.81 E0.80144
G1 X160.641 Y138.069 E0.8147
G1 X160.732 Y138.15 E0.81875
G1 X161.401 Y138.799 E0.84976
G1 X161.766 Y139.184 E0.8674
G1 X162.112 Y139.567 E0.88457
G1 X162.681 Y140.271 E0.91467
G1 X162.94 Y140.62 E0.92913
G1 X163.168 Y140.937 E0.94212
G1 X163.732 Y141.822 E0.97702
G1 X163.97 Y142.238 E0.99296
G1 X164.181 Y142.622 E1.00754
G1 X164.609 Y143.515 E1.04047
G1 X164.778 Y143.912 E1.05482
G1 X164.896 Y144.2 E1.06517
G1 X164.949 Y144.335 E1.07
G1 X165.275 Y145.291 E1.10359
G1 X165.4 Y145.722 E1.11852
G1 X165.488 Y146.044 E1.12962
G1 X165.523 Y146.18 E1.13429
G1 X165.719 Y147.106 E1.16577
G1 X165.798 Y147.578 E1.18169
G1 X165.858 Y147.978 E1.19514
G1 X165.875 Y148.109 E1.19954
G1 X165.954 Y149.005 E1.22945
G1 X165.972 Y149.385 E1.24211
G1 X165.983 Y149.728 E1.25352
G1 X165.986 Y149.914 E1.25971
G1 X165.958 Y150.888 E1.29212
G1 X165.924 Y151.356 E1.30772
G1 X165.898 Y151.661 E1.3179
G1 X165.884 Y151.8 E1.32255
G1 X165.739 Y152.784 E1.35563
G1 X165.66 Y153.193 E1.36949
G1 X165.582 Y153.565 E1.38213
G1 X165.546 Y153.722 E1.38749
G1 X165.306 Y154.598 E1.4177
G1 X165.167 Y155.035 E1.43295
G1 X165.065 Y155.341 E1.44368
G1 X165.011 Y155.495 E1.4491
G1 X164.641 Y156.416 E1.48212
G1 X164.492 Y156.743 E1.49407
G1 X164.285 Y157.175 E1.51
G1 X163.79 Y158.079 E1.54428
G1 X163.524 Y158.515 E1.56127
G1 X163.319 Y158.839 E1.57402
G1 X163.261 Y158.927 E1.57753
G1 X162.747 Y159.642 E1.60681
G1 X162.491 Y159.97 E1.62065
G1 X162.265 Y160.25 E1.63262
G1 X162.154 Y160.383 E1.63838
G1 X161.512 Y161.089 E1.67012
G1 X161.197 Y161.406 E1.68498
G1 X160.906 Y161.688 E1.69846
G1 X160.814 Y161.774 E1.70265
G1 X160.13 Y162.362 E1.73265
G1 X159.741 Y162.67 E1.74915
G1 X159.431 Y162.907 E1.76213
G1 X159.344 Y162.971 E1.76572
G1 X158.583 Y163.483 E1.79623
G1 X158.189 Y163.725 E1.81161
G1 X157.909 Y163.892 E1.82245
G1 X157.801 Y163.954 E1.8266
G1 X156.913 Y164.411 E1.85981
G1 X156.486 Y164.607 E1.87544
G1 X156.17 Y164.747 E1.88693
G1 X155.171 Y165.124 E1.92245
G1 X154.725 Y165.268 E1.93804
G1 X154.302 Y165.395 E1.95273
G1 X154.173 Y165.431 E1.95718
G1 X153.373 Y165.622 E1.98454
G1 X152.923 Y165.712 E1.9998
G1 X152.574 Y165.776 E2.0116
G1 X152.448 Y165.797 E2.01585
G1 X151.486 Y165.914 E2.04808
G1 X151.032 Y165.949 E2.06323
G1 X150.657 Y165.972 E2.07572
G1 X150.517 Y165.978 E2.08038
G1 X149.578 Y165.978 E2.11161
G1 X149.132 Y165.959 E2.12646
G1 X148.787 Y165.939 E2.13796
G1 X148.652 Y165.929 E2.14246
G1 X147.707 Y165.818 E2.17411
G1 X147.219 Y165.739 E2.19055
G1 X146.758 Y165.654 E2.20614
G1 X145.833 Y165.431 E2.23779
G1 X145.423 Y165.313 E2.25198
G1 X144.982 Y165.177 E2.26733
G1 X144.043 Y164.831 E2.30061
G1 X143.611 Y164.649 E2.3162
G1 X143.222 Y164.477 E2.33035
G1 X142.304 Y164.009 E2.36462
G1 X141.922 Y163.791 E2.37925
G1 X141.571 Y163.583 E2.39282
G1 X140.73 Y163.021 E2.42646
G1 X140.377 Y162.761 E2.44104
G1 X140.057 Y162.516 E2.45445
G1 X139.945 Y162.427 E2.45921
G1 X139.274 Y161.849 E2.48866
G1 X138.934 Y161.531 E2.50414
G1 X138.67 Y161.275 E2.51638
G1 X138.572 Y161.177 E2.52099
G1 X137.92 Y160.466 E2.55307
G1 X137.64 Y160.132 E2.56757
G1 X137.431 Y159.875 E2.57858
G1 X137.323 Y159.738 E2.58439
G1 X136.76 Y158.956 E2.61644
G1 X136.553 Y158.64 E2.629
G1 X136.356 Y158.327 E2.6413
G1 X136.266 Y158.179 E2.64706
G1 X135.826 Y157.383 E2.67731
G1 X135.591 Y156.913 E2.69479
G1 X135.383 Y156.472 E2.71101
G1 X135.342 Y156.38 E2.71436
G1 X135.032 Y155.609 E2.742
G1 X134.901 Y155.243 E2.75493
G1 X134.804 Y154.959 E2.76491
G1 X134.748 Y154.788 E2.77089
G1 X134.477 Y153.811 E2.80461
G1 X134.365 Y153.32 E2.82136
G1 X134.269 Y152.852 E2.83725
G1 X134.252 Y152.759 E2.8404
G1 X134.134 Y151.94 E2.86792
G1 X134.088 Y151.506 E2.88244
G1 X134.056 Y151.148 E2.89439
G1 X134.046 Y151.011 E2.89896
G1 X134.018 Y150.077 E2.93004
G1 X134.024 Y149.581 E2.94654
G1 X134.035 Y149.199 E2.95925
G1 X134.041 Y149.071 E2.96351
G1 X134.122 Y148.156 E2.99406
G1 X134.173 Y147.767 E3.00711
G1 X134.221 Y147.44 E3.0181
G1 X134.249 Y147.267 E3.02393
G1 X134.447 Y146.313 E3.05634
G1 X134.564 Y145.853 E3.07212
G1 X134.68 Y145.432 E3.08665
G1 X134.71 Y145.331 E3.09015
G1 X134.994 Y144.499 E3.11939
G1 X135.169 Y144.046 E3.13555
G1 X135.298 Y143.727 E3.14699
G1 X135.35 Y143.604 E3.15143
G1 X135.756 Y142.748 E3.18294
G1 X135.951 Y142.379 E3.19682
G1 X136.134 Y142.047 E3.20943
G1 X136.22 Y141.897 E3.21518
G1 X136.724 Y141.1 E3.24655
G1 X136.966 Y140.751 E3.26067
G1 X137.148 Y140.496 E3.27109
G1 X137.243 Y140.367 E3.27642
G1 X137.848 Y139.616 E3.3085
G1 X138.138 Y139.287 E3.32308
G1 X138.398 Y139.003 E3.33589
G1 X138.485 Y138.911 E3.3401
G0 F6000 X138.775 Y139.186
G1 F1200 X139.424 Y138.556 E3.37018
G1 X139.801 Y138.22 E3.38698
G1 X140.085 Y137.976 E3.39943
G1 X140.179 Y137.898 E3.4035
G1 X140.886 Y137.359 E3.43307
G1 X141.236 Y137.115 E3.44726
G1 X141.591 Y136.877 E3.46147
G1 X142.406 Y136.392 E3.49302
G1 X142.797 Y136.182 E3.50778
G1 X143.168 Y135.992 E3.52164
G1 X143.287 Y135.934 E3.52604
G1 X144.066 Y135.592 E3.55434
G1 X144.541 Y135.406 E3.57131
G1 X144.935 Y135.26 E3.58528
G1 X145.036 Y135.225 E3.58884
G1 X145.834 Y134.983 E3.61657
G1 X146.26 Y134.872 E3.63122
G1 X146.71 Y134.765 E3.6466
G1 X147.631 Y134.599 E3.67773
G1 X148.135 Y134.531 E3.69464
G1 X148.814 Y134.462 E3.71734
G1 X149.158 Y134.438 E3.72881
G1 X150.021 Y134.413 E3.75753
G1 X150.359 Y134.417 E3.76877
G1 X151.276 Y134.467 E3.79931
G1 X151.691 Y134.508 E3.81318
G1 X152.086 Y134.555 E3.82641
G1 X152.276 Y134.581 E3.83279
G1 X153.138 Y134.735 E3.86192
G1 X153.57 Y134.831 E3.87664
G1 X153.961 Y134.926 E3.89002
G1 X154.102 Y134.963 E3.89487
G1 X154.919 Y135.213 E3.92328
G1 X155.324 Y135.355 E3.93756
G1 X155.695 Y135.493 E3.95072
G1 X155.84 Y135.55 E3.95591
G1 X156.642 Y135.904 E3.98506
G1 X157.083 Y136.121 E4.00141
G1 X157.442 Y136.306 E4.01484
G1 X158.26 Y136.786 E4.04639
G1 X158.63 Y137.026 E4.06106
G1 X158.953 Y137.244 E4.07402
G1 X159.094 Y137.343 E4.07975
G1 X159.759 Y137.85 E4.10756
G1 X160.083 Y138.118 E4.12155
G1 X160.375 Y138.368 E4.13433
G1 X160.466 Y138.449 E4.13838
G1 X161.11 Y139.074 E4.16823
G1 X161.475 Y139.459 E4.18588
G1 X161.747 Y139.757 E4.1993
G1 X161.812 Y139.831 E4.20257
G1 X162.36 Y140.509 E4.23157
G1 X162.619 Y140.858 E4.24602
G1 X162.842 Y141.168 E4.25872
G1 X163.385 Y142.02 E4.29233
G1 X163.623 Y142.436 E4.30827
G1 X163.828 Y142.811 E4.32248
G1 X164.241 Y143.671 E4.35421
G1 X164.41 Y144.068 E4.36856
G1 X164.524 Y144.346 E4.37856
G1 X164.577 Y144.481 E4.38338
G1 X164.89 Y145.402 E4.41573
G1 X165.015 Y145.833 E4.43066
G1 X165.101 Y146.144 E4.44139
G1 X165.136 Y146.28 E4.44606
G1 X165.325 Y147.172 E4.47639
G1 X165.404 Y147.644 E4.49231
G1 X165.461 Y148.03 E4.50528
G1 X165.478 Y148.161 E4.50968
G1 X165.554 Y149.023 E4.53846
G1 X165.572 Y149.403 E4.55111
G1 X165.583 Y149.734 E4.56213
G1 X165.586 Y149.92 E4.56832
G1 X165.559 Y150.859 E4.59956
G1 X165.525 Y151.327 E4.61517
G1 X165.5 Y151.621 E4.62498
G1 X165.486 Y151.76 E4.62963
G1 X165.347 Y152.708 E4.66149
G1 X165.268 Y153.117 E4.67535
G1 X165.192 Y153.476 E4.68755
G1 X165.156 Y153.633 E4.69291
G1 X164.925 Y154.477 E4.72202
G1 X164.786 Y154.914 E4.73727
G1 X164.688 Y155.209 E4.74761
G1 X164.634 Y155.363 E4.75303
G1 X164.277 Y156.25 E4.78484
G1 X164.128 Y156.577 E4.79679
G1 X164.008 Y156.832 E4.80616
G1 X163.926 Y157 E4.81238
G1 X163.449 Y157.871 E4.84541
G1 X163.183 Y158.307 E4.8624
G1 X162.985 Y158.619 E4.87469
G1 X162.927 Y158.707 E4.87819
G1 X162.432 Y159.396 E4.90641
G1 X162.176 Y159.724 E4.92025
G1 X161.958 Y159.994 E4.93179
G1 X161.847 Y160.127 E4.93755
G1 X161.228 Y160.807 E4.96814
G1 X160.913 Y161.124 E4.983
G1 X160.633 Y161.396 E4.99598
G1 X160.541 Y161.482 E5.00017
G1 X159.882 Y162.048 E5.02906
G1 X159.493 Y162.356 E5.04557
G1 X159.194 Y162.585 E5.05809
G1 X159.107 Y162.649 E5.06169
G1 X158.374 Y163.142 E5.09107
G1 X157.98 Y163.384 E5.10645
G1 X157.601 Y163.607 E5.12107
G1 X156.746 Y164.048 E5.15307
G1 X156.319 Y164.244 E5.1687
G1 X156.011 Y164.38 E5.17989
G1 X155.048 Y164.743 E5.21412
G1 X154.602 Y164.887 E5.22971
G1 X154.194 Y165.01 E5.24388
G1 X154.065 Y165.046 E5.24834
G1 X153.295 Y165.23 E5.27467
G1 X152.845 Y165.32 E5.28993
G1 X152.509 Y165.382 E5.3013
G1 X152.383 Y165.403 E5.30555
G1 X151.455 Y165.516 E5.33664
G1 X151.001 Y165.551 E5.35178
G1 X150.64 Y165.572 E5.36381
G1 X150.5 Y165.578 E5.36847
G1 X149.595 Y165.578 E5.39857
G1 X149.149 Y165.559 E5.41342
G1 X148.817 Y165.54 E5.42448
G1 X148.682 Y165.53 E5.42898
G1 X147.771 Y165.423 E5.45949
G1 X147.283 Y165.344 E5.47593
G1 X146.835 Y165.262 E5.49108
G1 X145.943 Y165.047 E5.5216
G1 X145.533 Y164.929 E5.53579
G1 X145.103 Y164.796 E5.55076
G1 X144.199 Y164.462 E5.58281
G1 X143.767 Y164.28 E5.59841
G1 X143.513 Y164.17 E5.60761
G1 X143.387 Y164.113 E5.61221
G1 X142.502 Y163.661 E5.64526
G1 X142.12 Y163.443 E5.65989
G1 X141.777 Y163.24 E5.67315
G1 X140.967 Y162.699 E5.70555
G1 X140.614 Y162.439 E5.72013
G1 X140.305 Y162.203 E5.73306
G1 X140.193 Y162.114 E5.73782
G1 X139.547 Y161.557 E5.76619
G1 X139.207 Y161.239 E5.78167
G1 X138.855 Y160.894 E5.79806
G1 X138.227 Y160.209 E5.82897
G1 X137.947 Y159.875 E5.84347
G1 X137.746 Y159.627 E5.85409
G1 X137.638 Y159.49 E5.85989
G1 X137.095 Y158.736 E5.89079
G1 X136.888 Y158.42 E5.90336
G1 X136.698 Y158.12 E5.91517
G1 X136.608 Y157.972 E5.92093
G1 X136.184 Y157.204 E5.95011
G1 X135.949 Y156.734 E5.96759
G1 X135.748 Y156.309 E5.98322
G1 X135.707 Y156.217 E5.98657
G1 X135.409 Y155.474 E6.0132
G1 X135.278 Y155.108 E6.02613
G1 X135.184 Y154.835 E6.03573
G1 X135.128 Y154.664 E6.04172
G1 X134.867 Y153.722 E6.07423
G1 X134.755 Y153.231 E6.09098
G1 X134.663 Y152.78 E6.10629
G1 X134.646 Y152.687 E6.10943
G1 X134.532 Y151.898 E6.13595
G1 X134.486 Y151.464 E6.15046
G1 X134.455 Y151.119 E6.16198
G1 X134.445 Y150.982 E6.16655
G1 X134.418 Y150.082 E6.1965
G1 X134.424 Y149.586 E6.213
G1 X134.435 Y149.218 E6.22524
G1 X134.441 Y149.09 E6.2295
G1 X134.519 Y148.208 E6.25895
G1 X134.57 Y147.819 E6.272
G1 X134.616 Y147.503 E6.28262
G1 X134.644 Y147.33 E6.28845
G1 X134.835 Y146.411 E6.31967
G1 X134.952 Y145.951 E6.33546
G1 X135.064 Y145.546 E6.34944
G1 X135.094 Y145.445 E6.35294
G1 X135.367 Y144.643 E6.38112
G1 X135.542 Y144.19 E6.39727
G1 X135.719 Y143.759 E6.41277
G1 X136.11 Y142.934 E6.44313
G1 X136.305 Y142.565 E6.45701
G1 X136.481 Y142.246 E6.46913
G1 X136.567 Y142.096 E6.47488
G1 X137.052 Y141.328 E6.50509
G1 X137.294 Y140.979 E6.51922
G1 X137.47 Y140.733 E6.52928
G1 X137.565 Y140.604 E6.53461
G1 X138.148 Y139.881 E6.5655
G1 X138.438 Y139.552 E6.58008
G1 X138.688 Y139.278 E6.59242
G1 X138.775 Y139.186 E6.59663
G0 F6000 X139.066 Y139.461
G1 F1200 X139.69 Y138.854 E6.62559
G1 X140.067 Y138.518 E6.64238
G1 X140.341 Y138.283 E6.65439
G1 X140.435 Y138.205 E6.65845
G1 X141.115 Y137.688 E6.68686
G1 X141.465 Y137.444 E6.70105
G1 X141.688 Y137.292 E6.71003
G1 X141.811 Y137.211 E6.71493
G1 X142.595 Y136.744 E6.74528
G1 X142.986 Y136.534 E6.76004
G1 X143.343 Y136.351 E6.77338
G1 X143.462 Y136.293 E6.77779
G1 X144.212 Y135.964 E6.80503
G1 X144.687 Y135.778 E6.82199
G1 X145.066 Y135.638 E6.83543
G1 X145.167 Y135.603 E6.83899
G1 X145.935 Y135.371 E6.86567
G1 X146.361 Y135.26 E6.88031
G1 X146.684 Y135.181 E6.89137
G1 X146.799 Y135.155 E6.89529
G1 X147.684 Y134.996 E6.9252
G1 X148.188 Y134.928 E6.94212
G1 X148.842 Y134.861 E6.96398
G1 X149.186 Y134.837 E6.97545
G1 X150.017 Y134.813 E7.0031
G1 X150.355 Y134.817 E7.01434
G1 X151.237 Y134.865 E7.04372
G1 X151.652 Y134.906 E7.05759
G1 X152.032 Y134.951 E7.07032
G1 X152.222 Y134.977 E7.0767
G1 X153.052 Y135.126 E7.10475
G1 X153.484 Y135.222 E7.11946
G1 X153.86 Y135.313 E7.13233
G1 X154.001 Y135.35 E7.13718
G1 X154.787 Y135.59 E7.16451
G1 X155.192 Y135.732 E7.17879
G1 X155.549 Y135.865 E7.19146
G1 X155.694 Y135.922 E7.19664
G1 X156.465 Y136.263 E7.22468
G1 X156.906 Y136.48 E7.24103
G1 X157.255 Y136.659 E7.25407
G1 X158.043 Y137.122 E7.28447
G1 X158.413 Y137.362 E7.29914
G1 X158.723 Y137.571 E7.31158
G1 X158.864 Y137.67 E7.31731
G1 X159.504 Y138.158 E7.34407
G1 X159.828 Y138.426 E7.35806
G1 X160.109 Y138.667 E7.37037
G1 X160.2 Y138.748 E7.37442
G1 X160.82 Y139.349 E7.40314
G1 X161.185 Y139.734 E7.42079
G1 X161.511 Y140.095 E7.43697
G1 X162.039 Y140.747 E7.46487
G1 X162.298 Y141.096 E7.47933
G1 X162.515 Y141.399 E7.49172
G1 X163.037 Y142.219 E7.52405
G1 X163.275 Y142.635 E7.53999
G1 X163.41 Y142.877 E7.54921
G1 X163.476 Y143 E7.55385
G1 X163.873 Y143.828 E7.58439
G1 X164.042 Y144.225 E7.59874
G1 X164.152 Y144.493 E7.60838
G1 X164.205 Y144.628 E7.6132
G1 X164.506 Y145.514 E7.64433
G1 X164.631 Y145.945 E7.65925
G1 X164.713 Y146.244 E7.66956
G1 X164.748 Y146.38 E7.67424
G1 X164.93 Y147.238 E7.70341
G1 X165.009 Y147.71 E7.71932
G1 X165.064 Y148.081 E7.7318
G1 X165.081 Y148.212 E7.73619
G1 X165.155 Y149.042 E7.76391
G1 X165.173 Y149.422 E7.77656
G1 X165.183 Y149.741 E7.78718
G1 X165.186 Y149.927 E7.79336
G1 X165.16 Y150.83 E7.82341
G1 X165.126 Y151.298 E7.83902
G1 X165.102 Y151.581 E7.84846
G1 X165.088 Y151.72 E7.85311
G1 X164.954 Y152.632 E7.88377
G1 X164.875 Y153.041 E7.89762
G1 X164.802 Y153.387 E7.90938
G1 X164.766 Y153.544 E7.91474
G1 X164.544 Y154.356 E7.94274
G1 X164.405 Y154.793 E7.95799
G1 X164.256 Y155.23 E7.97335
G1 X163.913 Y156.084 E8.00396
G1 X163.764 Y156.411 E8.01591
G1 X163.566 Y156.824 E8.03114
G1 X163.107 Y157.662 E8.06292
G1 X162.841 Y158.098 E8.07991
G1 X162.651 Y158.399 E8.09175
G1 X162.593 Y158.487 E8.09525
G1 X162.117 Y159.15 E8.1224
G1 X161.861 Y159.478 E8.13624
G1 X161.651 Y159.738 E8.14736
G1 X161.54 Y159.871 E8.15312
G1 X160.944 Y160.525 E8.18255
G1 X160.629 Y160.842 E8.19741
G1 X160.359 Y161.103 E8.2099
G1 X160.267 Y161.189 E8.21409
G1 X159.634 Y161.735 E8.24189
G1 X159.245 Y162.043 E8.2584
G1 X158.87 Y162.326 E8.27402
G1 X158.164 Y162.801 E8.30232
G1 X157.77 Y163.043 E8.3177
G1 X157.51 Y163.198 E8.32777
G1 X157.402 Y163.26 E8.33191
G1 X156.579 Y163.684 E8.3627
G1 X155.958 Y163.967 E8.3854
G1 X155.852 Y164.013 E8.38925
G1 X154.925 Y164.363 E8.4222
G1 X154.479 Y164.507 E8.43779
G1 X154.087 Y164.625 E8.45141
G1 X153.958 Y164.661 E8.45586
G1 X153.216 Y164.838 E8.48123
G1 X152.766 Y164.928 E8.4965
