;FLAVOR:Marlin
;TIME:2169
;Filament used:0.493309m
;Layer height: 0.15
;MINX:96.071
;MINY:96.085
;MINZ:0.15
;MAXX:123.908
;MAXY:123.925
;MAXZ:7.8
                             
;Creality Print GCode Generated by CXEngine:NO_MAGE_VERSION_GIT_HEAD_BRANCH
;CXEngine Release Time:2022-09-30 09:53:04
;Gcode Generated Time:2023-03-05 03:32:12
;----------Machine Config--------------
;Machine Name:Creality Ender-3
;Machine Height:250
;Machine Width:220
;Machine Depth:220
;Material name:PLA
;Number of Extruders:1
;ExtruderParams[0] Nozzle Diameter1000
;----------Profile Config---------------
;Engine Version:275f99b
;Engine Release Time:2022-09-30 09:42:18
;Layer Height:0.15
;Wall Thickness:0.8
;Top/Bottom Thickness:1
;Out Wall Line Width:0.4
;Inner Wall Line Width:0.4
;Inital Layer Height:150
;Wall Line Count:2
;Infill Line Distance:4
;Infill Pattern:grid
;Infill Sparse Density:20
;Infill Wipe Distance:0
;Print Temperature:200
;Bed Temperature:60
;Support Enable:true
;Support Density:30
;Support Angle:60
;Adhesion Type:none
;machine is belt:false
;machine belt offset:10
;machine belt offset Y:0
;Raft Base Line Spacing:1.6
;Wait Heatup Sync:true
;----------Shell Config----------------
;Outer Wall Wipe Distance:200
;Outer Inset First:false
;Infill Before Walls:false
;Infill Overlap:0.16
;Fill Gaps Between Walls:everywhere
;Minimum Infill Area:1
;Top Surface Skin Layer:0
;Top Layers:4
;Z Seam Alignment:sharpest_corner
;Seam Corner Preference:z_seam_corner_inner
;Z Seam X:110
;Z Seam Y:110
;Horizontal Expansion:0
;Top/Bottom Pattern:zigzag
;Ironing Pattern:zigzag
;Vase Model:false
;----------Support Config----------------
;Support Type:everywhere
;Support Pattern:zigzag
;Support Infill Layer Thickness:0.15
;Minimum Support Area:5
;Enable Support Roof:false
;Support Roof Thickness:0.8
;Support Roof Pattern:lines
;Connect Support Lines:0
;Connect Support ZigZags:1
;Minimum Support X/Y Distance:0.2
;Support Line Distance:1.33
; ---------PrintSpeed & Travel----------
;Enable Print Cool:true
;Avoid Printed Parts Traveling:true
;Enable Retraction:true
;Retraction Distance:8
;Retraction Speed:100
;Retraction Prime Speed:100
;Maximum Retraction Count:100
;Minimum Extrusion Distance Window:1
;Z Hop When Retracted:false
;Z Hop Height:0.2
;Retract Before Outer Wall:true
;Print Speed:50
;Infill Speed:50

;Prime Tower Speed:50
;Travel Speed:120
;Initial Layer Speed:25
;Skirt/Brim Speed:25
;Combing Mode:infill
; --------SpecialModel&Mesh Fixes--------
;Union Overlapping Volum:true
;Remove All Holes:false
;Maximum Travel Resolution:0.6
;Maximum Deviation:0.05
;Maximum Model Angle:0.872665
;IS Mold Print:false
;Make Overhang Printable:false
;Enable Coasting:false
;Coasting Volumes:0.06
;Coasting Speed:0.9
;Raft AirGap:0.25
;Layer0 ZOverLap:0.13
;---------------------End of Head--------------------------
M140 S60
M105
M104 S200
M105
M109 S200
M105
M190 S60
M82 ;absolute extrusion mode
M220 S100 ;Reset Feedrate
M221 S100 ;Reset Flowrate

G28 ;Home

G92 E0 ;Reset Extruder
G1 Z2.0 F3000 ;Move Z Axis up
G1 X10.1 Y20 Z0.28 F5000.0 ;Move to start position
G1 X10.1 Y145.0 Z0.28 F1500.0 E15 ;Draw the first line
G1 X10.4 Y145.0 Z0.28 F5000.0 ;Move to side a little
G1 X10.4 Y20 Z0.28 F1500.0 E30 ;Draw the second line
G92 E0  ;Reset Extruder
G1 E-1.0000 F1800 ;Retract a bit
G1 Z2.0 F3000 ;Move Z Axis up
G1 E0.0000 F1800 

G92 E0
G92 E0
G1 F6000 E-8

;LAYER_COUNT:52

;LAYER:0
M107
G0 F3600 X102.178 Y109.772 Z0.15
;TYPE:SUPPORT
G1 F6000 E0
G1 F1500 X102.278 Y109.929 E0.00409
G1 X102.259 Y110.125 E0.00841
G1 X102.145 Y110.248 E0.01209
G1 X101.938 Y110.28 E0.01669
G1 X101.777 Y110.181 E0.02084
G1 X101.712 Y110.001 E0.02504
G1 X101.776 Y109.818 E0.02929
G1 X101.837 Y109.764 E0.03108
G1 X101.979 Y109.715 E0.03438
G1 X102.178 Y109.772 E0.03892
G0 F3600 X102.416 Y109.443
G1 F1500 X102.562 Y109.593 E0.04352
G1 X102.669 Y109.82 E0.04903
G1 X102.692 Y110.053 E0.05417
G1 X102.628 Y110.293 E0.05962
G1 X102.504 Y110.478 E0.06451
G1 X102.331 Y110.609 E0.06927
G1 X102.092 Y110.686 E0.07478
G1 X101.856 Y110.678 E0.07997
G1 X101.644 Y110.594 E0.08497
G1 X101.466 Y110.441 E0.09013
G1 X101.351 Y110.245 E0.09511
G1 X101.306 Y110.005 E0.10047
G1 X101.346 Y109.77 E0.10571
G1 X101.459 Y109.564 E0.11087
G1 X101.631 Y109.412 E0.1159
G1 X101.933 Y109.307 E0.12292
G1 X102.194 Y109.335 E0.12869
G1 X102.416 Y109.443 E0.1341
G0 F3600 X102.654 Y109.115
G1 F1500 X102.895 Y109.36 E0.14165
G1 X103.06 Y109.712 E0.15018
G1 X103.097 Y110.087 E0.15845
G1 X102.998 Y110.459 E0.1669
G1 X102.8 Y110.756 E0.17474
G1 X102.519 Y110.968 E0.18247
G1 X102.147 Y111.089 E0.19105
G1 X101.773 Y111.075 E0.19927
G1 X101.435 Y110.941 E0.20725
G1 X101.154 Y110.701 E0.21536
G1 X100.971 Y110.387 E0.22334
G1 X100.9 Y110.009 E0.23178
G1 X100.963 Y109.636 E0.24009
G1 X101.141 Y109.311 E0.24822
G1 X101.417 Y109.068 E0.25629
G1 X101.748 Y108.929 E0.26418
G1 X101.928 Y108.904 E0.26816
G1 X102.305 Y108.944 E0.27649
G1 X102.654 Y109.115 E0.28502
G0 F3600 X102.886 Y108.787
G1 F1500 X103.074 Y108.948 E0.29045
G1 X103.225 Y109.132 E0.29568
G1 X103.356 Y109.36 E0.30145
G1 X103.447 Y109.607 E0.30723
G1 X103.494 Y109.855 E0.31277
G1 X103.498 Y110.135 E0.31892
G1 X103.372 Y110.606 E0.32962
G1 X103.257 Y110.823 E0.33501
G1 X103.093 Y111.03 E0.34081
G1 X102.911 Y111.194 E0.34618
G1 X102.702 Y111.326 E0.35161
G1 X102.453 Y111.429 E0.35753
G1 X102.208 Y111.486 E0.36305
G1 X101.957 Y111.499 E0.36857
G1 X101.698 Y111.47 E0.37429
G1 X101.463 Y111.4 E0.37967
G1 X101.231 Y111.287 E0.38533
G1 X101.018 Y111.135 E0.39108
G1 X100.844 Y110.957 E0.39654
G1 X100.699 Y110.748 E0.40213
G1 X100.593 Y110.521 E0.40763
G1 X100.522 Y110.263 E0.4135
G1 X100.497 Y109.994 E0.41943
G1 X100.577 Y109.522 E0.42994
G1 X100.682 Y109.282 E0.43569
G1 X100.823 Y109.066 E0.44135
G1 X100.983 Y108.894 E0.44651
G1 X101.203 Y108.728 E0.45256
G1 X101.429 Y108.611 E0.45814
G1 X101.657 Y108.538 E0.4634
G1 X101.909 Y108.503 E0.46899
G1 X102.185 Y108.512 E0.47505
G1 X102.419 Y108.559 E0.48029
G1 X102.653 Y108.65 E0.4858
G1 X102.886 Y108.787 E0.49173
G0 F3600 X103.116 Y108.459
G1 F1500 X103.36 Y108.667 E0.49877
G1 X103.559 Y108.91 E0.50566
G1 X103.718 Y109.186 E0.51266
G1 X103.834 Y109.499 E0.51998
G1 X103.893 Y109.817 E0.52708
G1 X103.899 Y110.163 E0.53468
G1 X103.852 Y110.441 E0.54087
G1 X103.741 Y110.762 E0.54832
G1 X103.591 Y111.045 E0.55536
G1 X103.387 Y111.304 E0.56259
G1 X103.154 Y111.514 E0.56948
G1 X102.886 Y111.682 E0.57642
G1 X102.574 Y111.812 E0.58384
G1 X102.268 Y111.883 E0.59074
G1 X101.945 Y111.9 E0.59784
G1 X101.618 Y111.863 E0.60506
G1 X101.319 Y111.774 E0.61191
G1 X101.022 Y111.629 E0.61917
G1 X100.76 Y111.442 E0.62623
G1 X100.534 Y111.212 E0.63331
G1 X100.349 Y110.944 E0.64046
G1 X100.218 Y110.663 E0.64726
G1 X100.127 Y110.337 E0.65469
G1 X100.095 Y109.991 E0.66232
G1 X100.119 Y109.714 E0.66842
G1 X100.197 Y109.393 E0.67568
G1 X100.328 Y109.092 E0.68288
G1 X100.505 Y108.821 E0.68999
G1 X100.715 Y108.596 E0.69674
G1 X100.989 Y108.389 E0.70428
G1 X101.276 Y108.24 E0.71138
G1 X101.566 Y108.147 E0.71807
G1 X101.89 Y108.102 E0.72525
G1 X102.229 Y108.113 E0.73269
G1 X102.533 Y108.174 E0.7395
G1 X102.827 Y108.288 E0.74642
G1 X103.116 Y108.459 E0.75379
;;retract;;
G1 F6000 E-7.24621
G0 F3600 X104.496 Y105.158
G0 X110.097 Y112.568
G0 X110.248 Y116.116
G1 F6000 E0.75379
G1 F1500 X110.51 Y116.169 E0.75966
G1 X110.845 Y116.299 E0.76755
G1 X111.12 Y116.461 E0.77455
G1 X111.355 Y116.661 E0.78133
G1 X111.562 Y116.914 E0.7885
G1 X111.728 Y117.203 E0.79582
G1 X111.835 Y117.493 E0.80261
G1 X111.89 Y117.794 E0.80932
G1 X111.896 Y118.158 E0.81731
G1 X111.845 Y118.473 E0.82432
G1 X111.747 Y118.759 E0.83096
G1 X111.592 Y119.046 E0.83812
G1 X111.395 Y119.298 E0.84514
G1 X111.155 Y119.513 E0.85221
G1 X110.884 Y119.683 E0.85923
G1 X110.6 Y119.801 E0.86598
G1 X110.223 Y119.889 E0.87448
G1 X109.966 Y119.902 E0.88013
G1 X109.621 Y119.863 E0.88775
G1 X109.333 Y119.779 E0.89434
G1 X109.006 Y119.619 E0.90233
G1 X108.76 Y119.443 E0.90897
G1 X108.535 Y119.214 E0.91602
G1 X108.353 Y118.949 E0.92307
G1 X108.214 Y118.654 E0.93023
G1 X108.125 Y118.333 E0.93754
G1 X108.091 Y117.979 E0.94535
G1 X108.111 Y117.754 E0.95031
G1 X108.202 Y117.387 E0.95861
G1 X108.328 Y117.098 E0.96553
G1 X108.511 Y116.817 E0.97289
G1 X108.727 Y116.585 E0.97985
G1 X108.979 Y116.395 E0.98678
G1 X109.274 Y116.241 E0.99408
G1 X109.583 Y116.142 E1.00121
G1 X109.865 Y116.103 E1.00746
G1 X110.248 Y116.116 E1.01587
G0 F3600 X110.203 Y116.515
G1 F1500 X109.883 Y116.504 E1.0229
G1 X109.43 Y116.611 E1.03311
G1 X109.191 Y116.736 E1.03904
G1 X108.999 Y116.881 E1.04432
G1 X108.825 Y117.068 E1.04992
G1 X108.683 Y117.285 E1.05562
G1 X108.581 Y117.52 E1.06124
G1 X108.506 Y117.821 E1.06805
G1 X108.52 Y118.261 E1.07771
G1 X108.589 Y118.513 E1.08345
G1 X108.701 Y118.749 E1.08918
G1 X108.846 Y118.961 E1.09482
G1 X109.019 Y119.137 E1.10024
G1 X109.212 Y119.275 E1.10545
G1 X109.477 Y119.404 E1.11192
G1 X109.703 Y119.47 E1.11709
G1 X110.162 Y119.492 E1.12717
G1 X110.483 Y119.417 E1.13441
G1 X110.695 Y119.329 E1.13945
G1 X110.915 Y119.191 E1.14515
G1 X111.103 Y119.022 E1.1507
G1 X111.255 Y118.828 E1.15611
G1 X111.38 Y118.597 E1.16187
G1 X111.455 Y118.378 E1.16695
G1 X111.495 Y118.129 E1.17249
G1 X111.49 Y117.83 E1.17906
G1 X111.448 Y117.599 E1.18421
G1 X111.366 Y117.375 E1.18945
G1 X111.232 Y117.142 E1.19535
G1 X111.068 Y116.942 E1.20102
G1 X110.888 Y116.789 E1.20621
G1 X110.669 Y116.66 E1.21179
G1 X110.203 Y116.515 E1.2225
G0 F3600 X110.136 Y116.913
G1 F1500 X110.505 Y117.028 E1.23099
G1 X110.782 Y117.224 E1.23844
G1 X111.001 Y117.542 E1.24691
G1 X111.091 Y117.872 E1.25442
G1 X111.065 Y118.282 E1.26344
G1 X110.92 Y118.606 E1.27123
G1 X110.678 Y118.867 E1.27904
G1 X110.366 Y119.033 E1.2868
G1 X110.125 Y119.089 E1.29223
G1 X109.768 Y119.072 E1.30008
G1 X109.415 Y118.929 E1.30844
G1 X109.158 Y118.708 E1.31588
G1 X108.967 Y118.378 E1.32425
G1 X108.918 Y118.201 E1.32828
G1 X108.908 Y117.863 E1.3357
G1 X109.036 Y117.477 E1.34463
G1 X109.268 Y117.179 E1.35292
G1 X109.57 Y116.989 E1.36075
G1 X109.921 Y116.906 E1.36867
G1 X110.136 Y116.913 E1.37339
G0 F3600 X110.069 Y117.311
G1 F1500 X109.729 Y117.362 E1.38094
G1 X109.541 Y117.48 E1.38581
G1 X109.394 Y117.669 E1.39107
G1 X109.31 Y117.922 E1.39692
G1 X109.317 Y118.139 E1.40169
G1 X109.47 Y118.448 E1.40926
G1 X109.625 Y118.582 E1.41375
G1 X109.854 Y118.675 E1.41918
G1 X110.088 Y118.686 E1.42432
G1 X110.226 Y118.654 E1.42743
G1 X110.431 Y118.545 E1.43253
G1 X110.582 Y118.382 E1.43741
G1 X110.671 Y118.185 E1.44215
G1 X110.688 Y117.914 E1.44811
G1 X110.633 Y117.712 E1.45271
G1 X110.494 Y117.511 E1.45807
G1 X110.325 Y117.391 E1.46262
G1 X110.069 Y117.311 E1.46851
G0 F3600 X110.038 Y117.721
G1 F1500 X110.205 Y117.796 E1.47253
G1 X110.285 Y117.956 E1.47646
G1 X110.243 Y118.16 E1.48103
G1 X110.086 Y118.276 E1.48531
G1 X109.942 Y118.278 E1.48847
G1 X109.791 Y118.196 E1.49225
G1 X109.712 Y117.981 E1.49727
G1 X109.814 Y117.781 E1.5022
G1 X110.038 Y117.721 E1.50729
;;retract;;
G1 F6000 E-6.49271
G0 F3600 X109.894 Y112.577
G0 X120.663 Y104.703
G0 X118.248 Y108.116
G1 F6000 E1.50729
G1 F1500 X118.51 Y108.169 E1.51316
G1 X118.845 Y108.299 E1.52105
G1 X119.12 Y108.461 E1.52805
G1 X119.355 Y108.661 E1.53483
G1 X119.562 Y108.914 E1.542
G1 X119.728 Y109.203 E1.54932
G1 X119.835 Y109.493 E1.55611
G1 X119.89 Y109.794 E1.56282
G1 X119.896 Y110.155 E1.57075
G1 X119.845 Y110.471 E1.57778
G1 X119.747 Y110.759 E1.58445
G1 X119.589 Y111.055 E1.59182
G1 X119.396 Y111.299 E1.59865
G1 X119.168 Y111.503 E1.60536
G1 X118.891 Y111.678 E1.61256
G1 X118.579 Y111.807 E1.61997
G1 X118.229 Y111.889 E1.62786
G1 X117.967 Y111.902 E1.63362
G1 X117.621 Y111.863 E1.64126
G1 X117.333 Y111.779 E1.64785
G1 X117.006 Y111.619 E1.65584
G1 X116.76 Y111.443 E1.66248
G1 X116.535 Y111.214 E1.66952
G1 X116.353 Y110.949 E1.67658
G1 X116.214 Y110.654 E1.68374
G1 X116.125 Y110.333 E1.69105
G1 X116.091 Y109.979 E1.69886
G1 X116.111 Y109.754 E1.70382
G1 X116.202 Y109.387 E1.71212
G1 X116.328 Y109.098 E1.71904
G1 X116.511 Y108.817 E1.7264
G1 X116.727 Y108.585 E1.73336
G1 X116.979 Y108.395 E1.74029
G1 X117.274 Y108.241 E1.74759
G1 X117.583 Y108.142 E1.75471
G1 X117.865 Y108.103 E1.76096
G1 X118.248 Y108.116 E1.76938
G0 F3600 X118.203 Y108.515
G1 F1500 X117.883 Y108.504 E1.7764
G1 X117.43 Y108.611 E1.78662
G1 X117.191 Y108.736 E1.79254
G1 X116.999 Y108.881 E1.79782
G1 X116.825 Y109.068 E1.80343
G1 X116.683 Y109.285 E1.80912
G1 X116.581 Y109.52 E1.81475
G1 X116.506 Y109.821 E1.82156
G1 X116.52 Y110.261 E1.83122
G1 X116.589 Y110.513 E1.83696
G1 X116.701 Y110.749 E1.84269
G1 X116.846 Y110.961 E1.84833
G1 X117.019 Y111.137 E1.85375
G1 X117.212 Y111.275 E1.85895
G1 X117.477 Y111.404 E1.86542
G1 X117.703 Y111.47 E1.87059
G1 X118.178 Y111.491 E1.88103
G1 X118.451 Y111.427 E1.88719
G1 X118.708 Y111.32 E1.8933
G1 X118.926 Y111.183 E1.89895
G1 X119.104 Y111.024 E1.90419
G1 X119.254 Y110.834 E1.9095
G1 X119.378 Y110.602 E1.91528
G1 X119.456 Y110.373 E1.92059
G1 X119.495 Y110.126 E1.92608
G1 X119.49 Y109.83 E1.93257
G1 X119.448 Y109.599 E1.93773
G1 X119.366 Y109.375 E1.94296
G1 X119.232 Y109.142 E1.94887
G1 X119.068 Y108.942 E1.95454
G1 X118.888 Y108.789 E1.95973
G1 X118.669 Y108.66 E1.96531
G1 X118.203 Y108.515 E1.97602
G0 F3600 X118.136 Y108.913
G1 F1500 X118.505 Y109.028 E1.98451
G1 X118.782 Y109.224 E1.99195
G1 X119.001 Y109.542 E2.00043
G1 X119.091 Y109.872 E2.00794
G1 X119.067 Y110.274 E2.01678
G1 X118.917 Y110.615 E2.02496
G1 X118.689 Y110.859 E2.03229
G1 X118.326 Y111.046 E2.04125
G1 X118.144 Y111.089 E2.04536
G1 X117.767 Y111.072 E2.05364
G1 X117.415 Y110.929 E2.06198
G1 X117.158 Y110.708 E2.06942
G1 X116.967 Y110.378 E2.07779
G1 X116.918 Y110.201 E2.08182
G1 X116.908 Y109.863 E2.08925
G1 X117.036 Y109.477 E2.09817
G1 X117.268 Y109.179 E2.10646
G1 X117.57 Y108.989 E2.1143
G1 X117.921 Y108.906 E2.12221
G1 X118.136 Y108.913 E2.12694
G0 F3600 X118.069 Y109.311
G1 F1500 X117.729 Y109.362 E2.13448
G1 X117.541 Y109.48 E2.13936
G1 X117.394 Y109.669 E2.14461
G1 X117.31 Y109.922 E2.15046
G1 X117.317 Y110.139 E2.15523
G1 X117.47 Y110.448 E2.1628
G1 X117.625 Y110.582 E2.1673
G1 X117.854 Y110.675 E2.17272
G1 X118.109 Y110.687 E2.17833
G1 X118.445 Y110.534 E2.18643
G1 X118.578 Y110.392 E2.1907
G1 X118.672 Y110.178 E2.19583
G1 X118.688 Y109.915 E2.20162
G1 X118.633 Y109.712 E2.20623
G1 X118.494 Y109.511 E2.2116
G1 X118.325 Y109.391 E2.21615
G1 X118.069 Y109.311 E2.22203
G0 F3600 X118.038 Y109.721
G1 F1500 X118.205 Y109.796 E2.22605
G1 X118.285 Y109.957 E2.23
G1 X118.239 Y110.169 E2.23476
G1 X118.032 Y110.282 E2.23994
G1 X117.837 Y110.236 E2.24434
G1 X117.714 Y110.041 E2.2494
G1 X117.752 Y109.861 E2.25344
G1 X117.871 Y109.746 E2.25707
G1 X118.038 Y109.721 E2.26078
;;retract;;
G1 F6000 E-5.73922
G0 F3600 X115.516 Y105.151
G0 X111.779 Y96.343
G0 X110.248 Y100.116
G1 F6000 E2.26078
G1 F1500 X110.51 Y100.169 E2.26664
G1 X110.845 Y100.299 E2.27453
G1 X111.12 Y100.461 E2.28154
G1 X111.355 Y100.661 E2.28831
G1 X111.562 Y100.914 E2.29549
G1 X111.728 Y101.203 E2.3028
G1 X111.835 Y101.493 E2.30959
G1 X111.89 Y101.794 E2.31631
G1 X111.896 Y102.158 E2.3243
G1 X111.845 Y102.473 E2.3313
G1 X111.746 Y102.761 E2.33799
G1 X111.602 Y103.029 E2.34467
G1 X111.387 Y103.303 E2.35231
G1 X111.154 Y103.512 E2.35918
G1 X110.891 Y103.678 E2.36601
G1 X110.573 Y103.81 E2.37357
G1 X110.241 Y103.888 E2.38105
G1 X109.955 Y103.902 E2.38734
G1 X109.614 Y103.863 E2.39487
G1 X109.326 Y103.779 E2.40146
G1 X109.005 Y103.623 E2.40929
G1 X108.773 Y103.456 E2.41557
G1 X108.533 Y103.211 E2.4231
G1 X108.353 Y102.949 E2.43008
G1 X108.212 Y102.647 E2.43739
G1 X108.127 Y102.339 E2.44441
G1 X108.091 Y101.978 E2.45237
G1 X108.111 Y101.754 E2.45731
G1 X108.202 Y101.387 E2.46561
G1 X108.328 Y101.098 E2.47253
G1 X108.511 Y100.817 E2.47989
G1 X108.727 Y100.585 E2.48685
G1 X108.979 Y100.395 E2.49378
G1 X109.274 Y100.241 E2.50108
G1 X109.583 Y100.142 E2.5082
G1 X109.865 Y100.103 E2.51445
G1 X110.248 Y100.116 E2.52286
G0 F3600 X110.203 Y100.515
G1 F1500 X109.883 Y100.504 E2.52989
G1 X109.43 Y100.611 E2.54011
G1 X109.191 Y100.736 E2.54603
G1 X108.999 Y100.881 E2.55131
G1 X108.825 Y101.068 E2.55692
