;FLAVOR:Marlin
;TIME:412
;Filament used:0.0687376m
;Layer height: 0.15
;MINX:104.653
;MINY:104.33
;MINZ:0.15
;MAXX:115.663
;MAXY:114.779
;MAXZ:9.45
                           
;Creality Print GCode Generated by CXEngine:NO_MAGE_VERSION_GIT_HEAD_BRANCH
;CXEngine Release Time:2022-09-30 09:53:04
;Gcode Generated Time:2023-03-05 03:31:32
;----------Machine Config--------------
;Machine Name:Creality Ender-3
;Machine Height:250
;Machine Width:220
;Machine Depth:220
;Material name:PLA
;Number of Extruders:1
;ExtruderParams[0] Nozzle Diameter1000
;----------Profile Config---------------
;Engine Version:275f99b
;Engine Release Time:2022-09-30 09:42:18
;Layer Height:0.15
;Wall Thickness:0.8
;Top/Bottom Thickness:1
;Out Wall Line Width:0.4
;Inner Wall Line Width:0.4
;Inital Layer Height:150
;Wall Line Count:2
;Infill Line Distance:4
;Infill Pattern:grid
;Infill Sparse Density:20
;Infill Wipe Distance:0
;Print Temperature:200
;Bed Temperature:60
;Support Enable:true
;Support Density:30
;Support Angle:60
;Adhesion Type:none
;machine is belt:false
;machine belt offset:10
;machine belt offset Y:0
;Raft Base Line Spacing:1.6
;Wait Heatup Sync:true
;----------Shell Config----------------
;Outer Wall Wipe Distance:200
;Outer Inset First:false
;Infill Before Walls:false
;Infill Overlap:0.16
;Fill Gaps Between Walls:everywhere
;Minimum Infill Area:1
;Top Surface Skin Layer:0
;Top Layers:4
;Z Seam Alignment:sharpest_corner
;Seam Corner Preference:z_seam_corner_inner
;Z Seam X:110
;Z Seam Y:110
;Horizontal Expansion:0
;Top/Bottom Pattern:zigzag
;Ironing Pattern:zigzag
;Vase Model:false
;----------Support Config----------------
;Support Type:everywhere
;Support Pattern:zigzag
;Support Infill Layer Thickness:0.15
;Minimum Support Area:5
;Enable Support Roof:false
;Support Roof Thickness:0.8
;Support Roof Pattern:lines
;Connect Support Lines:0
;Connect Support ZigZags:1
;Minimum Support X/Y Distance:0.2
;Support Line Distance:1.33
; ---------PrintSpeed & Travel----------
;Enable Print Cool:true
;Avoid Printed Parts Traveling:true
;Enable Retraction:true
;Retraction Distance:8
;Retraction Speed:100
;Retraction Prime Speed:100
;Maximum Retraction Count:100
;Minimum Extrusion Distance Window:1
;Z Hop When Retracted:false
;Z Hop Height:0.2
;Retract Before Outer Wall:true
;Print Speed:50
;Infill Speed:50

;Prime Tower Speed:50
;Travel Speed:120
;Initial Layer Speed:25
;Skirt/Brim Speed:25
;Combing Mode:infill
; --------SpecialModel&Mesh Fixes--------
;Union Overlapping Volum:true
;Remove All Holes:false
;Maximum Travel Resolution:0.6
;Maximum Deviation:0.05
;Maximum Model Angle:0.872665
;IS Mold Print:false
;Make Overhang Printable:false
;Enable Coasting:false
;Coasting Volumes:0.06
;Coasting Speed:0.9
;Raft AirGap:0.25
;Layer0 ZOverLap:0.13
;---------------------End of Head--------------------------
M140 S60
M105
M104 S200
M105
M109 S200
M105
M190 S60
M82 ;absolute extrusion mode
M220 S100 ;Reset Feedrate
M221 S100 ;Reset Flowrate

G28 ;Home

G92 E0 ;Reset Extruder
G1 Z2.0 F3000 ;Move Z Axis up
G1 X10.1 Y20 Z0.28 F5000.0 ;Move to start position
G1 X10.1 Y145.0 Z0.28 F1500.0 E15 ;Draw the first line
G1 X10.4 Y145.0 Z0.28 F5000.0 ;Move to side a little
G1 X10.4 Y20 Z0.28 F1500.0 E30 ;Draw the second line
G92 E0  ;Reset Extruder
G1 E-1.0000 F1800 ;Retract a bit
G1 Z2.0 F3000 ;Move Z Axis up
G1 E0.0000 F1800 

G92 E0
G92 E0
G1 F6000 E-8

;LAYER_COUNT:63

;LAYER:0
M107
G0 F3600 X110.885 Y106.762 Z0.15
;TYPE:SUPPORT
G1 F6000 E0
G1 F1500 X111.266 Y106.891 E0.00883
G1 X111.63 Y107.069 E0.01772
G1 X111.919 Y107.26 E0.02533
G1 X108.061 Y107.26 E0.11002
G1 X108.443 Y107.03 E0.11981
G1 X108.836 Y106.855 E0.12925
G1 X109.194 Y106.742 E0.13749
G1 X109.696 Y106.662 E0.14865
G1 X110.024 Y106.644 E0.15586
G1 X110.885 Y106.762 E0.17494
G0 F3600 X110.988 Y106.374
G1 F1500 X111.415 Y106.519 E0.18484
G1 X111.83 Y106.722 E0.19498
G1 X112.31 Y107.039 E0.20761
G1 X112.581 Y107.268 E0.21539
G1 X112.915 Y107.63 E0.22621
G1 X113.322 Y108.253 E0.24254
G1 X112.729 Y107.66 E0.26095
G1 X107.271 Y107.66 E0.38076
G1 X106.685 Y108.246 E0.39896
G1 X106.848 Y107.957 E0.40624
G1 X107.139 Y107.565 E0.41696
G1 X107.499 Y107.192 E0.42834
G1 X107.792 Y106.955 E0.43661
G1 X108.255 Y106.676 E0.44847
G1 X108.699 Y106.478 E0.45915
G1 X109.099 Y106.352 E0.46835
G1 X109.65 Y106.264 E0.4806
G1 X110.029 Y106.243 E0.48893
G1 X110.349 Y106.265 E0.49597
G1 X110.988 Y106.374 E0.5102
G0 F3600 X111.09 Y105.986
G1 F1500 X111.564 Y106.147 E0.52119
G1 X112.033 Y106.376 E0.53265
G1 X112.543 Y106.713 E0.54607
G1 X112.86 Y106.981 E0.55518
G1 X113.231 Y107.383 E0.56719
G1 X113.547 Y107.834 E0.57928
G1 X113.769 Y108.234 E0.58932
G1 X113.973 Y108.763 E0.60177
G1 X114.091 Y109.238 E0.61251
G1 X114.154 Y109.785 E0.6246
G1 X114.152 Y110.253 E0.63487
G1 X114.073 Y110.839 E0.64785
G1 X113.927 Y111.359 E0.65971
G1 X113.767 Y111.772 E0.66943
G1 X113.49 Y112.261 E0.68177
G1 X113.179 Y112.684 E0.69329
G1 X112.811 Y113.068 E0.70497
G1 X112.415 Y113.389 E0.71616
G1 X111.967 Y113.666 E0.72772
G1 X111.479 Y113.886 E0.73947
G1 X111.007 Y114.037 E0.75035
G1 X110.392 Y114.135 E0.76402
G1 X109.956 Y114.158 E0.7736
G1 X109.439 Y114.125 E0.78498
G1 X108.965 Y114.03 E0.79559
G1 X108.453 Y113.859 E0.80744
G1 X107.932 Y113.606 E0.82015
G1 X107.46 Y113.29 E0.83262
G1 X107.136 Y113.021 E0.84186
G1 X106.72 Y112.551 E0.85564
G1 X106.475 Y112.21 E0.86486
G1 X106.236 Y111.773 E0.87579
G1 X106.026 Y111.23 E0.88857
G1 X105.914 Y110.781 E0.89873
G1 X105.847 Y110.22 E0.91113
G1 X105.857 Y109.685 E0.92288
G1 X105.918 Y109.191 E0.93381
G1 X106.083 Y108.607 E0.94713
G1 X106.222 Y108.253 E0.95548
G1 X106.511 Y107.739 E0.96842
G1 X106.834 Y107.305 E0.9803
G1 X107.225 Y106.9 E0.99266
G1 X107.563 Y106.627 E1.00219
G1 X108.069 Y106.321 E1.01517
G1 X108.562 Y106.101 E1.02702
G1 X109.005 Y105.962 E1.03722
G1 X109.602 Y105.866 E1.05049
G1 X110.035 Y105.842 E1.06001
G1 X110.395 Y105.867 E1.06793
G1 X111.09 Y105.986 E1.08341
G0 F3600 X111.19 Y105.598
G1 F1500 X111.718 Y105.777 E1.09565
G1 X112.233 Y106.028 E1.10822
G1 X112.776 Y106.387 E1.12251
G1 X113.139 Y106.694 E1.13295
G1 X113.547 Y107.136 E1.14615
G1 X113.885 Y107.618 E1.15908
G1 X114.131 Y108.062 E1.17022
G1 X114.355 Y108.643 E1.18389
G1 X114.485 Y109.164 E1.19568
G1 X114.554 Y109.767 E1.209
G1 X114.552 Y110.277 E1.2202
G1 X114.465 Y110.922 E1.23448
G1 X114.306 Y111.489 E1.24741
G1 X114.13 Y111.942 E1.25808
G1 X113.827 Y112.478 E1.27159
G1 X113.483 Y112.945 E1.28433
G1 X113.083 Y113.363 E1.29703
G1 X112.651 Y113.713 E1.30923
G1 X112.151 Y114.022 E1.32213
G1 X111.623 Y114.26 E1.33485
G1 X111.1 Y114.427 E1.3469
G1 X110.438 Y114.533 E1.36162
G1 X109.952 Y114.558 E1.3723
G1 X109.386 Y114.522 E1.38475
G1 X108.858 Y114.416 E1.39657
G1 X108.302 Y114.231 E1.40943
G1 X107.734 Y113.955 E1.4233
G1 X107.221 Y113.611 E1.43685
G1 X106.855 Y113.308 E1.44729
G1 X106.412 Y112.807 E1.46197
G1 X106.411 Y112.807 E1.46199
G1 X106.135 Y112.422 E1.47239
G1 X105.873 Y111.943 E1.48437
G1 X105.644 Y111.35 E1.49833
G1 X105.52 Y110.854 E1.50955
G1 X105.446 Y110.239 E1.52315
G1 X105.457 Y109.656 E1.53595
G1 X105.525 Y109.111 E1.548
G1 X105.702 Y108.484 E1.5623
G1 X105.862 Y108.077 E1.5719
G1 X106.174 Y107.521 E1.5859
G1 X106.529 Y107.045 E1.59893
G1 X106.951 Y106.608 E1.61227
G1 X107.334 Y106.299 E1.62307
G1 X107.883 Y105.966 E1.63717
G1 X108.423 Y105.725 E1.65015
G1 X108.913 Y105.572 E1.66142
G1 X109.554 Y105.468 E1.67567
G1 X110.041 Y105.442 E1.68638
G1 X110.442 Y105.469 E1.6952
G1 X111.19 Y105.598 E1.71186
G0 F3600 X112.563 Y108.06
G1 F1500 X107.437 Y108.06 E1.82439
G1 X106.36 Y109.137 E1.85782
G1 X106.36 Y110.863 E1.89571
G1 X107.437 Y111.94 E1.92915
G1 X112.563 Y111.94 E2.04167
G1 X113.64 Y110.863 E2.0751
G1 X113.64 Y109.137 E2.11299
G1 X112.563 Y108.06 E2.14643
G0 F3600 X112.397 Y108.46
G1 F1500 X107.603 Y108.46 E2.25166
G1 X106.76 Y109.303 E2.27784
G1 X106.76 Y110.697 E2.30844
G1 X107.603 Y111.54 E2.33461
G1 X112.397 Y111.54 E2.43984
G1 X113.24 Y110.697 E2.46601
G1 X113.24 Y109.303 E2.49661
G1 X112.397 Y108.46 E2.52278
G0 F3600 X113.321 Y111.748
G1 F1500 X113.153 Y112.044 E2.53026
G1 X112.875 Y112.423 E2.54057
G1 X112.539 Y112.773 E2.55122
G1 X112.179 Y113.065 E2.5614
G1 X111.782 Y113.31 E2.57164
G1 X111.335 Y113.512 E2.58241
G1 X110.914 Y113.647 E2.59211
G1 X110.346 Y113.737 E2.60474
G1 X109.96 Y113.758 E2.61322
G1 X109.492 Y113.728 E2.62352
G1 X109.067 Y113.643 E2.63303
G1 X108.608 Y113.489 E2.64366
G1 X108.129 Y113.257 E2.65534
G1 X107.704 Y112.972 E2.66658
G1 X107.414 Y112.732 E2.67484
G1 X107.031 Y112.298 E2.68755
G1 X106.815 Y111.998 E2.69566
G1 X106.678 Y111.747 E2.70194
G1 X107.271 Y112.34 E2.72035
G1 X112.729 Y112.34 E2.84016
G1 X113.321 Y111.748 E2.85854
G0 F3600 X111.944 Y112.74
G1 F1500 X111.6 Y112.953 E2.86742
G1 X111.187 Y113.139 E2.87736
G1 X110.821 Y113.257 E2.8858
G1 X110.3 Y113.339 E2.89738
G1 X109.964 Y113.358 E2.90477
G1 X109.543 Y113.331 E2.91403
G1 X109.17 Y113.256 E2.92238
G1 X108.76 Y113.118 E2.93188
G1 X108.329 Y112.91 E2.94238
G1 X108.076 Y112.74 E2.94907
G1 X111.944 Y112.74 E3.03398
;;retract;;
G1 F6000 E-4.96602
;MESH:
G0 F3600 X111.8 Y110.1
;TYPE:WALL-OUTER
G1 F6000 E3.03398
G1 F600 X108.2 Y110.1 E3.13277
G1 X108.2 Y109.9 E3.13825
G1 X111.8 Y109.9 E3.18764
G1 X111.8 Y110.1 E3.19313
G0 F3600 X111.6 Y110.1
;;retract;;
G1 F6000 E-4.80687
;MESH:NONMESH
G0 F600 X111.6 Y110.1 Z0.3
G0 F3600 X115.663 Y110.118
G0 X115.581 Y108.98
G0 X115.42 Y108.324
G0 X115.134 Y107.586
G0 X114.423 Y106.449
G0 X113.911 Y105.894
G0 X113.453 Y105.505
G0 X112.788 Y105.065
G0 X112.145 Y104.751
G0 X111.476 Y104.524
G0 X110.741 Y104.376
G0 X109.452 Y104.363
G0 X108.658 Y104.492
G0 X108.033 Y104.684
G0 X107.368 Y104.981
G0 X106.69 Y105.392
G0 X105.776 Y106.227
G0 X106.4 Y106.829
;TIME_ELAPSED:13.979416

;LAYER:1
M140 S60
M106 S127.5
;TYPE:SUPPORT
G1 F6000 E3.19313
G1 F2250 X106.693 Y106.52 E3.20163
G1 X106.779 Y106.439 E3.20399
G1 X107.143 Y106.144 E3.21334
G1 X107.197 Y106.101 E3.21472
G1 X107.605 Y105.845 E3.22433
G0 F5400 X107.605 Y105.846
G1 F2250 X107.73 Y105.776 E3.22719
G1 X107.73 Y108.7 E3.28554
G1 X109.06 Y108.7 E3.31208
G1 X109.06 Y105.299 E3.37995
G1 X109.373 Y105.239 E3.38631
G1 X109.54 Y105.227 E3.38965
G0 F5400 X109.54 Y105.228
G1 F2250 X109.949 Y105.201 E3.39783
G1 X110.051 Y105.201 E3.39987
G1 X110.39 Y105.224 E3.40665
G1 X110.39 Y108.7 E3.47602
G1 X111.72 Y108.7 E3.50256
G1 X112.297 Y108.7 E3.51407
G1 X113 Y109.403 E3.53391
G1 X113 Y110.597 E3.55774
G1 X112.297 Y111.3 E3.57758
G1 X111.72 Y111.3 E3.58909
G1 X111.72 Y114.48 E3.65255
G1 X111.692 Y114.49 E3.65315
G1 X111.221 Y114.644 E3.66304
G1 X111.156 Y114.66 E3.66437
G1 X110.642 Y114.76 E3.67482
G1 X110.452 Y114.773 E3.67862
G1 X110.39 Y114.778 E3.67986
G1 X110.39 Y111.3 E3.74927
G1 X109.06 Y111.3 E3.77581
G1 X109.06 Y114.702 E3.8437
G1 X108.844 Y114.66 E3.84809
G1 X108.779 Y114.644 E3.84943
G1 X108.308 Y114.49 E3.85932
G1 X108.201 Y114.449 E3.86161
G1 X107.737 Y114.233 E3.87182
G1 X107.73 Y114.229 E3.87198
G1 X107.73 Y111.3 E3.93043
G1 X107.703 Y111.3 E3.93097
G1 X107 Y110.597 E3.95081
G1 X107 Y109.403 E3.97464
G1 X107.703 Y108.7 E3.99448
G1 X107.73 Y108.7 E3.99502
G0 F5400 X106.347 Y106.885
G1 F2250 X106.275 Y106.977 E3.99735
G1 X105.97 Y107.392 E4.00763
G1 X105.957 Y107.414 E4.00814
G1 X105.649 Y107.966 E4.02075
G1 X105.467 Y108.429 E4.03068
G1 X105.413 Y108.582 E4.03392
G1 X105.293 Y109.05 E4.04356
G0 F5400 X105.292 Y109.05
G1 F2250 X105.282 Y109.098 E4.04454
G1 X105.22 Y109.615 E4.05493
G0 F5400 X105.219 Y109.615
G1 F2250 X105.206 Y109.757 E4.05777
G1 X105.206 Y110.255 E4.06771
G1 X105.208 Y110.284 E4.06829
G0 F5400 X105.209 Y110.284
G1 F2250 X105.284 Y110.905 E4.08078
G1 X105.291 Y110.936 E4.08141
G1 X105.411 Y111.413 E4.09123
G1 X105.466 Y111.569 E4.09453
G1 X105.656 Y112.048 E4.10481
G1 X105.686 Y112.102 E4.10604
G1 X105.932 Y112.551 E4.11626
G1 X105.957 Y112.593 E4.11723
G1 X106.25 Y112.991 E4.1271
G1 X106.332 Y113.096 E4.12976
G1 X106.4 Y113.169 E4.13175
G1 X106.4 Y106.829 E4.25827
G1 X106.347 Y106.885 E4.25981
;;retract;;
G1 F6000 E-3.74019
G0 F5400 X105.723 Y106.282
G0 X106.189 Y105.799
G0 X106.691 Y105.392
G0 X107.364 Y104.983
G0 X108.055 Y104.676
G0 X108.656 Y104.492
G0 X110.069 Y104.33
G0 X110.744 Y104.376
G0 X111.48 Y104.526
G0 X112.142 Y104.749
G0 X112.778 Y105.059
G0 X113.427 Y105.485
G0 X114.308 Y106.325
G0 X111.72 Y108.7
G1 F6000 E4.25981
G1 F2250 X111.72 Y105.523 E4.32321
G1 X111.813 Y105.556 E4.32518
G1 X112.241 Y105.756 E4.3346
G1 X112.346 Y105.815 E4.33701
G1 X112.816 Y106.113 E4.34811
G1 X112.904 Y106.181 E4.35033
G1 X113.05 Y106.3 E4.35409
G1 X113.05 Y113.7 E4.50177
G1 X113.241 Y113.545 E4.50668
G1 X113.307 Y113.485 E4.50846
G1 X113.663 Y113.103 E4.51888
G1 X113.751 Y112.99 E4.52173
G1 X114.036 Y112.598 E4.53141
G1 X114.078 Y112.528 E4.53304
G1 X114.344 Y112.05 E4.54395
G1 X114.38 Y111.958 E4.54592
G1 X114.543 Y111.54 E4.55488
G1 X114.595 Y111.396 E4.55793
G1 X114.707 Y110.946 E4.56719
G1 X114.72 Y110.887 E4.56839
G1 X114.792 Y110.292 E4.58035
G1 X114.794 Y110.255 E4.58109
G1 X114.794 Y109.746 E4.59125
G1 X114.782 Y109.611 E4.59395
G0 F5400 X114.781 Y109.611
G1 F2250 X114.723 Y109.132 E4.60358
G1 X114.669 Y108.91 E4.60814
G1 X114.586 Y108.576 E4.61501
G1 X114.539 Y108.447 E4.61775
G1 X114.38 Y108.043 E4.62641
G1 X114.38 Y111.958 E4.70454
;;retract;;
G1 F6000 E-3.29546
;MESH:
G0 F5400 X111.8 Y110.1
;TYPE:WALL-OUTER
G1 F6000 E4.70454
G1 F600 X108.2 Y110.1 E4.79435
G1 X108.2 Y109.9 E4.79933
G1 X111.8 Y109.9 E4.84424
G1 X111.8 Y110.1 E4.84922
G0 F5400 X111.6 Y110.1
;;retract;;
G1 F6000 E-3.15078
;MESH:NONMESH
G0 F600 X111.6 Y110.1 Z0.45
G0 F5400 X115.663 Y110.118
G0 X115.581 Y108.983
G0 X115.419 Y108.322
G0 X115.136 Y107.589
G0 X114.427 Y106.455
G0 X113.913 Y105.895
G0 X113.427 Y105.485
G0 X112.778 Y105.059
G0 X112.142 Y104.749
G0 X111.48 Y104.526
G0 X110.744 Y104.376
G0 X109.456 Y104.362
G0 X108.656 Y104.492
G0 X108.055 Y104.676
G0 X107.364 Y104.983
G0 X106.691 Y105.392
G0 X105.776 Y106.226
G0 X106.4 Y106.829
;TIME_ELAPSED:21.023502

;LAYER:2
M106 S255
;TYPE:SUPPORT
G1 F6000 E4.84922
G1 F3000 X106.343 Y106.89 E4.85089
G1 X106.263 Y106.992 E4.85348
G1 X105.967 Y107.397 E4.86349
G1 X105.959 Y107.411 E4.86381
G1 X105.648 Y107.967 E4.87652
G1 X105.463 Y108.44 E4.88666
G1 X105.415 Y108.576 E4.88954
G1 X105.291 Y109.059 E4.89949
G0 F7200 X105.29 Y109.059
G1 F3000 X105.281 Y109.101 E4.90035
G1 X105.217 Y109.64 E4.91118
G0 F7200 X105.216 Y109.64
G1 F3000 X105.206 Y109.753 E4.91344
G1 X105.206 Y110.26 E4.92356
G1 X105.207 Y110.278 E4.92392
G0 F7200 X105.208 Y110.278
G1 F3000 X105.283 Y110.899 E4.9364
G1 X105.293 Y110.948 E4.9374
G1 X105.411 Y111.413 E4.94697
G1 X105.465 Y111.567 E4.95023
G1 X105.655 Y112.044 E4.96048
G1 X105.688 Y112.106 E4.96188
G1 X105.924 Y112.537 E4.97168
G0 F7200 X105.925 Y112.537
G1 F3000 X105.963 Y112.599 E4.97314
G1 X106.251 Y112.993 E4.98287
G1 X106.33 Y113.093 E4.98542
G1 X106.4 Y113.168 E4.98747
G1 X106.4 Y106.829 E5.11397
G1 X106.693 Y106.52 E5.12246
G1 X106.776 Y106.442 E5.12474
G1 X107.153 Y106.136 E5.13443
G1 X107.196 Y106.102 E5.13552
G1 X107.617 Y105.838 E5.14544
G1 X107.73 Y105.774 E5.14803
G1 X107.73 Y108.7 E5.20642
G1 X109.06 Y108.7 E5.23296
G1 X109.06 Y105.299 E5.30083
G1 X109.373 Y105.239 E5.30719
G1 X109.533 Y105.227 E5.3104
G0 F7200 X109.533 Y105.228
G1 F3000 X109.944 Y105.201 E5.31861
G1 X110.056 Y105.201 E5.32085
G1 X110.39 Y105.223 E5.32753
G1 X110.39 Y108.7 E5.39692
G1 X111.72 Y108.7 E5.42346
G1 X112.297 Y108.7 E5.43497
G1 X113 Y109.403 E5.45481
G1 X113 Y110.597 E5.47864
G1 X112.297 Y111.3 E5.49848
G1 X111.72 Y111.3 E5.51
G1 X111.72 Y114.48 E5.57346
G1 X111.688 Y114.492 E5.57414
G1 X111.231 Y114.641 E5.58373
G1 X111.147 Y114.662 E5.58546
G1 X110.649 Y114.759 E5.59558
G1 X110.448 Y114.773 E5.5996
G1 X110.39 Y114.777 E5.60076
G1 X110.39 Y111.3 E5.67015
G1 X109.06 Y111.3 E5.69669
G1 X109.06 Y114.702 E5.76458
G1 X108.853 Y114.662 E5.76879
G1 X108.769 Y114.641 E5.77052
G1 X108.312 Y114.492 E5.78011
G1 X108.202 Y114.45 E5.78246
G1 X107.735 Y114.233 E5.79274
G1 X107.73 Y114.23 E5.79285
G1 X107.73 Y111.3 E5.85133
G1 X107.703 Y111.3 E5.85186
G1 X107 Y110.597 E5.8717
