;FLAVOR:Marlin
;TIME:158
;Filament used:0.0474067m
;Layer height: 0.15
;MINX:104.8
;MINY:103.58
;MINZ:0.15
;MAXX:116.07
;MAXY:116.42
;MAXZ:0.9
                                
;Creality Print GCode Generated by CXEngine:NO_MAGE_VERSION_GIT_HEAD_BRANCH
;CXEngine Release Time:2022-09-30 09:53:04
;Gcode Generated Time:2023-03-05 03:33:27
;----------Machine Config--------------
;Machine Name:Creality Ender-3
;Machine Height:250
;Machine Width:220
;Machine Depth:220
;Material name:PLA
;Number of Extruders:1
;ExtruderParams[0] Nozzle Diameter1000
;----------Profile Config---------------
;Engine Version:275f99b
;Engine Release Time:2022-09-30 09:42:18
;Layer Height:0.15
;Wall Thickness:0.8
;Top/Bottom Thickness:1
;Out Wall Line Width:0.4
;Inner Wall Line Width:0.4
;Inital Layer Height:150
;Wall Line Count:2
;Infill Line Distance:4
;Infill Pattern:grid
;Infill Sparse Density:20
;Infill Wipe Distance:0
;Print Temperature:200
;Bed Temperature:60
;Support Enable:true
;Support Density:30
;Support Angle:60
;Adhesion Type:none
;machine is belt:false
;machine belt offset:10
;machine belt offset Y:0
;Raft Base Line Spacing:1.6
;Wait Heatup Sync:true
;----------Shell Config----------------
;Outer Wall Wipe Distance:200
;Outer Inset First:false
;Infill Before Walls:false
;Infill Overlap:0.16
;Fill Gaps Between Walls:everywhere
;Minimum Infill Area:1
;Top Surface Skin Layer:0
;Top Layers:4
;Z Seam Alignment:sharpest_corner
;Seam Corner Preference:z_seam_corner_inner
;Z Seam X:110
;Z Seam Y:110
;Horizontal Expansion:0
;Top/Bottom Pattern:zigzag
;Ironing Pattern:zigzag
;Vase Model:false
;----------Support Config----------------
;Support Type:everywhere
;Support Pattern:zigzag
;Support Infill Layer Thickness:0.15
;Minimum Support Area:5
;Enable Support Roof:false
;Support Roof Thickness:0.8
;Support Roof Pattern:lines
;Connect Support Lines:0
;Connect Support ZigZags:1
;Minimum Support X/Y Distance:0.2
;Support Line Distance:1.33
; ---------PrintSpeed & Travel----------
;Enable Print Cool:true
;Avoid Printed Parts Traveling:true
;Enable Retraction:true
;Retraction Distance:8
;Retraction Speed:100
;Retraction Prime Speed:100
;Maximum Retraction Count:100
;Minimum Extrusion Distance Window:1
;Z Hop When Retracted:false
;Z Hop Height:0.2
;Retract Before Outer Wall:true
;Print Speed:50
;Infill Speed:50

;Prime Tower Speed:50
;Travel Speed:120
;Initial Layer Speed:25
;Skirt/Brim Speed:25
;Combing Mode:infill
; --------SpecialModel&Mesh Fixes--------
;Union Overlapping Volum:true
;Remove All Holes:false
;Maximum Travel Resolution:0.6
;Maximum Deviation:0.05
;Maximum Model Angle:0.872665
;IS Mold Print:false
;Make Overhang Printable:false
;Enable Coasting:false
;Coasting Volumes:0.06
;Coasting Speed:0.9
;Raft AirGap:0.25
;Layer0 ZOverLap:0.13
;---------------------End of Head--------------------------
M140 S60
M105
M104 S200
M105
M109 S200
M105
M190 S60
M82 ;absolute extrusion mode
M220 S100 ;Reset Feedrate
M221 S100 ;Reset Flowrate

G28 ;Home

G92 E0 ;Reset Extruder
G1 Z2.0 F3000 ;Move Z Axis up
G1 X10.1 Y20 Z0.28 F5000.0 ;Move to start position
G1 X10.1 Y145.0 Z0.28 F1500.0 E15 ;Draw the first line
G1 X10.4 Y145.0 Z0.28 F5000.0 ;Move to side a little
G1 X10.4 Y20 Z0.28 F1500.0 E30 ;Draw the second line
G92 E0  ;Reset Extruder
G1 E-1.0000 F1800 ;Retract a bit
G1 Z2.0 F3000 ;Move Z Axis up
G1 E0.0000 F1800 

G92 E0
G92 E0
G1 F6000 E-8

;LAYER_COUNT:6

;LAYER:0
M107
;MESH:
G0 F3600 X105.2 Y106.559 Z0.15
;;retract;;
G0 X106.021 Y105.59
G0 X110.118 Y114.774
G0 X111.334 Y115.15
;TYPE:WALL-INNER
G1 F6000 E0
G1 F1500 X111.38 Y115.03 E0.00353
G1 X111.384 Y114.887 E0.00745
G1 X111.395 Y114.554 E0.01659
G1 X111.249 Y114.099 E0.02971
G1 X110.961 Y113.722 E0.04272
G1 X110.565 Y113.461 E0.05574
G1 X110.11 Y113.346 E0.06862
G1 X109.629 Y113.391 E0.08187
G1 X109.196 Y113.593 E0.09498
G1 X108.857 Y113.928 E0.10806
G1 X108.649 Y114.355 E0.12109
G1 X108.594 Y114.828 E0.13416
G1 X108.669 Y115.15 E0.14323
G1 X108.594 Y115.15
G1 X105.2 Y115.15 E0.23636
G1 X105.2 Y106.855 E0.46397
G1 X105.2 Y106.738 E0.46718
G1 X105.2 Y106.559 E0.4721
G1 X105.43 Y106.738 E0.47594
G1 X105.54 Y106.775 E0.47857
G1 X105.85 Y106.88 E0.48755
G1 X106.127 Y106.905 E0.49518
G1 X106.586 Y106.822 E0.50798
G1 X106.999 Y106.583 E0.52108
G1 X107.308 Y106.222 E0.53411
G1 X107.48 Y105.78 E0.54713
G1 X107.495 Y105.304 E0.5602
G1 X107.432 Y105.11 E0.56579
G1 X107.349 Y104.85 E0.57328
G1 X107.621 Y104.85 E0.57773
G1 X107.622 Y104.85 E0.57776
G1 X112.469 Y104.85 E0.71076
G1 X112.549 Y104.85 E0.71295
G1 X112.673 Y104.85 E0.71635
G1 X112.549 Y105.105 E0.72081
G1 X112.54 Y105.184 E0.7227
G1 X112.494 Y105.578 E0.73358
G1 X112.602 Y106.04 E0.7466
G1 X112.853 Y106.444 E0.75965
G1 X113.23 Y106.738 E0.77277
G1 X113.65 Y106.88 E0.78494
G1 X113.927 Y106.905 E0.79257
G1 X114.386 Y106.822 E0.80537
G1 X114.501 Y106.755 E0.80902
G1 X114.8 Y106.582 E0.8185
G1 X114.8 Y106.927 E0.82386
G1 X114.8 Y106.928 E0.82389
G1 X114.8 Y115.15 E1.0495
G1 X111.523 Y115.15 E1.13942
G1 X111.38 Y115.15 E1.14195
G1 X111.334 Y115.15
;;retract;;
G1 F6000 E-6.85805
G0 F3600 X110.118 Y114.774
G0 X106.021 Y105.59
G0 X105.355 Y106.172
;TYPE:WALL-OUTER
G1 F6000 E1.14195
G1 F600 X105.623 Y106.381 E1.15128
G1 X105.933 Y106.486 E1.16026
G1 X106.109 Y106.502 E1.16511
G1 X106.446 Y106.441 E1.1745
G1 X106.74 Y106.271 E1.18382
G1 X106.96 Y106.014 E1.19311
G1 X107.082 Y105.699 E1.20238
G1 X107.093 Y105.36 E1.21168
G1 X106.989 Y105.037 E1.22099
G1 X106.833 Y104.833 E1.22804
G1 X106.784 Y104.768 E1.23027
G1 X106.502 Y104.582 E1.23954
G1 X106.179 Y104.501 E1.24868
G1 X105.835 Y104.533 E1.25816
G1 X105.528 Y104.676 E1.26745
G1 X105.378 Y104.824 E1.27324
G1 X105.287 Y104.915 E1.27677
G1 X105.196 Y105.1 E1.28242
G1 X105.138 Y105.219 E1.28606
G1 X105.099 Y105.555 E1.29534
G1 X105.176 Y105.885 E1.30464
G1 X105.197 Y105.919 E1.30573
G1 X105.355 Y106.172 E1.31392
G0 F3600 X105.513 Y106.295
G0 X105.242 Y106.642
;;retract;;
G1 F6000 E-6.68608
G0 F3600 X106.021 Y105.59
G0 X113.789 Y105.548
G0 X113.155 Y106.172
G1 F6000 E1.31392
G1 F600 X113.423 Y106.381 E1.32324
G1 X113.733 Y106.486 E1.33222
G1 X113.909 Y106.502 E1.33707
G1 X114.246 Y106.441 E1.34647
G1 X114.54 Y106.271 E1.35579
G1 X114.76 Y106.014 E1.36507
G1 X114.803 Y105.903 E1.36834
G1 X114.882 Y105.699 E1.37434
G1 X114.893 Y105.36 E1.38365
G1 X114.803 Y105.078 E1.39177
G1 X114.789 Y105.037 E1.39296
G1 X114.633 Y104.833 E1.40001
G1 X114.584 Y104.768 E1.40224
G1 X114.302 Y104.582 E1.41151
G1 X113.979 Y104.501 E1.42065
G1 X113.635 Y104.533 E1.43013
G1 X113.328 Y104.676 E1.43942
G1 X113.178 Y104.824 E1.4452
G1 X113.087 Y104.915 E1.44873
G1 X112.938 Y105.219 E1.45802
G1 X112.899 Y105.555 E1.46731
G1 X112.976 Y105.885 E1.4766
G1 X113.155 Y106.172 E1.48588
G0 F3600 X113.313 Y106.295
G0 X113.042 Y106.642
;;retract;;
G1 F6000 E-6.51412
G0 F3600 X113.821 Y105.59
G0 X110.118 Y114.774
G0 X110.86 Y115.264
G1 F6000 E1.48588
G1 F1500 X110.89 Y115.187 E1.48815
G1 X110.982 Y114.949 E1.49515
G1 X110.993 Y114.61 E1.50446
G1 X110.889 Y114.287 E1.51377
G1 X110.684 Y114.018 E1.52305
G1 X110.402 Y113.832 E1.53232
G1 X110.079 Y113.751 E1.54146
G1 X109.735 Y113.783 E1.55094
G1 X109.428 Y113.926 E1.56023
G1 X109.187 Y114.165 E1.56955
G1 X109.038 Y114.469 E1.57884
G1 X108.999 Y114.805 E1.58812
G1 X109.076 Y115.135 E1.59742
G1 X109.126 Y115.214 E1.59998
G1 X109.255 Y115.422 E1.6067
G1 X109.419 Y115.55 E1.61241
G1 X109.255 Y115.55 E1.61285
G1 X109.01 Y115.55 E1.61758
G1 X104.8 Y115.55 E1.7331
G1 X104.8 Y105.926 E1.99718
G1 X104.8 Y105.885 E1.99827
G1 X104.8 Y105.555 E2.0059
G1 X104.8 Y105.219 E2.01324
G1 X104.8 Y105.086 E2.01662
G1 X104.8 Y104.45 E2.03407
G1 X105.317 Y104.45 E2.04826
G1 X105.528 Y104.45 E2.05256
G1 X105.835 Y104.45 E2.05568
G1 X106.179 Y104.45 E2.05726
G1 X106.502 Y104.45 E2.05924
G1 X106.784 Y104.45 E2.06341
G1 X106.866 Y104.45 E2.06546
G1 X113.117 Y104.45 E2.23698
G1 X113.328 Y104.45 E2.24129
G1 X113.635 Y104.45 E2.24441
G1 X113.979 Y104.45 E2.24599
G1 X114.302 Y104.45 E2.24796
G1 X114.584 Y104.45 E2.25214
G1 X114.666 Y104.45 E2.25419
G1 X115.2 Y104.45 E2.26884
G1 X115.2 Y105.064 E2.28569
G1 X115.2 Y105.36 E2.29288
G1 X115.2 Y105.699 E2.30015
G1 X115.2 Y105.918 E2.30555
G1 X115.2 Y115.55 E2.56985
G1 X110.943 Y115.55 E2.68666
G1 X110.86 Y115.55 E2.68867
G1 X110.59 Y115.55 E2.69608
G1 X110.86 Y115.264 E2.70148
G0 F3600 X110.89 Y115.187
G0 X110.932 Y115.077
;;retract;;
G1 F6000 E-5.29852
G0 F3600 X110.111 Y114.793
G0 X105.439 Y116.42
G0 X105.439 Y114.909
;TYPE:SKIN
G1 F6000 E2.70148
G1 F600 X105.858 Y114.909 E2.71298
G1 X105.439 Y114.49 E2.72924
G1 X105.439 Y113.924 E2.74477
G1 X106.423 Y114.909 E2.78297
G1 X106.989 Y114.909 E2.79851
G1 X105.439 Y113.359 E2.85865
G1 X105.439 Y112.793 E2.87418
G1 X107.555 Y114.909 E2.9563
G1 X108.12 Y114.909 E2.9718
G1 X105.439 Y112.227 E3.07586
G1 X105.439 Y111.662 E3.09136
G1 X108.378 Y114.6 E3.20539
G1 X108.415 Y114.286 E3.21407
G1 X108.485 Y114.142 E3.21846
G1 X105.439 Y111.096 E3.33666
G1 X105.439 Y110.53 E3.35219
G1 X108.676 Y113.767 E3.4778
G1 X108.96 Y113.486 E3.48877
G1 X105.439 Y109.965 E3.6254
G1 X105.439 Y109.399 E3.64093
G1 X109.312 Y113.272 E3.79123
G1 X109.564 Y113.155 E3.79885
G1 X109.744 Y113.138 E3.80381
G1 F1500 X105.439 Y108.833 E3.97087
G1 F600 X105.439 Y108.267 E3.9864
G1 F1500 X110.322 Y113.151 E4.17591
G0 F3600 X110.662 Y113.236
G1 F600 X111.126 Y113.543 E4.19117
G1 X111.464 Y113.984 E4.20642
G1 X111.609 Y114.438 E4.2195
G1 X112.08 Y114.909 E4.23777
G1 X112.646 Y114.909 E4.2533
G1 F1500 X105.439 Y107.702 E4.53298
G1 F600 X105.439 Y107.136 E4.54851
G1 F1500 X113.212 Y114.909 E4.85014
G1 F600 X113.777 Y114.909 E4.86564
G1 F1500 X106.003 Y107.134 E5.16734
G1 F600 X106.138 Y107.146 E5.17106
G1 X106.513 Y107.079 E5.18151
G1 F1500 X114.343 Y114.909 E5.48536
G1 F600 X114.559 Y114.909 E5.49128
G1 X114.559 Y114.559 E5.50089
G1 F1500 X106.911 Y106.911 E5.79767
G1 F600 X107.154 Y106.769 E5.80539
G1 X107.237 Y106.672 E5.8089
G1 F1500 X114.559 Y113.994 E6.09303
G1 F600 X114.559 Y113.428 E6.10856
G1 F1500 X107.498 Y106.367 E6.38257
G1 F600 X107.516 Y106.346 E6.38333
G1 X107.664 Y105.967 E6.39449
G1 F1500 X114.559 Y112.862 E6.66205
G1 F600 X114.559 Y112.297 E6.67756
G1 F1500 X107.728 Y105.465 E6.94266
G1 F600 X107.734 Y105.269 E6.94804
G1 X107.676 Y105.09 E6.9532
G1 X107.918 Y105.09 E6.95984
G1 F1500 X114.559 Y111.731 E7.21755
G1 F600 X114.559 Y111.165 E7.23308
G1 F1500 X108.484 Y105.09 E7.46882
G1 F600 X109.05 Y105.09 E7.48435
G1 F1500 X114.559 Y110.599 E7.69813
G1 F600 X114.559 Y110.034 E7.71364
G1 F1500 X109.615 Y105.09 E7.90549
G1 F600 X110.181 Y105.09 E7.92102
G1 F1500 X114.559 Y109.468 E8.09091
G1 F600 X114.559 Y108.902 E8.10644
G1 X110.747 Y105.09 E8.25437
G1 X111.312 Y105.09 E8.26987
G1 X112.413 Y106.19 E8.31258
G1 X112.377 Y106.133 E8.31443
G1 X112.248 Y105.592 E8.32969
G1 X112.263 Y105.474 E8.33295
G1 X111.878 Y105.09 E8.34787
G1 X112.308 Y105.09 E8.35967
G0 F3600 X112.413 Y106.19
G1 F600 X112.671 Y106.606 E8.3731
G1 X113.114 Y106.952 E8.38853
G0 F3600 X113.206 Y106.983
G1 F600 X114.559 Y108.337 E8.44105
G1 X114.559 Y107.771 E8.45658
G1 X113.935 Y107.147 E8.4808
G0 F3600 X113.936 Y107.147
G1 F600 X114.415 Y107.061 E8.49415
G1 X114.469 Y107.051 E8.49566
G1 X114.559 Y106.998 E8.49852
G0 F3600 X114.559 Y107.205
G1 F600 X114.415 Y107.061 E8.50411
;;retract;;
G1 F6000 E0.50411
G0 F3600 X113.944 Y105.613
G0 X110.119 Y114.728
G0 X111.635 Y114.519
G1 F6000 E8.50411
G1 F600 X111.623 Y114.909 E8.51482
G1 X112.08 Y114.909 E8.52736
;;retract;;
G1 F6000 E0.52736
G0 F3600 X112.08 Y116.42
G0 X109.89 Y114.798
G0 X108.414 Y114.92
;TYPE:SKIN
G1 F6000 E8.52736
G1 F600 X108.258 Y115.046 E8.53597
;;retract;;
G1 F6000 E0.53597
G0 F3600 X109.88 Y114.751
G0 X106.217 Y105.525
G0 X107.601 Y105.338
G1 F6000 E8.53597
G1 F600 X107.652 Y105.106 E8.54318
G1 X107.798 Y104.969 E8.54925
;;retract;;
G1 F6000 E0.54925
G0 F3600 X107.863 Y103.58
G0 X113.923 Y105.617
G0 X114.301 Y106.947
G1 F6000 E8.54925
G1 F600 X114.518 Y107.164 E8.55346
G0 F3600 X114.744 Y107.107
G1 F600 X114.472 Y106.835 E8.55874
;;retract;;
G1 F6000 E0.55874
;MESH:NONMESH
G0 F600 X114.472 Y106.835 Z0.3
G0 F3600 X113.944 Y105.613
G0 X107.341 Y103.58
G0 X107.341 Y104.85
;TIME_ELAPSED:31.788114

;LAYER:1
M140 S60
M106 S127.5
;;retract;;
;MESH:
G0 F5400 X106.218 Y105.481
G0 X110.117 Y114.773
G0 X111.33 Y115.15
;TYPE:WALL-INNER
G1 F6000 E8.55874
G1 F1500 X111.386 Y114.994 E8.56288
G1 X111.386 Y114.873 E8.56589
G1 X111.387 Y114.517 E8.57477
G1 X111.231 Y114.07 E8.58658
G1 X110.935 Y113.698 E8.59844
G1 X110.526 Y113.444 E8.61045
G1 X109.997 Y113.337 E8.62392
G1 X109.423 Y113.46 E8.63856
G1 X108.99 Y113.769 E8.65183
G1 X108.722 Y114.165 E8.66376
G1 X108.599 Y114.624 E8.67561
G1 X108.635 Y114.929 E8.68327
G1 X108.66 Y115.15 E8.68882
G1 X108.438 Y115.15 E8.69229
G1 X108.437 Y115.15 E8.69232
G1 X105.2 Y115.15 E8.77307
G1 X105.2 Y106.904 E8.97876
G1 X105.2 Y106.627 E8.98567
G1 X105.2 Y106.566 E8.98719
G1 X105.258 Y106.627 E8.98773
G1 X105.505 Y106.752 E8.99212
G1 X105.675 Y106.839 E8.99688
G1 X106.112 Y106.909 E9.00792
G1 X106.617 Y106.808 E9.02077
G1 X107.025 Y106.56 E9.03268
G1 X107.325 Y106.192 E9.04452
G1 X107.486 Y105.744 E9.0564
G1 X107.487 Y105.267 E9.0683
G1 X107.434 Y105.115 E9.07231
G1 X107.341 Y104.85 E9.07932
G1 X107.621 Y104.85 E9.08345
G1 X107.622 Y104.85 E9.08348
G1 X112.405 Y104.85 E9.20279
G1 X112.622 Y104.85 E9.2082
G1 X112.666 Y104.85 E9.2093
G1 X112.622 Y104.915 E9.21
G1 X112.566 Y105.124 E9.2136
G1 X112.499 Y105.374 E9.22006
G1 X112.537 Y105.848 E9.23192
G1 X112.731 Y106.283 E9.2438
G1 X113.058 Y106.627 E9.25564
G1 X113.475 Y106.839 E9.26731
G1 X113.912 Y106.909 E9.27835
G1 X114.409 Y106.809 E9.291
G1 X114.417 Y106.808 E9.2912
G1 X114.8 Y106.575 E9.30238
G1 X114.8 Y106.808 E9.30428
G1 X114.8 Y106.817 E9.30451
G1 X114.8 Y115.15 E9.51237
G1 X111.507 Y115.15 E9.59452
G1 X111.386 Y115.15 E9.59602
G1 X111.33 Y115.15
;;retract;;
G1 F6000 E1.59602
G0 F5400 X110.117 Y114.773
G0 X106.105 Y105.384
G0 X106.099 Y104.496
;TYPE:WALL-OUTER
G1 F6000 E9.59602
G1 F600 X105.688 Y104.584 E9.60651
G1 X105.381 Y104.803 E9.61592
G1 X105.357 Y104.839 E9.617
G1 X105.198 Y105.073 E9.62405
G1 X105.191 Y105.084 E9.62438
G1 X105.103 Y105.411 E9.63283
G1 X105.13 Y105.748 E9.64126
G1 X105.196 Y105.897 E9.64532
G1 X105.268 Y106.057 E9.6497
G1 X105.501 Y106.302 E9.65813
G1 X105.8 Y106.454 E9.6665
G1 X106.104 Y106.503 E9.67418
G1 X106.469 Y106.43 E9.68347
G1 X106.758 Y106.254 E9.69191
G1 X106.972 Y105.992 E9.70035
G1 X107.086 Y105.674 E9.70877
G1 X107.087 Y105.334 E9.71726
G1 X106.976 Y105.016 E9.72566
G1 X106.828 Y104.83 E9.73159
G1 X106.765 Y104.751 E9.73411
G1 X106.476 Y104.572 E9.74259
G1 X106.099 Y104.496 E9.75218
G0 F5400 X105.904 Y104.537
;;retract;;
G1 F6000 E1.75218
G0 F5400 X106.105 Y105.384
G0 X113.844 Y105.397
G0 X113.899 Y104.496
G1 F6000 E9.75218
G1 F600 X113.488 Y104.584 E9.76267
G1 X113.181 Y104.803 E9.77207
G1 X113.157 Y104.839 E9.77315
G1 X112.991 Y105.084 E9.78053
G1 X112.903 Y105.411 E9.78898
G1 X112.93 Y105.748 E9.79742
G1 X113.068 Y106.057 E9.80586
G1 X113.301 Y106.302 E9.81429
G1 X113.6 Y106.454 E9.82266
G1 X113.904 Y106.503 E9.83034
G1 X114.269 Y106.43 E9.83962
G1 X114.558 Y106.254 E9.84807
G1 X114.772 Y105.992 E9.8565
G1 X114.803 Y105.907 E9.85876
G1 X114.886 Y105.674 E9.86493
G1 X114.887 Y105.334 E9.87341
G1 X114.803 Y105.092 E9.8798
G1 X114.776 Y105.016 E9.88181
G1 X114.628 Y104.83 E9.88774
G1 X114.565 Y104.751 E9.89026
G1 X114.276 Y104.572 E9.89874
G1 X113.899 Y104.496 E9.90834
G0 F5400 X113.704 Y104.537
;;retract;;
G1 F6000 E1.90834
G0 F5400 X113.844 Y105.397
G0 X110.117 Y114.773
G0 X110.872 Y115.242
G1 F6000 E9.90834
G1 F1500 X110.893 Y115.181 E9.90995
G1 X110.986 Y114.924 E9.91676
G1 X110.987 Y114.584 E9.92525
G1 X110.876 Y114.266 E9.93365
G1 X110.665 Y114.001 E9.9421
G1 X110.376 Y113.822 E9.95058
G1 X109.999 Y113.746 E9.96017
G1 X109.588 Y113.834 E9.97066
G1 X109.281 Y114.053 E9.98006
G1 X109.091 Y114.334 E9.98852
G1 X109.003 Y114.661 E9.99697
G1 X109.03 Y114.998 E10.00541
G1 X109.119 Y115.197 E10.01084
G1 X109.168 Y115.307 E10.01385
G1 X109.399 Y115.55 E10.02221
G1 X109.168 Y115.55 E10.02344
