;FLAVOR:Marlin
;TIME:1004
;Filament used:0.218058m
;Layer height: 0.15
;MINX:102.13
;MINY:103.13
;MINZ:0.15
;MAXX:117.87
;MAXY:116.87
;MAXZ:5.7
                               
;Creality Print GCode Generated by CXEngine:NO_MAGE_VERSION_GIT_HEAD_BRANCH
;CXEngine Release Time:2022-09-30 09:53:04
;Gcode Generated Time:2023-03-05 03:32:48
;----------Machine Config--------------
;Machine Name:Creality Ender-3
;Machine Height:250
;Machine Width:220
;Machine Depth:220
;Material name:PLA
;Number of Extruders:1
;ExtruderParams[0] Nozzle Diameter1000
;----------Profile Config---------------
;Engine Version:275f99b
;Engine Release Time:2022-09-30 09:42:18
;Layer Height:0.15
;Wall Thickness:0.8
;Top/Bottom Thickness:1
;Out Wall Line Width:0.4
;Inner Wall Line Width:0.4
;Inital Layer Height:150
;Wall Line Count:2
;Infill Line Distance:4
;Infill Pattern:grid
;Infill Sparse Density:20
;Infill Wipe Distance:0
;Print Temperature:200
;Bed Temperature:60
;Support Enable:true
;Support Density:30
;Support Angle:60
;Adhesion Type:none
;machine is belt:false
;machine belt offset:10
;machine belt offset Y:0
;Raft Base Line Spacing:1.6
;Wait Heatup Sync:true
;----------Shell Config----------------
;Outer Wall Wipe Distance:200
;Outer Inset First:false
;Infill Before Walls:false
;Infill Overlap:0.16
;Fill Gaps Between Walls:everywhere
;Minimum Infill Area:1
;Top Surface Skin Layer:0
;Top Layers:4
;Z Seam Alignment:sharpest_corner
;Seam Corner Preference:z_seam_corner_inner
;Z Seam X:110
;Z Seam Y:110
;Horizontal Expansion:0
;Top/Bottom Pattern:zigzag
;Ironing Pattern:zigzag
;Vase Model:false
;----------Support Config----------------
;Support Type:everywhere
;Support Pattern:zigzag
;Support Infill Layer Thickness:0.15
;Minimum Support Area:5
;Enable Support Roof:false
;Support Roof Thickness:0.8
;Support Roof Pattern:lines
;Connect Support Lines:0
;Connect Support ZigZags:1
;Minimum Support X/Y Distance:0.2
;Support Line Distance:1.33
; ---------PrintSpeed & Travel----------
;Enable Print Cool:true
;Avoid Printed Parts Traveling:true
;Enable Retraction:true
;Retraction Distance:8
;Retraction Speed:100
;Retraction Prime Speed:100
;Maximum Retraction Count:100
;Minimum Extrusion Distance Window:1
;Z Hop When Retracted:false
;Z Hop Height:0.2
;Retract Before Outer Wall:true
;Print Speed:50
;Infill Speed:50

;Prime Tower Speed:50
;Travel Speed:120
;Initial Layer Speed:25
;Skirt/Brim Speed:25
;Combing Mode:infill
; --------SpecialModel&Mesh Fixes--------
;Union Overlapping Volum:true
;Remove All Holes:false
;Maximum Travel Resolution:0.6
;Maximum Deviation:0.05
;Maximum Model Angle:0.872665
;IS Mold Print:false
;Make Overhang Printable:false
;Enable Coasting:false
;Coasting Volumes:0.06
;Coasting Speed:0.9
;Raft AirGap:0.25
;Layer0 ZOverLap:0.13
;---------------------End of Head--------------------------
M140 S60
M105
M104 S200
M105
M109 S200
M105
M190 S60
M82 ;absolute extrusion mode
M220 S100 ;Reset Feedrate
M221 S100 ;Reset Flowrate

G28 ;Home

G92 E0 ;Reset Extruder
G1 Z2.0 F3000 ;Move Z Axis up
G1 X10.1 Y20 Z0.28 F5000.0 ;Move to start position
G1 X10.1 Y145.0 Z0.28 F1500.0 E15 ;Draw the first line
G1 X10.4 Y145.0 Z0.28 F5000.0 ;Move to side a little
G1 X10.4 Y20 Z0.28 F1500.0 E30 ;Draw the second line
G92 E0  ;Reset Extruder
G1 E-1.0000 F1800 ;Retract a bit
G1 Z2.0 F3000 ;Move Z Axis up
G1 E0.0000 F1800 

G92 E0
G92 E0
G1 F6000 E-8

;LAYER_COUNT:38

;LAYER:0
M107
;MESH:
G0 F3600 X114.616 Y105.667 Z0.15
;TYPE:WALL-INNER
G1 F6000 E0
G1 F1500 X115.19 Y106.053 E0.01898
G1 X115.877 Y105.993 E0.0379
G1 X116.229 Y105.657 E0.05126
G1 X116.375 Y105.517 E0.05681
G1 X116.463 Y104.832 E0.07576
G1 X116.308 Y104.58 E0.08388
G1 X116.197 Y104.4 E0.08968
G1 X116.6 Y104.4 E0.09648
G1 X116.6 Y104.832 E0.1045
G1 X116.6 Y105.517 E0.11301
G1 X116.6 Y105.72 E0.11747
G1 X116.6 Y114.27 E0.35208
G1 X116.6 Y114.732 E0.36476
G1 X116.6 Y115.417 E0.38355
G1 X116.6 Y115.6 E0.38857
G1 X116.375 Y115.6 E0.39349
G1 X116.184 Y115.6 E0.39873
G1 X116.375 Y115.417 E0.40151
G1 X116.463 Y114.732 E0.41017
G1 X116.221 Y114.339 E0.41883
G1 X116.101 Y114.144 E0.42511
G1 X115.527 Y113.941 E0.44181
G1 X115.201 Y113.97 E0.45079
G1 X114.673 Y114.265 E0.46739
G1 X114.414 Y114.905 E0.48634
G1 X114.544 Y115.331 E0.49856
G1 X114.616 Y115.567 E0.50533
G1 X114.665 Y115.6 E0.50695
G1 X114.616 Y115.6
G1 X114.369 Y115.6 E0.51123
G1 X105.64 Y115.6 E0.75075
G1 X105.639 Y115.6 E0.75078
G1 X105.317 Y115.6 E0.75962
G1 X105.462 Y115.312 E0.7647
G1 X105.578 Y115.082 E0.77177
G1 X105.434 Y114.407 E0.79071
G1 X104.958 Y114.024 E0.80747
G1 X104.641 Y113.943 E0.81645
G1 X104.045 Y114.046 E0.83305
G1 X103.772 Y114.355 E0.84436
G1 X103.588 Y114.564 E0.852
G1 X103.559 Y115.253 E0.87092
G1 X103.668 Y115.401 E0.87597
G1 X103.816 Y115.6 E0.88277
G1 X103.559 Y115.6 E0.88539
G1 X103.4 Y115.6 E0.88845
G1 X103.4 Y115.253 E0.89531
G1 X103.4 Y114.564 E0.90353
G1 X103.4 Y114.285 E0.90929
G1 X103.4 Y105.716 E1.14442
G1 X103.4 Y105.353 E1.15438
G1 X103.4 Y104.664 E1.17329
G1 X103.4 Y104.4 E1.18053
G1 X103.588 Y104.4 E1.18439
G1 X103.821 Y104.4 E1.19079
G1 X103.637 Y104.608 E1.19372
G1 X103.588 Y104.664 E1.19411
G1 X103.559 Y105.353 E1.20234
G1 X103.775 Y105.644 E1.20944
G1 X103.969 Y105.907 E1.21841
G1 X104.637 Y106.084 E1.23737
G1 X105.268 Y105.798 E1.25638
G1 X105.578 Y105.182 E1.27531
G1 X105.471 Y104.683 E1.28931
G1 X105.434 Y104.507 E1.29424
G1 X105.301 Y104.4 E1.29893
G1 X105.434 Y104.4 E1.29918
G1 X105.614 Y104.4 E1.30272
G1 X114.363 Y104.4 E1.54279
G1 X114.364 Y104.4 E1.54282
G1 X114.659 Y104.4 E1.55091
G1 X114.548 Y104.674 E1.55566
G1 X114.414 Y105.005 E1.56546
G1 X114.616 Y105.667 E1.58445
G0 F3600 X114.957 Y105.414
;TYPE:WALL-OUTER
G1 F600 X115.296 Y105.642 E1.59566
G1 X115.702 Y105.607 E1.60684
G1 X115.996 Y105.326 E1.618
G1 X116.048 Y104.921 E1.62921
G1 X115.834 Y104.574 E1.64039
G1 X115.476 Y104.447 E1.65082
G1 X115.322 Y104.461 E1.65506
G1 X114.991 Y104.646 E1.66546
G1 X114.838 Y105.024 E1.67665
G1 X114.957 Y105.414 E1.68784
G0 F3600 X115.123 Y105.525
G0 X114.877 Y105.89
;;retract;;
G1 F6000 E-6.31216
G0 F3600 X114.877 Y103.13
G0 X104.602 Y103.13
G0 X104.602 Y105.661
G1 F6000 E1.68784
G1 F600 X104.974 Y105.492 E1.69905
G1 X105.157 Y105.128 E1.71023
G1 X105.072 Y104.729 E1.72143
G1 X104.775 Y104.49 E1.73189
G1 X104.625 Y104.452 E1.73613
G1 X104.252 Y104.516 E1.74652
G1 X103.982 Y104.822 E1.75772
G1 X103.965 Y105.229 E1.76889
G1 X104.207 Y105.556 E1.78006
G1 X104.602 Y105.661 E1.79127
G0 F3600 X104.784 Y105.579
G0 X104.965 Y105.98
;;retract;;
G1 F6000 E-6.20873
G0 F3600 X102.13 Y105.98
G0 X102.134 Y116.359
G0 X102.641 Y116.866
G0 X104.602 Y116.87
G0 X104.602 Y115.561
G1 F6000 E1.79127
G1 F600 X104.974 Y115.392 E1.80248
G1 X105.157 Y115.028 E1.81366
G1 X105.072 Y114.629 E1.82486
G1 X104.775 Y114.39 E1.83532
G1 X104.625 Y114.352 E1.83956
G1 X104.252 Y114.416 E1.84995
G1 X103.982 Y114.722 E1.86115
G1 X103.965 Y115.129 E1.87232
G1 X104.207 Y115.456 E1.88349
G1 X104.602 Y115.561 E1.8947
G0 F3600 X104.784 Y115.479
;;retract;;
G1 F6000 E-6.1053
G0 F3600 X104.784 Y116.87
G0 X110.008 Y112.826
G0 X110.012 Y114.103
;TYPE:WALL-INNER
G1 F6000 E1.8947
G1 F1500 X110.884 Y114.006 E1.91878
G1 X111.489 Y113.82 E1.93614
G1 X112.029 Y113.563 E1.95255
G1 X112.527 Y113.229 E1.96901
G1 X112.969 Y112.827 E1.9854
G1 X113.351 Y112.366 E2.00183
G1 X113.659 Y111.851 E2.0183
G1 X113.887 Y111.308 E2.03446
G1 X114.036 Y110.719 E2.05113
G1 X114.098 Y110.124 E2.06754
G1 X114.073 Y109.528 E2.08391
G1 X113.96 Y108.938 E2.10039
G1 X113.763 Y108.372 E2.11684
G1 X113.486 Y107.841 E2.13327
G1 X113.134 Y107.358 E2.14967
G1 X112.717 Y106.929 E2.16609
G1 X112.239 Y106.566 E2.18256
G1 X111.718 Y106.277 E2.19891
G1 X111.171 Y106.07 E2.21495
G1 X110.57 Y105.939 E2.23183
G1 X109.974 Y105.901 E2.24822
G1 X109.386 Y105.945 E2.2644
G1 X108.794 Y106.081 E2.28107
G1 X108.235 Y106.299 E2.29753
G1 X107.716 Y106.595 E2.31392
G1 X107.243 Y106.963 E2.33037
G1 X106.832 Y107.398 E2.34679
G1 X106.486 Y107.887 E2.36323
G1 X106.217 Y108.418 E2.37956
G1 X106.031 Y108.967 E2.39547
G1 X105.922 Y109.578 E2.4125
G1 X105.903 Y110.174 E2.42886
G1 X105.969 Y110.757 E2.44496
G1 X106.128 Y111.349 E2.46178
G1 X106.365 Y111.897 E2.47816
G1 X106.68 Y112.408 E2.49463
G1 X107.067 Y112.865 E2.51106
G1 X107.515 Y113.26 E2.52745
G1 X108.016 Y113.589 E2.5439
G1 X108.562 Y113.839 E2.56038
G1 X109.143 Y114.01 E2.577
G1 X110.012 Y114.103 E2.60098
G0 F3600 X110.011 Y113.701
;TYPE:WALL-OUTER
G1 F1500 X110.802 Y113.613 E2.62282
G1 X111.343 Y113.446 E2.63835
G1 X111.831 Y113.214 E2.65318
G1 X112.28 Y112.913 E2.66801
G1 X112.679 Y112.55 E2.68281
G1 X113.023 Y112.134 E2.69763
G1 X113.301 Y111.67 E2.71247
G1 X113.507 Y111.181 E2.72703
G1 X113.641 Y110.649 E2.74208
G1 X113.697 Y110.111 E2.75692
G1 X113.675 Y109.574 E2.77167
G1 X113.573 Y109.042 E2.78653
G1 X113.395 Y108.531 E2.80138
G1 X113.145 Y108.053 E2.81618
G1 X112.827 Y107.616 E2.83101
G1 X112.451 Y107.229 E2.84582
G1 X112.02 Y106.902 E2.86067
G1 X111.549 Y106.641 E2.87544
G1 X111.057 Y106.454 E2.88988
G1 X110.515 Y106.336 E2.9051
G1 X109.976 Y106.302 E2.91992
G1 X109.446 Y106.342 E2.93451
G1 X108.912 Y106.464 E2.94954
G1 X108.408 Y106.661 E2.96439
G1 X107.939 Y106.928 E2.9792
G1 X107.513 Y107.26 E2.99402
G1 X107.142 Y107.652 E3.00882
G1 X106.83 Y108.094 E3.02367
G1 X106.587 Y108.574 E3.03843
G1 X106.419 Y109.067 E3.05272
G1 X106.321 Y109.619 E3.06811
G1 X106.304 Y110.158 E3.08291
G1 X106.363 Y110.682 E3.09737
G1 X106.507 Y111.217 E3.11258
G1 X106.721 Y111.712 E3.12738
G1 X107.005 Y112.172 E3.14221
G1 X107.354 Y112.584 E3.15703
G1 X107.758 Y112.941 E3.17182
G1 X108.21 Y113.238 E3.18666
G1 X108.702 Y113.463 E3.2015
G1 X109.222 Y113.616 E3.21638
G1 X110.011 Y113.701 E3.23815
G0 F3600 X110.209 Y113.679
G0 X110.256 Y114.116
;;retract;;
G1 F6000 E-4.76185
G0 F3600 X110.625 Y112.758
G0 X114.957 Y116.87
G0 X114.957 Y115.314
G1 F6000 E3.23815
G1 F600 X115.296 Y115.542 E3.24936
G1 X115.702 Y115.507 E3.26054
G1 X115.996 Y115.226 E3.2717
G1 X116.048 Y114.821 E3.28291
G1 X115.834 Y114.474 E3.2941
G1 X115.476 Y114.347 E3.30452
G1 X115.322 Y114.361 E3.30876
G1 X114.991 Y114.546 E3.31917
G1 X114.838 Y114.924 E3.33036
G1 X114.957 Y115.314 E3.34154
G0 F3600 X115.123 Y115.425
;;retract;;
G1 F6000 E-4.65846
G0 F3600 X117 Y116
G1 F6000 E3.34154
G1 F1500 X103 Y116 E3.7257
G1 X103 Y104 E4.05497
G1 X117 Y104 E4.43913
G1 X117 Y116 E4.7684
G0 F3600 X116.8 Y116
G0 X116.56 Y115.56
;;retract;;
G1 F6000 E-3.2316
G0 F3600 X117.87 Y115.56
G0 X117.87 Y105.864
G0 X116.359 Y105.864
;TYPE:SKIN
G1 F6000 E4.7684
G1 F600 X116.199 Y106.017 E4.77448
G1 X116.359 Y106.177 E4.78069
G1 X116.359 Y106.742 E4.79619
G1 X115.853 Y106.236 E4.81583
G1 X115.332 Y106.281 E4.83018
G1 X116.359 Y107.308 E4.87003
G1 X116.359 Y107.874 E4.88556
G1 X113.125 Y104.639 E5.01108
G1 X112.559 Y104.639 E5.02661
G1 X116.359 Y108.439 E5.17407
G1 X116.359 Y109.005 E5.1896
G1 F1500 X111.993 Y104.639 E5.35902
G1 F600 X111.428 Y104.639 E5.37453
G1 F1500 X116.359 Y109.571 E5.5659
G1 F600 X116.359 Y110.136 E5.5814
G1 F1500 X110.862 Y104.639 E5.79471
G1 F600 X110.296 Y104.639 E5.81024
G1 X111.654 Y105.997 E5.86294
G1 X111.238 Y105.84 E5.87514
G1 X110.844 Y105.753 E5.88621
G1 X109.73 Y104.639 E5.92944
G1 X109.165 Y104.639 E5.94495
G1 X110.2 Y105.674 E5.98511
G1 X109.972 Y105.66 E5.99138
G1 X109.644 Y105.684 E6.0004
G1 X108.599 Y104.639 E6.04095
G1 X108.033 Y104.639 E6.05649
G1 X109.147 Y105.753 E6.09971
G1 X108.721 Y105.851 E6.11171
G1 X108.69 Y105.862 E6.11261
G1 X107.468 Y104.639 E6.16005
G1 X106.902 Y104.639 E6.17558
G1 X108.284 Y106.022 E6.22923
G1 X108.131 Y106.082 E6.23374
G1 X107.906 Y106.209 E6.24083
G1 X106.336 Y104.639 E6.30175
G1 X105.771 Y104.639 E6.31726
G1 X107.55 Y106.418 E6.38629
G1 X107.232 Y106.666 E6.39736
G1 X105.812 Y105.246 E6.45246
G1 X105.623 Y105.623 E6.46403
G1 X106.937 Y106.937 E6.51502
G1 X106.662 Y107.228 E6.52601
G1 X105.424 Y105.99 E6.57405
G1 X105.035 Y106.167 E6.58578
G1 X106.425 Y107.556 E6.6397
G1 X106.28 Y107.76 E6.64657
G1 X106.208 Y107.905 E6.65101
G1 X104.634 Y106.331 E6.71209
G1 X103.863 Y106.126 E6.73398
G1 X106.017 Y108.279 E6.81755
G1 X105.995 Y108.323 E6.8189
G1 X105.869 Y108.697 E6.82973
G1 X103.639 Y106.468 E6.91624
G1 X103.639 Y107.034 E6.93177
G1 X105.754 Y109.149 E7.01385
G1 X105.682 Y109.552 E7.02508
G1 X105.68 Y109.64 E7.0275
G1 X103.639 Y107.599 E7.1067
G1 X103.639 Y108.165 E7.12223
G1 X105.664 Y110.189 E7.20079
G1 X105.732 Y110.8 E7.21766
G1 X105.742 Y110.833 E7.21861
G1 X103.639 Y108.731 E7.30019
G1 X103.639 Y109.296 E7.3157
G1 X105.999 Y111.656 E7.40728
G1 X106.15 Y112.008 E7.41779
G1 X106.486 Y112.548 E7.43524
G1 X106.894 Y113.032 E7.45261
G1 X107.369 Y113.45 E7.46997
G1 X107.9 Y113.798 E7.48739
G0 F3600 X105.706 Y115.358
G1 F600 X105.742 Y115.358 E7.48838
G1 X106.307 Y115.358 E7.50388
G1 X105.766 Y114.817 E7.52488
G1 X105.65 Y114.273 E7.54014
G1 X105.067 Y113.803 E7.56069
G1 X104.651 Y113.697 E7.57247
G0 F3600 X103.639 Y114.141
G1 F600 X103.789 Y113.972 E7.57867
G1 X103.639 Y113.822 E7.58449
G1 X103.639 Y113.256 E7.60002
G1 X104.163 Y113.78 E7.62035
G1 X104.646 Y113.697 E7.6338
G1 X103.639 Y112.69 E7.67288
G1 X103.639 Y112.125 E7.68838
G1 X106.873 Y115.358 E7.81386
G1 X107.439 Y115.358 E7.82939
G1 X103.639 Y111.559 E7.97683
G1 X103.639 Y110.993 E7.99236
G1 F1500 X108.004 Y115.358 E8.16175
G1 F600 X108.57 Y115.358 E8.17728
G1 F1500 X103.639 Y110.428 E8.36861
G1 F600 X103.639 Y109.862 E8.38414
G1 F1500 X109.136 Y115.358 E8.59744
G1 F600 X109.701 Y115.358 E8.61294
G1 X108.347 Y114.004 E8.66548
G1 X108.477 Y114.064 E8.66941
G1 X109.095 Y114.245 E8.68708
G1 X109.161 Y114.252 E8.6889
G1 X110.267 Y115.358 E8.73182
G1 X110.833 Y115.358 E8.74735
G1 X109.795 Y114.32 E8.78763
G1 X110.011 Y114.343 E8.79359
G1 X110.346 Y114.306 E8.80284
G1 X111.399 Y115.358 E8.84368
G1 X111.964 Y115.358 E8.85919
G1 X110.855 Y114.25 E8.9022
G1 X110.933 Y114.24 E8.90436
G1 X111.3 Y114.129 E8.91488
G1 X112.53 Y115.358 E8.96259
G1 X113.096 Y115.358 E8.97812
G1 X111.715 Y113.977 E9.03171
G1 X112.098 Y113.795 E9.04335
G1 X113.661 Y115.358 E9.104
G1 X114.227 Y115.358 E9.11953
G1 X112.443 Y113.574 E9.18876
G1 X112.676 Y113.418 E9.19646
G1 X112.768 Y113.334 E9.19987
G1 X114.208 Y114.774 E9.25575
G1 X114.37 Y114.37 E9.2677
G1 X113.064 Y113.064 E9.31838
G1 X113.142 Y112.992 E9.32129
G1 X113.33 Y112.765 E9.32938
G1 X114.597 Y114.031 E9.37852
G1 X114.96 Y113.828 E9.38994
G1 X113.58 Y112.449 E9.44347
G1 X113.791 Y112.094 E9.4548
G1 X115.407 Y113.71 E9.51751
G1 X115.556 Y113.697 E9.52161
G1 X116.18 Y113.917 E9.53977
G1 X113.976 Y111.713 E9.6253
G1 X114.114 Y111.384 E9.63509
G1 X114.134 Y111.305 E9.63732
G1 X116.359 Y113.53 E9.72367
G1 X116.359 Y112.965 E9.73917
G1 X114.247 Y110.853 E9.82113
G1 X114.271 Y110.761 E9.82373
G1 X114.313 Y110.353 E9.83499
G1 X116.359 Y112.399 E9.91439
G1 X116.359 Y111.833 E9.92992
G1 X114.322 Y109.797 E10.00894
G1 X114.31 Y109.499 E10.01713
G1 X114.244 Y109.153 E10.02679
G1 X116.359 Y111.268 E10.10887
G1 X116.359 Y110.702 E10.1244
G1 X114.01 Y108.353 E10.21555
G1 X113.983 Y108.275 E10.21782
G1 X113.689 Y107.714 E10.2352
G1 X113.316 Y107.203 E10.25255
G1 X112.876 Y106.749 E10.2699
G1 X112.37 Y106.364 E10.28735
G1 X111.818 Y106.059 E10.30465
G0 F3600 X115.125 Y106.299
G1 F600 X114.41 Y105.817 E10.32832
G1 X114.209 Y105.158 E10.34722
G1 X113.69 Y104.639 E10.36736
G1 X114.256 Y104.639 E10.38289
G1 X114.303 Y104.639 E10.38418
;;retract;;
G1 F6000 E2.38418
G0 F3600 X114.303 Y103.13
G0 X117.359 Y103.134
G0 X117.866 Y103.641
G0 X117.87 Y113.946
G0 X116.259 Y113.946
G1 F6000 E10.38418
G1 F600 X116.343 Y114.08 E10.38852
G0 F3600 X116.359 Y114.096
G1 F600 X116.359 Y114.106 E10.3888
;;retract;;
G1 F6000 E2.3888
G0 F3600 X117.87 Y114.106
G0 X117.866 Y116.359
G0 X117.359 Y116.866
G0 X102.641 Y116.866
G0 X102.134 Y116.359
G0 X102.13 Y106.116
G0 X103.826 Y106.116
G1 F6000 E10.3888
G1 F600 X103.749 Y106.012 E10.39235
G1 X103.639 Y105.902 E10.39661
G1 X103.639 Y105.864 E10.39766
G0 F3600 X103.731 Y105.711
;TYPE:SKIN
G1 F600 X103.695 Y105.957 E10.40651
G1 X103.55 Y106.095 E10.41363
;;retract;;
G1 F6000 E2.41363
G0 F3600 X102.13 Y106
G0 X102.13 Y113.637
G0 X103.687 Y113.869
