;FLAVOR:Marlin
;TIME:2575
;Filament used:1.34793m
;Layer height: 0.1
;MINX:86.2
;MINY:85.45
;MINZ:0.24
;MAXX:133.8
;MAXY:134.55
;MAXZ:5.89
                                   
;Creality Print GCode Generated by CXEngine:NO_MAGE_VERSION_GIT_HEAD_BRANCH
;CXEngine Release Time:2022-09-30 09:53:04
;Gcode Generated Time:2023-05-21 11:40:19
;----------Machine Config--------------
;Machine Name:Ender-3 V2
;Machine Height:250
;Machine Width:220
;Machine Depth:220
;Material name:PLA
;Number of Extruders:1
;ExtruderParams[0] Nozzle Diameter1000
;----------Profile Config---------------
;Engine Version:275f99b
;Engine Release Time:2022-09-30 09:42:18
;Layer Height:0.1
;Wall Thickness:0.8
;Top/Bottom Thickness:0.5
;Out Wall Line Width:0.4
;Inner Wall Line Width:0.4
;Inital Layer Height:100
;Wall Line Count:2
;Infill Line Distance:4
;Infill Pattern:grid
;Infill Sparse Density:20
;Infill Wipe Distance:0
;Print Temperature:200
;Bed Temperature:60
;Support Enable:true
;Support Density:0
;Support Angle:60
;Adhesion Type:simpleraft
;machine is belt:false
;machine belt offset:10
;machine belt offset Y:0
;Raft Base Line Spacing:1.6
;Wait Heatup Sync:true
;----------Shell Config----------------
;Outer Wall Wipe Distance:200
;Outer Inset First:false
;Infill Before Walls:false
;Infill Overlap:0.16
;Fill Gaps Between Walls:everywhere
;Minimum Infill Area:1
;Top Surface Skin Layer:0
;Top Layers:4
;Z Seam Alignment:sharpest_corner
;Seam Corner Preference:z_seam_corner_inner
;Z Seam X:110
;Z Seam Y:110
;Horizontal Expansion:0
;Top/Bottom Pattern:zigzag
;Ironing Pattern:zigzag
;Vase Model:false
;----------Support Config----------------
;Support Type:everywhere
;Support Pattern:zigzag
;Support Infill Layer Thickness:0.1
;Minimum Support Area:5
;Enable Support Roof:false
;Support Roof Thickness:0.8
;Support Roof Pattern:lines
;Connect Support Lines:0
;Connect Support ZigZags:1
;Minimum Support X/Y Distance:0.2
;Support Line Distance:0
; ---------PrintSpeed & Travel----------
;Enable Print Cool:true
;Avoid Printed Parts Traveling:true
;Enable Retraction:true
;Retraction Distance:8
;Retraction Speed:100
;Retraction Prime Speed:100
;Maximum Retraction Count:100
;Minimum Extrusion Distance Window:1
;Z Hop When Retracted:false
;Z Hop Height:0.2
;Retract Before Outer Wall:true
;Print Speed:50
;Infill Speed:50

;Prime Tower Speed:50
;Travel Speed:120
;Initial Layer Speed:25
;Skirt/Brim Speed:25
;Combing Mode:infill
; --------SpecialModel&Mesh Fixes--------
;Union Overlapping Volum:true
;Remove All Holes:false
;Maximum Travel Resolution:0.6
;Maximum Deviation:0.05
;Maximum Model Angle:0.872665
;IS Mold Print:false
;Make Overhang Printable:false
;Enable Coasting:false
;Coasting Volumes:0.06
;Coasting Speed:0.9
;Raft AirGap:0.25
;Layer0 ZOverLap:0.13
;---------------------End of Head--------------------------
M140 S60
M105
M104 S200
M105
M109 S200
M105
M190 S60
M82 ;absolute extrusion mode
M220 S100 ;Reset Feedrate
M221 S100 ;Reset Flowrate

G28 ;Home

G92 E0 ;Reset Extruder
G1 Z2.0 F3000 ;Move Z Axis up
G1 X10.1 Y20 Z0.28 F5000.0 ;Move to start position
G1 X10.1 Y145.0 Z0.28 F1500.0 E15 ;Draw the first line
G1 X10.4 Y145.0 Z0.28 F5000.0 ;Move to side a little
G1 X10.4 Y20 Z0.28 F1500.0 E30 ;Draw the second line
G92 E0  ;Reset Extruder
G1 E-1.0000 F1800 ;Retract a bit
G1 Z2.0 F3000 ;Move Z Axis up
G1 E0.0000 F1800 

G92 E0
G92 E0
G1 F6000 E-8

;LAYER_COUNT:50

;LAYER:-4
M107
G0 F7200 X88 Y90.854 Z0.24
;TYPE:SUPPORT-INTERFACE
G1 F6000 E0
G1 F1200 X88 Y129.159 E3.05767
G1 X87.957 Y129.089 E3.06423
G1 X87.596 Y128.365 E3.12881
G1 X87.287 Y127.568 E3.19704
G1 X87.061 Y126.784 E3.26217
G1 X86.904 Y125.977 E3.3278
G1 X86.82 Y125.182 E3.39161
G1 X86.8 Y95.463 E5.76391
G1 X86.849 Y94.458 E5.84423
G1 X86.972 Y93.626 E5.91137
G1 X87.16 Y92.835 E5.97627
G1 X87.417 Y92.066 E6.04099
G1 X87.746 Y91.317 E6.10629
G1 X88.157 Y90.568 E6.17449
G1 X88.619 Y89.885 E6.24031
G1 X89.119 Y89.267 E6.30376
G1 X89.6 Y88.758 E6.35967
G1 X89.6 Y131.236 E9.75044
G1 X90.017 Y131.631 E9.79629
G1 X90.635 Y132.131 E9.85975
G1 X91.2 Y132.513 E9.91419
G1 X91.2 Y87.489 E13.5082
G1 X91.655 Y87.21 E13.55081
G1 X92.385 Y86.846 E13.61592
G1 X92.8 Y86.684 E13.65148
G1 X92.8 Y133.325 E17.37457
G1 X92.808 Y133.329 E17.37528
G1 X93.581 Y133.588 E17.44036
G1 X94.376 Y133.778 E17.50561
G1 X94.4 Y133.781 E17.50754
G1 X94.4 Y86.226 E21.30358
G1 X94.773 Y86.154 E21.33391
G1 X95.561 Y86.071 E21.39716
G1 X96 Y86.055 E21.43222
G1 X96 Y133.943 E25.25485
G1 X96.07 Y133.947 E25.26045
G1 X97.6 Y133.947 E25.38258
G1 X97.6 Y86.051 E29.20584
G1 X99.2 Y86.051 E29.33356
G1 X99.2 Y133.947 E33.15683
G1 X100.8 Y133.947 E33.28455
G1 X100.8 Y86.051 E37.10781
G1 X102.4 Y86.051 E37.23553
G1 X102.4 Y133.947 E41.0588
G1 X104 Y133.947 E41.18652
G1 X104 Y86.051 E45.00978
G1 X105.6 Y86.052 E45.1375
G1 X105.6 Y133.948 E48.96077
G1 X107.2 Y133.948 E49.08849
G1 X107.2 Y86.052 E52.91175
G1 X108.8 Y86.052 E53.03947
G1 X108.8 Y133.948 E56.86274
G1 X110.4 Y133.948 E56.99046
G1 X110.4 Y86.052 E60.81372
G1 X112 Y86.052 E60.94144
G1 X112 Y133.948 E64.76471
G1 X113.6 Y133.948 E64.89242
G1 X113.6 Y86.052 E68.71569
G1 X115.2 Y86.053 E68.84341
G1 X115.2 Y133.949 E72.66668
G1 X116.8 Y133.949 E72.79439
G1 X116.8 Y86.053 E76.61766
G1 X118.4 Y86.053 E76.74538
G1 X118.4 Y133.949 E80.56864
G1 X120 Y133.949 E80.69636
G1 X120 Y86.053 E84.51963
G1 X121.6 Y86.053 E84.64735
G1 X121.6 Y133.949 E88.47061
G1 X123.2 Y133.949 E88.59833
G1 X123.2 Y86.053 E92.4216
G1 X123.93 Y86.053 E92.47987
G1 X124.788 Y86.099 E92.54846
G1 X124.8 Y86.101 E92.54943
G1 X124.8 Y133.891 E96.36423
G1 X125.227 Y133.846 E96.39851
G1 X126.04 Y133.688 E96.46462
G1 X126.4 Y133.584 E96.49453
G1 X126.4 Y86.408 E100.26032
G1 X126.419 Y86.412 E100.26187
G1 X127.187 Y86.669 E100.32652
G1 X127.933 Y86.996 E100.39154
G1 X128 Y87.033 E100.39765
G1 X128 Y132.963 E104.06398
G1 X128.345 Y132.79 E104.09479
G1 X129.037 Y132.364 E104.15965
G1 X129.6 Y131.945 E104.21567
G1 X129.6 Y88.06 E107.71876
G1 X129.983 Y88.369 E107.75805
G1 X130.503 Y88.861 E107.81519
G1 X131.128 Y89.56 E107.89004
G1 X131.2 Y89.657 E107.89968
G1 X131.2 Y130.339 E111.1471
G1 X131.381 Y130.115 E111.17008
G1 X131.843 Y129.432 E111.23591
G1 X132.254 Y128.683 E111.3041
G1 X132.583 Y127.934 E111.36941
G1 X132.839 Y127.166 E111.43403
G1 X133.028 Y126.372 E111.49918
G1 X133.152 Y125.531 E111.56704
G1 X133.197 Y124.682 E111.6349
G1 X133.2 Y95.397 E113.97256
G1 X133.179 Y94.807 E114.01968
G1 X133.096 Y94.023 E114.08262
G1 X132.939 Y93.216 E114.14824
G1 X132.8 Y92.734 E114.18829
G1 X132.8 Y127.283 E116.94614
;;retract;;
G1 F6000 E108.94614
G0 F600 X132.8 Y127.283 Z0.47
G0 F7200 X132.95 Y91.938
;TIME_ELAPSED:79.470256

;LAYER:-3
;TYPE:SUPPORT
G1 F6000 E116.94614
G1 F1800 X127.296 Y86.284 E117.55781
G1 X127.332 Y86.296 E117.56072
G1 X128.117 Y86.64 E117.62628
G1 X128.882 Y87.06 E117.69304
G1 X129.609 Y87.551 E117.76015
G1 X130.248 Y88.068 E117.82303
G1 X130.788 Y88.579 E117.8799
G1 X131.439 Y89.307 E117.95461
G1 X131.947 Y89.99 E118.01973
G1 X132.39 Y90.71 E118.0844
G1 X132.772 Y91.477 E118.14995
G1 X133.091 Y92.299 E118.2174
G1 X133.33 Y93.128 E118.2834
G1 X133.474 Y93.876 E118.34167
G1 X125.379 Y85.781 E119.21743
G1 X124.835 Y85.701 E119.25949
G1 X123.932 Y85.653 E119.32866
G1 X123.836 Y85.652 E119.33601
G1 X133.599 Y95.415 E120.39222
G1 X133.599 Y96.829 E120.50039
G1 X122.422 Y85.652 E121.70957
G1 X121.007 Y85.652 E121.81781
G1 X133.599 Y98.244 E123.18008
G1 X133.599 Y99.658 E123.28825
G1 X119.593 Y85.652 E124.80349
G1 X118.179 Y85.652 E124.91165
G1 X133.599 Y101.072 E126.57987
G1 X133.598 Y102.485 E126.68796
G1 X116.764 Y85.651 E128.50914
G1 X115.35 Y85.651 E128.61731
G1 X133.598 Y103.9 E130.59153
G1 X133.598 Y105.314 E130.69969
G1 X113.936 Y85.651 E132.82688
G1 X112.521 Y85.651 E132.93513
G1 X133.598 Y106.728 E135.21534
G1 X133.597 Y108.142 E135.32351
G1 X111.107 Y85.651 E137.75664
G1 X109.692 Y85.651 E137.86489
G1 X133.597 Y109.556 E140.45105
G1 X133.597 Y110.97 E140.55922
G1 X108.278 Y85.651 E143.29835
G1 X106.864 Y85.651 E143.40652
G1 X133.597 Y112.384 E146.29863
G1 X133.597 Y113.798 E146.4068
G1 X105.45 Y85.651 E149.45188
G1 X104.035 Y85.651 E149.56012
G1 X133.597 Y115.212 E152.75823
G1 X133.597 Y116.626 E152.8664
G1 X102.62 Y85.65 E156.21759
G1 X101.206 Y85.65 E156.32576
G1 X133.597 Y118.04 E159.82993
G1 X133.596 Y119.454 E159.9381
G1 X99.792 Y85.65 E163.59518
G1 X98.378 Y85.65 E163.70335
G1 X133.596 Y120.868 E167.51341
G1 X133.596 Y122.282 E167.62157
G1 X96.964 Y85.65 E171.5846
G1 X96.154 Y85.65 E171.64657
G1 X95.569 Y85.67 E171.69135
G1 X133.596 Y123.697 E175.8053
G1 X133.597 Y124.682 E175.88065
G1 X133.575 Y125.09 E175.9119
G1 X94.319 Y85.834 E180.15881
G1 X93.872 Y85.921 E180.19365
G1 X93.189 Y86.118 E180.24803
G1 X133.433 Y126.362 E184.60182
G1 X133.422 Y126.445 E184.60823
G1 X133.226 Y127.269 E184.67302
G1 X133.151 Y127.494 E184.69116
G1 X92.165 Y86.508 E189.12523
G1 X91.454 Y86.863 E189.18602
G1 X91.238 Y86.996 E189.20543
G1 X132.762 Y128.52 E193.6977
G1 X132.61 Y128.867 E193.72668
G1 X132.286 Y129.457 E193.77817
G1 X90.39 Y87.562 E198.31063
G1 X90.057 Y87.811 E198.34244
G1 X89.618 Y88.203 E198.38746
G1 X131.728 Y130.314 E202.94319
G1 X131.699 Y130.359 E202.94728
G1 X131.182 Y130.998 E203.01016
G1 X131.092 Y131.092 E203.02012
G1 X88.906 Y88.906 E207.58401
G1 X88.818 Y89.002 E207.59397
G1 X88.301 Y89.641 E207.65685
G1 X88.27 Y89.684 E207.6609
G1 X130.381 Y131.795 E212.21668
G1 X129.947 Y132.185 E212.26131
G1 X129.607 Y132.436 E212.29364
G1 X87.713 Y90.541 E216.826
G1 X87.39 Y91.133 E216.87759
G1 X87.236 Y91.479 E216.90656
G1 X128.76 Y133.003 E221.39883
G1 X128.546 Y133.137 E221.41815
G1 X127.833 Y133.49 E221.47901
G1 X86.848 Y92.505 E225.91297
G1 X86.774 Y92.731 E225.93116
G1 X86.578 Y93.553 E225.9958
G1 X86.564 Y93.635 E226.00217
G1 X126.809 Y133.88 E230.35607
G1 X126.128 Y134.079 E230.41034
G1 X125.679 Y134.165 E230.44532
G1 X86.425 Y94.91 E234.69206
G1 X86.4 Y95.443 E234.73288
G1 X86.399 Y96.299 E234.79836
G1 X124.429 Y134.329 E238.91264
G1 X123.846 Y134.35 E238.95726
G1 X123.035 Y134.348 E239.01931
G1 X86.401 Y97.715 E242.9825
G1 X86.402 Y99.13 E243.09074
G1 X121.62 Y134.348 E246.9008
G1 X120.206 Y134.348 E247.00897
G1 X86.402 Y100.544 E250.66605
G1 X86.404 Y101.96 E250.77438
G1 X118.792 Y134.348 E254.27827
G1 X117.378 Y134.348 E254.38644
G1 X86.404 Y103.375 E257.7373
G1 X86.405 Y104.79 E257.84555
G1 X115.963 Y134.348 E261.04328
G1 X114.549 Y134.348 E261.15145
G1 X86.407 Y106.206 E264.19599
G1 X86.407 Y107.62 E264.30416
G1 X113.134 Y134.348 E267.19567
G1 X111.72 Y134.348 E267.30384
G1 X86.408 Y109.035 E270.04227
G1 X86.409 Y110.451 E270.15059
G1 X110.306 Y134.348 E272.73589
G1 X108.891 Y134.347 E272.84413
G1 X86.41 Y111.866 E275.27624
G1 X86.411 Y113.281 E275.38449
G1 X107.477 Y134.347 E277.66351
G1 X106.063 Y134.347 E277.77168
G1 X86.412 Y114.696 E279.89762
G1 X86.413 Y116.111 E280.00587
G1 X104.648 Y134.347 E281.97867
G1 X103.234 Y134.347 E282.08684
G1 X86.414 Y117.526 E283.90657
G1 X86.415 Y118.942 E284.01489
G1 X101.819 Y134.346 E285.68137
G1 X100.405 Y134.346 E285.78954
G1 X86.416 Y120.357 E287.30294
G1 X86.416 Y121.772 E287.41118
G1 X98.991 Y134.346 E288.77155
G1 X97.577 Y134.346 E288.87972
G1 X86.418 Y123.187 E290.08696
G1 X86.419 Y124.602 E290.1952
G1 X96.162 Y134.346 E291.2493
G1 X96.068 Y134.347 E291.25649
G1 X95.165 Y134.299 E291.32567
G1 X94.619 Y134.217 E291.36791
G1 X86.524 Y126.122 E292.24366
G1 X86.67 Y126.872 E292.30211
G1 X86.909 Y127.701 E292.36811
G1 X87.228 Y128.523 E292.43556
G1 X87.61 Y129.29 E292.50111
G1 X88.053 Y130.01 E292.56578
G1 X88.561 Y130.693 E292.6309
G1 X89.218 Y131.427 E292.70626
G1 X89.752 Y131.932 E292.76248
G1 X90.391 Y132.449 E292.82536
G1 X91.118 Y132.94 E292.89247
G1 X91.879 Y133.358 E292.95889
G1 X92.662 Y133.702 E293.02431
G1 X92.702 Y133.714 E293.02751
G1 X87.049 Y128.061 E293.63908
G0 F600 X87.049 Y128.061 Z0.62
G0 F7200 X92.921 Y134
;TIME_ELAPSED:160.596428

;LAYER:-2
;TYPE:SUPPORT-INTERFACE
G1 F2400 X127.081 Y134 E294.4912
G1 X126.175 Y134.273 E294.5148
G1 X125.522 Y134.4 E294.5314
G1 X94.477 Y134.4 E295.30582
G1 X94.267 Y134.369 E295.31111
G1 X93.411 Y134.164 E295.33307
G1 X92.58 Y133.885 E295.35494
G1 X91.932 Y133.6 E295.3726
G1 X128.064 Y133.6 E296.27391
G1 X128.638 Y133.314 E296.28991
G1 X128.822 Y133.2 E296.29531
G1 X91.174 Y133.2 E297.23444
G1 X91.015 Y133.112 E297.23898
G1 X90.551 Y132.8 E297.25292
G1 X129.456 Y132.8 E298.22341
G1 X129.993 Y132.4 E298.24012
G1 X90.012 Y132.4 E299.23745
G1 X89.609 Y132.073 E299.25039
G1 X89.531 Y132 E299.25306
G1 X130.453 Y132 E300.27386
G1 X130.819 Y131.673 E300.2861
G1 X130.887 Y131.6 E300.28859
G1 X89.11 Y131.6 E301.33072
G1 X89.068 Y131.559 E301.33219
G1 X88.744 Y131.2 E301.34425
G1 X131.267 Y131.2 E302.40499
G1 X131.323 Y131.141 E302.40702
G1 X131.598 Y130.8 E302.41795
G1 X88.39 Y130.8 E303.49578
G1 X88.092 Y130.4 E303.50822
G1 X131.912 Y130.4 E304.60131
G1 X132.182 Y130 E304.61335
G1 X87.811 Y130 E305.72019
G1 X87.565 Y129.6 E305.73191
G1 X132.436 Y129.6 E306.85122
G1 X132.655 Y129.2 E306.86259
G1 X87.341 Y129.2 E307.99296
G1 X87.141 Y128.8 E308.00411
G1 X132.857 Y128.8 E309.1445
G1 X133.033 Y128.4 E309.1554
G1 X86.965 Y128.4 E310.30457
G1 X86.809 Y128 E310.31528
G1 X133.191 Y128 E311.47229
G1 X133.326 Y127.6 E311.48282
G1 X86.67 Y127.6 E312.64666
G1 X86.555 Y127.2 E312.65704
G1 X133.447 Y127.2 E313.82676
G1 X133.542 Y126.8 E313.83702
G1 X86.451 Y126.8 E315.01171
G1 X86.373 Y126.4 E315.02188
G1 X133.631 Y126.4 E316.20073
G1 X133.69 Y126 E316.21082
G1 X86.302 Y126 E317.39292
G1 X86.259 Y125.6 E317.40295
G1 X133.748 Y125.6 E318.58757
G1 X133.769 Y125.2 E318.59756
G1 X86.219 Y125.2 E319.7837
G1 X86.205 Y124.8 E319.79369
G1 X133.791 Y124.8 E320.98072
G1 X133.797 Y124.691 E320.98345
G1 X133.797 Y124.4 E320.99071
G1 X86.2 Y124.4 E322.17802
G1 X86.2 Y124 E322.188
G1 X133.797 Y124 E323.37531
G1 X133.797 Y123.6 E323.38529
G1 X86.2 Y123.6 E324.5726
G1 X86.2 Y123.2 E324.58258
G1 X133.797 Y123.2 E325.76989
G1 X133.797 Y122.8 E325.77987
G1 X86.2 Y122.8 E326.96718
G1 X86.2 Y122.4 E326.97716
G1 X133.797 Y122.4 E328.16447
G1 X133.797 Y122 E328.17445
G1 X86.2 Y122 E329.36176
G1 X86.2 Y121.6 E329.37174
G1 X133.797 Y121.6 E330.55905
G1 X133.797 Y121.2 E330.56903
G1 X86.2 Y121.2 E331.75634
G1 X86.2 Y120.8 E331.76632
G1 X133.797 Y120.8 E332.95363
G1 X133.797 Y120.4 E332.96361
G1 X86.2 Y120.4 E334.15092
G1 X86.2 Y120 E334.1609
G1 X133.797 Y120 E335.34821
G1 X133.797 Y119.6 E335.35819
G1 X86.2 Y119.6 E336.5455
G1 X86.2 Y119.2 E336.55548
G1 X133.797 Y119.2 E337.74279
G1 X133.797 Y118.8 E337.75277
G1 X86.201 Y118.8 E338.94005
G1 X86.201 Y118.4 E338.95003
G1 X133.797 Y118.4 E340.13732
G1 X133.797 Y118 E340.1473
G1 X86.201 Y118 E341.33458
G1 X86.201 Y117.6 E341.34456
G1 X133.797 Y117.6 E342.53185
G1 X133.797 Y117.2 E342.54183
G1 X86.201 Y117.2 E343.72911
G1 X86.201 Y116.8 E343.73909
G1 X133.797 Y116.8 E344.92638
G1 X133.797 Y116.4 E344.93636
G1 X86.201 Y116.4 E346.12364
G1 X86.201 Y116 E346.13362
G1 X133.797 Y116 E347.32091
G1 X133.797 Y115.6 E347.33089
G1 X86.201 Y115.6 E348.51817
G1 X86.201 Y115.2 E348.52815
G1 X133.797 Y115.2 E349.71544
G1 X133.798 Y114.8 E349.72542
G1 X86.202 Y114.8 E350.9127
G1 X86.202 Y114.4 E350.92268
G1 X133.798 Y114.4 E352.10997
G1 X133.798 Y114 E352.11995
G1 X86.202 Y114 E353.30724
G1 X86.202 Y113.6 E353.31721
G1 X133.798 Y113.6 E354.5045
G1 X133.798 Y113.2 E354.51448
G1 X86.202 Y113.2 E355.70177
G1 X86.202 Y112.8 E355.71174
G1 X133.798 Y112.8 E356.89903
G1 X133.798 Y112.4 E356.90901
G1 X86.202 Y112.4 E358.0963
G1 X86.202 Y112 E358.10627
G1 X133.798 Y112 E359.29356
G1 X133.798 Y111.6 E359.30354
G1 X86.202 Y111.6 E360.49083
G1 X86.202 Y111.2 E360.5008
G1 X133.798 Y111.2 E361.68809
G1 X133.798 Y110.8 E361.69807
G1 X86.202 Y110.8 E362.88536
G1 X86.202 Y110.4 E362.89533
G1 X133.798 Y110.4 E364.08262
G1 X133.798 Y110 E364.0926
G1 X86.202 Y110 E365.27989
G1 X86.202 Y109.6 E365.28986
G1 X133.798 Y109.6 E366.47715
G1 X133.798 Y109.2 E366.48713
G1 X86.202 Y109.2 E367.67442
G1 X86.202 Y108.8 E367.68439
G1 X133.798 Y108.8 E368.87168
G1 X133.798 Y108.4 E368.88166
G1 X86.202 Y108.4 E370.06895
