;FLAVOR:Marlin
;TIME:5063
;Filament used:2.10329m
;Layer height: 0.1
;MINX:79.2
;MINY:89.5
;MINZ:0.24
;MAXX:140.8
;MAXY:130.498
;MAXZ:12.89
                                  
;Creality Print GCode Generated by CXEngine:NO_MAGE_VERSION_GIT_HEAD_BRANCH
;CXEngine Release Time:2022-09-30 09:53:04
;Gcode Generated Time:2023-05-21 11:41:25
;----------Machine Config--------------
;Machine Name:Ender-3 V2
;Machine Height:250
;Machine Width:220
;Machine Depth:220
;Material name:PLA
;Number of Extruders:1
;ExtruderParams[0] Nozzle Diameter1000
;----------Profile Config---------------
;Engine Version:275f99b
;Engine Release Time:2022-09-30 09:42:18
;Layer Height:0.1
;Wall Thickness:0.8
;Top/Bottom Thickness:0.5
;Out Wall Line Width:0.4
;Inner Wall Line Width:0.4
;Inital Layer Height:100
;Wall Line Count:2
;Infill Line Distance:4
;Infill Pattern:grid
;Infill Sparse Density:20
;Infill Wipe Distance:0
;Print Temperature:200
;Bed Temperature:60
;Support Enable:true
;Support Density:0
;Support Angle:60
;Adhesion Type:simpleraft
;machine is belt:false
;machine belt offset:10
;machine belt offset Y:0
;Raft Base Line Spacing:1.6
;Wait Heatup Sync:true
;----------Shell Config----------------
;Outer Wall Wipe Distance:200
;Outer Inset First:false
;Infill Before Walls:false
;Infill Overlap:0.16
;Fill Gaps Between Walls:everywhere
;Minimum Infill Area:1
;Top Surface Skin Layer:0
;Top Layers:4
;Z Seam Alignment:sharpest_corner
;Seam Corner Preference:z_seam_corner_inner
;Z Seam X:110
;Z Seam Y:110
;Horizontal Expansion:0
;Top/Bottom Pattern:zigzag
;Ironing Pattern:zigzag
;Vase Model:false
;----------Support Config----------------
;Support Type:everywhere
;Support Pattern:zigzag
;Support Infill Layer Thickness:0.1
;Minimum Support Area:5
;Enable Support Roof:false
;Support Roof Thickness:0.8
;Support Roof Pattern:lines
;Connect Support Lines:0
;Connect Support ZigZags:1
;Minimum Support X/Y Distance:0.2
;Support Line Distance:0
; ---------PrintSpeed & Travel----------
;Enable Print Cool:true
;Avoid Printed Parts Traveling:true
;Enable Retraction:true
;Retraction Distance:8
;Retraction Speed:100
;Retraction Prime Speed:100
;Maximum Retraction Count:100
;Minimum Extrusion Distance Window:1
;Z Hop When Retracted:false
;Z Hop Height:0.2
;Retract Before Outer Wall:true
;Print Speed:50
;Infill Speed:50

;Prime Tower Speed:50
;Travel Speed:120
;Initial Layer Speed:25
;Skirt/Brim Speed:25
;Combing Mode:infill
; --------SpecialModel&Mesh Fixes--------
;Union Overlapping Volum:true
;Remove All Holes:false
;Maximum Travel Resolution:0.6
;Maximum Deviation:0.05
;Maximum Model Angle:0.872665
;IS Mold Print:false
;Make Overhang Printable:false
;Enable Coasting:false
;Coasting Volumes:0.06
;Coasting Speed:0.9
;Raft AirGap:0.25
;Layer0 ZOverLap:0.13
;---------------------End of Head--------------------------
M140 S60
M105
M104 S200
M105
M109 S200
M105
M190 S60
M82 ;absolute extrusion mode
M220 S100 ;Reset Feedrate
M221 S100 ;Reset Flowrate

G28 ;Home

G92 E0 ;Reset Extruder
G1 Z2.0 F3000 ;Move Z Axis up
G1 X10.1 Y20 Z0.28 F5000.0 ;Move to start position
G1 X10.1 Y145.0 Z0.28 F1500.0 E15 ;Draw the first line
G1 X10.4 Y145.0 Z0.28 F5000.0 ;Move to side a little
G1 X10.4 Y20 Z0.28 F1500.0 E30 ;Draw the second line
G92 E0  ;Reset Extruder
G1 E-1.0000 F1800 ;Retract a bit
G1 Z2.0 F3000 ;Move Z Axis up
G1 E0.0000 F1800 

G92 E0
G92 E0
G1 F6000 E-8

;LAYER_COUNT:120

;LAYER:-4
M107
G0 F7200 X80 Y97.558 Z0.24
;TYPE:SUPPORT-INTERFACE
G1 F6000 E0
G1 F1200 X80 Y122.42 E1.98459
G1 X79.904 Y121.927 E2.02468
G1 X79.82 Y121.132 E2.0885
G1 X79.8 Y99.513 E3.81422
G1 X79.849 Y98.508 E3.89454
G1 X79.972 Y97.676 E3.96168
G1 X80.16 Y96.885 E4.02658
G1 X80.417 Y96.116 E4.0913
G1 X80.746 Y95.367 E4.1566
G1 X81.157 Y94.618 E4.2248
G1 X81.6 Y93.963 E4.28792
G1 X81.6 Y126.025 E6.84725
G1 X81.872 Y126.39 E6.88358
G1 X82.503 Y127.095 E6.95911
G1 X83.017 Y127.581 E7.01557
G1 X83.2 Y127.729 E7.03436
G1 X83.2 Y92.27 E9.86485
G1 X83.31 Y92.172 E9.87661
G1 X83.962 Y91.686 E9.94153
G1 X84.655 Y91.26 E10.00646
G1 X84.8 Y91.187 E10.01942
G1 X84.8 Y128.807 E13.02241
G1 X85.063 Y128.952 E13.04638
G1 X85.808 Y129.279 E13.11133
G1 X86.4 Y129.477 E13.16116
G1 X86.4 Y90.523 E16.27063
G1 X86.96 Y90.362 E16.31715
G1 X87.773 Y90.204 E16.38326
G1 X88 Y90.18 E16.40148
G1 X88 Y129.819 E19.56563
G1 X88.212 Y129.851 E19.58275
G1 X89.07 Y129.897 E19.65134
G1 X89.6 Y129.897 E19.69364
G1 X89.6 Y90.101 E22.87033
G1 X91.2 Y90.101 E22.99805
G1 X91.2 Y129.897 E26.17474
G1 X92.8 Y129.897 E26.30246
G1 X92.8 Y90.101 E29.47915
G1 X94.4 Y90.101 E29.60687
G1 X94.4 Y129.897 E32.78356
G1 X96 Y129.897 E32.91128
G1 X96 Y90.101 E36.08796
G1 X97.6 Y90.101 E36.21568
G1 X97.6 Y129.897 E39.39237
G1 X99.2 Y129.897 E39.52009
G1 X99.2 Y90.101 E42.69678
G1 X100.8 Y90.101 E42.8245
G1 X100.8 Y129.897 E46.00119
G1 X102.4 Y129.897 E46.12891
G1 X102.4 Y90.101 E49.3056
G1 X104 Y90.102 E49.43331
G1 X104 Y129.898 E52.61
G1 X105.6 Y129.898 E52.73772
G1 X105.6 Y90.102 E55.91441
G1 X107.2 Y90.102 E56.04213
G1 X107.2 Y129.898 E59.21882
G1 X108.8 Y129.898 E59.34654
G1 X108.8 Y90.102 E62.52323
G1 X110.4 Y90.102 E62.65095
G1 X110.4 Y129.898 E65.82763
G1 X112 Y129.898 E65.95535
G1 X112 Y90.102 E69.13204
G1 X113.6 Y90.102 E69.25976
G1 X113.6 Y129.898 E72.43645
G1 X115.2 Y129.898 E72.56417
G1 X115.2 Y90.102 E75.74086
G1 X116.8 Y90.102 E75.86858
G1 X116.8 Y129.898 E79.04527
G1 X118.4 Y129.899 E79.17299
G1 X118.4 Y90.103 E82.34967
G1 X120 Y90.103 E82.47739
G1 X120 Y129.899 E85.65408
G1 X121.6 Y129.899 E85.7818
G1 X121.6 Y90.103 E88.95849
G1 X123.2 Y90.103 E89.08621
G1 X123.2 Y129.899 E92.2629
G1 X124.8 Y129.899 E92.39062
G1 X124.8 Y90.103 E95.56731
G1 X126.4 Y90.103 E95.69502
G1 X126.4 Y129.899 E98.87171
G1 X128 Y129.899 E98.99943
G1 X128 Y90.103 E102.17612
G1 X129.6 Y90.103 E102.30384
G1 X129.6 Y129.899 E105.48053
G1 X130.832 Y129.9 E105.57887
G1 X131.2 Y129.888 E105.60826
G1 X131.2 Y90.118 E108.78288
G1 X131.788 Y90.149 E108.82988
G1 X132.624 Y90.272 E108.89733
G1 X132.8 Y90.315 E108.91179
G1 X132.8 Y129.685 E112.05448
G1 X133.04 Y129.638 E112.074
G1 X133.822 Y129.412 E112.13898
G1 X134.4 Y129.188 E112.18846
G1 X134.4 Y90.813 E115.25172
G1 X134.933 Y91.046 E115.29815
G1 X135.682 Y91.457 E115.36635
G1 X136 Y91.673 E115.39703
G1 X136 Y128.337 E118.32371
G1 X136.037 Y128.314 E118.32719
G1 X136.694 Y127.824 E118.39262
G1 X137.39 Y127.202 E118.46713
G1 X137.881 Y126.683 E118.52416
G1 X138.381 Y126.065 E118.58761
G1 X138.843 Y125.382 E118.65343
G1 X139.2 Y124.732 E118.71263
G1 X139.2 Y95.276 E121.06394
G1 X139.043 Y94.961 E121.09203
G1 X138.614 Y94.262 E121.1575
G1 X138.128 Y93.61 E121.22241
G1 X137.6 Y93.02 E121.28561
G1 X137.6 Y126.981 E123.99653
;;retract;;
G1 F6000 E115.99653
G0 F600 X137.6 Y126.981 Z0.47
G0 F7200 X140.027 Y96.187
;TIME_ELAPSED:84.123132

;LAYER:-3
;TYPE:SUPPORT
G1 F6000 E123.99653
G1 F1800 X134.114 Y90.274 E124.63622
G1 X134.332 Y90.346 E124.65379
G1 X135.117 Y90.69 E124.71935
G1 X135.882 Y91.11 E124.78611
G1 X136.609 Y91.601 E124.85322
G1 X137.248 Y92.118 E124.9161
G1 X137.788 Y92.629 E124.97297
G1 X138.439 Y93.357 E125.04768
G1 X138.947 Y94.04 E125.1128
G1 X139.39 Y94.76 E125.17747
G1 X139.772 Y95.527 E125.24302
G1 X140.091 Y96.349 E125.31047
G1 X140.33 Y97.178 E125.37647
G1 X140.492 Y98.013 E125.44153
G1 X140.497 Y98.071 E125.44599
G1 X132.237 Y89.811 E126.3396
G1 X131.835 Y89.751 E126.37069
G1 X130.932 Y89.703 E126.43986
G1 X130.715 Y89.702 E126.45646
G1 X140.598 Y99.586 E127.52571
G1 X140.598 Y101.001 E127.63396
G1 X129.3 Y89.702 E128.85628
G1 X127.886 Y89.702 E128.96445
G1 X140.598 Y102.415 E130.33975
G1 X140.598 Y103.829 E130.44792
G1 X126.472 Y89.702 E131.9762
G1 X125.058 Y89.702 E132.08437
G1 X140.598 Y105.242 E133.76556
G1 X140.598 Y106.657 E133.8738
G1 X123.643 Y89.702 E135.70808
G1 X122.229 Y89.702 E135.81625
G1 X140.598 Y108.071 E137.8035
G1 X140.598 Y109.485 E137.91167
G1 X120.814 Y89.702 E140.05194
G1 X119.4 Y89.702 E140.16011
G1 X140.597 Y110.899 E142.45331
G1 X140.597 Y112.313 E142.56148
G1 X117.986 Y89.702 E145.00765
G1 X116.572 Y89.702 E145.11582
G1 X140.597 Y113.727 E147.71496
G1 X140.597 Y115.141 E147.82313
G1 X115.157 Y89.702 E150.5753
G1 X113.743 Y89.701 E150.68347
G1 X140.596 Y116.555 E153.58861
G1 X140.596 Y117.969 E153.69678
G1 X112.328 Y89.701 E156.75495
G1 X110.914 Y89.701 E156.86312
G1 X140.596 Y119.383 E160.07427
G1 X140.597 Y120.632 E160.16981
G1 X140.588 Y120.789 E160.18184
G1 X109.5 Y89.701 E163.5451
G1 X108.086 Y89.701 E163.65327
G1 X140.468 Y122.083 E167.15651
G1 X140.422 Y122.395 E167.18064
G1 X140.226 Y123.219 E167.24543
G1 X140.216 Y123.245 E167.24756
G1 X106.672 Y89.701 E170.87652
G1 X105.257 Y89.7 E170.98476
G1 X139.843 Y124.286 E174.72645
G1 X139.61 Y124.817 E174.7708
G1 X139.379 Y125.237 E174.80747
G1 X103.842 Y89.7 E178.65204
G1 X102.428 Y89.7 E178.76021
G1 X138.834 Y126.106 E182.69879
G1 X138.699 Y126.309 E182.71744
G1 X138.217 Y126.903 E182.77596
G1 X101.014 Y89.7 E186.80076
G1 X99.6 Y89.7 E186.90893
G1 X137.52 Y127.62 E191.0113
G1 X136.947 Y128.135 E191.07024
G1 X136.759 Y128.274 E191.08813
G1 X98.186 Y89.7 E195.2612
G1 X96.771 Y89.7 E195.36944
G1 X135.923 Y128.852 E199.6051
G1 X135.546 Y129.087 E199.63909
G1 X135.01 Y129.353 E199.68486
G1 X95.356 Y89.7 E203.97477
G1 X93.942 Y89.7 E204.08294
G1 X134.01 Y129.767 E208.41764
G1 X133.955 Y129.79 E208.4222
G1 X133.128 Y130.029 E208.48805
G1 X132.9 Y130.072 E208.5058
G1 X92.528 Y89.7 E212.87345
G1 X91.114 Y89.7 E212.98161
G1 X131.671 Y130.256 E217.36922
G1 X131.466 Y130.279 E217.385
G1 X130.846 Y130.3 E217.43245
G1 X130.299 Y130.299 E217.4743
G1 X89.7 Y89.7 E221.8665
G1 X89.154 Y89.7 E221.90827
G1 X88.534 Y89.721 E221.95572
G1 X88.328 Y89.742 E221.97156
G1 X128.885 Y130.299 E226.35922
G1 X127.47 Y130.299 E226.46747
G1 X87.098 Y89.927 E230.83511
G1 X86.872 Y89.971 E230.85272
G1 X86.045 Y90.21 E230.91858
G1 X85.989 Y90.231 E230.92315
G1 X126.056 Y130.299 E235.25785
G1 X124.642 Y130.299 E235.36602
G1 X84.989 Y90.646 E239.65588
G1 X84.454 Y90.913 E239.70162
G1 X84.075 Y91.146 E239.73565
G1 X123.228 Y130.299 E243.97142
G1 X121.813 Y130.298 E244.07966
G1 X83.239 Y91.725 E248.25273
G1 X83.057 Y91.861 E248.27011
G1 X82.479 Y92.378 E248.32944
G1 X120.399 Y130.298 E252.43181
G1 X118.984 Y130.298 E252.54006
G1 X81.781 Y93.095 E256.56486
G1 X81.301 Y93.691 E256.6234
G1 X81.164 Y93.892 E256.64201
G1 X117.57 Y130.298 E260.58059
G1 X116.156 Y130.298 E260.68876
G1 X80.62 Y94.762 E264.53322
G1 X80.39 Y95.183 E264.56992
G1 X80.156 Y95.712 E264.61417
G1 X114.742 Y130.298 E268.35585
G1 X113.327 Y130.297 E268.4641
G1 X79.782 Y96.753 E272.09311
G1 X79.774 Y96.781 E272.09533
G1 X79.578 Y97.603 E272.15998
G1 X79.531 Y97.915 E272.18412
G1 X111.913 Y130.297 E275.68736
G1 X110.498 Y130.297 E275.79561
G1 X79.413 Y99.212 E279.15853
G1 X79.4 Y99.493 E279.18005
G1 X79.401 Y100.614 E279.26581
G1 X109.084 Y130.297 E282.47706
G1 X107.67 Y130.297 E282.58523
G1 X79.402 Y102.029 E285.6434
G1 X79.403 Y103.444 E285.75165
G1 X106.256 Y130.297 E288.65674
G1 X104.841 Y130.297 E288.76498
G1 X79.404 Y104.86 E291.51688
G1 X79.405 Y106.276 E291.62521
G1 X103.427 Y130.297 E294.22397
G1 X102.012 Y130.297 E294.33222
G1 X79.407 Y107.691 E296.77779
G1 X79.408 Y109.106 E296.88604
G1 X100.598 Y130.297 E299.17853
G1 X99.184 Y130.297 E299.2867
G1 X79.409 Y110.522 E301.42606
G1 X79.41 Y111.937 E301.5343
G1 X97.77 Y130.297 E303.52058
G1 X96.355 Y130.296 E303.62882
G1 X79.412 Y113.353 E305.4618
G1 X79.413 Y114.769 E305.57012
G1 X94.941 Y130.296 E307.24996
G1 X93.526 Y130.296 E307.35821
G1 X79.414 Y116.184 E308.88491
G1 X79.415 Y117.599 E308.99316
G1 X92.112 Y130.296 E310.36678
G1 X90.698 Y130.296 E310.47495
G1 X79.417 Y119.015 E311.69539
G1 X79.418 Y120.43 E311.80363
G1 X89.284 Y130.296 E312.87098
G1 X89.068 Y130.297 E312.88751
G1 X88.165 Y130.249 E312.95668
G1 X87.761 Y130.188 E312.98794
G1 X79.501 Y121.927 E313.8816
G1 X79.508 Y121.987 E313.88622
G1 X79.67 Y122.822 E313.95129
G1 X79.909 Y123.651 E314.01729
G1 X80.228 Y124.473 E314.08474
G1 X80.61 Y125.24 E314.15029
G1 X81.053 Y125.96 E314.21496
G1 X81.561 Y126.643 E314.28007
G1 X82.218 Y127.377 E314.35543
G1 X82.752 Y127.882 E314.41165
G1 X83.391 Y128.399 E314.47453
G1 X84.118 Y128.89 E314.54164
G1 X84.879 Y129.308 E314.60806
G1 X85.662 Y129.652 E314.67349
G1 X85.884 Y129.725 E314.69136
G1 X79.971 Y123.812 E315.33106
G0 F600 X79.971 Y123.812 Z0.62
G0 F7200 X86.07 Y130
;TIME_ELAPSED:171.870014

;LAYER:-2
;TYPE:SUPPORT-INTERFACE
G1 F2400 X133.913 Y130 E316.52451
G1 X133.175 Y130.223 E316.54374
G1 X132.328 Y130.388 E316.56527
G1 X132.206 Y130.4 E316.56832
G1 X87.819 Y130.4 E317.67556
G1 X87.267 Y130.319 E317.68948
G1 X86.411 Y130.114 E317.71144
G1 X85.58 Y129.835 E317.7333
G1 X85.045 Y129.6 E317.74788
G1 X134.963 Y129.6 E318.99309
G1 X135.638 Y129.264 E319.0119
G1 X135.74 Y129.2 E319.0149
G1 X84.265 Y129.2 E320.29895
G1 X84.015 Y129.062 E320.30607
G1 X83.626 Y128.8 E320.31777
G1 X136.389 Y128.8 E321.63395
G1 X136.925 Y128.4 E321.65064
G1 X83.074 Y128.4 E322.99395
G1 X82.609 Y128.023 E323.00889
G1 X82.583 Y128 E323.00975
G1 X137.397 Y128 E324.37709
G1 X137.819 Y127.623 E324.39121
G1 X137.839 Y127.6 E324.39197
G1 X82.162 Y127.6 E325.78084
G1 X82.068 Y127.509 E325.7841
G1 X81.789 Y127.2 E325.79449
G1 X138.218 Y127.2 E327.20211
G1 X138.323 Y127.091 E327.20589
G1 X138.557 Y126.8 E327.2152
G1 X81.43 Y126.8 E328.64024
G1 X81.413 Y126.779 E328.64092
G1 X81.129 Y126.4 E328.65273
G1 X138.879 Y126.4 E330.09331
G1 X139.148 Y126 E330.10534
G1 X80.842 Y126 E331.55978
G1 X80.596 Y125.6 E331.5715
G1 X139.408 Y125.6 E333.03857
G1 X139.628 Y125.2 E333.04996
G1 X80.366 Y125.2 E334.52825
G1 X80.166 Y124.8 E334.53941
G1 X139.834 Y124.8 E336.02783
G1 X140.011 Y124.4 E336.03875
G1 X79.984 Y124.4 E337.53613
G1 X79.829 Y124 E337.54683
G1 X140.174 Y124 E339.05214
G1 X140.309 Y123.6 E339.06267
G1 X79.685 Y123.6 E340.57494
G1 X79.569 Y123.2 E340.58533
G1 X140.435 Y123.2 E342.10364
G1 X140.53 Y122.8 E342.11389
G1 X79.461 Y122.8 E343.63727
G1 X79.383 Y122.4 E343.64743
G1 X140.624 Y122.4 E345.1751
G1 X140.682 Y122 E345.18518
G1 X79.308 Y122 E346.71616
G1 X79.265 Y121.6 E346.72619
G1 X140.741 Y121.6 E348.25972
G1 X140.748 Y121.555 E348.26086
G1 X140.766 Y121.2 E348.26972
G1 X79.222 Y121.2 E349.80494
G1 X79.221 Y121.178 E349.80549
G1 X79.207 Y120.8 E349.81493
G1 X140.788 Y120.8 E351.35107
G1 X140.797 Y120.641 E351.35505
G1 X140.797 Y120.4 E351.36106
G1 X79.2 Y120.4 E352.8976
G1 X79.2 Y120 E352.90758
G1 X140.797 Y120 E354.44412
G1 X140.797 Y119.6 E354.4541
G1 X79.2 Y119.6 E355.99064
G1 X79.2 Y119.2 E356.00062
G1 X140.797 Y119.2 E357.53717
G1 X140.797 Y118.8 E357.54714
G1 X79.201 Y118.8 E359.08366
G1 X79.201 Y118.4 E359.09364
G1 X140.797 Y118.4 E360.63016
G1 X140.797 Y118 E360.64014
G1 X79.201 Y118 E362.17666
G1 X79.201 Y117.6 E362.18663
G1 X140.797 Y117.6 E363.72315
G1 X140.797 Y117.2 E363.73313
G1 X79.201 Y117.2 E365.26965
G1 X79.201 Y116.8 E365.27963
G1 X140.797 Y116.8 E366.81615
G1 X140.797 Y116.4 E366.82612
G1 X79.201 Y116.4 E368.36264
G1 X79.201 Y116 E368.37262
G1 X140.797 Y116 E369.90914
G1 X140.797 Y115.6 E369.91912
G1 X79.201 Y115.6 E371.45564
G1 X79.201 Y115.2 E371.46561
G1 X140.797 Y115.2 E373.00213
G1 X140.797 Y114.8 E373.01211
G1 X79.201 Y114.8 E374.54863
G1 X79.201 Y114.4 E374.55861
G1 X140.797 Y114.4 E376.09512
G1 X140.797 Y114 E376.1051
G1 X79.201 Y114 E377.64162
G1 X79.201 Y113.6 E377.6516
G1 X140.797 Y113.6 E379.18812
G1 X140.798 Y113.2 E379.1981
G1 X79.202 Y113.2 E380.73461
G1 X79.202 Y112.8 E380.74459
G1 X140.798 Y112.8 E382.28111
G1 X140.798 Y112.4 E382.29109
G1 X79.202 Y112.4 E383.82761
G1 X79.202 Y112 E383.83759
G1 X140.798 Y112 E385.3741
G1 X140.798 Y111.6 E385.38408
G1 X79.202 Y111.6 E386.9206
G1 X79.202 Y111.2 E386.93058
G1 X140.798 Y111.2 E388.4671
G1 X140.798 Y110.8 E388.47708
G1 X79.202 Y110.8 E390.01359
G1 X79.202 Y110.4 E390.02357
G1 X140.798 Y110.4 E391.56009
G1 X140.798 Y110 E391.57007
G1 X79.202 Y110 E393.10659
G1 X79.202 Y109.6 E393.11657
G1 X140.798 Y109.6 E394.65308
G1 X140.798 Y109.2 E394.66306
G1 X79.202 Y109.2 E396.19958
G1 X79.202 Y108.8 E396.20956
G1 X140.798 Y108.8 E397.74608
G1 X140.798 Y108.4 E397.75605
