;FLAVOR:Marlin
;TIME:4269
;Filament used:1.57713m
;Layer height: 0.1
;MINX:86.2
;MINY:89.5
;MINZ:0.24
;MAXX:133.8
;MAXY:130.5
;MAXZ:10.89
                                    
;Creality Print GCode Generated by CXEngine:NO_MAGE_VERSION_GIT_HEAD_BRANCH
;CXEngine Release Time:2022-09-30 09:53:04
;Gcode Generated Time:2023-05-21 11:39:47
;----------Machine Config--------------
;Machine Name:Ender-3 V2
;Machine Height:250
;Machine Width:220
;Machine Depth:220
;Material name:PLA
;Number of Extruders:1
;ExtruderParams[0] Nozzle Diameter1000
;----------Profile Config---------------
;Engine Version:275f99b
;Engine Release Time:2022-09-30 09:42:18
;Layer Height:0.1
;Wall Thickness:0.8
;Top/Bottom Thickness:0.5
;Out Wall Line Width:0.4
;Inner Wall Line Width:0.4
;Inital Layer Height:100
;Wall Line Count:2
;Infill Line Distance:4
;Infill Pattern:grid
;Infill Sparse Density:20
;Infill Wipe Distance:0
;Print Temperature:200
;Bed Temperature:60
;Support Enable:true
;Support Density:0
;Support Angle:60
;Adhesion Type:simpleraft
;machine is belt:false
;machine belt offset:10
;machine belt offset Y:0
;Raft Base Line Spacing:1.6
;Wait Heatup Sync:true
;----------Shell Config----------------
;Outer Wall Wipe Distance:200
;Outer Inset First:false
;Infill Before Walls:false
;Infill Overlap:0.16
;Fill Gaps Between Walls:everywhere
;Minimum Infill Area:1
;Top Surface Skin Layer:0
;Top Layers:4
;Z Seam Alignment:sharpest_corner
;Seam Corner Preference:z_seam_corner_inner
;Z Seam X:110
;Z Seam Y:110
;Horizontal Expansion:0
;Top/Bottom Pattern:zigzag
;Ironing Pattern:zigzag
;Vase Model:false
;----------Support Config----------------
;Support Type:everywhere
;Support Pattern:zigzag
;Support Infill Layer Thickness:0.1
;Minimum Support Area:5
;Enable Support Roof:false
;Support Roof Thickness:0.8
;Support Roof Pattern:lines
;Connect Support Lines:0
;Connect Support ZigZags:1
;Minimum Support X/Y Distance:0.2
;Support Line Distance:0
; ---------PrintSpeed & Travel----------
;Enable Print Cool:true
;Avoid Printed Parts Traveling:true
;Enable Retraction:true
;Retraction Distance:8
;Retraction Speed:100
;Retraction Prime Speed:100
;Maximum Retraction Count:100
;Minimum Extrusion Distance Window:1
;Z Hop When Retracted:false
;Z Hop Height:0.2
;Retract Before Outer Wall:true
;Print Speed:50
;Infill Speed:50

;Prime Tower Speed:50
;Travel Speed:120
;Initial Layer Speed:25
;Skirt/Brim Speed:25
;Combing Mode:infill
; --------SpecialModel&Mesh Fixes--------
;Union Overlapping Volum:true
;Remove All Holes:false
;Maximum Travel Resolution:0.6
;Maximum Deviation:0.05
;Maximum Model Angle:0.872665
;IS Mold Print:false
;Make Overhang Printable:false
;Enable Coasting:false
;Coasting Volumes:0.06
;Coasting Speed:0.9
;Raft AirGap:0.25
;Layer0 ZOverLap:0.13
;---------------------End of Head--------------------------
M140 S60
M105
M104 S200
M105
M109 S200
M105
M190 S60
M82 ;absolute extrusion mode
M220 S100 ;Reset Feedrate
M221 S100 ;Reset Flowrate

G28 ;Home

G92 E0 ;Reset Extruder
G1 Z2.0 F3000 ;Move Z Axis up
G1 X10.1 Y20 Z0.28 F5000.0 ;Move to start position
G1 X10.1 Y145.0 Z0.28 F1500.0 E15 ;Draw the first line
G1 X10.4 Y145.0 Z0.28 F5000.0 ;Move to side a little
G1 X10.4 Y20 Z0.28 F1500.0 E30 ;Draw the second line
G92 E0  ;Reset Extruder
G1 E-1.0000 F1800 ;Retract a bit
G1 Z2.0 F3000 ;Move Z Axis up
G1 E0.0000 F1800 

G92 E0
G92 E0
G1 F6000 E-8

;LAYER_COUNT:100

;LAYER:-4
M107
G0 F7200 X88 Y94.904 Z0.24
;TYPE:SUPPORT-INTERFACE
G1 F6000 E0
G1 F1200 X88 Y125.109 E2.41109
G1 X87.957 Y125.039 E2.41765
G1 X87.596 Y124.315 E2.48223
G1 X87.287 Y123.518 E2.55046
G1 X87.061 Y122.734 E2.61559
G1 X86.904 Y121.927 E2.68122
G1 X86.82 Y121.132 E2.74503
G1 X86.8 Y99.513 E4.47076
G1 X86.849 Y98.508 E4.55108
G1 X86.972 Y97.676 E4.61821
G1 X87.16 Y96.885 E4.68311
G1 X87.417 Y96.116 E4.74783
G1 X87.746 Y95.367 E4.81314
G1 X88.157 Y94.618 E4.88133
G1 X88.619 Y93.935 E4.94716
G1 X89.119 Y93.317 E5.01061
G1 X89.6 Y92.808 E5.06651
G1 X89.6 Y127.186 E7.81071
G1 X90.017 Y127.581 E7.85656
G1 X90.635 Y128.081 E7.92002
G1 X91.2 Y128.463 E7.97446
G1 X91.2 Y91.539 E10.92189
G1 X91.655 Y91.26 E10.9645
G1 X92.385 Y90.896 E11.02961
G1 X92.8 Y90.734 E11.06517
G1 X92.8 Y129.275 E14.14168
G1 X92.808 Y129.279 E14.1424
G1 X93.581 Y129.538 E14.20747
G1 X94.376 Y129.728 E14.27272
G1 X94.4 Y129.731 E14.27465
G1 X94.4 Y90.276 E17.42412
G1 X94.773 Y90.204 E17.45444
G1 X95.561 Y90.121 E17.51769
G1 X96 Y90.105 E17.55276
G1 X96 Y129.893 E20.72881
G1 X96.07 Y129.897 E20.73441
G1 X97.6 Y129.897 E20.85654
G1 X97.6 Y90.101 E24.03323
G1 X99.2 Y90.101 E24.16095
G1 X99.2 Y129.897 E27.33763
G1 X100.8 Y129.897 E27.46535
G1 X100.8 Y90.101 E30.64204
G1 X102.4 Y90.101 E30.76976
G1 X102.4 Y129.897 E33.94645
G1 X104 Y129.897 E34.07417
G1 X104 Y90.101 E37.25086
G1 X105.6 Y90.102 E37.37858
G1 X105.6 Y129.898 E40.55527
G1 X107.2 Y129.898 E40.68299
G1 X107.2 Y90.102 E43.85967
G1 X108.8 Y90.102 E43.98739
G1 X108.8 Y129.898 E47.16408
G1 X110.4 Y129.898 E47.2918
G1 X110.4 Y90.102 E50.46849
G1 X112 Y90.102 E50.59621
G1 X112 Y129.898 E53.7729
G1 X113.6 Y129.898 E53.90062
G1 X113.6 Y90.102 E57.07731
G1 X115.2 Y90.103 E57.20502
G1 X115.2 Y129.899 E60.38171
G1 X116.8 Y129.899 E60.50943
G1 X116.8 Y90.103 E63.68612
G1 X118.4 Y90.103 E63.81384
G1 X118.4 Y129.899 E66.99053
G1 X120 Y129.899 E67.11825
G1 X120 Y90.103 E70.29494
G1 X121.6 Y90.103 E70.42266
G1 X121.6 Y129.899 E73.59934
G1 X123.2 Y129.899 E73.72706
G1 X123.2 Y90.103 E76.90375
G1 X123.93 Y90.103 E76.96202
G1 X124.788 Y90.149 E77.03061
G1 X124.8 Y90.151 E77.03158
G1 X124.8 Y129.841 E80.19981
G1 X125.227 Y129.796 E80.23408
G1 X126.04 Y129.638 E80.3002
G1 X126.4 Y129.534 E80.33011
G1 X126.4 Y90.458 E83.44932
G1 X126.419 Y90.462 E83.45087
G1 X127.187 Y90.719 E83.51552
G1 X127.933 Y91.046 E83.58054
G1 X128 Y91.083 E83.58665
G1 X128 Y128.913 E86.6064
G1 X128.345 Y128.74 E86.63721
G1 X129.037 Y128.314 E86.70208
G1 X129.6 Y127.895 E86.7581
G1 X129.6 Y92.11 E89.61461
G1 X129.983 Y92.419 E89.65389
G1 X130.503 Y92.911 E89.71104
G1 X131.128 Y93.61 E89.78589
G1 X131.2 Y93.707 E89.79553
G1 X131.2 Y126.289 E92.39636
G1 X131.381 Y126.065 E92.41935
G1 X131.843 Y125.382 E92.48517
G1 X132.254 Y124.633 E92.55337
G1 X132.583 Y123.884 E92.61867
G1 X132.839 Y123.116 E92.6833
G1 X133.028 Y122.322 E92.74845
G1 X133.152 Y121.481 E92.81631
G1 X133.197 Y120.632 E92.88417
G1 X133.2 Y99.447 E94.57525
G1 X133.179 Y98.857 E94.62238
G1 X133.096 Y98.073 E94.68531
G1 X132.939 Y97.266 E94.75093
G1 X132.8 Y96.784 E94.79098
G1 X132.8 Y123.233 E96.90225
G0 F600 X132.8 Y123.233 Z0.47
G0 F7200 X126.958 Y129.787
;TIME_ELAPSED:66.406234

;LAYER:-3
;TYPE:SUPPORT
G1 F1800 X89.516 Y92.344 E100.95297
G1 X90.057 Y91.861 E101.00844
G1 X90.28 Y91.694 E101.02976
G1 X127.962 Y129.376 E105.10638
G1 X128.546 Y129.087 E105.15623
G1 X128.88 Y128.88 E105.18629
G1 X91.119 Y91.119 E109.27146
G1 X91.454 Y90.913 E109.30154
G1 X92.037 Y90.622 E109.35139
G1 X129.718 Y128.303 E113.42791
G1 X129.947 Y128.135 E113.44963
G1 X130.482 Y127.653 E113.50472
G1 X93.04 Y90.211 E117.55538
G1 X93.045 Y90.21 E117.55577
G1 X93.872 Y89.971 E117.62162
G1 X94.158 Y89.915 E117.64392
G1 X131.185 Y126.943 E121.64974
G1 X131.699 Y126.309 E121.71217
G1 X131.806 Y126.149 E121.7269
G1 X95.393 Y89.736 E125.66624
G1 X95.534 Y89.721 E125.67708
G1 X96.154 Y89.7 E125.72454
G1 X96.771 Y89.7 E125.77174
G1 X132.354 Y125.283 E129.62128
G1 X132.61 Y124.817 E129.66196
G1 X132.821 Y124.336 E129.70214
G1 X98.186 Y89.7 E133.44918
G1 X99.6 Y89.7 E133.55735
G1 X133.199 Y123.299 E137.19225
G1 X133.226 Y123.219 E137.19871
G1 X133.422 Y122.395 E137.2635
G1 X133.458 Y122.144 E137.2829
G1 X101.014 Y89.7 E140.79285
G1 X102.428 Y89.7 E140.90102
G1 X133.585 Y120.857 E144.27174
G1 X133.597 Y120.632 E144.28898
G1 X133.597 Y119.455 E144.37902
G1 X103.843 Y89.701 E147.59795
G1 X105.257 Y89.701 E147.70612
G1 X133.597 Y118.04 E150.77203
G1 X133.597 Y116.626 E150.8802
G1 X106.672 Y89.701 E153.79308
G1 X108.086 Y89.701 E153.90124
G1 X133.597 Y115.213 E156.6612
G1 X133.597 Y113.798 E156.76945
G1 X109.5 Y89.701 E159.37638
G1 X110.915 Y89.702 E159.48463
G1 X133.597 Y112.384 E161.93848
G1 X133.597 Y110.97 E162.04665
G1 X112.329 Y89.702 E164.34752
G1 X113.743 Y89.702 E164.45569
G1 X133.598 Y109.557 E166.60371
G1 X133.598 Y108.142 E166.71195
G1 X115.157 Y89.702 E168.70693
G1 X116.572 Y89.702 E168.81518
G1 X133.598 Y106.728 E170.65714
G1 X133.598 Y105.314 E170.76531
G1 X117.987 Y89.702 E172.45423
G1 X119.401 Y89.702 E172.5624
G1 X133.599 Y103.9 E174.09841
G1 X133.599 Y102.486 E174.20658
G1 X120.815 Y89.702 E175.58962
G1 X122.229 Y89.702 E175.69779
G1 X133.599 Y101.072 E176.92785
G1 X133.599 Y99.658 E177.03602
G1 X123.643 Y89.702 E178.11311
G1 X123.932 Y89.703 E178.13522
G1 X124.835 Y89.751 E178.20439
G1 X125.153 Y89.798 E178.22898
G1 X133.506 Y98.15 E179.1326
G1 X133.492 Y98.013 E179.14313
G1 X133.33 Y97.178 E179.2082
G1 X133.091 Y96.349 E179.2742
G1 X132.772 Y95.527 E179.34165
G1 X132.39 Y94.76 E179.4072
G1 X131.947 Y94.04 E179.47187
G1 X131.439 Y93.357 E179.53698
G1 X130.788 Y92.629 E179.61169
G1 X130.248 Y92.118 E179.66857
G1 X129.609 Y91.601 E179.73144
G1 X128.882 Y91.11 E179.79855
G1 X128.117 Y90.69 E179.86531
G1 X127.332 Y90.346 E179.93088
G1 X127.006 Y90.236 E179.9572
G1 X133.072 Y96.302 E180.61345
;;retract;;
G1 F6000 E172.61345
G0 F7200 X126.955 Y129.79
G1 F6000 E180.61345
G1 F1800 X126.128 Y130.029 E180.6793
G1 X125.84 Y130.083 E180.70172
G1 X88.813 Y93.055 E184.70754
G1 X88.301 Y93.691 E184.76999
G1 X88.192 Y93.849 E184.78468
G1 X124.605 Y130.262 E188.72402
G1 X124.466 Y130.279 E188.73473
G1 X123.846 Y130.3 E188.78219
G1 X123.227 Y130.298 E188.82954
G1 X87.645 Y94.716 E192.67898
G1 X87.39 Y95.183 E192.71968
G1 X87.177 Y95.663 E192.75985
G1 X121.813 Y130.298 E196.50689
G1 X120.399 Y130.298 E196.61506
G1 X86.8 Y96.699 E200.24997
G1 X86.774 Y96.781 E200.25655
G1 X86.578 Y97.603 E200.32119
G1 X86.54 Y97.854 E200.34061
G1 X118.984 Y130.298 E203.85056
G1 X117.57 Y130.298 E203.95873
G1 X86.416 Y99.144 E207.32913
G1 X86.4 Y99.493 E207.35585
G1 X86.4 Y100.542 E207.4361
G1 X116.155 Y130.297 E210.65514
G1 X114.741 Y130.297 E210.76331
G1 X86.402 Y101.958 E213.82916
G1 X86.403 Y103.374 E213.93748
G1 X113.327 Y130.297 E216.8502
G1 X111.913 Y130.297 E216.95837
G1 X86.404 Y104.788 E219.71806
G1 X86.405 Y106.204 E219.82638
G1 X110.498 Y130.297 E222.43288
G1 X109.083 Y130.297 E222.54113
G1 X86.407 Y107.62 E224.99438
G1 X86.408 Y109.035 E225.10263
G1 X107.669 Y130.297 E227.4028
G1 X106.255 Y130.297 E227.51097
G1 X86.409 Y110.451 E229.65801
G1 X86.41 Y111.866 E229.76625
G1 X104.841 Y130.297 E231.76021
G1 X103.427 Y130.297 E231.86838
G1 X86.411 Y113.282 E233.7092
G1 X86.413 Y114.697 E233.81745
G1 X102.012 Y130.296 E235.50502
G1 X100.597 Y130.296 E235.61327
G1 X86.414 Y116.113 E237.14766
G1 X86.416 Y117.528 E237.2559
G1 X99.183 Y130.296 E238.63715
G1 X97.769 Y130.296 E238.74532
G1 X86.417 Y118.944 E239.97344
G1 X86.418 Y120.359 E240.08168
G1 X96.355 Y130.296 E241.15672
G1 X96.068 Y130.297 E241.17867
G1 X95.165 Y130.249 E241.24785
G1 X94.845 Y130.2 E241.27261
G1 X86.493 Y121.848 E242.17617
G1 X86.508 Y121.987 E242.18687
G1 X86.67 Y122.822 E242.25193
G1 X86.909 Y123.651 E242.31793
G1 X87.228 Y124.473 E242.38538
G1 X87.61 Y125.24 E242.45093
G1 X88.053 Y125.96 E242.5156
G1 X88.561 Y126.643 E242.58072
G1 X89.218 Y127.377 E242.65608
G1 X89.752 Y127.882 E242.7123
G1 X90.391 Y128.399 E242.77518
G1 X91.118 Y128.89 E242.84229
G1 X91.879 Y129.308 E242.90871
G1 X92.662 Y129.652 E242.97413
G1 X92.992 Y129.761 E243.00072
G1 X86.926 Y123.696 E243.65691
G0 F600 X86.926 Y123.696 Z0.62
G0 F7200 X93.07 Y130
;TIME_ELAPSED:134.867743

;LAYER:-2
;TYPE:SUPPORT-INTERFACE
G1 F2400 X126.912 Y130 E244.50111
G1 X126.175 Y130.223 E244.52031
G1 X125.328 Y130.388 E244.54184
G1 X125.205 Y130.4 E244.54492
G1 X94.819 Y130.4 E245.3029
G1 X94.267 Y130.319 E245.31682
G1 X93.411 Y130.114 E245.33878
G1 X92.58 Y129.835 E245.36064
G1 X92.045 Y129.6 E245.37522
G1 X127.962 Y129.6 E246.27117
G1 X128.638 Y129.264 E246.29
G1 X128.739 Y129.2 E246.29299
G1 X91.265 Y129.2 E247.22778
G1 X91.015 Y129.062 E247.2349
G1 X90.626 Y128.8 E247.2466
G1 X129.388 Y128.8 E248.21352
G1 X129.924 Y128.4 E248.23021
G1 X90.074 Y128.4 E249.22427
G1 X89.609 Y128.023 E249.2392
G1 X89.583 Y128 E249.24007
G1 X130.396 Y128 E250.25815
G1 X130.819 Y127.623 E250.27229
G1 X130.838 Y127.6 E250.27303
G1 X89.162 Y127.6 E251.31264
G1 X89.068 Y127.509 E251.31591
G1 X88.789 Y127.2 E251.32629
G1 X131.218 Y127.2 E252.38469
G1 X131.323 Y127.091 E252.38846
G1 X131.557 Y126.8 E252.39778
G1 X88.43 Y126.8 E253.47359
G1 X88.413 Y126.779 E253.47426
G1 X88.129 Y126.4 E253.48607
G1 X131.879 Y126.4 E254.57742
G1 X132.148 Y126 E254.58945
G1 X87.842 Y126 E255.69466
G1 X87.596 Y125.6 E255.70638
G1 X132.408 Y125.6 E256.82422
G1 X132.628 Y125.2 E256.83561
G1 X87.366 Y125.2 E257.96467
G1 X87.166 Y124.8 E257.97583
G1 X132.834 Y124.8 E259.11502
G1 X133.011 Y124.4 E259.12593
G1 X86.984 Y124.4 E260.27408
G1 X86.829 Y124 E260.28478
G1 X133.174 Y124 E261.44086
G1 X133.309 Y123.6 E261.45139
G1 X86.685 Y123.6 E262.61443
G1 X86.569 Y123.2 E262.62482
G1 X133.435 Y123.2 E263.7939
G1 X133.53 Y122.8 E263.80415
G1 X86.461 Y122.8 E264.9783
G1 X86.383 Y122.4 E264.98846
G1 X133.624 Y122.4 E266.16689
G1 X133.682 Y122 E266.17698
G1 X86.308 Y122 E267.35872
G1 X86.265 Y121.6 E267.36876
G1 X133.741 Y121.6 E268.55305
G1 X133.748 Y121.555 E268.55419
G1 X133.766 Y121.2 E268.56306
G1 X86.222 Y121.2 E269.74905
G1 X86.221 Y121.178 E269.7496
G1 X86.207 Y120.8 E269.75903
G1 X133.788 Y120.8 E270.94594
G1 X133.797 Y120.641 E270.94992
G1 X133.797 Y120.4 E270.95593
G1 X86.2 Y120.4 E272.14324
G1 X86.2 Y120 E272.15322
G1 X133.797 Y120 E273.34053
G1 X133.797 Y119.6 E273.35051
G1 X86.2 Y119.6 E274.53782
G1 X86.2 Y119.2 E274.5478
G1 X133.797 Y119.2 E275.73511
G1 X133.797 Y118.8 E275.74509
G1 X86.201 Y118.8 E276.93238
G1 X86.201 Y118.4 E276.94235
G1 X133.797 Y118.4 E278.12964
G1 X133.797 Y118 E278.13962
G1 X86.201 Y118 E279.32691
G1 X86.201 Y117.6 E279.33688
G1 X133.797 Y117.6 E280.52417
G1 X133.797 Y117.2 E280.53415
G1 X86.201 Y117.2 E281.72144
G1 X86.201 Y116.8 E281.73142
G1 X133.797 Y116.8 E282.9187
G1 X133.797 Y116.4 E282.92868
G1 X86.201 Y116.4 E284.11597
G1 X86.201 Y116 E284.12595
G1 X133.797 Y116 E285.31323
G1 X133.797 Y115.6 E285.32321
G1 X86.201 Y115.6 E286.5105
G1 X86.201 Y115.2 E286.52048
G1 X133.797 Y115.2 E287.70776
G1 X133.797 Y114.8 E287.71774
G1 X86.201 Y114.8 E288.90503
G1 X86.201 Y114.4 E288.91501
G1 X133.797 Y114.4 E290.10229
G1 X133.797 Y114 E290.11227
G1 X86.201 Y114 E291.29956
G1 X86.201 Y113.6 E291.30954
G1 X133.797 Y113.6 E292.49682
G1 X133.798 Y113.2 E292.5068
G1 X86.202 Y113.2 E293.69409
G1 X86.202 Y112.8 E293.70407
G1 X133.798 Y112.8 E294.89135
G1 X133.798 Y112.4 E294.90133
G1 X86.202 Y112.4 E296.08862
G1 X86.202 Y112 E296.0986
G1 X133.798 Y112 E297.28588
G1 X133.798 Y111.6 E297.29586
G1 X86.202 Y111.6 E298.48315
G1 X86.202 Y111.2 E298.49313
G1 X133.798 Y111.2 E299.68041
G1 X133.798 Y110.8 E299.69039
G1 X86.202 Y110.8 E300.87768
G1 X86.202 Y110.4 E300.88766
G1 X133.798 Y110.4 E302.07494
G1 X133.798 Y110 E302.08492
G1 X86.202 Y110 E303.27221
G1 X86.202 Y109.6 E303.28219
G1 X133.798 Y109.6 E304.46948
G1 X133.798 Y109.2 E304.47945
G1 X86.202 Y109.2 E305.66674
G1 X86.202 Y108.8 E305.67672
G1 X133.798 Y108.8 E306.86401
G1 X133.798 Y108.4 E306.87398
G1 X86.202 Y108.4 E308.06127
G1 X86.202 Y108 E308.07125
G1 X133.798 Y108 E309.25854
G1 X133.798 Y107.6 E309.26851
G1 X86.202 Y107.6 E310.4558
G1 X86.202 Y107.2 E310.46578
G1 X133.798 Y107.2 E311.65307
G1 X133.798 Y106.8 E311.66304
G1 X86.202 Y106.8 E312.85033
G1 X86.203 Y106.4 E312.86031
G1 X133.799 Y106.4 E314.0476
G1 X133.799 Y106 E314.05757
G1 X86.203 Y106 E315.24486
G1 X86.203 Y105.6 E315.25484
G1 X133.799 Y105.6 E316.44213
G1 X133.799 Y105.2 E316.4521
G1 X86.203 Y105.2 E317.63939
G1 X86.203 Y104.8 E317.64937
G1 X133.799 Y104.8 E318.83666
G1 X133.799 Y104.4 E318.84663
G1 X86.203 Y104.4 E320.03392
G1 X86.203 Y104 E320.0439
G1 X133.799 Y104 E321.23119
G1 X133.799 Y103.6 E321.24117
G1 X86.203 Y103.6 E322.42845
G1 X86.203 Y103.2 E322.43843
