;FLAVOR:Marlin
;TIME:3033
;Filament used:0.921831m
;Layer height: 0.1
;MINX:89.501
;MINY:88.26
;MINZ:0.24
;MAXX:130.499
;MAXY:127.648
;MAXZ:8.89
                             
;Creality Print GCode Generated by CXEngine:NO_MAGE_VERSION_GIT_HEAD_BRANCH
;CXEngine Release Time:2022-09-30 09:53:04
;Gcode Generated Time:2023-05-21 11:40:55
;----------Machine Config--------------
;Machine Name:Ender-3 V2
;Machine Height:250
;Machine Width:220
;Machine Depth:220
;Material name:PLA
;Number of Extruders:1
;ExtruderParams[0] Nozzle Diameter1000
;----------Profile Config---------------
;Engine Version:275f99b
;Engine Release Time:2022-09-30 09:42:18
;Layer Height:0.1
;Wall Thickness:0.8
;Top/Bottom Thickness:0.5
;Out Wall Line Width:0.4
;Inner Wall Line Width:0.4
;Inital Layer Height:100
;Wall Line Count:2
;Infill Line Distance:4
;Infill Pattern:grid
;Infill Sparse Density:20
;Infill Wipe Distance:0
;Print Temperature:200
;Bed Temperature:60
;Support Enable:true
;Support Density:0
;Support Angle:60
;Adhesion Type:simpleraft
;machine is belt:false
;machine belt offset:10
;machine belt offset Y:0
;Raft Base Line Spacing:1.6
;Wait Heatup Sync:true
;----------Shell Config----------------
;Outer Wall Wipe Distance:200
;Outer Inset First:false
;Infill Before Walls:false
;Infill Overlap:0.16
;Fill Gaps Between Walls:everywhere
;Minimum Infill Area:1
;Top Surface Skin Layer:0
;Top Layers:4
;Z Seam Alignment:sharpest_corner
;Seam Corner Preference:z_seam_corner_inner
;Z Seam X:110
;Z Seam Y:110
;Horizontal Expansion:0
;Top/Bottom Pattern:zigzag
;Ironing Pattern:zigzag
;Vase Model:false
;----------Support Config----------------
;Support Type:everywhere
;Support Pattern:zigzag
;Support Infill Layer Thickness:0.1
;Minimum Support Area:5
;Enable Support Roof:false
;Support Roof Thickness:0.8
;Support Roof Pattern:lines
;Connect Support Lines:0
;Connect Support ZigZags:1
;Minimum Support X/Y Distance:0.2
;Support Line Distance:0
; ---------PrintSpeed & Travel----------
;Enable Print Cool:true
;Avoid Printed Parts Traveling:true
;Enable Retraction:true
;Retraction Distance:8
;Retraction Speed:100
;Retraction Prime Speed:100
;Maximum Retraction Count:100
;Minimum Extrusion Distance Window:1
;Z Hop When Retracted:false
;Z Hop Height:0.2
;Retract Before Outer Wall:true
;Print Speed:50
;Infill Speed:50

;Prime Tower Speed:50
;Travel Speed:120
;Initial Layer Speed:25
;Skirt/Brim Speed:25
;Combing Mode:infill
; --------SpecialModel&Mesh Fixes--------
;Union Overlapping Volum:true
;Remove All Holes:false
;Maximum Travel Resolution:0.6
;Maximum Deviation:0.05
;Maximum Model Angle:0.872665
;IS Mold Print:false
;Make Overhang Printable:false
;Enable Coasting:false
;Coasting Volumes:0.06
;Coasting Speed:0.9
;Raft AirGap:0.25
;Layer0 ZOverLap:0.13
;---------------------End of Head--------------------------
M140 S60
M105
M104 S200
M105
M109 S200
M105
M190 S60
M82 ;absolute extrusion mode
M220 S100 ;Reset Feedrate
M221 S100 ;Reset Flowrate

G28 ;Home

G92 E0 ;Reset Extruder
G1 Z2.0 F3000 ;Move Z Axis up
G1 X10.1 Y20 Z0.28 F5000.0 ;Move to start position
G1 X10.1 Y145.0 Z0.28 F1500.0 E15 ;Draw the first line
G1 X10.4 Y145.0 Z0.28 F5000.0 ;Move to side a little
G1 X10.4 Y20 Z0.28 F1500.0 E30 ;Draw the second line
G92 E0  ;Reset Extruder
G1 E-1.0000 F1800 ;Retract a bit
G1 Z2.0 F3000 ;Move Z Axis up
G1 E0.0000 F1800 

G92 E0
G92 E0
G1 F6000 E-8

;LAYER_COUNT:80

;LAYER:-4
M107
G0 F7200 X91.2 Y97.936 Z0.24
;TYPE:SUPPORT-INTERFACE
G1 F6000 E0
G1 F1200 X91.2 Y122.074 E1.9268
G1 X90.896 Y121.465 E1.98113
G1 X90.587 Y120.668 E2.04937
G1 X90.361 Y119.884 E2.1145
G1 X90.204 Y119.077 E2.18012
G1 X90.12 Y118.282 E2.24394
G1 X90.1 Y102.363 E3.51466
G1 X90.149 Y101.358 E3.59498
G1 X90.272 Y100.526 E3.66212
G1 X90.46 Y99.735 E3.72702
G1 X90.717 Y98.966 E3.79174
G1 X91.046 Y98.217 E3.85704
G1 X91.457 Y97.468 E3.92524
G1 X91.919 Y96.785 E3.99106
G1 X92.419 Y96.167 E4.05452
G1 X92.8 Y95.764 E4.09879
G1 X92.8 Y124.241 E6.37194
G1 X92.803 Y124.245 E6.37234
G1 X93.317 Y124.731 E6.42881
G1 X93.935 Y125.231 E6.49226
G1 X94.4 Y125.545 E6.53705
G1 X94.4 Y94.451 E9.01911
G1 X94.955 Y94.11 E9.07111
G1 X95.685 Y93.746 E9.13622
G1 X96 Y93.623 E9.16321
G1 X96 Y126.381 E11.7781
G1 X96.108 Y126.429 E11.78753
G1 X96.881 Y126.688 E11.85261
G1 X97.6 Y126.859 E11.9116
G1 X97.6 Y93.145 E14.6028
G1 X98.073 Y93.054 E14.64125
G1 X98.858 Y92.971 E14.70426
G1 X99.2 Y92.968 E14.73156
G1 X99.2 Y127.037 E17.4511
G1 X99.37 Y127.047 E17.46469
G1 X100.8 Y127.047 E17.57884
G1 X100.8 Y92.959 E20.29989
G1 X102.314 Y92.95 E20.42075
G1 X102.4 Y92.944 E20.42763
G1 X102.4 Y127.047 E23.14988
G1 X104 Y127.047 E23.2776
G1 X104 Y92.681 E26.02084
G1 X104.437 Y92.538 E26.05754
G1 X105.107 Y92.221 E26.11671
G1 X105.6 Y91.89 E26.16411
G1 X105.6 Y127.047 E28.97049
G1 X107.2 Y127.048 E29.09821
G1 X107.2 Y90.695 E32.00007
G1 X107.254 Y90.654 E32.00548
G1 X108.071 Y90.12 E32.08339
G1 X108.8 Y89.738 E32.14909
G1 X108.8 Y127.048 E35.12733
G1 X110.4 Y127.048 E35.25505
G1 X110.4 Y89.163 E38.2792
G1 X111.149 Y88.999 E38.3404
G1 X111.941 Y88.897 E38.40414
G1 X112 Y88.895 E38.40886
G1 X112 Y127.048 E41.45439
G1 X113.6 Y127.049 E41.58211
G1 X113.6 Y88.864 E44.6302
G1 X114.529 Y88.91 E44.70445
G1 X115.2 Y89.01 E44.75861
G1 X115.2 Y127.049 E47.79504
G1 X116.8 Y127.049 E47.92276
G1 X116.8 Y89.441 E50.9248
G1 X116.922 Y89.481 E50.93504
G1 X117.681 Y89.815 E51.00124
G1 X118.393 Y90.206 E51.06608
G1 X118.4 Y90.211 E51.06677
G1 X118.4 Y127.049 E54.00733
G1 X120 Y127.049 E54.13505
G1 X120 Y91.355 E56.9843
G1 X120.467 Y91.732 E57.03221
G1 X121.21 Y92.382 E57.11101
G1 X121.6 Y92.635 E57.14812
G1 X121.6 Y126.981 E59.88977
G1 X121.927 Y126.946 E59.91602
G1 X122.74 Y126.788 E59.98213
G1 X123.2 Y126.656 E60.02033
G1 X123.2 Y93.343 E62.67952
G1 X123.894 Y93.572 E62.73786
G1 X124.633 Y93.896 E62.80227
G1 X124.8 Y93.988 E62.81749
G1 X124.8 Y126.013 E65.37386
G1 X125.045 Y125.89 E65.39574
G1 X125.737 Y125.464 E65.46061
G1 X126.394 Y124.974 E65.52603
G1 X126.4 Y124.969 E65.52666
G1 X126.4 Y95.041 E67.91564
G1 X126.683 Y95.269 E67.94465
G1 X127.203 Y95.761 E68.00179
G1 X127.828 Y96.46 E68.07664
G1 X128 Y96.691 E68.09963
G1 X128 Y123.316 E70.22495
G1 X128.081 Y123.215 E70.23529
G1 X128.543 Y122.532 E70.30111
G1 X128.954 Y121.783 E70.36931
G1 X129.283 Y121.034 E70.43461
G1 X129.539 Y120.266 E70.49923
G1 X129.728 Y119.472 E70.56438
G1 X129.852 Y118.631 E70.63224
G1 X129.897 Y117.782 E70.70011
G1 X129.9 Y102.297 E71.93619
G1 X129.879 Y101.707 E71.98331
G1 X129.796 Y100.923 E72.04625
G1 X129.639 Y100.116 E72.11187
G1 X129.6 Y99.981 E72.12309
G1 X129.6 Y120.01 E73.72189
G0 F600 X129.6 Y120.01 Z0.47
G0 F7200 X129.453 Y98.34
;TIME_ELAPSED:51.889833

;LAYER:-3
;TYPE:SUPPORT
G1 F1800 X124.525 Y93.412 E74.25503
G1 X124.817 Y93.54 E74.27941
G1 X125.582 Y93.96 E74.34618
G1 X126.309 Y94.451 E74.41329
G1 X126.948 Y94.968 E74.47616
G1 X127.488 Y95.479 E74.53304
G1 X128.139 Y96.207 E74.60775
G1 X128.647 Y96.89 E74.67286
G1 X129.09 Y97.61 E74.73753
G1 X129.472 Y98.377 E74.80308
G1 X129.791 Y99.199 E74.87053
G1 X130.03 Y100.028 E74.93653
G1 X130.101 Y100.403 E74.96573
G1 X122.233 Y92.534 E75.81698
G1 X122.025 Y92.433 E75.83467
G1 X121.452 Y92.062 E75.88689
G1 X120.73 Y91.431 E75.96024
G1 X119.938 Y90.791 E76.03814
G1 X118.606 Y89.866 E76.16219
G1 X117.861 Y89.457 E76.22721
G1 X117.648 Y89.364 E76.24499
G1 X130.29 Y102.005 E77.61261
G1 X130.3 Y102.297 E77.63496
G1 X130.299 Y103.429 E77.72155
G1 X115.534 Y88.664 E79.3189
G1 X115.427 Y88.638 E79.32733
G1 X114.565 Y88.511 E79.39398
G1 X113.936 Y88.48 E79.44216
G1 X130.299 Y104.843 E81.21239
G1 X130.298 Y106.256 E81.32048
G1 X112.525 Y88.483 E83.24325
G1 X111.909 Y88.498 E83.29039
G1 X111.214 Y88.587 E83.34399
G1 X130.298 Y107.671 E85.40859
G1 X130.298 Y109.085 E85.51676
G1 X110.058 Y88.845 E87.70642
G1 X109.429 Y89.043 E87.75687
G1 X109.013 Y89.214 E87.79127
G1 X130.297 Y110.498 E90.09388
G1 X130.297 Y111.913 E90.20213
G1 X108.06 Y89.675 E92.60789
G1 X107.861 Y89.779 E92.62507
G1 X107.188 Y90.218 E92.68653
G1 X130.297 Y113.327 E95.18658
G1 X130.297 Y114.74 E95.29467
G1 X106.376 Y90.82 E97.88251
G1 X105.643 Y91.38 E97.95308
G1 X105.571 Y91.428 E97.9597
G1 X130.297 Y116.155 E100.63473
G1 X130.297 Y117.569 E100.7429
G1 X104.699 Y91.971 E103.51222
G1 X104.288 Y92.166 E103.54702
G1 X103.679 Y92.365 E103.59603
G1 X130.216 Y118.902 E106.46693
G1 X130.122 Y119.545 E106.51664
G1 X129.991 Y120.092 E106.55967
G1 X102.44 Y92.541 E109.54028
G1 X102.3 Y92.55 E109.55101
G1 X101.042 Y92.557 E109.64724
G1 X129.657 Y121.172 E112.74296
G1 X129.655 Y121.182 E112.74374
G1 X129.31 Y121.967 E112.80933
G1 X129.213 Y122.142 E112.82464
G1 X99.637 Y92.566 E116.02432
G1 X98.834 Y92.571 E116.08574
G1 X98.285 Y92.628 E116.12797
G1 X128.687 Y123.03 E119.41701
G1 X128.399 Y123.459 E119.45653
G1 X128.086 Y123.844 E119.49449
G1 X97.088 Y92.845 E122.84806
G1 X96.345 Y93.06 E122.90723
G1 X96.016 Y93.188 E122.93424
G1 X127.417 Y124.589 E126.33135
G1 X127.372 Y124.637 E126.33639
G1 X126.673 Y125.259 E126.40796
G1 X95.036 Y93.622 E129.83061
G1 X94.754 Y93.763 E129.85473
G1 X94.14 Y94.14 E129.90985
G1 X125.858 Y125.858 E133.34126
G1 X125.246 Y126.237 E133.39632
G1 X124.962 Y126.376 E133.42051
G1 X93.325 Y94.739 E136.84316
G1 X92.629 Y95.362 E136.91462
G1 X92.581 Y95.409 E136.91976
G1 X123.982 Y126.811 E140.31693
G1 X123.655 Y126.94 E140.34382
G1 X122.91 Y127.153 E140.40309
G1 X91.912 Y96.155 E143.75661
G1 X91.601 Y96.541 E143.79453
G1 X91.311 Y96.968 E143.83401
G1 X121.713 Y127.37 E147.12305
G1 X121.166 Y127.429 E147.16514
G1 X120.546 Y127.45 E147.2126
G1 X120.377 Y127.448 E147.22553
G1 X90.786 Y97.857 E150.42683
G1 X90.69 Y98.033 E150.44216
G1 X90.345 Y98.818 E150.50776
G1 X90.341 Y98.826 E150.50844
G1 X118.962 Y127.448 E153.60486
G1 X117.548 Y127.448 E153.71303
G1 X90.007 Y99.907 E156.69255
G1 X89.878 Y100.453 E156.73547
G1 X89.782 Y101.096 E156.7852
G1 X116.134 Y127.448 E159.63609
G1 X114.719 Y127.447 E159.74433
G1 X89.7 Y102.427 E162.45107
G1 X89.701 Y103.843 E162.55939
G1 X113.305 Y127.447 E165.11299
G1 X111.891 Y127.447 E165.22116
G1 X89.703 Y105.259 E167.62156
G1 X89.704 Y106.675 E167.72988
G1 X110.476 Y127.447 E169.9771
G1 X109.062 Y127.446 E170.08527
G1 X89.707 Y108.091 E172.17919
G1 X89.708 Y109.507 E172.28751
G1 X107.647 Y127.446 E174.22824
G1 X106.233 Y127.446 E174.33641
G1 X89.71 Y110.923 E176.12395
G1 X89.712 Y112.339 E176.23227
G1 X104.819 Y127.446 E177.86662
G1 X103.404 Y127.446 E177.97487
G1 X89.714 Y113.755 E179.45597
G1 X89.715 Y115.171 E179.5643
G1 X101.99 Y127.446 E180.89227
G1 X100.576 Y127.446 E181.00043
G1 X89.717 Y116.587 E182.17521
G1 X89.719 Y118.003 E182.28354
G1 X99.149 Y127.434 E183.30377
G1 X98.465 Y127.399 E183.35617
G1 X97.603 Y127.272 E183.42282
G1 X97.563 Y127.261 E183.42599
G1 X89.897 Y119.595 E184.25534
G1 X89.97 Y119.972 E184.28472
G1 X90.209 Y120.801 E184.35072
G1 X90.528 Y121.623 E184.41817
G1 X90.91 Y122.39 E184.48372
G1 X91.353 Y123.11 E184.54838
G1 X91.861 Y123.793 E184.6135
G1 X92.518 Y124.527 E184.68886
G1 X93.052 Y125.032 E184.74508
G1 X93.691 Y125.549 E184.80796
G1 X94.418 Y126.04 E184.87507
G1 X95.179 Y126.458 E184.94149
G1 X95.474 Y126.586 E184.96609
G1 X90.545 Y121.658 E185.49928
G0 F600 X90.545 Y121.658 Z0.62
G0 F7200 X96.519 Y127.2
;TIME_ELAPSED:103.647493

;LAYER:-2
;TYPE:SUPPORT-INTERFACE
G1 F2400 X123.445 Y127.2 E186.17095
G1 X122.875 Y127.373 E186.18581
G1 X122.028 Y127.538 E186.20734
G1 X121.438 Y127.6 E186.22213
G1 X98.495 Y127.6 E186.79445
G1 X98.441 Y127.597 E186.7958
G1 X97.567 Y127.469 E186.81783
G1 X96.711 Y127.264 E186.83979
G1 X95.88 Y126.985 E186.86166
G1 X95.459 Y126.8 E186.87313
G1 X124.561 Y126.8 E187.59908
G0 F7200 X124.565 Y126.8
G1 F2400 X125.338 Y126.414 E187.62063
G1 X125.358 Y126.4 E187.62124
G1 X94.656 Y126.4 E188.38711
G1 X94.315 Y126.212 E188.39682
G1 X94 Y126 E188.40629
G1 X126.008 Y126 E189.20473
G1 X126.081 Y125.957 E189.20685
G1 X126.557 Y125.6 E189.22169
G1 X93.436 Y125.6 E190.0479
G1 X92.941 Y125.2 E190.06377
G1 X127.041 Y125.2 E190.9144
G1 X127.486 Y124.8 E190.92933
G1 X92.515 Y124.8 E191.80168
G1 X92.368 Y124.659 E191.80676
G1 X92.134 Y124.4 E191.81547
G1 X127.87 Y124.4 E192.70691
G1 X128.023 Y124.241 E192.71241
G1 X128.216 Y124 E192.72011
G1 X91.775 Y124 E193.62914
G1 X91.713 Y123.929 E193.63149
G1 X91.466 Y123.6 E193.64175
G1 X128.54 Y123.6 E194.56657
G1 X128.567 Y123.569 E194.56759
G1 X128.813 Y123.2 E194.57866
G1 X91.172 Y123.2 E195.51761
G1 X90.926 Y122.8 E195.52933
G1 X129.08 Y122.8 E196.48108
G1 X129.299 Y122.4 E196.49246
G1 X90.691 Y122.4 E197.45554
G1 X90.491 Y122 E197.4667
G1 X129.511 Y122 E198.44005
G1 X129.688 Y121.6 E198.45096
G1 X90.304 Y121.6 E199.4334
G1 X90.148 Y121.2 E199.44411
G1 X129.857 Y121.2 E200.43466
G1 X129.991 Y120.8 E200.44518
G1 X89.999 Y120.8 E201.44278
G1 X89.884 Y120.4 E201.45317
G1 X130.122 Y120.4 E202.45691
G1 X130.217 Y120 E202.46716
G1 X89.77 Y120 E203.47612
G1 X89.693 Y119.6 E203.48628
G1 X130.313 Y119.6 E204.49955
G1 X130.321 Y119.574 E204.50023
G1 X130.374 Y119.2 E204.50965
G1 X89.615 Y119.2 E205.52639
G1 X89.612 Y119.178 E205.52694
G1 X89.571 Y118.8 E205.53643
G1 X130.433 Y118.8 E206.55573
G1 X130.448 Y118.705 E206.55813
G1 X130.464 Y118.4 E206.56575
G1 X89.528 Y118.4 E207.5869
G1 X89.521 Y118.328 E207.58871
G1 X89.509 Y118 E207.5969
G1 X130.485 Y118 E208.61905
G1 X130.497 Y117.791 E208.62427
G1 X130.497 Y117.6 E208.62903
G1 X89.501 Y117.6 E209.65168
G1 X89.501 Y117.2 E209.66166
G1 X130.497 Y117.2 E210.68431
G1 X130.497 Y116.8 E210.69429
G1 X89.501 Y116.8 E211.71694
G1 X89.501 Y116.4 E211.72692
G1 X130.497 Y116.4 E212.74956
G1 X130.497 Y116 E212.75954
G1 X89.501 Y116 E213.78219
G1 X89.501 Y115.6 E213.79217
G1 X130.497 Y115.6 E214.81482
G1 X130.497 Y115.2 E214.8248
G1 X89.501 Y115.2 E215.84745
G1 X89.501 Y114.8 E215.85742
G1 X130.497 Y114.8 E216.88007
G1 X130.497 Y114.4 E216.89005
G1 X89.501 Y114.4 E217.9127
G1 X89.501 Y114 E217.92268
G1 X130.497 Y114 E218.94533
G1 X130.497 Y113.6 E218.95531
G1 X89.501 Y113.6 E219.97796
G1 X89.501 Y113.2 E219.98793
G1 X130.497 Y113.2 E221.01058
G1 X130.497 Y112.8 E221.02056
G1 X89.501 Y112.8 E222.04321
G1 X89.502 Y112.4 E222.05319
G1 X130.498 Y112.4 E223.07584
G1 X130.498 Y112 E223.08582
G1 X89.502 Y112 E224.10847
G1 X89.502 Y111.6 E224.11844
G1 X130.498 Y111.6 E225.14109
G1 X130.498 Y111.2 E225.15107
G1 X89.502 Y111.2 E226.17372
G1 X89.502 Y110.8 E226.1837
G1 X130.498 Y110.8 E227.20635
G1 X130.498 Y110.4 E227.21633
G1 X89.502 Y110.4 E228.23898
G1 X89.502 Y110 E228.24895
G1 X130.498 Y110 E229.2716
G1 X130.498 Y109.6 E229.28158
G1 X89.502 Y109.6 E230.30423
G1 X89.502 Y109.2 E230.31421
G1 X130.498 Y109.2 E231.33686
G1 X130.498 Y108.8 E231.34684
G1 X89.502 Y108.8 E232.36949
G1 X89.502 Y108.4 E232.37946
G1 X130.498 Y108.4 E233.40211
G1 X130.498 Y108 E233.41209
G1 X89.502 Y108 E234.43474
G1 X89.502 Y107.6 E234.44472
G1 X130.498 Y107.6 E235.46737
G1 X130.499 Y107.2 E235.47735
G1 X89.503 Y107.2 E236.5
G1 X89.503 Y106.8 E236.50997
G1 X130.499 Y106.8 E237.53262
G1 X130.499 Y106.4 E237.5426
G1 X89.503 Y106.4 E238.56525
G1 X89.503 Y106 E238.57523
G1 X130.499 Y106 E239.59788
G1 X130.499 Y105.6 E239.60786
G1 X89.503 Y105.6 E240.6305
G1 X89.503 Y105.2 E240.64048
G1 X130.499 Y105.2 E241.66313
G1 X130.499 Y104.8 E241.67311
G1 X89.503 Y104.8 E242.69576
G1 X89.503 Y104.4 E242.70574
G1 X130.499 Y104.4 E243.72839
G1 X130.499 Y104 E243.73837
G1 X89.503 Y104 E244.76101
G1 X89.503 Y103.6 E244.77099
G1 X130.499 Y103.6 E245.79364
G1 X130.499 Y103.2 E245.80362
G1 X89.503 Y103.2 E246.82627
G1 X89.503 Y102.8 E246.83625
G1 X130.499 Y102.8 E247.8589
G1 X130.499 Y102.4 E247.86887
G1 X89.503 Y102.4 E248.89152
G1 X89.503 Y102.209 E248.89629
G1 X89.515 Y102 E248.90151
G1 X130.491 Y102 E249.92366
G1 X130.479 Y101.672 E249.93185
G1 X130.472 Y101.6 E249.93365
G1 X89.536 Y101.6 E250.95481
G1 X89.552 Y101.295 E250.96242
G1 X89.566 Y101.2 E250.96482
G1 X130.429 Y101.2 E251.98415
G1 X130.388 Y100.822 E251.99364
G1 X130.384 Y100.8 E251.99419
G1 X89.625 Y100.8 E253.01093
G1 X89.679 Y100.426 E253.02036
G1 X89.686 Y100.4 E253.02103
G1 X130.307 Y100.4 E254.03432
G1 X130.229 Y100 E254.04449
G1 X89.781 Y100 E255.05347
