;FLAVOR:Marlin
;TIME:11038
;Filament used:4.66488m
;Layer height: 0.1
;MINX:40.699
;MINY:82.2
;MINZ:0.24
;MAXX:179.3
;MAXY:137.8
;MAXZ:15.89
                                 
;Creality Print GCode Generated by CXEngine:NO_MAGE_VERSION_GIT_HEAD_BRANCH
;CXEngine Release Time:2022-09-30 09:53:04
;Gcode Generated Time:2023-05-21 11:42:02
;----------Machine Config--------------
;Machine Name:Ender-3 V2
;Machine Height:250
;Machine Width:220
;Machine Depth:220
;Material name:PLA
;Number of Extruders:1
;ExtruderParams[0] Nozzle Diameter1000
;----------Profile Config---------------
;Engine Version:275f99b
;Engine Release Time:2022-09-30 09:42:18
;Layer Height:0.1
;Wall Thickness:0.8
;Top/Bottom Thickness:0.5
;Out Wall Line Width:0.4
;Inner Wall Line Width:0.4
;Inital Layer Height:100
;Wall Line Count:2
;Infill Line Distance:4
;Infill Pattern:grid
;Infill Sparse Density:20
;Infill Wipe Distance:0
;Print Temperature:200
;Bed Temperature:60
;Support Enable:true
;Support Density:0
;Support Angle:60
;Adhesion Type:simpleraft
;machine is belt:false
;machine belt offset:10
;machine belt offset Y:0
;Raft Base Line Spacing:1.6
;Wait Heatup Sync:true
;----------Shell Config----------------
;Outer Wall Wipe Distance:200
;Outer Inset First:false
;Infill Before Walls:false
;Infill Overlap:0.16
;Fill Gaps Between Walls:everywhere
;Minimum Infill Area:1
;Top Surface Skin Layer:0
;Top Layers:4
;Z Seam Alignment:sharpest_corner
;Seam Corner Preference:z_seam_corner_inner
;Z Seam X:110
;Z Seam Y:110
;Horizontal Expansion:0
;Top/Bottom Pattern:zigzag
;Ironing Pattern:zigzag
;Vase Model:false
;----------Support Config----------------
;Support Type:everywhere
;Support Pattern:zigzag
;Support Infill Layer Thickness:0.1
;Minimum Support Area:5
;Enable Support Roof:false
;Support Roof Thickness:0.8
;Support Roof Pattern:lines
;Connect Support Lines:0
;Connect Support ZigZags:1
;Minimum Support X/Y Distance:0.2
;Support Line Distance:0
; ---------PrintSpeed & Travel----------
;Enable Print Cool:true
;Avoid Printed Parts Traveling:true
;Enable Retraction:true
;Retraction Distance:8
;Retraction Speed:100
;Retraction Prime Speed:100
;Maximum Retraction Count:100
;Minimum Extrusion Distance Window:1
;Z Hop When Retracted:false
;Z Hop Height:0.2
;Retract Before Outer Wall:true
;Print Speed:50
;Infill Speed:50

;Prime Tower Speed:50
;Travel Speed:120
;Initial Layer Speed:25
;Skirt/Brim Speed:25
;Combing Mode:infill
; --------SpecialModel&Mesh Fixes--------
;Union Overlapping Volum:true
;Remove All Holes:false
;Maximum Travel Resolution:0.6
;Maximum Deviation:0.05
;Maximum Model Angle:0.872665
;IS Mold Print:false
;Make Overhang Printable:false
;Enable Coasting:false
;Coasting Volumes:0.06
;Coasting Speed:0.9
;Raft AirGap:0.25
;Layer0 ZOverLap:0.13
;---------------------End of Head--------------------------
M140 S60
M105
M104 S200
M105
M109 S200
M105
M190 S60
M82 ;absolute extrusion mode
M220 S100 ;Reset Feedrate
M221 S100 ;Reset Flowrate

G28 ;Home

G92 E0 ;Reset Extruder
G1 Z2.0 F3000 ;Move Z Axis up
G1 X10.1 Y20 Z0.28 F5000.0 ;Move to start position
G1 X10.1 Y145.0 Z0.28 F1500.0 E15 ;Draw the first line
G1 X10.4 Y145.0 Z0.28 F5000.0 ;Move to side a little
G1 X10.4 Y20 Z0.28 F1500.0 E30 ;Draw the second line
G92 E0  ;Reset Extruder
G1 E-1.0000 F1800 ;Retract a bit
G1 Z2.0 F3000 ;Move Z Axis up
G1 E0.0000 F1800 

G92 E0
G92 E0
G1 F6000 E-8

;LAYER_COUNT:150

;LAYER:-4
M107
G0 F7200 X41.6 Y101.337 Z0.24
;TYPE:SUPPORT-INTERFACE
G1 F6000 E0
G1 F1200 X41.6 Y115.669 E1.14404
G1 X41.561 Y115.534 E1.15526
G1 X41.404 Y114.727 E1.22089
G1 X41.32 Y113.931 E1.28478
G1 X41.3 Y103.713 E2.10042
G1 X41.349 Y102.708 E2.18074
G1 X41.472 Y101.876 E2.24788
G1 X41.66 Y101.085 E2.31278
G1 X41.917 Y100.316 E2.3775
G1 X42.247 Y99.564 E2.44305
G1 X42.657 Y98.818 E2.511
G1 X43.119 Y98.135 E2.57683
G1 X43.2 Y98.034 E2.58716
G1 X43.2 Y118.959 E4.25748
G1 X43.372 Y119.19 E4.28047
G1 X44.003 Y119.895 E4.356
G1 X44.517 Y120.381 E4.41247
G1 X44.8 Y120.609 E4.44148
G1 X44.8 Y96.38 E6.37554
G1 X44.81 Y96.372 E6.37656
G1 X45.462 Y95.886 E6.44147
G1 X46.155 Y95.46 E6.50641
G1 X46.4 Y95.337 E6.52829
G1 X46.4 Y121.662 E8.62967
G1 X46.563 Y121.752 E8.64453
G1 X47.308 Y122.079 E8.70948
G1 X48 Y122.31 E8.76771
G1 X48 Y94.694 E10.97214
G1 X48.46 Y94.562 E11.01034
G1 X49.273 Y94.404 E11.07645
G1 X49.6 Y94.369 E11.1027
G1 X49.6 Y122.634 E13.35894
G1 X49.712 Y122.651 E13.36798
G1 X50.57 Y122.697 E13.43657
G1 X51.2 Y122.697 E13.48686
G1 X51.2 Y94.299 E15.75371
G1 X52.8 Y94.299 E15.88143
G1 X52.8 Y122.697 E18.14828
G1 X54.4 Y122.697 E18.276
G1 X54.4 Y94.298 E20.54293
G1 X56 Y94.298 E20.67065
G1 X56 Y122.697 E22.93758
G1 X57.6 Y122.697 E23.0653
G1 X57.6 Y94.297 E25.33231
G1 X59.2 Y94.296 E25.46003
G1 X59.2 Y122.697 E27.72712
G1 X60.8 Y122.698 E27.85484
G1 X60.8 Y94.296 E30.12201
G1 X62.4 Y94.295 E30.24973
G1 X62.4 Y122.698 E32.51698
G1 X64 Y122.698 E32.6447
G1 X64 Y94.295 E34.91195
G1 X65.6 Y94.294 E35.03967
G1 X65.6 Y122.698 E37.307
G1 X67.2 Y122.698 E37.43471
G1 X67.2 Y94.294 E39.70204
G1 X68.8 Y94.293 E39.82976
G1 X68.8 Y122.698 E42.09717
G1 X70.4 Y122.698 E42.22489
G1 X70.4 Y94.292 E44.49238
G1 X72 Y94.292 E44.6201
G1 X72 Y122.699 E46.88767
G1 X73.6 Y122.699 E47.01539
G1 X73.6 Y94.291 E49.28304
G1 X75.2 Y94.291 E49.41076
G1 X75.2 Y122.699 E51.67841
G1 X76.8 Y122.699 E51.80613
G1 X76.8 Y94.29 E54.07386
G1 X78.4 Y94.289 E54.20157
G1 X78.4 Y122.699 E56.46938
G1 X80 Y122.699 E56.5971
G1 X80 Y94.289 E58.86491
G1 X80.981 Y94.289 E58.94322
G1 X81.6 Y94.25 E58.99273
G1 X81.6 Y122.81 E61.27251
G1 X82.066 Y122.909 E61.31054
G1 X82.759 Y123.148 E61.36905
G1 X83.2 Y123.367 E61.40836
G1 X83.2 Y93.831 E63.76605
G1 X83.766 Y93.563 E63.81604
G1 X84.385 Y93.167 E63.8747
G1 X84.8 Y92.82 E63.91788
G1 X84.8 Y124.601 E66.45478
G1 X85.073 Y124.906 E66.48745
G1 X85.488 Y125.508 E66.54582
G1 X85.827 Y126.159 E66.60441
G1 X86.079 Y126.848 E66.66297
G1 X86.244 Y127.563 E66.72154
G1 X86.4 Y129.183 E66.85146
G1 X86.4 Y90.457 E69.94273
G1 X86.482 Y90.245 E69.96088
G1 X86.855 Y88.985 E70.06577
G1 X87.248 Y88.063 E70.14578
G1 X87.657 Y87.318 E70.21362
G1 X88 Y86.81 E70.26255
G1 X88 Y133.19 E73.9648
G1 X88.372 Y133.69 E74.01455
G1 X89.003 Y134.395 E74.09007
G1 X89.517 Y134.881 E74.14654
G1 X89.6 Y134.948 E74.15505
G1 X89.6 Y85.059 E78.13741
G1 X89.81 Y84.872 E78.15985
G1 X90.462 Y84.386 E78.22477
G1 X91.155 Y83.96 E78.2897
G1 X91.2 Y83.937 E78.29373
G1 X91.2 Y136.052 E82.45378
G1 X91.563 Y136.252 E82.48686
G1 X92.308 Y136.579 E82.55181
G1 X92.8 Y136.743 E82.59321
G1 X92.8 Y83.252 E86.86309
G1 X93.46 Y83.062 E86.91791
G1 X94.273 Y82.904 E86.98402
G1 X94.4 Y82.89 E86.99422
G1 X94.4 Y137.105 E91.3219
G1 X94.701 Y137.15 E91.34619
G1 X95.713 Y137.2 E91.42707
G1 X96 Y137.2 E91.44998
G1 X96 Y82.801 E95.79235
G1 X97.6 Y82.801 E95.92007
G1 X97.6 Y137.2 E100.26243
G1 X99.2 Y137.2 E100.39015
G1 X99.2 Y82.801 E104.73251
G1 X100.8 Y82.801 E104.86023
G1 X100.8 Y137.2 E109.20259
G1 X102.4 Y137.2 E109.33031
G1 X102.4 Y82.801 E113.67268
G1 X104 Y82.801 E113.8004
G1 X104 Y137.2 E118.14276
G1 X105.6 Y137.2 E118.27048
G1 X105.6 Y82.801 E122.61284
G1 X107.2 Y82.802 E122.74056
G1 X107.2 Y137.2 E127.08284
G1 X108.8 Y137.2 E127.21056
G1 X108.8 Y82.802 E131.55285
G1 X110.4 Y82.802 E131.68056
G1 X110.4 Y137.2 E136.02285
G1 X112 Y137.2 E136.15057
G1 X112 Y82.802 E140.49285
G1 X113.6 Y82.802 E140.62057
G1 X113.6 Y137.2 E144.96285
G1 X115.2 Y137.2 E145.09057
G1 X115.2 Y82.802 E149.43286
G1 X116.8 Y82.802 E149.56057
G1 X116.8 Y137.2 E153.90286
G1 X118.4 Y137.2 E154.03058
G1 X118.4 Y82.803 E158.37278
G1 X120 Y82.803 E158.5005
G1 X120 Y137.2 E162.8427
G1 X121.6 Y137.2 E162.97042
G1 X121.6 Y82.803 E167.31263
G1 X123.2 Y82.803 E167.44034
G1 X123.2 Y137.2 E171.78255
G1 X124.8 Y137.2 E171.91027
G1 X124.8 Y82.803 E176.25247
G1 X126.4 Y82.803 E176.38019
G1 X126.4 Y137.2 E180.72239
G1 X128 Y137.2 E180.85011
G1 X128 Y82.834 E185.18984
G1 X128.288 Y82.849 E185.21286
G1 X129.124 Y82.972 E185.28031
G1 X129.6 Y83.086 E185.31938
G1 X129.6 Y137.2 E189.639
G1 X131.2 Y137.2 E189.76672
G1 X131.2 Y83.644 E194.04179
G1 X131.433 Y83.746 E194.06209
G1 X132.182 Y84.157 E194.13029
G1 X132.8 Y84.576 E194.18989
G1 X132.8 Y137.2 E198.39057
G1 X134.4 Y137.2 E198.51829
G1 X134.4 Y86.056 E202.60082
G1 X134.628 Y86.31 E202.62807
G1 X135.114 Y86.962 E202.69298
G1 X135.543 Y87.661 E202.75845
G1 X135.902 Y88.382 E202.82274
G1 X136 Y88.632 E202.84418
G1 X136 Y137.2 E206.72108
G1 X137.6 Y137.2 E206.8488
G1 X137.6 Y94.716 E210.24006
G1 X137.925 Y95.188 E210.2858
G1 X138.415 Y95.735 E210.34442
G1 X138.969 Y96.215 E210.40294
G1 X139.2 Y96.37 E210.42514
G1 X139.2 Y137.2 E213.68437
G1 X140.8 Y137.2 E213.81209
G1 X140.8 Y97.144 E217.00953
G1 X140.929 Y97.189 E217.02044
G1 X141.65 Y97.341 E217.07926
G1 X142.4 Y97.396 E217.13929
G1 X142.4 Y137.2 E220.31661
G1 X144 Y137.2 E220.44433
G1 X144 Y97.401 E223.62126
G1 X145.6 Y97.401 E223.74898
G1 X145.6 Y137.2 E226.92591
G1 X147.2 Y137.2 E227.05363
G1 X147.2 Y97.401 E230.23055
G1 X148.8 Y97.401 E230.35827
G1 X148.8 Y137.2 E233.5352
G1 X150.4 Y137.2 E233.66292
G1 X150.4 Y97.401 E236.83985
G1 X152 Y97.402 E236.96757
G1 X152 Y137.2 E240.14442
G1 X153.6 Y137.2 E240.27214
G1 X153.6 Y97.402 E243.44898
G1 X155.2 Y97.402 E243.5767
G1 X155.2 Y137.2 E246.75355
G1 X156.8 Y137.2 E246.88127
G1 X156.8 Y97.402 E250.05812
G1 X158.4 Y97.402 E250.18584
G1 X158.4 Y137.2 E253.36269
G1 X160 Y137.2 E253.49041
G1 X160 Y97.402 E256.66725
G1 X161.6 Y97.403 E256.79497
G1 X161.6 Y137.2 E259.97174
G1 X163.2 Y137.2 E260.09946
G1 X163.2 Y97.403 E263.27623
G1 X164.8 Y97.403 E263.40395
G1 X164.8 Y137.2 E266.58072
G1 X166.4 Y137.2 E266.70844
G1 X166.4 Y97.403 E269.8852
G1 X168 Y97.403 E270.01292
G1 X168 Y137.2 E273.18969
G1 X169.332 Y137.2 E273.29602
G1 X169.6 Y137.191 E273.31742
G1 X169.6 Y97.413 E276.49268
G1 X170.288 Y97.449 E276.54767
G1 X171.124 Y97.572 E276.61512
G1 X171.2 Y97.591 E276.62137
G1 X171.2 Y137.005 E279.76757
G1 X171.54 Y136.938 E279.79523
G1 X172.322 Y136.712 E279.86021
G1 X172.8 Y136.527 E279.90112
G1 X172.8 Y98.069 E282.97101
G1 X173.433 Y98.346 E283.02616
G1 X174.182 Y98.757 E283.09436
G1 X174.4 Y98.905 E283.11539
G1 X174.4 Y135.699 E286.05245
G1 X174.537 Y135.614 E286.06532
G1 X175.194 Y135.124 E286.13074
G1 X175.89 Y134.502 E286.20526
G1 X176.381 Y133.983 E286.26229
G1 X176.881 Y133.365 E286.32574
G1 X177.343 Y132.682 E286.39156
G1 X177.6 Y132.214 E286.43418
G1 X177.6 Y102.377 E288.8159
G1 X177.529 Y102.234 E288.82865
G1 X177.12 Y101.57 E288.8909
G1 X176.628 Y100.91 E288.95661
G1 X176.003 Y100.211 E289.03146
G0 F7200 X176 Y100.209
G1 F1200 X176 Y134.386 E291.75961
G0 F600 X176 Y134.386 Z0.47
G0 F7200 X179.007 Y105.468
;TIME_ELAPSED:190.487576

;LAYER:-3
;TYPE:SUPPORT
G1 F1800 X170.634 Y97.095 E292.66545
G1 X171.197 Y97.178 E292.70898
G1 X172.026 Y97.376 E292.77418
G1 X172.482 Y97.529 E292.81098
G1 X178.581 Y103.628 E293.4708
G1 X178.591 Y103.649 E293.47257
G1 X178.83 Y104.478 E293.53857
G1 X178.992 Y105.313 E293.60364
G1 X179.079 Y106.129 E293.66642
G1 X179.1 Y106.747 E293.71372
G1 X179.099 Y106.974 E293.73109
G1 X169.127 Y97.002 E294.80991
G1 X167.713 Y97.002 E294.91808
G1 X179.099 Y108.388 E296.14987
G1 X179.099 Y109.803 E296.25811
G1 X166.298 Y97.002 E297.64299
G1 X164.884 Y97.002 E297.75116
G1 X179.099 Y111.217 E299.28901
G1 X179.098 Y112.63 E299.3971
G1 X163.47 Y97.002 E301.08781
G1 X162.055 Y97.001 E301.19606
G1 X179.098 Y114.045 E303.03991
G1 X179.098 Y115.459 E303.14808
G1 X160.641 Y97.001 E305.1449
G1 X159.227 Y97.001 E305.25307
G1 X179.098 Y116.873 E307.40287
G1 X179.098 Y118.286 E307.51096
G1 X157.812 Y97.001 E309.81373
G1 X156.398 Y97.001 E309.9219
G1 X179.098 Y119.701 E312.3777
G1 X179.098 Y121.115 E312.48587
G1 X154.983 Y97 E315.09475
G1 X153.569 Y97 E315.20291
G1 X179.098 Y122.529 E317.96477
G1 X179.097 Y123.943 E318.07294
G1 X152.155 Y97 E320.98771
G1 X150.741 Y97 E321.09588
G1 X179.097 Y125.357 E324.16362
G1 X179.097 Y126.771 E324.27179
G1 X149.326 Y97 E327.49257
G1 X147.911 Y97 E327.60081
G1 X179.084 Y128.173 E330.97326
G1 X179.05 Y128.828 E331.02344
G1 X178.956 Y129.459 E331.07224
G1 X146.497 Y97 E334.58381
G1 X145.083 Y97 E334.69198
G1 X178.695 Y130.611 E338.32824
G1 X178.455 Y131.332 E338.38637
G1 X178.316 Y131.647 E338.41271
G1 X143.669 Y97 E342.16099
G1 X142.47 Y97 E342.25272
G1 X141.706 Y96.944 E342.31132
G1 X141.037 Y96.803 E342.36362
G1 X140.433 Y96.592 E342.41256
G1 X177.299 Y133.459 E346.40096
G1 X177.69 Y132.882 E346.45428
G1 X177.847 Y132.593 E346.47944
G1 X142.238 Y96.983 E350.33185
G0 F7200 X140.011 Y95.875
G0 X139.018 Y95.119
G0 X138.603 Y94.654
G0 X138.25 Y94.142
G0 X136.231 Y88.148
G1 F1800 X131.362 Y83.278 E350.85866
G1 X131.617 Y83.39 E350.87997
G1 X132.382 Y83.81 E350.94673
G1 X133.109 Y84.301 E351.01384
G1 X133.748 Y84.818 E351.07672
G1 X134.288 Y85.329 E351.13359
G1 X134.939 Y86.057 E351.2083
G1 X135.447 Y86.74 E351.27341
G1 X135.89 Y87.46 E351.33808
G1 X136.272 Y88.227 E351.40363
G1 X136.585 Y89.027 E351.46935
G1 X136.83 Y89.878 E351.53709
G1 X136.897 Y90.228 E351.56435
G1 X129.263 Y82.594 E352.39024
G1 X129.197 Y82.578 E352.39543
G1 X128.335 Y82.451 E352.46209
G1 X127.67 Y82.416 E352.51303
G1 X137.095 Y91.84 E353.53262
G1 X137.153 Y92.464 E353.58056
G1 X137.306 Y93.13 E353.63283
G1 X137.498 Y93.657 E353.67574
G1 X126.243 Y82.402 E354.89336
G1 X124.829 Y82.402 E355.00153
G1 X176.678 Y134.252 E360.61086
G1 X176.172 Y134.787 E360.6672
G1 X175.974 Y134.962 E360.68741
G1 X123.414 Y82.402 E366.37361
G1 X122 Y82.402 E366.48178
G1 X175.209 Y135.611 E372.23819
G1 X174.76 Y135.947 E372.28109
G1 X174.37 Y136.186 E372.31608
G1 X120.586 Y82.402 E378.1347
G1 X119.172 Y82.402 E378.24287
G1 X173.451 Y136.681 E384.11504
G1 X173.273 Y136.772 E384.13034
G1 X172.455 Y137.09 E384.19747
G1 X172.447 Y137.091 E384.19809
G1 X117.758 Y82.402 E390.11462
G1 X116.343 Y82.401 E390.22286
G1 X171.327 Y137.386 E396.17136
G1 X170.787 Y137.492 E396.21346
G1 X170.092 Y137.565 E396.26691
G1 X114.928 Y82.401 E402.23483
G1 X113.514 Y82.401 E402.343
G1 X168.712 Y137.599 E408.31459
G1 X167.297 Y137.599 E408.42284
G1 X112.1 Y82.401 E414.39437
G1 X110.686 Y82.401 E414.50254
G1 X165.883 Y137.599 E420.47408
G1 X164.469 Y137.599 E420.58225
G1 X109.272 Y82.401 E426.55379
G1 X107.857 Y82.401 E426.66203
G1 X163.055 Y137.599 E432.63363
G1 X161.641 Y137.599 E432.7418
G1 X106.443 Y82.401 E438.71339
G1 X105.028 Y82.401 E438.82163
G1 X160.226 Y137.599 E444.79323
G1 X158.812 Y137.599 E444.9014
G1 X103.614 Y82.401 E450.87299
G1 X102.2 Y82.401 E450.98116
G1 X157.398 Y137.599 E456.95275
G1 X155.984 Y137.599 E457.06092
G1 X100.786 Y82.401 E463.03251
G1 X99.371 Y82.401 E463.14076
G1 X154.57 Y137.599 E469.1124
G1 X153.155 Y137.599 E469.22065
G1 X97.957 Y82.401 E475.19224
G1 X96.543 Y82.401 E475.30041
G1 X151.741 Y137.599 E481.272
G1 X150.327 Y137.599 E481.38017
G1 X95.145 Y82.417 E487.35003
G1 X95.034 Y82.421 E487.35853
G1 X94.213 Y82.508 E487.42169
G1 X93.885 Y82.571 E487.44724
G1 X148.913 Y137.599 E493.40044
G1 X147.498 Y137.599 E493.50868
G1 X92.75 Y82.85 E499.43165
G1 X92.545 Y82.91 E499.44799
G1 X91.727 Y83.228 E499.51513
G1 X91.717 Y83.232 E499.51595
G1 X146.084 Y137.599 E505.39764
G1 X144.67 Y137.599 E505.50581
G1 X90.786 Y83.715 E511.33525
G1 X90.24 Y84.053 E511.38437
G1 X89.936 Y84.279 E511.41335
G1 X143.256 Y137.599 E517.18177
G1 X141.842 Y137.599 E517.28994
G1 X89.159 Y84.916 E522.98945
G1 X88.829 Y85.212 E523.02336
G1 X88.444 Y85.616 E523.06605
G1 X140.427 Y137.599 E528.68983
G1 X139.013 Y137.599 E528.798
G1 X87.802 Y86.387 E534.33831
G0 F7200 X87.801 Y86.391
G1 F1800 X87.31 Y87.118 E534.40542
G1 X87.241 Y87.241 E534.41621
G1 X137.599 Y137.599 E539.86419
G1 X136.185 Y137.599 E539.97235
G1 X86.763 Y88.177 E545.31907
G1 X86.48 Y88.845 E545.37457
G1 X86.373 Y89.201 E545.40301
G1 X134.771 Y137.599 E550.63894
G1 X133.356 Y137.599 E550.74719
G1 X86.038 Y90.281 E555.86628
G1 X85.858 Y90.75 E555.90471
G1 X85.588 Y91.245 E555.94784
G1 X131.942 Y137.599 E560.96265
G1 X130.528 Y137.599 E561.07082
G1 X84.99 Y92.061 E565.99734
G1 X84.672 Y92.406 E566.03324
G1 X84.263 Y92.748 E566.07402
G1 X129.114 Y137.599 E570.92622
G1 X127.699 Y137.599 E571.03447
