;FLAVOR:Marlin
;TIME:2272
;Filament used:1.2394m
;Layer height: 0.2
;MINX:87.2
;MINY:80.199
;MINZ:0.24
;MAXX:132.8
;MAXY:139.8
;MAXZ:2.89
                                    
;Creality Print GCode Generated by CXEngine:NO_MAGE_VERSION_GIT_HEAD_BRANCH
;CXEngine Release Time:2022-09-30 09:53:04
;Gcode Generated Time:2023-06-26 20:32:24
;----------Machine Config--------------
;Machine Name:Ender-3 V2
;Machine Height:250
;Machine Width:220
;Machine Depth:220
;Material name:PLA
;Number of Extruders:1
;ExtruderParams[0] Nozzle Diameter1000
;----------Profile Config---------------
;Engine Version:275f99b
;Engine Release Time:2022-09-30 09:42:18
;Layer Height:0.2
;Wall Thickness:0.8
;Top/Bottom Thickness:1
;Out Wall Line Width:0.4
;Inner Wall Line Width:0.4
;Inital Layer Height:200
;Wall Line Count:2
;Infill Line Distance:4
;Infill Pattern:grid
;Infill Sparse Density:20
;Infill Wipe Distance:0
;Print Temperature:200
;Bed Temperature:60
;Support Enable:true
;Support Density:0
;Support Angle:60
;Adhesion Type:simpleraft
;machine is belt:false
;machine belt offset:10
;machine belt offset Y:0
;Raft Base Line Spacing:1.6
;Wait Heatup Sync:true
;----------Shell Config----------------
;Outer Wall Wipe Distance:200
;Outer Inset First:false
;Infill Before Walls:false
;Infill Overlap:0.16
;Fill Gaps Between Walls:everywhere
;Minimum Infill Area:1
;Top Surface Skin Layer:0
;Top Layers:3
;Z Seam Alignment:sharpest_corner
;Seam Corner Preference:z_seam_corner_inner
;Z Seam X:110
;Z Seam Y:110
;Horizontal Expansion:0
;Top/Bottom Pattern:zigzag
;Ironing Pattern:zigzag
;Vase Model:false
;----------Support Config----------------
;Support Type:everywhere
;Support Pattern:zigzag
;Support Infill Layer Thickness:0.2
;Minimum Support Area:5
;Enable Support Roof:false
;Support Roof Thickness:0.8
;Support Roof Pattern:lines
;Connect Support Lines:0
;Connect Support ZigZags:1
;Minimum Support X/Y Distance:0.2
;Support Line Distance:0
; ---------PrintSpeed & Travel----------
;Enable Print Cool:true
;Avoid Printed Parts Traveling:true
;Enable Retraction:true
;Retraction Distance:8
;Retraction Speed:100
;Retraction Prime Speed:100
;Maximum Retraction Count:100
;Minimum Extrusion Distance Window:1
;Z Hop When Retracted:false
;Z Hop Height:0.2
;Retract Before Outer Wall:true
;Print Speed:50
;Infill Speed:50

;Prime Tower Speed:50
;Travel Speed:120
;Initial Layer Speed:25
;Skirt/Brim Speed:25
;Combing Mode:infill
; --------SpecialModel&Mesh Fixes--------
;Union Overlapping Volum:true
;Remove All Holes:false
;Maximum Travel Resolution:0.6
;Maximum Deviation:0.05
;Maximum Model Angle:0.872665
;IS Mold Print:false
;Make Overhang Printable:false
;Enable Coasting:false
;Coasting Volumes:0.06
;Coasting Speed:0.9
;Raft AirGap:0.25
;Layer0 ZOverLap:0.13
;---------------------End of Head--------------------------
M140 S60
M105
M104 S200
M105
M109 S200
M105
M190 S60
M82 ;absolute extrusion mode
M220 S100 ;Reset Feedrate
M221 S100 ;Reset Flowrate

G28 ;Home

G92 E0 ;Reset Extruder
G1 Z2.0 F3000 ;Move Z Axis up
G1 X10.1 Y20 Z0.28 F5000.0 ;Move to start position
G1 X10.1 Y145.0 Z0.28 F1500.0 E15 ;Draw the first line
G1 X10.4 Y145.0 Z0.28 F5000.0 ;Move to side a little
G1 X10.4 Y20 Z0.28 F1500.0 E30 ;Draw the second line
G92 E0  ;Reset Extruder
G1 E-1.0000 F1800 ;Retract a bit
G1 Z2.0 F3000 ;Move Z Axis up
G1 E0.0000 F1800 

G92 E0
G92 E0
G1 F6000 E-8

;LAYER_COUNT:10

;LAYER:-4
M107
G0 F7200 X89.6 Y84.663 Z0.24
;TYPE:SUPPORT-INTERFACE
G1 F6000 E0
G1 F1200 X89.6 Y135.325 E4.44847
G1 X89.386 Y135.038 E4.4799
G1 X88.957 Y134.339 E4.55192
G1 X88.596 Y133.615 E4.62295
G1 X88.287 Y132.818 E4.69801
G1 X88.061 Y132.034 E4.76965
G1 X88 Y131.72 E4.79774
G1 X88 Y88.258 E8.614
G1 X88.16 Y87.585 E8.67474
G1 X88.417 Y86.816 E8.74593
G1 X88.746 Y86.067 E8.81777
G1 X89.157 Y85.318 E8.89278
G1 X89.619 Y84.635 E8.96519
G1 X90.119 Y84.017 E9.03499
G1 X90.611 Y83.497 E9.09785
G1 X91.2 Y82.97 E9.16724
G1 X91.2 Y137.029 E13.91399
G1 X91.635 Y137.381 E13.96312
G1 X92.318 Y137.843 E14.03553
G1 X92.8 Y138.107 E14.08378
G1 X92.8 Y81.887 E19.02028
G1 X93.385 Y81.596 E19.07765
G1 X94.178 Y81.288 E19.15235
G1 X94.4 Y81.223 E19.17266
G1 X94.4 Y138.777 E24.22629
G1 X94.581 Y138.838 E24.24306
G1 X95.376 Y139.028 E24.31483
G1 X96 Y139.119 E24.37021
G1 X96 Y80.879 E29.48407
G1 X96.558 Y80.821 E29.53333
G1 X97.6 Y80.816 E29.62483
G1 X97.6 Y139.197 E34.75107
G1 X99.2 Y139.198 E34.89156
G1 X99.2 Y80.81 E40.01843
G1 X100.8 Y80.803 E40.15892
G1 X100.8 Y139.199 E45.28648
G1 X101.83 Y139.2 E45.37692
G1 X102.4 Y139.178 E45.42701
G1 X102.4 Y80.823 E50.55097
G1 X103.013 Y80.845 E50.60483
G1 X104 Y80.806 E50.69157
G1 X104 Y139.193 E55.81834
G1 X104.084 Y139.197 E55.82572
G1 X105.6 Y139.197 E55.95884
G1 X105.6 Y80.801 E61.0864
G1 X107.2 Y80.802 E61.22689
G1 X107.2 Y139.198 E66.35446
G1 X108.8 Y139.199 E66.49495
G1 X108.8 Y80.803 E71.62251
G1 X108.916 Y80.803 E71.6327
G1 X110.013 Y80.845 E71.72909
G1 X110.4 Y80.829 E71.7631
G1 X110.4 Y139.17 E76.88583
G1 X111.084 Y139.197 E76.94594
G1 X112 Y139.197 E77.02637
G1 X112 Y80.801 E82.15394
G1 X113.6 Y80.802 E82.29443
G1 X113.6 Y139.198 E87.42199
G1 X115.2 Y139.199 E87.56248
G1 X115.2 Y80.803 E92.69004
G1 X115.916 Y80.803 E92.75291
G1 X116.8 Y80.837 E92.83059
G1 X116.8 Y139.163 E97.95201
G1 X116.987 Y139.155 E97.96844
G1 X118.206 Y139.2 E98.07555
G1 X118.4 Y139.2 E98.09259
G1 X118.4 Y80.801 E103.22042
G1 X120 Y80.802 E103.36091
G1 X120 Y139.193 E108.48803
G1 X121.6 Y139.187 E108.62852
G1 X121.6 Y80.803 E113.75503
G1 X122.93 Y80.803 E113.87181
G1 X123.2 Y80.818 E113.89556
G1 X123.2 Y139.18 E119.02014
G1 X123.442 Y139.179 E119.04139
G1 X124.227 Y139.096 E119.1107
G1 X124.8 Y138.985 E119.16195
G1 X124.8 Y81.015 E124.25211
G1 X125.419 Y81.162 E124.30797
G1 X126.187 Y81.419 E124.37908
G1 X126.4 Y81.513 E124.39952
G1 X126.4 Y138.488 E129.40231
G1 X126.615 Y138.404 E129.42258
G1 X127.345 Y138.04 E129.49421
G1 X128 Y137.637 E129.56174
G1 X128 Y82.373 E134.41429
G1 X128.365 Y82.619 E134.45294
G1 X128.983 Y83.119 E134.52274
G1 X129.503 Y83.611 E134.5856
G1 X129.6 Y83.72 E134.59841
G1 X129.6 Y136.281 E139.21362
G1 X129.881 Y135.983 E139.24958
G1 X130.381 Y135.365 E139.31938
G1 X130.843 Y134.682 E139.39179
G1 X131.254 Y133.933 E139.46681
G1 X131.583 Y133.184 E139.53864
G1 X131.839 Y132.416 E139.60972
G1 X132.028 Y131.622 E139.68139
G1 X132.152 Y130.781 E139.75603
G1 X132.197 Y129.932 E139.83069
G1 X132.2 Y90.147 E143.32408
G1 X132.179 Y89.557 E143.37592
G1 X132.096 Y88.773 E143.44514
G1 X131.939 Y87.966 E143.51733
G1 X131.713 Y87.182 E143.58897
G1 X131.404 Y86.385 E143.66403
G1 X131.2 Y85.976 E143.70416
G1 X131.2 Y134.032 E147.9238
G0 F600 X131.2 Y134.032 Z0.47
G0 F7200 X128.947 Y137.433
;TIME_ELAPSED:89.795238

;LAYER:-3
;TYPE:SUPPORT
G1 F1800 X87.402 Y95.887 E152.4184
G1 X87.401 Y94.473 E152.52657
G1 X129.693 Y136.764 E157.10187
G1 X130.182 Y136.248 E157.15626
G1 X130.365 Y136.021 E157.17856
G1 X87.401 Y93.058 E161.82657
G1 X87.4 Y91.643 E161.93481
G1 X130.968 Y135.21 E166.64816
G1 X131.19 Y134.882 E166.67846
G1 X131.496 Y134.324 E166.72714
G1 X87.4 Y90.228 E171.49766
G1 X87.4 Y90.193 E171.50034
G1 X87.45 Y89.172 E171.57854
G1 X87.488 Y88.903 E171.59932
G1 X131.944 Y133.358 E176.40874
G1 X131.955 Y133.332 E176.4109
G1 X132.226 Y132.519 E176.47646
G1 X132.282 Y132.282 E176.49509
G1 X87.716 Y87.716 E181.31646
G1 X87.774 Y87.481 E181.33497
G1 X88.045 Y86.668 E181.40053
G1 X88.055 Y86.641 E181.40273
G1 X132.51 Y131.096 E186.21209
G1 X132.55 Y130.828 E186.23282
G1 X132.597 Y129.932 E186.30146
G1 X132.597 Y129.768 E186.31401
G1 X88.502 Y85.674 E191.08437
G1 X88.81 Y85.118 E191.13299
G1 X89.031 Y84.788 E191.16337
G1 X132.597 Y128.354 E195.87656
G1 X132.597 Y126.94 E195.98473
G1 X89.634 Y83.977 E200.63268
G1 X89.818 Y83.752 E200.65491
G1 X90.306 Y83.234 E200.70935
G1 X132.597 Y125.526 E205.28466
G1 X132.597 Y124.112 E205.39283
G1 X91.051 Y82.566 E209.88748
G1 X91.057 Y82.561 E209.88807
G1 X91.74 Y82.053 E209.95319
G1 X91.871 Y81.972 E209.96497
G1 X132.597 Y122.697 E214.37086
G1 X132.597 Y121.283 E214.47903
G1 X92.769 Y81.455 E218.78782
G1 X93.227 Y81.228 E218.82692
G1 X93.751 Y81.023 E218.86996
G1 X132.597 Y119.869 E223.07252
G1 X132.597 Y118.455 E223.18069
G1 X94.826 Y80.684 E227.26694
G1 X94.872 Y80.671 E227.2706
G1 X95.713 Y80.508 E227.33613
G1 X96.031 Y80.475 E227.36059
G1 X132.597 Y117.041 E231.31648
G1 X132.598 Y115.627 E231.42465
G1 X97.388 Y80.417 E235.23384
G1 X98.796 Y80.412 E235.34155
G1 X132.598 Y114.213 E238.99836
G1 X132.598 Y112.799 E239.10653
G1 X100.205 Y80.406 E242.61096
G1 X101.614 Y80.4 E242.71875
G1 X132.598 Y111.384 E246.07075
G1 X132.598 Y109.97 E246.17892
G1 X103.07 Y80.443 E249.37335
G1 X104.154 Y80.4 E249.45634
G1 X104.442 Y80.4 E249.47838
G1 X132.598 Y108.556 E252.52443
G1 X132.598 Y107.142 E252.6326
G1 X105.857 Y80.401 E255.52557
G1 X107.272 Y80.402 E255.63382
G1 X132.598 Y105.728 E258.37371
G1 X132.598 Y104.313 E258.48195
G1 X108.687 Y80.402 E261.06877
G1 X108.932 Y80.403 E261.08751
G1 X110.013 Y80.445 E261.17026
G1 X110.138 Y80.44 E261.17983
G1 X132.598 Y102.9 E263.60967
G1 X132.598 Y101.486 E263.71784
G1 X111.513 Y80.4 E265.99897
G1 X112.928 Y80.401 E266.10722
G1 X132.598 Y100.071 E268.23521
G1 X132.598 Y98.657 E268.34338
G1 X114.343 Y80.402 E270.3183
G1 X115.758 Y80.402 E270.42654
G1 X132.598 Y97.243 E272.24843
G1 X132.598 Y95.829 E272.3566
G1 X117.207 Y80.437 E274.02173
G1 X118.154 Y80.4 E274.09423
G1 X118.583 Y80.4 E274.12705
G1 X132.598 Y94.415 E275.64326
G1 X132.598 Y93 E275.7515
G1 X119.998 Y80.4 E277.11463
G1 X121.414 Y80.402 E277.22296
G1 X132.598 Y91.586 E278.4329
G1 X132.598 Y90.172 E278.54106
G1 X122.829 Y80.402 E279.59798
G1 X122.932 Y80.403 E279.60586
G1 X123.835 Y80.451 E279.67503
G1 X124.371 Y80.53 E279.71648
G1 X132.476 Y88.635 E280.59332
G1 X132.33 Y87.878 E280.65229
G1 X132.091 Y87.049 E280.71829
G1 X131.772 Y86.227 E280.78575
G1 X131.39 Y85.46 E280.85129
G1 X130.947 Y84.74 E280.91596
G1 X130.439 Y84.057 E280.98108
G1 X129.788 Y83.329 E281.05579
G1 X129.248 Y82.818 E281.11266
G1 X128.609 Y82.301 E281.17554
G1 X127.882 Y81.81 E281.24265
G1 X127.117 Y81.39 E281.30941
G1 X126.332 Y81.046 E281.37497
G1 X126.285 Y81.03 E281.37877
G1 X131.955 Y86.7 E281.99218
;;retract;;
G1 F6000 E273.99218
G0 F7200 X128.947 Y137.435
G1 F6000 E281.99218
G1 F1800 X128.26 Y137.947 E282.05773
G1 X128.127 Y138.027 E282.0696
G1 X87.403 Y97.302 E286.47538
G1 X87.404 Y98.717 E286.58362
G1 X127.229 Y138.543 E290.89214
G1 X126.773 Y138.772 E290.93118
G1 X126.247 Y138.975 E290.97431
G1 X87.404 Y100.132 E295.17653
G1 X87.405 Y101.547 E295.28478
G1 X125.172 Y139.314 E299.3706
G1 X125.128 Y139.329 E299.37416
G1 X124.287 Y139.492 E299.43969
G1 X123.967 Y139.524 E299.46429
G1 X87.406 Y102.962 E303.41969
G1 X87.406 Y104.377 E303.52794
G1 X122.61 Y139.581 E307.33648
G1 X121.202 Y139.587 E307.44419
G1 X87.407 Y105.792 E311.1003
G1 X87.408 Y107.207 E311.20855
G1 X119.793 Y139.592 E314.71212
G1 X118.385 Y139.598 E314.81983
G1 X87.409 Y108.622 E318.17096
G1 X87.409 Y110.037 E318.27921
G1 X116.928 Y139.556 E321.47272
G1 X115.846 Y139.6 E321.55556
G1 X115.556 Y139.598 E321.57775
G1 X87.41 Y111.452 E324.62272
G1 X87.411 Y112.866 E324.73089
G1 X114.141 Y139.597 E327.62273
G1 X112.726 Y139.597 E327.73097
G1 X87.411 Y114.281 E330.46973
G1 X87.412 Y115.696 E330.57797
G1 X111.312 Y139.596 E333.16359
G1 X111.068 Y139.597 E333.18226
G1 X109.987 Y139.555 E333.26502
G1 X109.86 Y139.558 E333.27473
G1 X87.413 Y117.111 E335.70316
G1 X87.413 Y118.526 E335.81141
G1 X108.485 Y139.598 E338.09108
G1 X107.07 Y139.597 E338.19932
G1 X87.413 Y119.94 E340.32592
G1 X87.414 Y121.355 E340.43416
G1 X105.655 Y139.597 E342.40762
G1 X104.24 Y139.596 E342.51586
G1 X87.415 Y122.77 E344.33613
G1 X87.416 Y124.185 E344.44437
G1 X102.792 Y139.561 E346.10782
G1 X101.846 Y139.6 E346.18025
G1 X101.415 Y139.599 E346.21322
G1 X87.416 Y125.6 E347.72771
G1 X87.417 Y127.015 E347.83595
G1 X100 Y139.598 E349.19724
G1 X98.584 Y139.597 E349.30556
G1 X87.418 Y128.43 E350.51361
G1 X87.418 Y129.845 E350.62186
G1 X97.169 Y139.596 E351.67677
G1 X97.068 Y139.597 E351.68449
G1 X96.165 Y139.549 E351.75367
G1 X95.627 Y139.468 E351.79529
G1 X87.522 Y131.363 E352.67213
G1 X87.67 Y132.122 E352.73128
G1 X87.909 Y132.951 E352.79728
G1 X88.228 Y133.773 E352.86474
G1 X88.61 Y134.54 E352.93028
G1 X89.053 Y135.26 E352.99495
G1 X89.561 Y135.943 E353.06007
G1 X90.218 Y136.677 E353.13543
G1 X90.752 Y137.182 E353.19165
G1 X91.391 Y137.699 E353.25453
G1 X92.118 Y138.19 E353.32164
G1 X92.879 Y138.608 E353.38806
G1 X93.662 Y138.952 E353.45348
G1 X93.712 Y138.967 E353.45748
G1 X88.043 Y133.298 E354.07078
G0 F600 X88.043 Y133.298 Z0.62
G0 F7200 X95.186 Y139.6
;TIME_ELAPSED:184.999873

;LAYER:-2
;TYPE:SUPPORT-INTERFACE
G1 F2400 X124.778 Y139.6 E354.80895
G1 X124.328 Y139.688 E354.82039
G1 X123.478 Y139.779 E354.84171
G1 X118.188 Y139.8 E354.97367
G1 X116.991 Y139.755 E355.00355
G1 X115.85 Y139.8 E355.03204
G1 X111.059 Y139.797 E355.15155
G1 X109.991 Y139.755 E355.17821
G1 X108.85 Y139.8 E355.2067
G1 X104.059 Y139.797 E355.32621
G1 X102.991 Y139.755 E355.35287
G1 X101.85 Y139.8 E355.38136
G1 X97.059 Y139.797 E355.50087
G1 X96.141 Y139.747 E355.5238
G1 X95.267 Y139.619 E355.54584
G1 X94.411 Y139.414 E355.56779
G1 X93.772 Y139.2 E355.5846
G1 X126.221 Y139.2 E356.39405
G1 X126.865 Y138.95 E356.41128
G1 X127.164 Y138.8 E356.41962
G1 X92.818 Y138.8 E357.27639
G1 X92.781 Y138.783 E357.2774
G1 X92.083 Y138.4 E357.29726
G1 X127.903 Y138.4 E358.1908
G1 X128.381 Y138.107 E358.20478
G1 X128.523 Y138 E358.20922
G1 X91.477 Y138 E359.13334
G1 X91.282 Y137.867 E359.13922
G1 X90.95 Y137.6 E359.14985
G1 X129.06 Y137.6 E360.10051
G1 X129.079 Y137.587 E360.10108
G1 X129.509 Y137.2 E360.11551
G1 X90.478 Y137.2 E361.08915
G1 X90.068 Y136.809 E361.10328
G1 X90.058 Y136.8 E361.10361
G1 X129.934 Y136.8 E362.09833
G1 X130.313 Y136.4 E362.11207
G1 X89.7 Y136.4 E363.12517
G1 X89.413 Y136.079 E363.13591
G1 X89.353 Y136 E363.13838
G1 X130.638 Y136 E364.16824
G1 X130.867 Y135.719 E364.17728
G1 X130.946 Y135.6 E364.18085
G1 X89.055 Y135.6 E365.22582
G1 X88.893 Y135.381 E365.23262
G1 X88.78 Y135.2 E365.23794
G1 X131.216 Y135.2 E366.29651
G1 X131.367 Y134.977 E366.30323
G1 X131.464 Y134.8 E366.30826
G1 X88.534 Y134.8 E367.37916
G1 X88.436 Y134.638 E367.38388
G1 X88.316 Y134.4 E367.39053
G1 X131.683 Y134.4 E368.47232
G1 X131.783 Y134.219 E368.47748
G1 X131.879 Y134 E368.48345
G1 X88.116 Y134 E369.57512
G1 X88.05 Y133.865 E369.57887
G1 X87.945 Y133.6 E369.58598
G1 X132.055 Y133.6 E370.68631
G1 X132.135 Y133.42 E370.69122
G1 X132.208 Y133.2 E370.697
G1 X87.79 Y133.2 E371.80501
G1 X87.72 Y133.017 E371.8099
G1 X87.656 Y132.8 E371.81554
G1 X132.343 Y132.8 E372.93027
G1 X132.414 Y132.589 E372.93582
G1 X132.459 Y132.4 E372.94067
G1 X87.54 Y132.4 E374.06117
G1 X87.476 Y132.172 E374.06708
G1 X87.441 Y132 E374.07146
G1 X132.554 Y132 E375.19681
G1 X132.621 Y131.724 E375.20389
G1 X132.639 Y131.6 E375.20702
G1 X87.363 Y131.6 E376.33643
G1 X87.312 Y131.328 E376.34334
G1 X87.297 Y131.2 E376.34655
G1 X132.697 Y131.2 E377.47906
G1 X132.748 Y130.855 E377.48776
G1 X132.75 Y130.8 E377.48913
G1 X87.254 Y130.8 E378.62403
G1 X87.221 Y130.478 E378.63211
G1 X87.217 Y130.4 E378.63406
G1 X132.772 Y130.4 E379.77043
G1 X132.793 Y130 E379.78042
G1 X87.203 Y130 E380.91767
G1 X87.2 Y129.853 E380.92134
G1 X87.2 Y129.6 E380.92765
G1 X132.797 Y129.6 E382.06507
G1 X132.797 Y129.2 E382.07505
G1 X87.2 Y129.2 E383.21247
G1 X87.2 Y128.8 E383.22245
G1 X132.797 Y128.8 E384.35987
G1 X132.797 Y128.4 E384.36985
G1 X87.2 Y128.4 E385.50727
G1 X87.2 Y128 E385.51725
G1 X132.797 Y128 E386.65467
G1 X132.797 Y127.6 E386.66465
G1 X87.2 Y127.6 E387.80207
G1 X87.2 Y127.2 E387.81205
G1 X132.797 Y127.2 E388.94947
G1 X132.797 Y126.8 E388.95945
G1 X87.2 Y126.8 E390.09687
G1 X87.2 Y126.4 E390.10685
G1 X132.797 Y126.4 E391.24427
G1 X132.797 Y126 E391.25425
G1 X87.2 Y126 E392.39167
G1 X87.2 Y125.6 E392.40165
G1 X132.797 Y125.6 E393.53907
G1 X132.797 Y125.2 E393.54905
G1 X87.2 Y125.2 E394.68647
G1 X87.2 Y124.8 E394.69645
G1 X132.797 Y124.8 E395.83387
G1 X132.797 Y124.4 E395.84385
G1 X87.2 Y124.4 E396.98127
