;FLAVOR:Marlin
;TIME:3006
;Filament used: 1.43798m
;Layer height: 0.2
;MINX:127.3
;MINY:128.8
;MINZ:0.2
;MAXX:172.7
;MAXY:171.2
;MAXZ:34
;Generated with Creality Slicer 4.8.2-191
M140 S50
M105
M190 S50
M104 S200
M105
M109 S200
M82 ;absolute extrusion mode

G28 ;Home

G92 E0 ;Reset Extruder
G1 Z2.0 F3000 ;Move Z Axis up
G1 X10.1 Y20 Z0.28 F5000.0 ;Move to start position
G1 X10.1 Y200.0 Z0.28 F1500.0 E15 ;Draw the first line
G1 X10.4 Y200.0 Z0.28 F5000.0 ;Move to side a little
G1 X10.4 Y20 Z0.28 F1500.0 E30 ;Draw the second line
G92 E0 ;Reset Extruder
G1 Z2.0 F3000 ;Move Z Axis up

G92 E0
G92 E0
G1 F2700 E-5
;LAYER_COUNT:170
;LAYER:0
M107
G0 F6000 X133.171 Y132.374 Z0.2
;TYPE:SKIRT
G1 F2700 E0
G1 F1200 X133.658 Y131.903 E0.02253
G1 X134.359 Y131.28 E0.05373
G1 X135.111 Y130.72 E0.08491
G1 X135.908 Y130.225 E0.11612
G1 X136.744 Y129.8 E0.14731
G1 X137.613 Y129.448 E0.17849
G1 X138.509 Y129.171 E0.20969
G1 X139.426 Y128.972 E0.24089
G1 X140.356 Y128.851 E0.27209
G1 X140.934 Y128.816 E0.29135
G1 X141.319 Y128.806 E0.30416
G1 X141.862 Y128.8 E0.32222
G1 X157.993 Y128.8 E0.85874
G1 X158.852 Y128.811 E0.88731
G1 X159.788 Y128.864 E0.91849
G1 X160.716 Y128.997 E0.94967
G1 X161.63 Y129.209 E0.98088
G1 X162.523 Y129.497 E1.01209
G1 X163.387 Y129.861 E1.04327
G1 X164.218 Y130.297 E1.07448
G1 X165.008 Y130.802 E1.10567
G1 X165.752 Y131.372 E1.13684
G1 X166.176 Y131.745 E1.15562
G1 X166.328 Y131.886 E1.16252
G1 X166.529 Y132.077 E1.17174
G1 X166.787 Y132.331 E1.18378
G1 X169.113 Y134.658 E1.29321
G1 X169.571 Y135.13 E1.31509
G1 X170.195 Y135.83 E1.34628
G1 X170.757 Y136.581 E1.37748
G1 X171.253 Y137.377 E1.40867
G1 X171.679 Y138.212 E1.43985
G1 X172.033 Y139.081 E1.47106
G1 X172.311 Y139.977 E1.50226
G1 X172.512 Y140.893 E1.53345
G1 X172.611 Y141.583 E1.55664
G1 X172.629 Y141.746 E1.56209
G1 X172.694 Y142.819 E1.59784
G1 X172.7 Y143.362 E1.6159
G1 X172.699 Y159.615 E2.15648
G1 X172.689 Y160.342 E2.18066
G1 X172.636 Y161.279 E2.21188
G1 X172.504 Y162.207 E2.24305
G1 X172.293 Y163.121 E2.27425
G1 X172.004 Y164.013 E2.30544
G1 X171.641 Y164.878 E2.33664
G1 X171.206 Y165.709 E2.36784
G1 X170.701 Y166.499 E2.39902
G1 X170.131 Y167.244 E2.43022
G1 X169.5 Y167.938 E2.46142
G1 X168.811 Y168.575 E2.49263
G1 X168.071 Y169.151 E2.52382
G1 X167.285 Y169.662 E2.555
G1 X166.458 Y170.104 E2.58619
G1 X165.596 Y170.474 E2.61739
G1 X164.706 Y170.769 E2.64857
G1 X163.794 Y170.988 E2.67977
G1 X162.867 Y171.128 E2.71095
G1 X161.999 Y171.187 E2.73989
G1 X161.679 Y171.196 E2.75054
G1 X161.37 Y171.2 E2.76081
G1 X138.865 Y171.199 E3.50933
G1 X138.167 Y171.19 E3.53255
G1 X137.231 Y171.138 E3.56373
G1 X136.302 Y171.006 E3.59494
G1 X135.388 Y170.796 E3.62613
G1 X134.495 Y170.509 E3.65733
G1 X133.63 Y170.146 E3.68853
G1 X132.799 Y169.712 E3.71971
G1 X132.008 Y169.208 E3.75091
G1 X131.263 Y168.638 E3.78211
G1 X130.569 Y168.007 E3.8133
G1 X129.932 Y167.32 E3.84446
G1 X129.355 Y166.58 E3.87567
G1 X128.843 Y165.794 E3.90687
G1 X128.4 Y164.967 E3.93808
G1 X128.029 Y164.106 E3.96926
G1 X127.733 Y163.216 E4.00046
G1 X127.514 Y162.304 E4.03165
G1 X127.373 Y161.377 E4.06284
G1 X127.313 Y160.488 E4.09247
G1 X127.304 Y160.155 E4.10355
G1 X127.3 Y159.858 E4.11343
G1 X127.301 Y143.35 E4.66249
G1 X127.311 Y142.648 E4.68584
G1 X127.364 Y141.712 E4.71702
G1 X127.497 Y140.784 E4.7482
G1 X127.709 Y139.87 E4.77941
G1 X127.997 Y138.977 E4.81062
G1 X128.361 Y138.113 E4.8418
G1 X128.797 Y137.282 E4.87301
G1 X129.302 Y136.492 E4.9042
G1 X129.872 Y135.748 E4.93537
G1 X130.245 Y135.324 E4.95415
G1 X130.386 Y135.172 E4.96105
G1 X130.588 Y134.96 E4.97079
G1 X130.852 Y134.692 E4.9833
G1 X133.171 Y132.374 E5.09236
G0 F6000 X133.321 Y132.787
G1 F1200 X133.936 Y132.191 E5.12084
G1 X134.625 Y131.58 E5.15147
G1 X135.364 Y131.031 E5.18209
G1 X136.148 Y130.549 E5.2127
G1 X136.971 Y130.136 E5.24333
G1 X137.827 Y129.797 E5.27395
G1 X138.709 Y129.533 E5.30457
G1 X139.611 Y129.346 E5.33521
G1 X140.947 Y129.216 E5.37985
G1 X141.323 Y129.206 E5.39236
G1 X141.862 Y129.2 E5.41029
G1 X157.993 Y129.2 E5.94681
G1 X158.846 Y129.211 E5.97518
G1 X159.765 Y129.264 E6.0058
G1 X160.676 Y129.397 E6.03642
G1 X161.572 Y129.608 E6.06704
G1 X162.447 Y129.896 E6.09768
G1 X163.293 Y130.259 E6.1283
G1 X164.104 Y130.694 E6.1589
G1 X164.875 Y131.198 E6.18954
G1 X165.904 Y132.039 E6.23374
G1 X166.056 Y132.18 E6.24064
G1 X166.249 Y132.364 E6.24951
G1 X166.505 Y132.614 E6.26141
G1 X168.826 Y134.936 E6.3706
G1 X169.284 Y135.408 E6.39248
G1 X169.896 Y136.096 E6.42311
G1 X170.446 Y136.835 E6.45375
G1 X170.93 Y137.618 E6.48436
G1 X171.344 Y138.44 E6.51497
G1 X171.684 Y139.296 E6.54561
G1 X171.95 Y140.177 E6.57622
G1 X172.138 Y141.078 E6.60683
G1 X172.213 Y141.627 E6.62526
G1 X172.231 Y141.79 E6.63071
G1 X172.294 Y142.823 E6.66513
G1 X172.3 Y143.362 E6.68306
G1 X172.299 Y159.61 E7.22347
G1 X172.289 Y160.337 E7.24766
G1 X172.236 Y161.256 E7.27827
G1 X172.104 Y162.167 E7.30889
G1 X171.893 Y163.063 E7.33951
G1 X171.606 Y163.938 E7.37013
G1 X171.243 Y164.784 E7.40075
G1 X170.809 Y165.596 E7.43138
G1 X170.305 Y166.367 E7.46201
G1 X169.737 Y167.091 E7.49262
G1 X169.108 Y167.763 E7.52323
G1 X168.423 Y168.378 E7.55385
G1 X167.687 Y168.931 E7.58447
G1 X166.906 Y169.419 E7.6151
G1 X166.086 Y169.837 E7.64571
G1 X165.232 Y170.182 E7.67635
G1 X164.352 Y170.451 E7.70695
G1 X163.451 Y170.644 E7.7376
G1 X162.538 Y170.757 E7.7682
G1 X161.988 Y170.787 E7.78652
G1 X161.668 Y170.796 E7.79717
G1 X161.37 Y170.8 E7.80708
G1 X138.87 Y170.799 E8.55543
G1 X138.172 Y170.79 E8.57865
G1 X137.253 Y170.738 E8.60926
G1 X136.342 Y170.607 E8.63988
G1 X135.446 Y170.397 E8.67048
G1 X134.571 Y170.11 E8.70111
G1 X133.724 Y169.748 E8.73175
G1 X132.912 Y169.314 E8.76237
G1 X132.141 Y168.812 E8.79297
G1 X131.416 Y168.244 E8.8236
G1 X130.743 Y167.615 E8.85424
G1 X130.128 Y166.931 E8.88484
G1 X129.574 Y166.196 E8.91545
G1 X129.086 Y165.415 E8.94608
G1 X128.667 Y164.595 E8.97671
G1 X128.321 Y163.742 E9.00732
G1 X128.051 Y162.862 E9.03794
G1 X127.858 Y161.961 E9.06859
G1 X127.744 Y161.048 E9.09919
G1 X127.713 Y160.477 E9.11821
G1 X127.704 Y160.144 E9.12929
G1 X127.7 Y159.858 E9.1388
G1 X127.701 Y143.356 E9.68766
G1 X127.711 Y142.654 E9.71101
G1 X127.764 Y141.735 E9.74163
G1 X127.897 Y140.824 E9.77225
G1 X128.108 Y139.928 E9.80286
G1 X128.396 Y139.053 E9.8335
G1 X128.759 Y138.207 E9.86412
G1 X129.194 Y137.396 E9.89473
G1 X129.698 Y136.625 E9.92537
G1 X130.539 Y135.596 E9.96957
G1 X130.68 Y135.444 E9.97646
G1 X130.874 Y135.24 E9.98583
G1 X131.135 Y134.974 E9.99822
G1 X133.321 Y132.787 E10.10107
G0 F6000 X133.727 Y132.949
G1 F1200 X134.214 Y132.478 E10.1236
G1 X134.89 Y131.88 E10.15362
G1 X135.617 Y131.343 E10.18368
G1 X136.388 Y130.873 E10.21372
G1 X137.198 Y130.473 E10.24376
G1 X138.04 Y130.147 E10.27379
G1 X138.907 Y129.896 E10.30381
G1 X139.794 Y129.723 E10.33387
G1 X140.961 Y129.616 E10.37285
G1 X141.328 Y129.606 E10.38506
G1 X141.862 Y129.6 E10.40282
G1 X157.993 Y129.6 E10.93934
G1 X158.84 Y129.611 E10.96751
G1 X159.742 Y129.664 E10.99757
G1 X160.635 Y129.796 E11.02759
G1 X161.513 Y130.007 E11.05762
G1 X162.369 Y130.295 E11.08766
G1 X163.197 Y130.657 E11.11772
G1 X163.989 Y131.091 E11.14776
G1 X164.739 Y131.594 E11.17779
G1 X165.632 Y132.332 E11.21632
G1 X165.784 Y132.473 E11.22322
G1 X165.97 Y132.65 E11.23176
G1 X166.222 Y132.897 E11.2435
G1 X168.539 Y135.215 E11.3525
G1 X168.997 Y135.687 E11.37438
G1 X169.597 Y136.362 E11.40442
G1 X170.134 Y137.088 E11.43445
G1 X170.606 Y137.858 E11.46449
G1 X171.007 Y138.667 E11.49452
G1 X171.335 Y139.509 E11.52458
G1 X171.587 Y140.376 E11.55461
G1 X171.815 Y141.67 E11.59831
G1 X171.833 Y141.833 E11.60376
G1 X171.894 Y142.828 E11.63692
G1 X171.9 Y143.362 E11.65468
G1 X171.899 Y159.604 E12.19489
G1 X171.889 Y160.331 E12.21907
G1 X171.837 Y161.233 E12.24913
G1 X171.705 Y162.126 E12.27915
G1 X171.494 Y163.005 E12.30922
G1 X171.207 Y163.861 E12.33924
G1 X170.845 Y164.688 E12.36927
G1 X170.411 Y165.48 E12.39931
G1 X169.909 Y166.231 E12.42935
G1 X169.343 Y166.934 E12.45937
G1 X168.716 Y167.585 E12.48943
G1 X168.035 Y168.177 E12.51944
G1 X167.304 Y168.707 E12.54948
G1 X166.528 Y169.17 E12.57953
G1 X165.715 Y169.563 E12.60956
G1 X164.87 Y169.883 E12.63962
G1 X164.001 Y170.126 E12.66963
G1 X163.113 Y170.291 E12.69967
G1 X161.977 Y170.387 E12.73759
G1 X161.657 Y170.396 E12.74824
G1 X161.37 Y170.4 E12.75778
G1 X138.875 Y170.399 E13.50597
G1 X138.177 Y170.39 E13.52919
G1 X137.276 Y170.339 E13.5592
G1 X136.382 Y170.207 E13.58926
G1 X135.504 Y169.998 E13.61928
G1 X134.647 Y169.711 E13.64934
G1 X133.82 Y169.35 E13.67935
G1 X133.027 Y168.917 E13.7094
G1 X132.276 Y168.416 E13.73943
G1 X131.572 Y167.85 E13.76947
G1 X130.921 Y167.224 E13.79951
G1 X130.328 Y166.543 E13.82954
G1 X129.798 Y165.812 E13.85957
G1 X129.334 Y165.037 E13.88962
G1 X128.94 Y164.224 E13.91967
G1 X128.62 Y163.38 E13.94969
G1 X128.376 Y162.51 E13.97974
G1 X128.21 Y161.622 E14.00979
G1 X128.113 Y160.467 E14.04834
G1 X128.104 Y160.134 E14.05942
G1 X128.1 Y159.858 E14.0686
G1 X128.101 Y143.362 E14.61726
G1 X128.111 Y142.66 E14.64061
G1 X128.164 Y141.758 E14.67066
G1 X128.296 Y140.865 E14.70069
G1 X128.507 Y139.987 E14.73072
G1 X128.795 Y139.131 E14.76076
G1 X129.157 Y138.303 E14.79081
G1 X129.591 Y137.511 E14.82085
G1 X130.094 Y136.761 E14.85089
G1 X130.832 Y135.868 E14.88942
G1 X130.973 Y135.716 E14.89631
G1 X131.16 Y135.52 E14.90532
G1 X131.418 Y135.257 E14.91758
G1 X133.727 Y132.949 E15.02616
G1 F2700 E10.02616
;MESH:130??????1V1?????????.STL
G0 F6000 X140.706 Y139.454
G0 X141.471 Y140.218
G0 X147.218 Y140.582
G0 X147.4 Y142.8
;TYPE:WALL-INNER
G1 F2700 E15.02616
G1 F1200 X152.6 Y142.8 E15.19912
G1 X152.6 Y140.6 E15.27229
G1 X147.4 Y140.6 E15.44524
G1 X147.4 Y142.8 E15.51841
G0 F6000 X147.8 Y142.4
;TYPE:WALL-OUTER
G1 F1200 X152.2 Y142.4 E15.66476
G1 X152.2 Y141 E15.71132
G1 X147.8 Y141 E15.85767
G1 X147.8 Y142.4 E15.90423
G1 F2700 E10.90423
G0 F6000 X147.5 Y142.4
G0 X152.782 Y142.982
G0 X152.782 Y140.582
G0 X158.381 Y140.574
G0 X160.926 Y143.119
G0 X161.1 Y159.6
;TYPE:WALL-INNER
G1 F2700 E15.90423
G1 F1200 X138.9 Y159.6 E16.64261
G1 X138.9 Y143.048 E17.19313
G1 X141.548 Y140.4 E17.31768
G1 X147.4 Y140.4 E17.51232
G1 X152.6 Y140.4 E17.59901
G1 X158.452 Y140.4 E17.79365
G1 X161.1 Y143.048 E17.91821
G1 X161.1 Y159.6 E18.46873
G0 F6000 X161.5 Y160
;TYPE:WALL-OUTER
G1 F1200 X138.5 Y160 E19.23371
G1 X138.5 Y142.882 E19.80306
G1 X141.382 Y140 E19.93862
G1 X158.618 Y140 E20.51189
G1 X161.5 Y142.882 E20.64745
G1 X161.5 Y160 E21.2168
G0 F6000 X161.23 Y159.73
G0 X160.99 Y159.21
G0 X160.71 Y159.21
;TYPE:SKIN
G1 F1200 X139.29 Y159.21 E21.92923
G1 X139.29 Y143.208 E22.46146
G1 X141.708 Y140.79 E22.57519
G1 X147.01 Y140.79 E22.75154
G1 X147.01 Y143.19 E22.83136
G1 X152.99 Y143.19 E23.03026
G1 X152.99 Y140.79 E23.11008
G1 X158.292 Y140.79 E23.28643
G1 X160.71 Y143.208 E23.40016
G1 X160.71 Y159.21 E23.93239
G0 F6000 X160.99 Y159.21
G0 X160.926 Y143.119
G0 X158.381 Y140.574
G0 X157.92 Y140.51
G0 X157.92 Y140.95
G1 F1200 X160.549 Y143.578 E24.05603
G0 F6000 X160.549 Y144.144
G1 F1200 X157.355 Y140.95 E24.20626
G0 F6000 X156.789 Y140.95
G1 F1200 X160.549 Y144.71 E24.38312
G0 F6000 X160.549 Y145.275
G1 F1200 X156.223 Y140.95 E24.58658
G0 F6000 X155.658 Y140.95
G1 F1200 X160.549 Y145.841 E24.81664
G0 F6000 X160.549 Y146.407
G1 F1200 X155.092 Y140.95 E25.07332
G0 F6000 X154.526 Y140.95
G1 F1200 X160.549 Y146.972 E25.3566
G0 F6000 X160.549 Y147.538
G1 F1200 X153.961 Y140.95 E25.66648
G0 F6000 X153.395 Y140.95
G1 F1200 X160.549 Y148.104 E26.00298
G0 F6000 X160.549 Y148.669
G1 F1200 X153.149 Y141.27 E26.35103
G0 F6000 X153.149 Y141.835
G1 F1200 X160.549 Y149.235 E26.6991
G0 F6000 X160.549 Y149.801
G1 F1200 X153.149 Y142.401 E27.04718
G0 F6000 X153.149 Y142.967
G1 F1200 X160.549 Y150.366 E27.39523
G0 F6000 X160.549 Y150.932
G1 F1200 X152.966 Y143.35 E27.75188
G0 F6000 X152.401 Y143.35
G1 F1200 X160.549 Y151.498 E28.13514
G0 F6000 X160.549 Y152.064
G1 F1200 X151.835 Y143.35 E28.54502
G0 F6000 X151.269 Y143.35
G1 F1200 X160.549 Y152.629 E28.9815
G0 F6000 X160.549 Y153.195
G1 F1200 X150.704 Y143.35 E29.44458
G0 F6000 X150.138 Y143.35
G1 F1200 X160.549 Y153.761 E29.93428
G0 F6000 X160.549 Y154.326
G1 F1200 X149.572 Y143.35 E30.45058
G0 F6000 X149.007 Y143.35
G1 F1200 X160.549 Y154.892 E30.99348
G0 F6000 X160.549 Y155.458
G1 F1200 X148.441 Y143.35 E31.563
G0 F6000 X147.875 Y143.35
G1 F1200 X160.549 Y156.023 E32.15913
G0 F6000 X160.549 Y156.589
G1 F1200 X147.31 Y143.35 E32.78185
G0 F6000 X146.849 Y142.889
G1 F1200 X144.91 Y140.95 E32.87305
G0 F6000 X145.475 Y140.95
G1 F1200 X146.849 Y142.323 E32.93766
G0 F6000 X146.849 Y141.757
G1 F1200 X146.041 Y140.95 E32.97564
G0 F6000 X146.607 Y140.95
G1 F1200 X146.849 Y141.192 E32.98702
G0 F6000 X147.29 Y141.192
G0 X147.218 Y140.582
G0 X144.344 Y140.51
G0 X144.344 Y140.95
G1 F1200 X160.549 Y157.155 E33.74926
G0 F6000 X160.549 Y157.72
G1 F1200 X143.778 Y140.95 E34.53809
G0 F6000 X143.213 Y140.95
G1 F1200 X160.549 Y158.286 E35.35352
G0 F6000 X160.549 Y158.852
G1 F1200 X142.647 Y140.95 E36.19558
G0 F6000 X142.081 Y140.95
G1 F1200 X160.18 Y159.049 E37.0469
G0 F6000 X159.615 Y159.049
G1 F1200 X141.644 Y141.078 E37.8922
G0 F6000 X141.361 Y141.361
G1 F1200 X159.049 Y159.049 E38.72419
G0 F6000 X158.483 Y159.049
G1 F1200 X141.078 Y141.644 E39.54287
G0 F6000 X140.795 Y141.926
G1 F1200 X157.918 Y159.049 E40.34828
G0 F6000 X157.352 Y159.049
G1 F1200 X140.512 Y142.209 E41.14038
G0 F6000 X140.229 Y142.492
G1 F1200 X156.786 Y159.049 E41.91917
G0 F6000 X156.221 Y159.049
G1 F1200 X139.947 Y142.775 E42.68465
G0 F6000 X139.664 Y143.058
G1 F1200 X155.655 Y159.049 E43.43682
G0 F6000 X155.089 Y159.049
G1 F1200 X139.449 Y143.409 E44.17248
G0 F6000 X139.449 Y143.975
G1 F1200 X154.524 Y159.049 E44.88154
G0 F6000 X153.958 Y159.049
G1 F1200 X139.449 Y144.541 E45.56397
G0 F6000 X139.449 Y145.106
G1 F1200 X153.392 Y159.049 E46.21981
G0 F6000 X152.826 Y159.049
G1 F1200 X139.449 Y145.672 E46.84902
G0 F6000 X139.449 Y146.238
G1 F1200 X152.261 Y159.049 E47.45163
G0 F6000 X151.695 Y159.049
G1 F1200 X139.449 Y146.803 E48.02765
G0 F6000 X139.449 Y147.369
G1 F1200 X151.129 Y159.049 E48.57704
G0 F6000 X150.564 Y159.049
G1 F1200 X139.449 Y147.935 E49.09983
G0 F6000 X139.449 Y148.5
G1 F1200 X149.998 Y159.049 E49.59602
G0 F6000 X149.432 Y159.049
G1 F1200 X139.449 Y149.066 E50.06559
G0 F6000 X139.449 Y149.632
G1 F1200 X148.867 Y159.049 E50.50856
G0 F6000 X148.301 Y159.049
G1 F1200 X139.449 Y150.197 E50.92494
G0 F6000 X139.449 Y150.763
G1 F1200 X147.735 Y159.049 E51.31468
G0 F6000 X147.17 Y159.049
G1 F1200 X139.449 Y151.329 E51.67783
G0 F6000 X139.449 Y151.895
G1 F1200 X146.604 Y159.049 E52.01436
G0 F6000 X146.038 Y159.049
G1 F1200 X139.449 Y152.46 E52.32428
G0 F6000 X139.449 Y153.026
G1 F1200 X145.473 Y159.049 E52.60761
G0 F6000 X144.907 Y159.049
G1 F1200 X139.449 Y153.592 E52.86432
G0 F6000 X139.449 Y154.157
G1 F1200 X144.341 Y159.049 E53.09442
G0 F6000 X143.776 Y159.049
G1 F1200 X139.449 Y154.723 E53.29793
G0 F6000 X139.449 Y155.289
G1 F1200 X143.21 Y159.049 E53.47481
G0 F6000 X142.644 Y159.049
G1 F1200 X139.449 Y155.854 E53.62509
G0 F6000 X139.449 Y156.42
G1 F1200 X142.078 Y159.049 E53.74875
G0 F6000 X141.513 Y159.049
G1 F1200 X139.449 Y156.986 E53.84581
G0 F6000 X139.449 Y157.551
G1 F1200 X140.947 Y159.049 E53.91627
G0 F6000 X140.381 Y159.049
G1 F1200 X139.449 Y158.117 E53.96011
G0 F6000 X139.449 Y158.683
G1 F1200 X139.816 Y159.049 E53.97735
G0 F6000 X139.816 Y159.4
G1 F2700 E48.97735
;MESH:NONMESH
G0 F300 X139.816 Y159.4 Z0.4
G0 F6000 X139.816 Y159.49
G0 X139.082 Y159.418
G0 X139.074 Y143.119
G0 X141.619 Y140.574
G0 X147.218 Y140.582
G0 X147.4 Y142.8
;TIME_ELAPSED:95.275699
;LAYER:1
M106 S85
;TYPE:WALL-INNER
;MESH:130??????1V1?????????.STL
G1 F2700 E53.97735
G1 F1350 X152.6 Y142.8 E54.1503
G1 X152.6 Y140.6 E54.22348
G1 X147.4 Y140.6 E54.39643
G1 X147.4 Y142.8 E54.4696
G0 F6600 X147.8 Y142.4
;TYPE:WALL-OUTER
G1 F1350 X152.2 Y142.4 E54.61595
G1 X152.2 Y141 E54.66251
G1 X147.8 Y141 E54.80885
G1 X147.8 Y142.4 E54.85542
G1 F2700 E49.85542
G0 F6600 X147.5 Y142.4
G0 X152.782 Y142.982
G0 X152.782 Y140.582
G0 X158.381 Y140.574
G0 X160.926 Y143.119
G0 X161.1 Y159.6
;TYPE:WALL-INNER
