; HEADER_BLOCK_START
; generated by OrcaSlicer 2.1.1 on 2024-12-08 at 19:23:13
; total layer number: 135
; filament_density: 1.27
; filament_diameter: 1.75
; max_z_height: 10.92
; HEADER_BLOCK_END

; THUMBNAIL_BLOCK_START

;
; THUMBNAIL_BLOCK_END







; external perimeters extrusion width = 0.40mm
; perimeters extrusion width = 0.45mm
; infill extrusion width = 0.45mm
; solid infill extrusion width = 0.45mm
; top infill extrusion width = 0.38mm
; first layer extrusion width = 0.42mm

; EXECUTABLE_BLOCK_START
EXCLUDE_OBJECT_DEFINE NAME=大臂支撑轴.STL_id_0_copy_0 CENTER=117.5,115 POLYGON=[[113.008,114.19],[113.068,113.674],[113.189,113.168],[113.368,112.679],[113.603,112.214],[113.89,111.78],[114.227,111.381],[114.607,111.024],[115.027,110.714],[115.48,110.454],[115.961,110.247],[116.462,110.098],[116.978,110.008],[117.5,109.978],[118.022,110.008],[118.538,110.098],[119.039,110.247],[119.52,110.454],[119.973,110.714],[120.393,111.024],[120.773,111.381],[121.11,111.78],[121.397,112.214],[121.632,112.679],[121.811,113.168],[121.932,113.674],[121.992,114.19],[121.992,115.81],[121.932,116.326],[121.811,116.832],[121.632,117.321],[121.397,117.786],[121.11,118.22],[120.773,118.619],[120.393,118.976],[119.973,119.286],[119.52,119.546],[119.039,119.753],[118.538,119.902],[118.022,119.992],[117.5,120.022],[116.978,119.992],[116.462,119.902],[115.961,119.753],[115.48,119.546],[115.027,119.286],[114.607,118.976],[114.227,118.619],[113.89,118.22],[113.603,117.786],[113.368,117.321],[113.189,116.832],[113.068,116.326],[113.008,115.81],[113.008,114.19]]
M73 P0 R17
;TYPE:Custom
;ELEGOO NEPTUNE 4 PRO
M220 S100 ;Set the feed speed to 100%
M221 S100 ;Set the flow rate to 100%
M104 S140
M190 S70
G90
G28 ;home
G1 Z10 F300
G1 X67.5 Y0 F6000
G1 Z0 F300
M109 S240
G92 E0 ;Reset Extruder
G1 X67.5 Y0 Z0.4 F300 ;Move to start position
G1 X167.5 E30 F400 ;Draw the first line
G1 Z0.6 F120.0 ;Move to side a little
M73 P1 R17
G1 X162.5 F3000
G92 E0 ;Reset Extruder
G90
G21
M83 ; use relative distances for extrusion
; filament start gcode
M106 S0
;LAYER_CHANGE
;Z:0.2
;HEIGHT:0.2
;BEFORE_LAYER_CHANGE
G92 E0
;0.2


G1 E-.8 F3600
;AFTER_LAYER_CHANGE
;0.2
;_SET_FAN_SPEED_CHANGING_LAYER
SET_VELOCITY_LIMIT ACCEL=1000 ACCEL_TO_DECEL=500
SET_VELOCITY_LIMIT SQUARE_CORNER_VELOCITY=7
; printing object 大臂支撑轴.STL id:0 copy 0
EXCLUDE_OBJECT_START NAME=大臂支撑轴.STL_id_0_copy_0
G1 X115.6 Y118.251 F21000
G1 Z.4
G1 Z.2
G1 E.8 F2700
;TYPE:Outer wall
;WIDTH:0.465019
G1 F600
G1 X117.975 Y118.251 E.07919
;WIDTH:0.464596
G1 X119.401 Y118.251 E.04747
G1 X118.964 Y118.44 E.01584
G1 X118.484 Y118.586 E.01672
G1 X117.988 Y118.672 E.01677
;WIDTH:0.465019
G1 X117.017 Y118.673 E.03237
G1 X116.53 Y118.588 E.01648
M73 P2 R17
G1 X116.046 Y118.444 E.01683
G1 X115.637 Y118.267 E.01487
; stop printing object 大臂支撑轴.STL id:0 copy 0
;LAYER_CHANGE
;Z:0.28
;HEIGHT:0.08
;BEFORE_LAYER_CHANGE
G92 E0
;0.28


G1 E-.68 F3600
;WIPE_START
G1 F3000
G1 X116.637 Y118.26 E-.12
;WIPE_END
EXCLUDE_OBJECT_END NAME=大臂支撑轴.STL_id_0_copy_0
;AFTER_LAYER_CHANGE
;0.28
;_SET_FAN_SPEED_CHANGING_LAYER
SET_VELOCITY_LIMIT ACCEL=5000 ACCEL_TO_DECEL=2500
SET_VELOCITY_LIMIT SQUARE_CORNER_VELOCITY=9
M140 S70 ; set bed temperature
; printing object 大臂支撑轴.STL id:0 copy 0
EXCLUDE_OBJECT_START NAME=大臂支撑轴.STL_id_0_copy_0
G1 X116.609 Y118.211 Z.6 F21000
G1 Z.28
G1 E.8 F2700
SET_VELOCITY_LIMIT ACCEL=3000 ACCEL_TO_DECEL=1500 SQUARE_CORNER_VELOCITY=7
;TYPE:Inner wall
;WIDTH:0.449999
G1 F600
G1 X116.192 Y118.111 E.00586
G1 X115.975 Y118.019 E.00322
G1 X115.771 Y117.932 E.00303
G1 X115.576 Y117.819 E.00308
SET_VELOCITY_LIMIT ACCEL=1500 ACCEL_TO_DECEL=750 SQUARE_CORNER_VELOCITY=9
;TYPE:Overhang wall
G1 X115.355 Y117.691 E.0035
G1 X114.932 Y117.361 E.00734
G1 X120.068 Y117.361 E.07024
G1 X119.645 Y117.691 E.00734
G1 X119.426 Y117.819 E.00347
SET_VELOCITY_LIMIT ACCEL=3000 ACCEL_TO_DECEL=1500 SQUARE_CORNER_VELOCITY=7
;TYPE:Inner wall
G1 X119.26 Y117.916 E.00263
G1 X119.026 Y118.019 E.0035
G1 X118.85 Y118.096 E.00263
M106 S0
G1 X118.371 Y118.24 E.00684
G1 X117.529 Y118.339 E.01159
G1 X117.021 Y118.31 E.00696
G1 X116.648 Y118.221 E.00524
SET_VELOCITY_LIMIT ACCEL=5000 ACCEL_TO_DECEL=2500 SQUARE_CORNER_VELOCITY=9
G1 X116.509 Y118.633 F21000
SET_VELOCITY_LIMIT ACCEL=3000 ACCEL_TO_DECEL=1500 SQUARE_CORNER_VELOCITY=7
;TYPE:Outer wall
;WIDTH:0.399999
G1 F600
G1 X116.03 Y118.489 E.00605
G1 X115.571 Y118.289 E.00606
G1 X115.138 Y118.038 E.00605
G1 X115.112 Y118.019 E.00039
G1 X114.845 Y117.819 E.00404
SET_VELOCITY_LIMIT ACCEL=1500 ACCEL_TO_DECEL=750 SQUARE_CORNER_VELOCITY=9
;TYPE:Overhang wall
G1 X114.737 Y117.737 E.00164
G1 X114.363 Y117.381 E.00625
G1 X114.016 Y116.953 E.00666
G1 X120.984 Y116.953 E.08428
G1 X120.637 Y117.381 E.00666
G1 X120.282 Y117.72 E.00594
G1 X120.151 Y117.819 E.00199
SET_VELOCITY_LIMIT ACCEL=3000 ACCEL_TO_DECEL=1500 SQUARE_CORNER_VELOCITY=7
;TYPE:Outer wall
G1 X119.89 Y118.017 E.00396
G1 X119.887 Y118.019 E.00004
M106 S0
G1 X119.465 Y118.269 E.00593
G1 X119.013 Y118.47 E.00598
G1 X118.539 Y118.618 E.00601
G1 X118.05 Y118.711 E.00602
G1 X117.553 Y118.746 E.00603
G1 X117.053 Y118.723 E.00605
G1 X116.548 Y118.639 E.00619
SET_VELOCITY_LIMIT ACCEL=5000 ACCEL_TO_DECEL=2500 SQUARE_CORNER_VELOCITY=9
G1 E-.68 F3600
;WIPE_START
G1 F7200
G1 X116.03 Y118.489 E-.06478
G1 X115.608 Y118.305 E-.05522
;WIPE_END
G1 X117.895 Y117.839 Z.68 F21000
G1 Z.28
G1 E.8 F2700
SET_VELOCITY_LIMIT ACCEL=3000 ACCEL_TO_DECEL=1500 SQUARE_CORNER_VELOCITY=7
;TYPE:Inner wall
;WIDTH:0.540734
G1 F600
G1 X117.105 Y117.839 E.01307
; stop printing object 大臂支撑轴.STL id:0 copy 0
;LAYER_CHANGE
;Z:0.36
;HEIGHT:0.08
;BEFORE_LAYER_CHANGE
G92 E0
;0.36


G1 E-.68 F3600
;WIPE_START
G1 F968.807
G1 X117.895 Y117.839 E-.12
;WIPE_END
EXCLUDE_OBJECT_END NAME=大臂支撑轴.STL_id_0_copy_0
;AFTER_LAYER_CHANGE
;0.36
;_SET_FAN_SPEED_CHANGING_LAYER
; printing object 大臂支撑轴.STL id:0 copy 0
SET_VELOCITY_LIMIT ACCEL=5000 ACCEL_TO_DECEL=2500 SQUARE_CORNER_VELOCITY=9
EXCLUDE_OBJECT_START NAME=大臂支撑轴.STL_id_0_copy_0
G1 X117.819 Y117.822 Z.68 F21000
G1 Z.36
G1 E.8 F2700
SET_VELOCITY_LIMIT ACCEL=3000 ACCEL_TO_DECEL=1500 SQUARE_CORNER_VELOCITY=7
;WIDTH:0.575305
G1 F600
M106 S0
G1 X117.597 Y117.848 E.00394
;WIDTH:0.582036
G1 X117.091 Y117.824 E.00904
G1 X116.508 Y117.699 E.01064
;WIDTH:0.575306
G1 X115.981 Y117.49 E.01
G1 X115.424 Y117.132 E.01167
G1 X116.432 Y117.132 E.01778
;WIDTH:0.57582
G1 X116.917 Y117.229 E.00872
G1 X117.564 Y117.293 E.01148
;WIDTH:0.575214
G1 X118.083 Y117.229 E.00922
G1 X118.427 Y117.132 E.00629
G1 X119.576 Y117.132 E.02027
;WIDTH:0.575305
G1 X119.359 Y117.295 E.00479
G1 X118.659 Y117.648 E.01382
G1 X118.168 Y117.78 E.00896
G1 X117.858 Y117.817 E.00551
SET_VELOCITY_LIMIT ACCEL=5000 ACCEL_TO_DECEL=2500 SQUARE_CORNER_VELOCITY=9
G1 X117.903 Y118.326 F21000
SET_VELOCITY_LIMIT ACCEL=3000 ACCEL_TO_DECEL=1500 SQUARE_CORNER_VELOCITY=7
;WIDTH:0.449999
G1 F600
G1 X117.279 Y118.337 E.00854
G1 X116.648 Y118.252 E.00871
G1 X116.129 Y118.096 E.00741
G1 X115.393 Y117.723 E.01128
G1 X115.021 Y117.45 E.00631
G1 X114.66 Y117.109 E.00679
G1 X114.382 Y116.753 E.00618
G1 X114.291 Y116.637 E.00202
G1 X116.524 Y116.637 E.03054
G1 X116.98 Y116.738 E.00639
G1 X117.106 Y116.753 E.00174
G1 X117.5 Y116.8 E.00543
G1 X117.894 Y116.753 E.00543
G1 X118.02 Y116.738 E.00174
G1 X118.339 Y116.637 E.00458
G1 X120.709 Y116.637 E.03241
G1 X120.617 Y116.753 E.00202
M106 S0
G1 X120.317 Y117.133 E.00662
G1 X119.664 Y117.686 E.0117
G1 X119.208 Y117.95 E.00721
G1 X118.411 Y118.24 E.0116
G1 X117.943 Y118.319 E.00649
SET_VELOCITY_LIMIT ACCEL=5000 ACCEL_TO_DECEL=2500 SQUARE_CORNER_VELOCITY=9
G1 X117.927 Y118.733 F21000
SET_VELOCITY_LIMIT ACCEL=3000 ACCEL_TO_DECEL=1500 SQUARE_CORNER_VELOCITY=7
;TYPE:Outer wall
;WIDTH:0.399999
G1 F600
G1 X117.255 Y118.744 E.00813
G1 X116.675 Y118.671 E.00707
G1 X116.183 Y118.544 E.00615
G1 X115.641 Y118.329 E.00705
G1 X115.189 Y118.076 E.00627
G1 X114.777 Y117.776 E.00616
G1 X114.402 Y117.429 E.00618
G1 X114.07 Y117.038 E.0062
G1 X113.886 Y116.753 E.0041
G1 X113.757 Y116.553 E.00288
SET_VELOCITY_LIMIT ACCEL=1500 ACCEL_TO_DECEL=750 SQUARE_CORNER_VELOCITY=9
;TYPE:Overhang wall
G1 X113.594 Y116.229 E.00438
G1 X116.733 Y116.229 E.03797
G1 X116.928 Y116.3 E.00252
G1 X117.476 Y116.39 E.00671
G1 X117.968 Y116.333 E.00599
G1 X118.267 Y116.229 E.00384
G1 X121.391 Y116.229 E.03779
G1 X121.242 Y116.553 E.00431
SET_VELOCITY_LIMIT ACCEL=3000 ACCEL_TO_DECEL=1500 SQUARE_CORNER_VELOCITY=7
;TYPE:Outer wall
G1 X121.229 Y116.581 E.00037
G1 X121.118 Y116.753 E.00248
M106 S0
G1 X120.949 Y117.016 E.00378
G1 X120.627 Y117.401 E.00607
G1 X120.263 Y117.746 E.00607
G1 X119.862 Y118.047 E.00607
G1 X119.429 Y118.298 E.00605
G1 X118.97 Y118.497 E.00605
G1 X118.44 Y118.649 E.00667
G1 X117.967 Y118.727 E.0058
; stop printing object 大臂支撑轴.STL id:0 copy 0
M106 S127
;LAYER_CHANGE
;Z:0.44
;HEIGHT:0.08
;BEFORE_LAYER_CHANGE
G92 E0
;0.44


G1 E-.68 F3600
;WIPE_START
G1 F7200
G1 X117.255 Y118.744 E-.08537
G1 X116.969 Y118.708 E-.03463
;WIPE_END
EXCLUDE_OBJECT_END NAME=大臂支撑轴.STL_id_0_copy_0
;AFTER_LAYER_CHANGE
;0.44
;_SET_FAN_SPEED_CHANGING_LAYER
; printing object 大臂支撑轴.STL id:0 copy 0
SET_VELOCITY_LIMIT ACCEL=5000 ACCEL_TO_DECEL=2500 SQUARE_CORNER_VELOCITY=9
EXCLUDE_OBJECT_START NAME=大臂支撑轴.STL_id_0_copy_0
G1 X116.795 Y117.192 Z.76 F21000
G1 Z.44
G1 E.8 F2700
SET_VELOCITY_LIMIT ACCEL=3000 ACCEL_TO_DECEL=1500 SQUARE_CORNER_VELOCITY=7
;TYPE:Inner wall
;WIDTH:0.577177
G1 F600
G1 X117.165 Y117.282 E.00674
;WIDTH:0.575759
G1 X117.649 Y117.297 E.00855
;WIDTH:0.575255
G1 X118.161 Y117.225 E.00912
G1 X118.663 Y117.053 E.00936
;WIDTH:0.570904
G1 X119.174 Y116.754 E.01035
G1 X119.562 Y116.406 E.00912
;WIDTH:0.568811
G1 X120.278 Y116.406 E.01248
G1 X120.222 Y116.49 E.00177
;WIDTH:0.570562
G1 X119.771 Y116.981 E.01165
;WIDTH:0.572629
G1 X119.296 Y117.341 E.01046
G1 X118.795 Y117.598 E.00988
;WIDTH:0.57505
G1 X118.225 Y117.78 E.01054
G1 X117.665 Y117.853 E.00995
;WIDTH:0.575759
G1 X117.068 Y117.832 E.01054
G1 X116.519 Y117.71 E.00994
;WIDTH:0.574751
G1 X115.963 Y117.49 E.01053
G1 X115.486 Y117.19 E.00993
;WIDTH:0.570905
G1 X115.04 Y116.802 E.01034
;WIDTH:0.568812
G1 X114.723 Y116.406 E.00885
G1 X115.438 Y116.406 E.01247
G1 X115.532 Y116.509 E.00243
;WIDTH:0.572631
G1 X115.979 Y116.859 E.00998
;WIDTH:0.577177
G1 X116.529 Y117.127 E.01082
G1 X116.756 Y117.183 E.00414
SET_VELOCITY_LIMIT ACCEL=5000 ACCEL_TO_DECEL=2500 SQUARE_CORNER_VELOCITY=9
G1 X117.151 Y116.764 F21000
SET_VELOCITY_LIMIT ACCEL=3000 ACCEL_TO_DECEL=1500 SQUARE_CORNER_VELOCITY=7
;WIDTH:0.449999
G1 F600
G1 X117.5 Y116.802 E.0048
G1 X118.048 Y116.742 E.00754
G1 X118.53 Y116.568 E.00701
G1 X119.012 Y116.25 E.0079
M106 S229
G1 X119.214 Y116.029 E.00409
G1 X119.32 Y115.913 E.00215
G1 X121.101 Y115.913 E.02436
G1 X121.045 Y116.029 E.00176
M106 S127
G1 X120.859 Y116.417 E.00588
G1 X120.356 Y117.098 E.01158
G1 X119.964 Y117.47 E.00739
G1 X119.544 Y117.769 E.00705
G1 X119.084 Y118.011 E.00711
G1 X118.561 Y118.204 E.00762
G1 X118.018 Y118.32 E.00759
G1 X117.5 Y118.359 E.0071
G1 X116.982 Y118.32 E.0071
G1 X116.214 Y118.136 E.0108
G1 X115.714 Y117.919 E.00745
G1 X115.19 Y117.585 E.0085
G1 X114.785 Y117.239 E.00728
G1 X114.406 Y116.813 E.0078
G1 X114.122 Y116.383 E.00705
M106 S229
G1 X113.954 Y116.029 E.00536
G1 X113.899 Y115.913 E.00176
G1 X115.68 Y115.913 E.02436
G1 X115.786 Y116.029 E.00215
M106 S127
G1 X115.988 Y116.25 E.00409
G1 X116.483 Y116.575 E.0081
G1 X116.955 Y116.743 E.00685
G1 X117.112 Y116.76 E.00216
SET_VELOCITY_LIMIT ACCEL=5000 ACCEL_TO_DECEL=2500 SQUARE_CORNER_VELOCITY=9
G1 X117.199 Y116.359 F21000
SET_VELOCITY_LIMIT ACCEL=3000 ACCEL_TO_DECEL=1500 SQUARE_CORNER_VELOCITY=7
;TYPE:Outer wall
;WIDTH:0.399999
G1 F600
G1 X117.5 Y116.394 E.00367
G1 X117.976 Y116.341 E.00579
G1 X118.33 Y116.213 E.00455
M106 S229
M73 P3 R17
G1 X118.609 Y116.029 E.00404
G1 X118.755 Y115.933 E.00211
G1 X118.843 Y115.829 E.00165
SET_VELOCITY_LIMIT ACCEL=1500 ACCEL_TO_DECEL=750 SQUARE_CORNER_VELOCITY=9
;TYPE:Overhang wall
G1 X119.118 Y115.506 E.00513
G1 X121.66 Y115.506 E.03076
G1 X121.619 Y115.679 E.00215
G1 X121.565 Y115.829 E.00193
SET_VELOCITY_LIMIT ACCEL=3000 ACCEL_TO_DECEL=1500 SQUARE_CORNER_VELOCITY=7
;TYPE:Outer wall
G1 X121.493 Y116.029 E.00257
M106 S127
G1 X121.448 Y116.154 E.00161
G1 X121.223 Y116.604 E.00609
G1 X120.949 Y117.024 E.00607
G1 X120.627 Y117.41 E.00608
G1 X120.263 Y117.755 E.00607
G1 X119.862 Y118.056 E.00607
G1 X119.371 Y118.33 E.0068
G1 X118.901 Y118.527 E.00616
G1 X118.383 Y118.67 E.0065
G1 X117.718 Y118.754 E.00811
G1 X117.202 Y118.75 E.00624
G1 X116.594 Y118.666 E.00742
G1 X116.098 Y118.527 E.00623
G1 X115.634 Y118.335 E.00607
G1 X115.197 Y118.09 E.00606
G1 X114.792 Y117.796 E.00605
G1 X114.421 Y117.455 E.0061
G1 X114.058 Y117.032 E.00674
G1 X113.777 Y116.604 E.00619
M106 S229
G1 X113.543 Y116.129 E.00641
G1 X113.51 Y116.029 E.00127
G1 X113.445 Y115.829 E.00254
SET_VELOCITY_LIMIT ACCEL=1500 ACCEL_TO_DECEL=750 SQUARE_CORNER_VELOCITY=9
;TYPE:Overhang wall
G1 X113.34 Y115.506 E.00412
G1 X115.882 Y115.506 E.03076
G1 X116.157 Y115.829 E.00513
SET_VELOCITY_LIMIT ACCEL=3000 ACCEL_TO_DECEL=1500 SQUARE_CORNER_VELOCITY=7
;TYPE:Outer wall
G1 X116.245 Y115.933 E.00165
G1 X116.392 Y116.029 E.00212
M106 S127
G1 X116.682 Y116.219 E.00419
G1 X117.002 Y116.336 E.00412
G1 X117.159 Y116.354 E.00191
; stop printing object 大臂支撑轴.STL id:0 copy 0
;LAYER_CHANGE
;Z:0.52
;HEIGHT:0.08
;BEFORE_LAYER_CHANGE
G92 E0
;0.52


G1 E-.68 F3600
;WIPE_START
G1 F7200
G1 X117.5 Y116.394 E-.04121
G1 X117.976 Y116.341 E-.05744
G1 X118.143 Y116.28 E-.02135
;WIPE_END
EXCLUDE_OBJECT_END NAME=大臂支撑轴.STL_id_0_copy_0
;AFTER_LAYER_CHANGE
;0.52
;_SET_FAN_SPEED_CHANGING_LAYER
; printing object 大臂支撑轴.STL id:0 copy 0
SET_VELOCITY_LIMIT ACCEL=5000 ACCEL_TO_DECEL=2500 SQUARE_CORNER_VELOCITY=9
EXCLUDE_OBJECT_START NAME=大臂支撑轴.STL_id_0_copy_0
G1 X116.737 Y117.192 Z.84 F21000
G1 Z.52
G1 E.8 F2700
SET_VELOCITY_LIMIT ACCEL=3000 ACCEL_TO_DECEL=1500 SQUARE_CORNER_VELOCITY=7
;TYPE:Inner wall
;WIDTH:0.575818
G1 F600
G1 X116.917 Y117.247 E.00333
G1 X117.564 Y117.31 E.01147
G1 X118.083 Y117.247 E.00923
;WIDTH:0.577277
G1 X118.468 Y117.137 E.00709
G1 X119.021 Y116.868 E.01087
;WIDTH:0.57263
G1 X119.406 Y116.574 E.0085
;WIDTH:0.570563
G1 X119.781 Y116.164 E.00972
;WIDTH:0.569801
G1 X120.068 Y115.682 E.00979
;WIDTH:0.568238
G1 X120.665 Y115.682 E.0104
G1 X120.617 Y115.813 E.00243
G1 X120.288 Y116.399 E.01171
;WIDTH:0.571472
G1 X119.939 Y116.829 E.0097
G1 X119.471 Y117.232 E.01081
;WIDTH:0.574767
G1 X119.006 Y117.515 E.00959
G1 X118.419 Y117.739 E.01109
;WIDTH:0.582035
G1 X117.876 Y117.846 E.00986
G1 X117.308 Y117.86 E.01015
;WIDTH:0.575596
G1 X116.703 Y117.775 E.01078
;WIDTH:0.575254
G1 X116.12 Y117.572 E.01088
;WIDTH:0.572749
G1 X115.634 Y117.309 E.00969
G1 X115.229 Y116.99 E.00906
;WIDTH:0.570564
G1 X114.844 Y116.578 E.00985
;WIDTH:0.571422
G1 X114.559 Y116.159 E.0089
G1 X114.335 Y115.682 E.00923
;WIDTH:0.567734
G1 X114.932 Y115.682 E.0104
;WIDTH:0.567939
G1 X115.173 Y116.098 E.00837
;WIDTH:0.568529
G1 X115.532 Y116.518 E.00962
;WIDTH:0.572749
G1 X115.935 Y116.841 E.00907
G1 X116.409 Y117.091 E.00942
;WIDTH:0.575818
G1 X116.699 Y117.18 E.00534
SET_VELOCITY_LIMIT ACCEL=5000 ACCEL_TO_DECEL=2500 SQUARE_CORNER_VELOCITY=9
G1 X117.142 Y116.775 F21000
SET_VELOCITY_LIMIT ACCEL=3000 ACCEL_TO_DECEL=1500 SQUARE_CORNER_VELOCITY=7
;WIDTH:0.449999
G1 F600
G1 X117.5 Y116.817 E.00493
G1 X118.02 Y116.755 E.00716
G1 X118.302 Y116.669 E.00403
G1 X118.786 Y116.433 E.00736
G1 X119.184 Y116.102 E.00708
G1 X119.542 Y115.623 E.00818
M106 S229
G1 X119.685 Y115.306 E.00476
G1 X119.738 Y115.19 E.00174
G1 X121.318 Y115.19 E.02161
G1 X121.291 Y115.306 E.00163
M106 S127
G1 X121.231 Y115.557 E.00353
G1 X121.057 Y116.032 E.00692
G1 X120.7 Y116.668 E.00997
G1 X120.358 Y117.105 E.00759
G1 X119.964 Y117.479 E.00743
G1 X119.544 Y117.777 E.00704
G1 X118.991 Y118.061 E.0085
G1 X118.44 Y118.249 E.00796
G1 X117.906 Y118.344 E.00742
G1 X117.279 Y118.354 E.00858
G1 X116.746 Y118.287 E.00735
G1 X116.214 Y118.145 E.00753
G1 X115.718 Y117.927 E.00741
G1 X115.233 Y117.626 E.00781
G1 X114.813 Y117.275 E.00749
G1 X114.446 Y116.869 E.00748
G1 X114.137 Y116.419 E.00747
