; HEADER_BLOCK_START
; generated by OrcaSlicer 2.1.1 on 2024-12-07 at 18:08:57
; total layer number: 299
; filament_density: 1.27
; filament_diameter: 1.75
; max_z_height: 24.04
; HEADER_BLOCK_END

; THUMBNAIL_BLOCK_START

;
; THUMBNAIL_BLOCK_END







; external perimeters extrusion width = 0.40mm
; perimeters extrusion width = 0.45mm
; infill extrusion width = 0.45mm
; solid infill extrusion width = 0.45mm
; top infill extrusion width = 0.38mm
; first layer extrusion width = 0.42mm

; EXECUTABLE_BLOCK_START
EXCLUDE_OBJECT_DEFINE NAME=大臂壳连杆.STL_id_0_copy_0 CENTER=117.5,115 POLYGON=[[115.002,114.894],[115.056,114.473],[115.18,114.068],[115.371,113.689],[115.623,113.348],[115.929,113.055],[116.281,112.817],[116.667,112.643],[117.077,112.536],[117.5,112.5],[117.923,112.536],[118.333,112.643],[118.719,112.817],[119.071,113.055],[119.377,113.348],[119.629,113.689],[119.82,114.068],[119.944,114.473],[119.998,114.894],[119.98,115.318],[119.89,115.732],[119.732,116.126],[119.51,116.487],[119.23,116.805],[118.9,117.071],[118.53,117.278],[118.13,117.419],[117.712,117.491],[117.5,117.5],[117.288,117.491],[116.87,117.419],[116.47,117.278],[116.1,117.071],[115.77,116.805],[115.49,116.487],[115.268,116.126],[115.11,115.732],[115.02,115.318],[115.002,114.894]]
M73 P0 R23
;TYPE:Custom
;ELEGOO NEPTUNE 4 PRO
M220 S100 ;Set the feed speed to 100%
M221 S100 ;Set the flow rate to 100%
M104 S140
M190 S70
G90
G28 ;home
G1 Z10 F300
G1 X67.5 Y0 F6000
G1 Z0 F300
M109 S240
G92 E0 ;Reset Extruder
G1 X67.5 Y0 Z0.4 F300 ;Move to start position
G1 X167.5 E30 F400 ;Draw the first line
G1 Z0.6 F120.0 ;Move to side a little
M73 P1 R23
G1 X162.5 F3000
G92 E0 ;Reset Extruder
G90
G21
M83 ; use relative distances for extrusion
; filament start gcode
M106 S0
;LAYER_CHANGE
;Z:0.2
;HEIGHT:0.2
;BEFORE_LAYER_CHANGE
G92 E0
;0.2


G1 E-.8 F3600
;AFTER_LAYER_CHANGE
;0.2
;_SET_FAN_SPEED_CHANGING_LAYER
SET_VELOCITY_LIMIT ACCEL=1000 ACCEL_TO_DECEL=500
SET_VELOCITY_LIMIT SQUARE_CORNER_VELOCITY=7
; printing object 大臂壳连杆.STL id:0 copy 0
EXCLUDE_OBJECT_START NAME=大臂壳连杆.STL_id_0_copy_0
G1 X119.428 Y113.99 F21000
G1 Z.4
G1 Z.2
G1 E.8 F2700
;TYPE:Outer wall
;WIDTH:0.419999
G1 F600
G1 X119.611 Y114.444 E.01458
G1 X119.678 Y115.122 E.02028
G1 X119.602 Y115.6 E.01441
G1 X119.403 Y116.069 E.01518
G1 X119.08 Y116.506 E.01619
G1 X118.689 Y116.834 E.01521
G1 X118.227 Y117.056 E.01527
G1 X117.727 Y117.174 E.0153
G1 X117.273 Y117.174 E.0135
G1 X116.773 Y117.056 E.0153
G1 X116.311 Y116.834 E.01527
G1 X115.958 Y116.549 E.01352
G1 X115.628 Y116.119 E.01615
G1 X115.423 Y115.68 E.01442
G1 X115.327 Y115.237 E.01352
G1 X115.34 Y114.694 E.01617
G1 X115.457 Y114.224 E.01441
G1 X115.661 Y113.819 E.01352
G1 X116.012 Y113.405 E.01617
G1 X116.398 Y113.113 E.01441
G1 X116.811 Y112.926 E.01352
G1 X117.344 Y112.824 E.01617
G1 X117.826 Y112.839 E.01437
G1 X118.267 Y112.953 E.01357
G1 X118.746 Y113.209 E.01616
G1 X119.113 Y113.525 E.01441
G1 X119.408 Y113.941 E.01521
G1 X119.413 Y113.953 E.00039
G1 E-.68 F3600
;WIPE_START
G1 F3000
G1 X119.611 Y114.444 E-.06356
G1 X119.657 Y114.912 E-.05644
;WIPE_END
G1 X116.385 Y115.426 Z.6 F21000
G1 Z.2
G1 E.8 F2700
G1 F600
G1 X116.298 Y115.122 E.00942
G1 X116.326 Y114.714 E.01216
G1 X116.488 Y114.34 E.01216
G1 X116.766 Y114.04 E.01216
G1 X117.128 Y113.851 E.01216
G1 X117.532 Y113.792 E.01216
G1 X117.932 Y113.872 E.01216
G1 X118.284 Y114.08 E.01216
G1 X118.545 Y114.394 E.01216
G1 X118.687 Y114.777 E.01216
G1 X118.694 Y115.185 E.01216
G1 X118.564 Y115.572 E.01216
G1 X118.313 Y115.894 E.01216
G1 X117.961 Y116.116 E.01239
G1 X117.461 Y116.206 E.01513
G1 X116.973 Y116.087 E.01494
G1 X116.641 Y115.85 E.01216
G1 X116.419 Y115.545 E.01124
G1 X116.396 Y115.464 E.0025
G1 X115.944 Y115.635 F21000
;TYPE:Inner wall
;WIDTH:0.657188
G1 F600
G1 X115.883 Y115.495 E.00741
G1 X115.81 Y115.101 E.01945
;WIDTH:0.642516
G1 X115.855 Y114.587 E.02445
G1 X116.053 Y114.109 E.02449
G1 X116.391 Y113.717 E.02449
G1 X116.829 Y113.446 E.02445
;WIDTH:0.657188
G1 X117.214 Y113.333 E.01945
G1 X117.614 Y113.311 E.01945
;WIDTH:0.642512
G1 X118.119 Y113.421 E.02445
G1 X118.567 Y113.678 E.02449
G1 X118.913 Y114.062 E.02449
G1 X119.127 Y114.532 E.02445
;WIDTH:0.657186
G1 X119.189 Y115.158 E.03053
;WIDTH:0.642514
G1 X119.06 Y115.658 E.02445
;WIDTH:0.657162
G1 X118.86 Y116.006 E.01946
G1 X118.586 Y116.299 E.01944
;WIDTH:0.642512
G1 X118.146 Y116.568 E.02445
;WIDTH:0.651872
G1 X117.643 Y116.688 E.02486
G1 X117.357 Y116.688 E.01379
G1 X116.8 Y116.548 E.0276
;WIDTH:0.642514
G1 X116.368 Y116.263 E.02449
;WIDTH:0.642386
G1 X116.043 Y115.863 E.02444
;WIDTH:0.657188
G1 X115.96 Y115.672 E.0101
; stop printing object 大臂壳连杆.STL id:0 copy 0
;LAYER_CHANGE
;Z:0.28
;HEIGHT:0.08
;BEFORE_LAYER_CHANGE
G92 E0
;0.28


G1 E-.68 F3600
;WIPE_START
G1 F3000
G1 X115.883 Y115.495 E-.02313
G1 X115.81 Y115.101 E-.0481
G1 X115.845 Y114.696 E-.04877
;WIPE_END
EXCLUDE_OBJECT_END NAME=大臂壳连杆.STL_id_0_copy_0
;AFTER_LAYER_CHANGE
;0.28
;_SET_FAN_SPEED_CHANGING_LAYER
SET_VELOCITY_LIMIT ACCEL=5000 ACCEL_TO_DECEL=2500
SET_VELOCITY_LIMIT SQUARE_CORNER_VELOCITY=9
M140 S70 ; set bed temperature
; printing object 大臂壳连杆.STL id:0 copy 0
EXCLUDE_OBJECT_START NAME=大臂壳连杆.STL_id_0_copy_0
G1 X119.165 Y114.117 Z.6 F21000
G1 Z.28
G1 E.8 F2700
SET_VELOCITY_LIMIT ACCEL=3000 ACCEL_TO_DECEL=1500 SQUARE_CORNER_VELOCITY=7
;WIDTH:0.430815
G1 F600
G1 X119.31 Y114.435 E.00457
;WIDTH:0.424293
G1 X119.398 Y115.004 E.0074
;WIDTH:0.424292
G1 X119.323 Y115.54 E.00697
G1 X119.109 Y116.002 E.00655
;WIDTH:0.430815
G1 X118.826 Y116.358 E.00594
G1 X118.492 Y116.618 E.00553
;WIDTH:0.424293
G1 X117.996 Y116.836 E.00697
G1 X117.49 Y116.896 E.00655
;WIDTH:0.430816
G1 X117.039 Y116.841 E.00594
G1 X116.644 Y116.694 E.00551
;WIDTH:0.424293
G1 X116.197 Y116.385 E.00699
G1 X115.88 Y115.986 E.00655
;WIDTH:0.430816
G1 X115.69 Y115.573 E.00594
G1 X115.608 Y115.157 E.00553
;WIDTH:0.424292
G1 X115.638 Y114.616 E.00697
G1 X115.812 Y114.137 E.00655
;WIDTH:0.430787
G1 X116.064 Y113.759 E.00594
G1 X116.43 Y113.435 E.00639
;WIDTH:0.424293
G1 X116.883 Y113.201 E.00655
G1 X117.416 Y113.104 E.00697
;WIDTH:0.422869
G1 X117.902 Y113.145 E.00625
;WIDTH:0.424292
G1 X118.412 Y113.332 E.00699
G1 X118.819 Y113.638 E.00655
;WIDTH:0.430815
G1 X119.107 Y113.99 E.00594
M73 P1 R22
G1 X119.148 Y114.08 E.0013
SET_VELOCITY_LIMIT ACCEL=5000 ACCEL_TO_DECEL=2500 SQUARE_CORNER_VELOCITY=9
G1 X119.532 Y113.95 F21000
SET_VELOCITY_LIMIT ACCEL=3000 ACCEL_TO_DECEL=1500 SQUARE_CORNER_VELOCITY=7
;TYPE:Outer wall
;WIDTH:0.399999
G1 F600
G1 X119.55 Y113.978 E.0004
G1 X119.733 Y114.466 E.00631
G1 X119.795 Y114.953 E.00594
G1 X119.781 Y115.292 E.0041
G1 X119.655 Y115.783 E.00613
G1 X119.411 Y116.265 E.00653
G1 X119.091 Y116.66 E.00616
G1 X118.685 Y116.962 E.00613
G1 X118.191 Y117.186 E.00656
G1 X117.695 Y117.291 E.00613
G1 X117.189 Y117.271 E.00613
G1 X116.664 Y117.134 E.00656
G1 X116.212 Y116.905 E.00613
G1 X115.831 Y116.571 E.00613
G1 X115.509 Y116.136 E.00656
G1 X115.302 Y115.673 E.00613
G1 X115.214 Y115.174 E.00613
G1 X115.237 Y114.633 E.00656
G1 X115.367 Y114.143 E.00613
G1 X115.611 Y113.702 E.0061
G1 X115.97 Y113.293 E.00659
G1 X116.379 Y112.993 E.00613
G1 X116.848 Y112.802 E.00613
G1 X117.382 Y112.711 E.00656
G1 X117.933 Y112.746 E.00668
G1 X118.453 Y112.917 E.00661
G1 X118.902 Y113.182 E.00631
G1 X119.256 Y113.522 E.00594
G1 X119.511 Y113.916 E.00568
SET_VELOCITY_LIMIT ACCEL=5000 ACCEL_TO_DECEL=2500 SQUARE_CORNER_VELOCITY=9
G1 E-.68 F3600
;WIPE_START
G1 F7200
G1 X119.55 Y113.978 E-.00877
G1 X119.733 Y114.466 E-.0626
G1 X119.784 Y114.868 E-.04863
;WIPE_END
G1 X116.115 Y115.517 Z.68 F21000
G1 Z.28
G1 E.8 F2700
SET_VELOCITY_LIMIT ACCEL=3000 ACCEL_TO_DECEL=1500 SQUARE_CORNER_VELOCITY=7
;TYPE:Inner wall
;WIDTH:0.42287
G1 F600
G1 X116.014 Y115.14 E.00501
G1 X116.052 Y114.637 E.00647
G1 X116.255 Y114.176 E.00646
G1 X116.524 Y113.87 E.00522
;WIDTH:0.422871
G1 X116.956 Y113.61 E.00647
G1 X117.45 Y113.508 E.00647
;WIDTH:0.424104
G1 X117.849 Y113.552 E.00516
G1 X118.271 Y113.722 E.00585
;WIDTH:0.42287
G1 X118.653 Y114.051 E.00647
G1 X118.903 Y114.49 E.00647
G1 X118.993 Y114.986 E.00647
G1 X118.912 Y115.484 E.00647
G1 X118.67 Y115.927 E.00647
G1 X118.294 Y116.264 E.00647
G1 X117.828 Y116.457 E.00647
G1 X117.324 Y116.483 E.00647
G1 X116.841 Y116.34 E.00646
M73 P2 R22
G1 X116.432 Y116.043 E.00648
G1 X116.145 Y115.627 E.00647
G1 X116.126 Y115.556 E.00095
SET_VELOCITY_LIMIT ACCEL=5000 ACCEL_TO_DECEL=2500 SQUARE_CORNER_VELOCITY=9
G1 X116.492 Y115.416 F21000
SET_VELOCITY_LIMIT ACCEL=3000 ACCEL_TO_DECEL=1500 SQUARE_CORNER_VELOCITY=7
;TYPE:Outer wall
;WIDTH:0.399999
G1 F600
G1 X116.408 Y115.107 E.00387
G1 X116.434 Y114.737 E.00449
G1 X116.583 Y114.397 E.00449
G1 X116.797 Y114.155 E.00391
G1 X117.165 Y113.955 E.00507
G1 X117.516 Y113.901 E.0043
G1 X117.863 Y113.975 E.00429
G1 X118.063 Y114.058 E.00262
G1 X118.345 Y114.299 E.00449
G1 X118.53 Y114.621 E.00449
G1 X118.598 Y114.986 E.00449
G1 X118.54 Y115.352 E.00449
G1 X118.363 Y115.678 E.00449
G1 X118.088 Y115.927 E.00449
G1 X117.745 Y116.07 E.00449
G1 X117.375 Y116.091 E.00449
G1 X117.019 Y115.987 E.00449
G1 X116.717 Y115.77 E.00449
G1 X116.506 Y115.465 E.00449
G1 X116.503 Y115.454 E.00014
; stop printing object 大臂壳连杆.STL id:0 copy 0
;LAYER_CHANGE
;Z:0.36
;HEIGHT:0.08
;BEFORE_LAYER_CHANGE
G92 E0
;0.36


G1 E-.68 F3600
;WIPE_START
G1 F7200
G1 X116.408 Y115.107 E-.04316
G1 X116.434 Y114.737 E-.04453
G1 X116.542 Y114.49 E-.03231
;WIPE_END
EXCLUDE_OBJECT_END NAME=大臂壳连杆.STL_id_0_copy_0
;AFTER_LAYER_CHANGE
;0.36
;_SET_FAN_SPEED_CHANGING_LAYER
; printing object 大臂壳连杆.STL id:0 copy 0
SET_VELOCITY_LIMIT ACCEL=5000 ACCEL_TO_DECEL=2500 SQUARE_CORNER_VELOCITY=9
EXCLUDE_OBJECT_START NAME=大臂壳连杆.STL_id_0_copy_0
G1 X119.164 Y114.111 Z.68 F21000
G1 Z.36
G1 E.8 F2700
SET_VELOCITY_LIMIT ACCEL=3000 ACCEL_TO_DECEL=1500 SQUARE_CORNER_VELOCITY=7
;TYPE:Inner wall
;WIDTH:0.424292
G1 F600
G1 X119.316 Y114.454 E.00483
;WIDTH:0.430815
G1 X119.397 Y114.937 E.0064
G1 X119.37 Y115.324 E.00507
;WIDTH:0.424293
G1 X119.206 Y115.841 E.00697
G1 X118.917 Y116.26 E.00655
;WIDTH:0.430814
G1 X118.577 Y116.563 E.00595
G1 X118.205 Y116.763 E.00553
;WIDTH:0.428108
G1 X117.702 Y116.887 E.00672
G1 X117.356 Y116.894 E.00449
;WIDTH:0.42778
G1 X116.891 Y116.795 E.00618
;WIDTH:0.430817
G1 X116.452 Y116.582 E.00637
G1 X116.127 Y116.311 E.00553
;WIDTH:0.424293
G1 X115.81 Y115.871 E.00697
G1 X115.644 Y115.39 E.00655
;WIDTH:0.430816
G1 X115.603 Y114.937 E.00594
G1 X115.664 Y114.518 E.00553
;WIDTH:0.424292
G1 X115.872 Y114.018 E.00697
G1 X116.195 Y113.624 E.00655
;WIDTH:0.430817
G1 X116.559 Y113.351 E.00594
G1 X116.948 Y113.184 E.00553
;WIDTH:0.424292
G1 X117.483 Y113.099 E.00697
G1 X117.987 Y113.168 E.00655
;WIDTH:0.430815
G1 X118.41 Y113.334 E.00595
G1 X118.757 Y113.577 E.00553
;WIDTH:0.424292
G1 X119.11 Y113.988 E.00697
G1 X119.148 Y114.074 E.00121
SET_VELOCITY_LIMIT ACCEL=5000 ACCEL_TO_DECEL=2500 SQUARE_CORNER_VELOCITY=9
G1 X119.531 Y113.949 F21000
SET_VELOCITY_LIMIT ACCEL=3000 ACCEL_TO_DECEL=1500 SQUARE_CORNER_VELOCITY=7
;TYPE:Outer wall
;WIDTH:0.399999
G1 F600
G1 X119.713 Y114.403 E.00592
G1 X119.795 Y114.954 E.00674
G1 X119.786 Y115.174 E.00267
G1 X119.698 Y115.673 E.00613
G1 X119.491 Y116.136 E.00613
G1 X119.171 Y116.569 E.00652
G1 X118.743 Y116.93 E.00678
G1 X118.241 Y117.168 E.00671
G1 X117.745 Y117.282 E.00615
G1 X117.231 Y117.278 E.00622
G1 X116.664 Y117.134 E.00707
G1 X116.212 Y116.905 E.00613
G1 X115.831 Y116.571 E.00613
G1 X115.509 Y116.136 E.00656
G1 X115.302 Y115.673 E.00613
G1 X115.214 Y115.174 E.00613
G1 X115.237 Y114.633 E.00656
G1 X115.367 Y114.143 E.00613
G1 X115.612 Y113.7 E.00613
G1 X115.97 Y113.293 E.00656
G1 X116.379 Y112.993 E.00613
G1 X116.848 Y112.802 E.00613
G1 X117.382 Y112.711 E.00656
G1 X117.883 Y112.733 E.00606
G1 X118.373 Y112.881 E.00619
G1 X118.847 Y113.145 E.00656
G1 X119.226 Y113.481 E.00613
G1 X119.511 Y113.9 E.00613
G1 X119.516 Y113.912 E.00016
SET_VELOCITY_LIMIT ACCEL=5000 ACCEL_TO_DECEL=2500 SQUARE_CORNER_VELOCITY=9
G1 E-.68 F3600
;WIPE_START
G1 F7200
G1 X119.713 Y114.403 E-.0635
G1 X119.782 Y114.869 E-.0565
;WIPE_END
G1 X116.115 Y115.517 Z.76 F21000
G1 Z.36
G1 E.8 F2700
SET_VELOCITY_LIMIT ACCEL=3000 ACCEL_TO_DECEL=1500 SQUARE_CORNER_VELOCITY=7
;TYPE:Inner wall
;WIDTH:0.422871
G1 F600
G1 X116.014 Y115.14 E.005
G1 X116.052 Y114.637 E.00647
G1 X116.255 Y114.175 E.00647
G1 X116.601 Y113.808 E.00647
;WIDTH:0.42287
G1 X117.05 Y113.576 E.00647
G1 X117.55 Y113.508 E.00647
G1 X118.044 Y113.61 E.00647
G1 X118.476 Y113.87 E.00647
G1 X118.797 Y114.26 E.00647
G1 X118.969 Y114.734 E.00647
G1 X118.974 Y115.239 E.00647
G1 X118.81 Y115.716 E.00647
G1 X118.497 Y116.112 E.00647
G1 X118.069 Y116.38 E.00647
G1 X117.5 Y116.494 E.00744
;WIDTH:0.426071
G1 X117.002 Y116.402 E.00654
;WIDTH:0.430817
G1 X116.668 Y116.231 E.0049
G1 X116.4 Y116.005 E.00459
;WIDTH:0.424293
G1 X116.145 Y115.627 E.00585
;WIDTH:0.422871
G1 X116.126 Y115.555 E.00096
SET_VELOCITY_LIMIT ACCEL=5000 ACCEL_TO_DECEL=2500 SQUARE_CORNER_VELOCITY=9
G1 X116.492 Y115.415 F21000
SET_VELOCITY_LIMIT ACCEL=3000 ACCEL_TO_DECEL=1500 SQUARE_CORNER_VELOCITY=7
;TYPE:Outer wall
;WIDTH:0.399999
G1 F600
G1 X116.408 Y115.107 E.00386
G1 X116.434 Y114.737 E.00449
G1 X116.583 Y114.397 E.00449
G1 X116.822 Y114.134 E.0043
G1 X117.165 Y113.955 E.00468
G1 X117.532 Y113.903 E.00449
G1 X117.896 Y113.976 E.00449
G1 X118.215 Y114.167 E.00449
G1 X118.451 Y114.452 E.00449
G1 X118.579 Y114.8 E.00449
G1 X118.584 Y115.171 E.00449
G1 X118.465 Y115.523 E.00449
G1 X118.236 Y115.815 E.00449
G1 X117.915 Y116.015 E.00458
G1 X117.46 Y116.096 E.00559
G1 X117.019 Y115.987 E.0055
G1 X116.717 Y115.77 E.00449
G1 X116.506 Y115.465 E.00449
G1 X116.502 Y115.453 E.00015
; stop printing object 大臂壳连杆.STL id:0 copy 0
M106 S127
;LAYER_CHANGE
;Z:0.44
;HEIGHT:0.08
;BEFORE_LAYER_CHANGE
G92 E0
;0.44


G1 E-.68 F3600
;WIPE_START
G1 F7200
G1 X116.408 Y115.107 E-.04307
G1 X116.434 Y114.737 E-.04453
G1 X116.542 Y114.49 E-.0324
;WIPE_END
EXCLUDE_OBJECT_END NAME=大臂壳连杆.STL_id_0_copy_0
;AFTER_LAYER_CHANGE
;0.44
;_SET_FAN_SPEED_CHANGING_LAYER
; printing object 大臂壳连杆.STL id:0 copy 0
SET_VELOCITY_LIMIT ACCEL=5000 ACCEL_TO_DECEL=2500 SQUARE_CORNER_VELOCITY=9
EXCLUDE_OBJECT_START NAME=大臂壳连杆.STL_id_0_copy_0
G1 X119.165 Y114.117 Z.76 F21000
G1 Z.44
G1 E.8 F2700
SET_VELOCITY_LIMIT ACCEL=3000 ACCEL_TO_DECEL=1500 SQUARE_CORNER_VELOCITY=7
;TYPE:Inner wall
;WIDTH:0.430815
G1 F600
G1 X119.31 Y114.435 E.00457
;WIDTH:0.424293
G1 X119.398 Y115.004 E.0074
;WIDTH:0.424292
G1 X119.323 Y115.54 E.00697
G1 X119.109 Y116.003 E.00655
;WIDTH:0.430816
G1 X118.826 Y116.358 E.00594
G1 X118.492 Y116.618 E.00553
;WIDTH:0.424052
G1 X118.001 Y116.834 E.00689
;WIDTH:0.424294
G1 X117.49 Y116.896 E.00663
;WIDTH:0.430816
G1 X117.039 Y116.841 E.00594
G1 X116.642 Y116.693 E.00553
;WIDTH:0.424293
G1 X116.197 Y116.385 E.00697
G1 X115.881 Y115.986 E.00655
;WIDTH:0.430816
G1 X115.69 Y115.573 E.00595
G1 X115.608 Y115.157 E.00553
;WIDTH:0.424293
G1 X115.638 Y114.616 E.00697
G1 X115.812 Y114.137 E.00655
;WIDTH:0.430565
G1 X116.06 Y113.764 E.00586
G1 X116.43 Y113.435 E.00647
;WIDTH:0.424293
G1 X116.883 Y113.201 E.00655
G1 X117.416 Y113.104 E.00697
;WIDTH:0.42287
G1 X117.901 Y113.145 E.00624
;WIDTH:0.424293
G1 X118.412 Y113.332 E.00701
G1 X118.819 Y113.638 E.00655
;WIDTH:0.430815
G1 X119.107 Y113.99 E.00594
G1 X119.148 Y114.08 E.0013
SET_VELOCITY_LIMIT ACCEL=5000 ACCEL_TO_DECEL=2500 SQUARE_CORNER_VELOCITY=9
G1 X119.532 Y113.95 F21000
SET_VELOCITY_LIMIT ACCEL=3000 ACCEL_TO_DECEL=1500 SQUARE_CORNER_VELOCITY=7
;TYPE:Outer wall
;WIDTH:0.399999
G1 F600
G1 X119.55 Y113.978 E.0004
G1 X119.733 Y114.466 E.00631
G1 X119.795 Y114.953 E.00594
G1 X119.781 Y115.292 E.0041
G1 X119.655 Y115.783 E.00613
G1 X119.41 Y116.267 E.00656
G1 X119.091 Y116.66 E.00613
G1 X118.685 Y116.962 E.00613
G1 X118.191 Y117.186 E.00656
G1 X117.695 Y117.291 E.00613
G1 X117.189 Y117.271 E.00612
G1 X116.664 Y117.134 E.00656
G1 X116.212 Y116.905 E.00613
G1 X115.831 Y116.571 E.00613
G1 X115.511 Y116.139 E.00651
G1 X115.302 Y115.673 E.00617
G1 X115.214 Y115.174 E.00613
G1 X115.237 Y114.633 E.00656
G1 X115.367 Y114.143 E.00613
G1 X115.612 Y113.7 E.00613
G1 X115.968 Y113.296 E.00651
