; HEADER_BLOCK_START
; generated by OrcaSlicer 2.1.1 on 2024-12-08 at 13:06:27
; total layer number: 123
; filament_density: 1.27
; filament_diameter: 1.75
; max_z_height: 9.96
; HEADER_BLOCK_END

; THUMBNAIL_BLOCK_START

;
; THUMBNAIL_BLOCK_END







; external perimeters extrusion width = 0.40mm
; perimeters extrusion width = 0.45mm
; infill extrusion width = 0.45mm
; solid infill extrusion width = 0.45mm
; top infill extrusion width = 0.38mm
; first layer extrusion width = 0.42mm

; EXECUTABLE_BLOCK_START
EXCLUDE_OBJECT_DEFINE NAME=推杆固定板.STL_id_0_copy_0 CENTER=116.136,115 POLYGON=[[111.136,113.75],[111.136,112.75],[111.167,112.323],[111.258,111.905],[111.407,111.504],[111.612,111.128],[111.869,110.785],[112.172,110.483],[112.514,110.226],[112.89,110.021],[113.291,109.872],[113.709,109.781],[114.136,109.75],[118.136,109.75],[118.563,109.781],[118.981,109.872],[119.382,110.021],[119.758,110.226],[120.101,110.483],[120.403,110.785],[120.66,111.128],[120.865,111.504],[121.015,111.905],[121.106,112.323],[121.136,112.75],[121.136,117.25],[121.106,117.677],[121.015,118.095],[120.865,118.496],[120.66,118.872],[120.403,119.215],[120.101,119.517],[119.758,119.774],[119.382,119.979],[118.981,120.128],[118.563,120.219],[118.136,120.25],[114.136,120.25],[113.709,120.219],[113.291,120.128],[112.89,119.979],[112.514,119.774],[112.172,119.517],[111.869,119.215],[111.612,118.872],[111.407,118.496],[111.258,118.095],[111.167,117.677],[111.136,117.25],[111.136,116.25],[111.136,113.75]]
M73 P0 R11
;TYPE:Custom
;ELEGOO NEPTUNE 4 PRO
M220 S100 ;Set the feed speed to 100%
M221 S100 ;Set the flow rate to 100%
M104 S140
M190 S70
G90
G28 ;home
G1 Z10 F300
G1 X67.5 Y0 F6000
G1 Z0 F300
M109 S240
G92 E0 ;Reset Extruder
G1 X67.5 Y0 Z0.4 F300 ;Move to start position
M73 P0 R10
G1 X167.5 E30 F400 ;Draw the first line
G1 Z0.6 F120.0 ;Move to side a little
M73 P2 R10
G1 X162.5 F3000
G92 E0 ;Reset Extruder
G90
G21
M83 ; use relative distances for extrusion
; filament start gcode
M106 S0
;LAYER_CHANGE
;Z:0.2
;HEIGHT:0.2
;BEFORE_LAYER_CHANGE
G92 E0
;0.2


M73 P3 R10
G1 E-.8 F3600
;AFTER_LAYER_CHANGE
;0.2
;_SET_FAN_SPEED_CHANGING_LAYER
SET_VELOCITY_LIMIT ACCEL=1000 ACCEL_TO_DECEL=500
SET_VELOCITY_LIMIT SQUARE_CORNER_VELOCITY=7
; printing object 推杆固定板.STL id:0 copy 0
EXCLUDE_OBJECT_START NAME=推杆固定板.STL_id_0_copy_0
G1 X112.496 Y111.731 F21000
G1 Z.4
G1 Z.2
G1 E.8 F2700
;TYPE:Inner wall
;WIDTH:0.419999
G1 F2093
G1 X112.487 Y112.224 E.01468
G1 X112.634 Y112.71 E.01514
G1 X112.941 Y113.149 E.01595
G1 X113.249 Y113.393 E.0117
G1 X113.823 Y113.635 E.01856
G1 X114.393 Y113.644 E.01698
G1 X114.911 Y113.457 E.01641
G1 X115.179 Y113.296 E.0093
G1 X115.47 Y112.961 E.01321
G1 X115.67 Y112.647 E.0111
;WIDTH:0.459596
G1 X115.72 Y112.529 E.00423
;WIDTH:0.499193
G1 X115.77 Y112.411 E.00463
;WIDTH:0.53879
G1 X115.821 Y112.292 E.00503
;WIDTH:0.578387
G1 X115.871 Y112.174 E.00543
;WIDTH:0.591572
G1 X115.86 Y111.73 E.01928
G1 X115.827 Y111.666 E.0031
;WIDTH:0.551354
G1 X115.795 Y111.602 E.00287
;WIDTH:0.511136
G1 X115.762 Y111.539 E.00265
;WIDTH:0.470918
G1 X115.62 Y111.289 E.00971
;WIDTH:0.445459
G1 X115.479 Y111.039 E.00914
;WIDTH:0.419999
G1 X115.281 Y110.814 E.00891
G1 X116.99 Y110.814 E.0509
G1 X116.772 Y111.056 E.00971
;WIDTH:0.462893
G1 X116.68 Y111.228 E.00645
;WIDTH:0.505786
G1 X116.588 Y111.399 E.00711
;WIDTH:0.548679
G1 X116.497 Y111.571 E.00777
;WIDTH:0.591572
G1 X116.405 Y111.743 E.00843
G1 X116.405 Y112.187 E.01926
;WIDTH:0.578387
G1 X116.447 Y112.271 E.00396
;WIDTH:0.529049
G1 X116.489 Y112.354 E.00359
;WIDTH:0.479711
G1 X116.531 Y112.438 E.00323
;WIDTH:0.430373
G1 X116.747 Y112.912 E.01597
;WIDTH:0.419999
G1 X117.07 Y113.278 E.01451
G1 X117.566 Y113.55 E.01686
G1 X117.944 Y113.648 E.01162
G1 X118.413 Y113.641 E.01398
G1 X118.92 Y113.454 E.01608
G1 X119.248 Y113.231 E.01182
G1 X119.416 Y113.056 E.00722
G1 X119.624 Y112.717 E.01184
G1 X119.785 Y112.218 E.01565
G1 X119.777 Y111.738 E.01429
G1 X119.993 Y112.213 E.01553
G1 X120.072 Y112.796 E.01754
G1 X120.071 Y117.22 E.13177
G1 X119.988 Y117.802 E.01751
G1 X119.77 Y118.282 E.0157
G1 X119.798 Y118.033 E.00744
G1 X119.738 Y117.548 E.01457
G1 X119.593 Y117.207 E.01103
G1 X119.246 Y116.767 E.0167
G1 X118.916 Y116.544 E.01187
G1 X118.576 Y116.408 E.01089
G1 X118.301 Y116.344 E.00842
G1 X117.779 Y116.374 E.01557
G1 X117.308 Y116.557 E.01507
G1 X116.951 Y116.839 E.01353
G1 X116.746 Y117.096 E.0098
;WIDTH:0.468575
G1 X116.644 Y117.294 E.0075
;WIDTH:0.51715
G1 X116.542 Y117.492 E.00835
;WIDTH:0.565725
G1 X116.44 Y117.691 E.00921
;WIDTH:0.584269
G1 X116.401 Y118.169 E.02051
G1 X116.446 Y118.267 E.00463
;WIDTH:0.543202
G1 X116.491 Y118.366 E.00428
;WIDTH:0.502134
G1 X116.535 Y118.464 E.00393
;WIDTH:0.461067
G1 X116.58 Y118.562 E.00357
;WIDTH:0.419999
G1 X116.826 Y119.005 E.01508
G1 X116.999 Y119.186 E.00746
G1 X115.291 Y119.186 E.05087
G1 X115.593 Y118.793 E.01477
;WIDTH:0.462227
G1 X115.66 Y118.657 E.00502
;WIDTH:0.504455
G1 X115.727 Y118.52 E.00553
;WIDTH:0.546683
G1 X115.793 Y118.384 E.00603
;WIDTH:0.58891
G1 X115.86 Y118.248 E.00654
G1 X115.844 Y117.701 E.0236
;WIDTH:0.565725
G1 X115.744 Y117.506 E.00903
;WIDTH:0.51715
G1 X115.645 Y117.312 E.00819
;WIDTH:0.468575
G1 X115.546 Y117.117 E.00735
;WIDTH:0.419999
G1 X115.173 Y116.699 E.0167
G1 X114.916 Y116.544 E.00893
G1 X114.392 Y116.356 E.01657
G1 X113.823 Y116.365 E.01697
G1 X113.406 Y116.51 E.01315
G1 X112.951 Y116.839 E.01671
G1 X112.628 Y117.313 E.01709
G1 X112.513 Y117.696 E.01193
G1 X112.497 Y118.271 E.01713
G1 X112.387 Y118.07 E.00683
G1 X112.265 Y117.714 E.01122
G1 X112.2 Y117.212 E.01507
G1 X112.205 Y112.722 E.13374
G1 X112.284 Y112.198 E.01577
G1 X112.479 Y111.767 E.01409
G1 X112.235 Y111.447 F21000
G1 F2093
G1 X112.609 Y111.017 E.01698
;WIDTH:0.423254
G1 X112.945 Y110.776 E.01243
G1 X113.422 Y110.543 E.01592
;WIDTH:0.39598
G1 X113.818 Y110.443 E.01142
;WIDTH:0.387678
G1 X114.438 Y110.421 E.01689
;WIDTH:0.419999
G1 X114.95 Y110.437 E.01526
G1 X117.645 Y110.429 E.08026
;WIDTH:0.402968
G1 X118.288 Y110.423 E.01829
;WIDTH:0.401758
G1 X118.778 Y110.521 E.01418
;WIDTH:0.432374
G1 X119.212 Y110.718 E.01466
;WIDTH:0.434519
G1 X119.693 Y111.057 E.01822
G1 X120.064 Y111.479 E.01737
;WIDTH:0.419999
G1 X120.252 Y111.825 E.01172
G1 X120.4 Y112.311 E.01513
G1 X120.449 Y112.796 E.01452
G1 X120.448 Y117.247 E.13257
G1 X120.369 Y117.833 E.01761
G1 X120.224 Y118.237 E.01278
G1 X119.897 Y118.745 E.01799
;WIDTH:0.43929
G1 X119.628 Y119 E.01161
G1 X119.084 Y119.358 E.02039
;WIDTH:0.418504
G1 X118.532 Y119.543 E.01728
;WIDTH:0.380002
G1 X118.107 Y119.586 E.01138
;WIDTH:0.419999
G1 X117.466 Y119.563 E.0191
G1 X114.868 Y119.563 E.07739
G1 X114.198 Y119.587 E.01996
;WIDTH:0.378803
G1 X113.682 Y119.532 E.01375
;WIDTH:0.421492
G1 X113.189 Y119.356 E.01566
;WIDTH:0.44904
G1 X112.99 Y119.222 E.00771
;WIDTH:0.476587
G1 X112.588 Y118.921 E.0172
;WIDTH:0.448293
G1 X112.385 Y118.755 E.0084
;WIDTH:0.419999
G1 X112.056 Y118.251 E.01794
G1 X111.897 Y117.796 E.01436
G1 X111.823 Y117.225 E.01712
G1 X111.823 Y113.161 E.12107
G1 X111.846 Y112.46 E.0209
G1 X111.97 Y111.962 E.01529
G1 X112.208 Y111.479 E.01602
G1 X112.209 Y111.478 E.00006
G1 X111.954 Y111.198 F21000
;TYPE:Outer wall
G1 F2093
G1 X112.21 Y110.882 E.01212
G1 X112.648 Y110.514 E.01703
G1 X113.066 Y110.286 E.01419
G1 X113.597 Y110.123 E.01655
G1 X114.147 Y110.06 E.01648
G1 X117.953 Y110.06 E.11337
G1 X118.54 Y110.095 E.01752
G1 X119.031 Y110.221 E.01509
G1 X119.552 Y110.467 E.01716
G1 X119.965 Y110.786 E.01555
G1 X120.366 Y111.253 E.01835
G1 X120.605 Y111.694 E.01492
G1 X120.768 Y112.231 E.01673
G1 X120.826 Y112.796 E.01692
G1 X120.826 Y116.679 E.11566
G1 X120.803 Y117.568 E.02646
G1 X120.695 Y118.065 E.01518
G1 X120.424 Y118.657 E.01937
G1 X120.133 Y119.047 E.0145
G1 X119.678 Y119.446 E.01802
G1 X119.215 Y119.71 E.01587
G1 X118.609 Y119.892 E.01885
G1 X118.125 Y119.94 E.01449
G1 X114.351 Y119.94 E.11242
G1 X113.79 Y119.914 E.01671
G1 X113.297 Y119.8 E.01509
G1 X112.721 Y119.533 E.01891
G1 X112.342 Y119.25 E.01408
G1 X111.992 Y118.861 E.01559
G1 X111.69 Y118.367 E.01724
G1 X111.529 Y117.877 E.01535
G1 X111.446 Y117.239 E.01918
G1 X111.446 Y113.161 E.12147
G1 X111.474 Y112.367 E.02365
G1 X111.616 Y111.83 E.01656
G1 X111.874 Y111.296 E.01765
G1 X111.928 Y111.229 E.00257
G1 E-.68 F3600
;WIPE_START
G1 F3000
G1 X112.21 Y110.882 E-.05364
G1 X112.633 Y110.526 E-.06636
;WIPE_END
G1 X117.001 Y111.438 Z.6 F21000
G1 Z.2
G1 E.8 F2700
;TYPE:Inner wall
G1 F2093
G1 X117.065 Y111.293 E.00472
G1 X117.218 Y111.103 E.00727
G1 X117.403 Y110.954 E.00709
G1 X117.889 Y110.755 E.01564
;WIDTH:0.38254
G1 X118.384 Y110.764 E.01326
;WIDTH:0.418465
G1 X118.905 Y110.968 E.01662
;WIDTH:0.465969
G1 X119.163 Y111.192 E.01142
G1 X119.35 Y111.585 E.01453
;WIDTH:0.419999
G1 X119.419 Y112.012 E.01289
G1 X119.365 Y112.317 E.00923
G1 X119.268 Y112.593 E.00871
G1 X119.143 Y112.795 E.00707
G1 X118.976 Y112.971 E.00722
G1 X118.778 Y113.104 E.00709
G1 X118.277 Y113.28 E.01583
G1 X117.862 Y113.258 E.01238
G1 X117.369 Y113.029 E.0162
G1 X117.232 Y112.909 E.00541
G1 X116.972 Y112.541 E.01342
G1 X116.859 Y112.122 E.01292
G1 X116.891 Y111.69 E.01291
G1 X116.985 Y111.475 E.007
G1 X117.335 Y111.59 F21000
;TYPE:Outer wall
G1 F2093
G1 X117.359 Y111.53 E.00192
G1 X117.573 Y111.29 E.00959
G1 X117.976 Y111.106 E.01319
G1 X118.296 Y111.109 E.00954
G1 X118.702 Y111.289 E.01322
G1 X118.906 Y111.518 E.00915
G1 X119.023 Y111.802 E.00915
G1 X119.033 Y112.123 E.00956
G1 X118.871 Y112.535 E.01319
G1 X118.637 Y112.754 E.00954
G1 X118.216 Y112.905 E.01332
G1 X117.901 Y112.875 E.00943
G1 X117.523 Y112.669 E.01284
G1 X117.328 Y112.415 E.00952
G1 X117.236 Y112.061 E.01089
G1 X117.247 Y111.815 E.00733
G1 X117.32 Y111.627 E.00601
G1 E-.68 F3600
;WIPE_START
G1 F3000
G1 X117.359 Y111.53 E-.01254
G1 X117.573 Y111.29 E-.03863
G1 X117.976 Y111.106 E-.05313
G1 X118.107 Y111.107 E-.0157
;WIPE_END
G1 X114.546 Y110.805 Z.6 F21000
G1 Z.2
G1 E.8 F2700
;TYPE:Inner wall
;WIDTH:0.407683
G1 F2093
G1 X114.625 Y110.82 E.00231
;WIDTH:0.419999
G1 X114.993 Y111.045 E.01285
G1 X115.15 Y111.223 E.00707
G1 X115.377 Y111.654 E.01451
G1 X115.418 Y112.124 E.01403
G1 X115.279 Y112.588 E.01443
G1 X114.876 Y113.053 E.01834
G1 X114.327 Y113.273 E.0176
G1 X113.888 Y113.263 E.01309
G1 X113.417 Y113.055 E.01535
G1 X113.232 Y112.909 E.00702
G1 X112.972 Y112.541 E.01342
G1 X112.859 Y112.122 E.01292
G1 X112.891 Y111.69 E.01291
G1 X113.065 Y111.293 E.01291
G1 X113.363 Y110.976 E.01295
;WIDTH:0.419751
G1 X113.748 Y110.799 E.01263
;WIDTH:0.378613
G1 X114.227 Y110.742 E.0128
;WIDTH:0.407683
G1 X114.507 Y110.797 E.00822
G1 X114.481 Y111.172 F21000
;TYPE:Outer wall
;WIDTH:0.419999
G1 F2093
G1 X114.573 Y111.204 E.0029
G1 X114.821 Y111.408 E.00956
G1 X115.023 Y111.801 E.01317
G1 X115.038 Y112.109 E.00917
G1 X114.941 Y112.415 E.00956
G1 X114.629 Y112.758 E.01381
G1 X114.216 Y112.905 E.01305
G1 X113.901 Y112.875 E.00943
G1 X113.523 Y112.669 E.01284
G1 X113.328 Y112.415 E.00952
G1 X113.236 Y112.122 E.00915
G1 X113.247 Y111.815 E.00914
G1 X113.359 Y111.53 E.00913
G1 X113.56 Y111.297 E.00917
G1 X113.842 Y111.143 E.00956
G1 X114.282 Y111.103 E.01317
G1 X114.443 Y111.159 E.00508
G1 E-.68 F3600
;WIPE_START
G1 F3000
G1 X114.573 Y111.204 E-.01649
G1 X114.821 Y111.408 E-.03851
G1 X115.023 Y111.801 E-.05307
G1 X115.028 Y111.901 E-.01193
;WIPE_END
G1 X117.951 Y116.74 Z.6 F21000
G1 Z.2
G1 E.8 F2700
;TYPE:Inner wall
G1 F2093
G1 X118.338 Y116.729 E.01151
G1 X118.776 Y116.894 E.01394
M73 P4 R10
G1 X118.974 Y117.028 E.00712
G1 X119.25 Y117.363 E.01292
G1 X119.399 Y117.77 E.01292
G1 X119.403 Y118.203 E.01289
;WIDTH:0.43929
G1 X119.244 Y118.672 E.01552
;WIDTH:0.459845
G1 X119.111 Y118.858 E.0075
G1 X118.906 Y119.031 E.00887
;WIDTH:0.418504
G1 X118.432 Y119.222 E.01515
;WIDTH:0.380002
G1 X118.114 Y119.255 E.00852
;WIDTH:0.40366
G1 X117.776 Y119.223 E.00966
;WIDTH:0.419999
G1 X117.547 Y119.14 E.00725
G1 X117.35 Y119.007 E.00708
G1 X117.098 Y118.744 E.01087
G1 X116.936 Y118.437 E.01034
G1 X116.859 Y118.124 E.00961
G1 X116.914 Y117.598 E.01573
G1 X117.153 Y117.169 E.01463
G1 X117.488 Y116.888 E.01303
G1 X117.861 Y116.742 E.01195
G1 X117.911 Y116.741 E.0015
G1 X117.922 Y117.126 F21000
;TYPE:Outer wall
G1 F2093
G1 X117.979 Y117.106 E.00179
G1 X118.296 Y117.109 E.00946
G1 X118.702 Y117.289 E.01322
G1 X118.906 Y117.518 E.00915
G1 X119.026 Y117.837 E.01015
G1 X119.033 Y118.123 E.00852
G1 X118.871 Y118.535 E.01319
G1 X118.637 Y118.754 E.00954
G1 X118.22 Y118.905 E.01322
G1 X117.914 Y118.881 E.00915
G1 X117.622 Y118.746 E.00956
G1 X117.328 Y118.415 E.01319
G1 X117.237 Y118.108 E.00954
G1 X117.273 Y117.713 E.01182
G1 X117.45 Y117.405 E.01058
G1 X117.732 Y117.192 E.01052
G1 X117.884 Y117.139 E.00481
G1 E-.68 F3600
;WIPE_START
G1 F3000
G1 X117.979 Y117.106 E-.01203
G1 X118.296 Y117.109 E-.03811
G1 X118.702 Y117.289 E-.05325
G1 X118.794 Y117.392 E-.01661
;WIPE_END
G1 X112.883 Y118.244 Z.6 F21000
G1 Z.2
G1 E.8 F2700
;TYPE:Inner wall
G1 F2093
G1 X112.862 Y118.063 E.00542
G1 X112.904 Y117.631 E.01293
G1 X113.077 Y117.276 E.01178
G1 X113.384 Y116.96 E.0131
G1 X113.773 Y116.769 E.01292
G1 X114.203 Y116.718 E.01288
G1 X114.445 Y116.762 E.00732
G1 X114.93 Y116.987 E.01594
G1 X115.222 Y117.308 E.01293
G1 X115.397 Y117.753 E.01422
G1 X115.401 Y118.125 E.01109
G1 X115.35 Y118.415 E.00876
G1 X115.143 Y118.795 E.01291
G1 X114.976 Y118.971 E.00722
G1 X114.779 Y119.104 E.00709
G1 X114.322 Y119.252 E.0143
;WIDTH:0.377317
G1 X113.864 Y119.235 E.0121
;WIDTH:0.421492
G1 X113.381 Y119.038 E.0156
;WIDTH:0.44904
G1 X113.229 Y118.901 E.00657
;WIDTH:0.476587
G1 X113.077 Y118.764 E.00701
G1 X112.984 Y118.537 E.00838
;WIDTH:0.448293
G1 X112.891 Y118.311 E.00783
;WIDTH:0.419999
G1 X112.888 Y118.284 E.00083
G1 X113.271 Y118.213 F21000
;TYPE:Outer wall
G1 F2093
G1 X113.238 Y118.093 E.0037
G1 X113.291 Y117.673 E.0126
G1 X113.45 Y117.405 E.00929
G1 X113.687 Y117.21 E.00915
G1 X113.979 Y117.106 E.00922
G1 X114.304 Y117.112 E.00971
G1 X114.702 Y117.289 E.01296
G1 X114.906 Y117.518 E.00915
G1 X115.023 Y117.817 E.00956
G1 X115.007 Y118.26 E.01319
G1 X114.871 Y118.535 E.00914
G1 X114.637 Y118.754 E.00954
G1 X114.22 Y118.905 E.01322
G1 X113.914 Y118.881 E.00915
G1 X113.622 Y118.746 E.00956
G1 X113.328 Y118.415 E.01319
G1 X113.282 Y118.251 E.00506
G1 E-.68 F3600
;WIPE_START
G1 F3000
G1 X113.238 Y118.093 E-.01972
G1 X113.291 Y117.673 E-.05078
G1 X113.45 Y117.405 E-.03742
G1 X113.527 Y117.341 E-.01208
;WIPE_END
G1 X116.684 Y118.982 Z.6 F21000
G1 Z.2
G1 E.8 F2700
;TYPE:Bottom surface
;WIDTH:0.495415
G1 F2093
G1 X116.131 Y118.429 E.02796
G1 X115.963 Y118.66 E.01019
G1 X115.888 Y118.827 E.00654
G1 X116.134 Y119.073 E.01244
G1 E-.68 F3600
;WIPE_START
G1 F4800
G1 X115.888 Y118.827 E-.04178
G1 X115.963 Y118.66 E-.02196
G1 X116.131 Y118.429 E-.0342
G1 X116.261 Y118.559 E-.02206
;WIPE_END
G1 X119.457 Y113.177 Z.6 F21000
G1 Z.2
G1 E.8 F2700
;WIDTH:0.423402
G1 F2093
G1 X119.789 Y113.509 E.01413
G1 X119.789 Y114.047 E.01617
G1 X119.285 Y113.543 E.02144
G1 X119.035 Y113.712 E.00908
G1 X118.95 Y113.746 E.00274
G1 X119.789 Y114.585 E.03566
G1 X119.789 Y115.123 E.01617
G1 X118.558 Y113.892 E.05235
G1 X118.322 Y113.938 E.0072
G1 X118.061 Y113.933 E.00787
G1 X119.789 Y115.661 E.07347
G1 X119.789 Y116.2 E.01617
G1 X116.064 Y112.474 E.15836
G1 X115.999 Y112.567 E.0034
G1 X115.886 Y112.834 E.00872
G1 X119.789 Y116.738 E.16592
G1 X119.789 Y116.949 E.00636
G1 X119.763 Y116.957 E.00084
G1 X119.625 Y116.753 E.00739
G1 X119.443 Y116.564 E.00788
G1 X119.029 Y116.284 E.01503
G1 X118.667 Y116.153 E.01158
G1 X115.67 Y113.156 E.12739
G1 X115.424 Y113.449 E.01148
G1 X118.043 Y116.067 E.1113
G1 X117.718 Y116.097 E.00981
G1 X117.578 Y116.141 E.0044
G1 X115.11 Y113.673 E.10491
G1 X114.733 Y113.834 E.01232
G1 X117.197 Y116.297 E.10471
G1 X117.012 Y116.412 E.00653
G1 X116.884 Y116.523 E.00509
G1 X114.298 Y113.936 E.10994
G1 X113.774 Y113.914 E.01575
G1 X113.719 Y113.896 E.00174
G1 X116.614 Y116.791 E.12306
G1 X116.41 Y117.125 E.01176
G1 X112.484 Y113.199 E.16687
G1 X112.486 Y113.739 E.01622
G1 X116.331 Y117.584 E.16343
G1 E-.68 F3600
;WIPE_START
G1 F4800
G1 X115.624 Y116.877 E-.12
;WIPE_END
G1 X114.47 Y116.261 Z.6 F21000
G1 Z.2
