; HEADER_BLOCK_START
; generated by OrcaSlicer 2.1.1 on 2024-12-08 at 10:56:24
; total layer number: 173
; filament_density: 1.27
; filament_diameter: 1.75
; max_z_height: 13.96
; HEADER_BLOCK_END

; THUMBNAIL_BLOCK_START

;
; THUMBNAIL_BLOCK_END







; external perimeters extrusion width = 0.40mm
; perimeters extrusion width = 0.45mm
; infill extrusion width = 0.45mm
; solid infill extrusion width = 0.45mm
; top infill extrusion width = 0.38mm
; first layer extrusion width = 0.42mm

; EXECUTABLE_BLOCK_START
EXCLUDE_OBJECT_DEFINE NAME=推杆固定板_-_小臂.STL_id_0_copy_0 CENTER=117.5,113.711 POLYGON=[[112.95,109.161],[122.05,109.161],[122.05,118.261],[112.95,118.261],[112.95,109.161]]
M73 P0 R16
;TYPE:Custom
;ELEGOO NEPTUNE 4 PRO
M220 S100 ;Set the feed speed to 100%
M221 S100 ;Set the flow rate to 100%
M104 S140
M190 S70
G90
G28 ;home
G1 Z10 F300
G1 X67.5 Y0 F6000
G1 Z0 F300
M109 S240
G92 E0 ;Reset Extruder
G1 X67.5 Y0 Z0.4 F300 ;Move to start position
G1 X167.5 E30 F400 ;Draw the first line
G1 Z0.6 F120.0 ;Move to side a little
M73 P1 R16
G1 X162.5 F3000
G92 E0 ;Reset Extruder
G90
G21
M83 ; use relative distances for extrusion
; filament start gcode
M106 S0
;LAYER_CHANGE
;Z:0.2
;HEIGHT:0.2
;BEFORE_LAYER_CHANGE
G92 E0
;0.2


G1 E-.8 F3600
;AFTER_LAYER_CHANGE
;0.2
;_SET_FAN_SPEED_CHANGING_LAYER
SET_VELOCITY_LIMIT ACCEL=1000 ACCEL_TO_DECEL=500
SET_VELOCITY_LIMIT SQUARE_CORNER_VELOCITY=7
; printing object 推杆固定板 - 小臂.STL id:0 copy 0
EXCLUDE_OBJECT_START NAME=推杆固定板_-_小臂.STL_id_0_copy_0
G1 X113.699 Y111.039 F21000
G1 Z.4
M73 P2 R16
G1 Z.2
G1 E.8 F2700
;TYPE:Inner wall
;WIDTH:0.544381
G1 F986
G1 X113.679 Y110.642 E.01575
;WIDTH:0.502921
G1 X113.658 Y110.245 E.01445
;WIDTH:0.46146
G1 X113.637 Y109.848 E.01315
;WIDTH:0.419999
G1 X114.101 Y109.848 E.01381
;WIDTH:0.46146
G1 X114.343 Y109.868 E.00805
;WIDTH:0.502921
G1 X114.586 Y109.889 E.00885
;WIDTH:0.544381
G1 X114.829 Y109.91 E.00964
G1 X120.171 Y109.91 E.21164
G1 X120.569 Y109.889 E.01575
;WIDTH:0.502921
G1 X120.966 Y109.868 E.01445
;WIDTH:0.46146
G1 X121.363 Y109.848 E.01315
;WIDTH:0.419999
G1 X121.363 Y110.311 E.01381
;WIDTH:0.46146
G1 X121.342 Y110.554 E.00805
;WIDTH:0.502921
G1 X121.321 Y110.796 E.00885
;WIDTH:0.544381
G1 X121.301 Y111.039 E.00964
G1 X121.301 Y116.564 E.21886
G1 X121.321 Y116.746 E.00725
;WIDTH:0.502921
G1 X121.342 Y116.928 E.00665
;WIDTH:0.46146
G1 X121.363 Y117.11 E.00605
;WIDTH:0.419999
G1 X121.363 Y117.573 E.01381
G1 X120.899 Y117.573 E.01381
;WIDTH:0.46146
G1 X120.657 Y117.553 E.00805
;WIDTH:0.502921
G1 X120.414 Y117.532 E.00885
;WIDTH:0.544381
G1 X120.171 Y117.511 E.00964
G1 X114.829 Y117.511 E.21164
G1 X114.431 Y117.532 E.01575
;WIDTH:0.502921
G1 X114.034 Y117.553 E.01445
;WIDTH:0.46146
G1 X113.637 Y117.573 E.01315
;WIDTH:0.419999
G1 X113.637 Y117.11 E.01381
;WIDTH:0.46146
G1 X113.658 Y116.867 E.00805
;WIDTH:0.502921
G1 X113.679 Y116.625 E.00885
;WIDTH:0.544381
G1 X113.699 Y116.382 E.00964
G1 X113.699 Y111.079 E.21006
G1 X114.308 Y110.85 F21000
;WIDTH:0.502921
G1 F986
G1 X114.353 Y110.772 E.00325
;WIDTH:0.46146
G1 X114.429 Y110.639 E.00507
G1 X114.528 Y110.563 E.00414
;WIDTH:0.502921
G1 X114.628 Y110.487 E.00455
;WIDTH:0.544381
G1 X114.728 Y110.411 E.00496
G1 X120.171 Y110.411 E.21564
G1 X120.305 Y110.487 E.00608
;WIDTH:0.502921
G1 X120.438 Y110.563 E.00558
;WIDTH:0.46146
G1 X120.571 Y110.639 E.00507
G1 X120.647 Y110.772 E.00507
;WIDTH:0.502921
G1 X120.723 Y110.906 E.00558
;WIDTH:0.544381
G1 X120.799 Y111.039 E.00608
G1 X120.799 Y116.382 E.21164
;WIDTH:0.551037
G1 X120.793 Y116.491 E.00438
G1 X120.719 Y116.588 E.00489
;WIDTH:0.507358
G1 X120.645 Y116.685 E.00447
;WIDTH:0.463679
G1 X120.571 Y116.782 E.00405
;WIDTH:0.46146
G1 X120.472 Y116.858 E.00414
;WIDTH:0.502921
G1 X120.372 Y116.934 E.00455
;WIDTH:0.544381
G1 X120.272 Y117.01 E.00496
G1 X114.829 Y117.01 E.21564
G1 X114.695 Y116.934 E.00608
;WIDTH:0.502921
G1 X114.562 Y116.858 E.00558
;WIDTH:0.46146
G1 X114.429 Y116.782 E.00507
G1 X114.353 Y116.682 E.00414
;WIDTH:0.502921
G1 X114.277 Y116.583 E.00455
;WIDTH:0.544381
G1 X114.201 Y116.483 E.00496
G1 X114.201 Y111.039 E.21564
G1 X114.277 Y110.906 E.00608
;WIDTH:0.502921
G1 X114.289 Y110.885 E.00087
G1 X114.64 Y111.039 F21000
;TYPE:Outer wall
;WIDTH:0.419999
G1 F986
G1 X114.695 Y110.906 E.0043
G1 X114.829 Y110.851 E.0043
G1 X120.171 Y110.851 E.15915
G1 X120.305 Y110.906 E.0043
G1 X120.36 Y111.039 E.0043
G1 X120.36 Y116.382 E.15915
G1 X120.305 Y116.515 E.0043
G1 X120.171 Y116.571 E.0043
G1 X114.829 Y116.571 E.15915
G1 X114.695 Y116.515 E.0043
G1 X114.64 Y116.382 E.0043
G1 X114.64 Y111.079 E.15796
G1 X114.135 Y110.252 F21000
;TYPE:Inner wall
;WIDTH:0.59315
G1 F986
G1 X114.066 Y110.252 E.00299
G1 X114.032 Y110.311 E.00299
G1 X114.066 Y110.371 E.00299
G1 X114.135 Y110.371 E.00299
G1 X114.17 Y110.311 E.00299
G1 E-.68 F3600
;WIPE_START
G1 F3000
G1 X114.135 Y110.371 E-.024
G1 X114.066 Y110.371 E-.024
G1 X114.032 Y110.311 E-.024
G1 X114.066 Y110.252 E-.024
G1 X114.135 Y110.252 E-.024
;WIPE_END
G1 X114.135 Y117.05 Z.6 F21000
G1 Z.2
G1 E.8 F2700
G1 F986
G1 X114.066 Y117.05 E.00299
G1 X114.032 Y117.11 E.00299
G1 X114.066 Y117.169 E.00299
G1 X114.135 Y117.169 E.00299
G1 X114.17 Y117.11 E.00299
G1 E-.68 F3600
;WIPE_START
G1 F3000
G1 X114.135 Y117.169 E-.024
G1 X114.066 Y117.169 E-.024
G1 X114.032 Y117.11 E-.024
G1 X114.066 Y117.05 E-.024
G1 X114.135 Y117.05 E-.024
;WIPE_END
G1 X120.934 Y117.05 Z.6 F21000
G1 Z.2
G1 E.8 F2700
;WIDTH:0.593152
G1 F986
G1 X120.865 Y117.05 E.00299
G1 X120.83 Y117.11 E.00299
G1 X120.865 Y117.169 E.00299
G1 X120.934 Y117.169 E.00299
G1 X120.968 Y117.11 E.00299
G1 E-.68 F3600
;WIPE_START
G1 F3000
G1 X120.934 Y117.169 E-.024
G1 X120.865 Y117.169 E-.024
G1 X120.83 Y117.11 E-.024
G1 X120.865 Y117.05 E-.024
G1 X120.934 Y117.05 E-.024
;WIPE_END
G1 X121.74 Y117.951 Z.6 F21000
G1 Z.2
G1 E.8 F2700
;TYPE:Outer wall
;WIDTH:0.419999
G1 F986
G1 X113.26 Y117.951 E.25259
G1 X113.26 Y109.471 E.25259
G1 X121.74 Y109.471 E.25259
G1 X121.74 Y117.911 E.2514
G1 E-.68 F3600
;WIPE_START
G1 F3000
G1 X120.74 Y117.915 E-.12
;WIPE_END
G1 X120.933 Y110.285 Z.6 F21000
G1 X120.934 Y110.252 Z.6
G1 Z.2
G1 E.8 F2700
;TYPE:Inner wall
;WIDTH:0.593152
G1 F986
G1 X120.865 Y110.252 E.00299
G1 X120.83 Y110.311 E.00299
G1 X120.865 Y110.371 E.00299
G1 X120.934 Y110.371 E.00299
G1 X120.968 Y110.311 E.00299
; stop printing object 推杆固定板 - 小臂.STL id:0 copy 0
;LAYER_CHANGE
;Z:0.28
;HEIGHT:0.08
;BEFORE_LAYER_CHANGE
G92 E0
;0.28


G1 E-.68 F3600
;WIPE_START
G1 F3000
G1 X120.934 Y110.371 E-.024
G1 X120.865 Y110.371 E-.024
G1 X120.83 Y110.311 E-.024
G1 X120.865 Y110.252 E-.024
G1 X120.934 Y110.252 E-.024
;WIPE_END
EXCLUDE_OBJECT_END NAME=推杆固定板_-_小臂.STL_id_0_copy_0
;AFTER_LAYER_CHANGE
;0.28
;_SET_FAN_SPEED_CHANGING_LAYER
SET_VELOCITY_LIMIT ACCEL=5000 ACCEL_TO_DECEL=2500
SET_VELOCITY_LIMIT SQUARE_CORNER_VELOCITY=9
M140 S70 ; set bed temperature
; printing object 推杆固定板 - 小臂.STL id:0 copy 0
EXCLUDE_OBJECT_START NAME=推杆固定板_-_小臂.STL_id_0_copy_0
G1 X114.402 Y111.008 Z.6 F21000
G1 Z.28
G1 E.8 F2700
SET_VELOCITY_LIMIT ACCEL=3000 ACCEL_TO_DECEL=1500 SQUARE_CORNER_VELOCITY=7
;WIDTH:0.449999
G1 F1093
G1 X114.518 Y110.728 E.00414
G1 X114.855 Y110.553 E.0052
G1 X120.059 Y110.553 E.07116
G1 X120.482 Y110.728 E.00627
G1 X120.658 Y111.152 E.00627
G1 X120.658 Y116.269 E.06998
G1 X120.649 Y116.373 E.00142
G1 X120.482 Y116.693 E.00494
G1 X120.145 Y116.868 E.0052
G1 X114.941 Y116.868 E.07116
G1 X114.518 Y116.693 E.00627
G1 X114.342 Y116.355 E.0052
G1 X114.342 Y111.152 E.07116
G1 X114.387 Y111.045 E.00159
SET_VELOCITY_LIMIT ACCEL=5000 ACCEL_TO_DECEL=2500 SQUARE_CORNER_VELOCITY=9
M73 P3 R16
G1 X114.75 Y111.152 F21000
SET_VELOCITY_LIMIT ACCEL=3000 ACCEL_TO_DECEL=1500 SQUARE_CORNER_VELOCITY=7
;TYPE:Outer wall
;WIDTH:0.399999
G1 F1093
G1 X114.806 Y111.017 E.00177
G1 X114.941 Y110.961 E.00177
G1 X120.059 Y110.961 E.0619
G1 X120.194 Y111.017 E.00177
G1 X120.25 Y111.152 E.00177
G1 X120.25 Y116.269 E.0619
G1 X120.194 Y116.404 E.00177
G1 X120.059 Y116.461 E.00177
G1 X114.941 Y116.461 E.0619
G1 X114.806 Y116.404 E.00177
G1 X114.75 Y116.269 E.00177
G1 X114.75 Y111.192 E.06142
SET_VELOCITY_LIMIT ACCEL=5000 ACCEL_TO_DECEL=2500 SQUARE_CORNER_VELOCITY=9
G1 E-.68 F3600
;WIPE_START
G1 F7200
G1 X114.806 Y111.017 E-.02209
G1 X114.941 Y110.961 E-.01758
G1 X115.611 Y110.961 E-.08033
;WIPE_END
G1 X120.625 Y116.715 Z.68 F21000
G1 X121.442 Y117.653 Z.68
G1 Z.28
G1 E.8 F2700
SET_VELOCITY_LIMIT ACCEL=3000 ACCEL_TO_DECEL=1500 SQUARE_CORNER_VELOCITY=7
;TYPE:Inner wall
;WIDTH:0.449999
G1 F1093
G1 X113.558 Y117.653 E.10783
G1 X113.558 Y109.768 E.10783
G1 X121.442 Y109.768 E.10783
G1 X121.442 Y117.613 E.10728
SET_VELOCITY_LIMIT ACCEL=5000 ACCEL_TO_DECEL=2500 SQUARE_CORNER_VELOCITY=9
G1 X121.85 Y118.061 F21000
SET_VELOCITY_LIMIT ACCEL=3000 ACCEL_TO_DECEL=1500 SQUARE_CORNER_VELOCITY=7
;TYPE:Outer wall
;WIDTH:0.399999
G1 F1093
G1 X113.15 Y118.061 E.10524
G1 X113.15 Y109.361 E.10524
G1 X121.85 Y109.361 E.10524
G1 X121.85 Y118.021 E.10475
SET_VELOCITY_LIMIT ACCEL=5000 ACCEL_TO_DECEL=2500 SQUARE_CORNER_VELOCITY=9
G1 E-.68 F3600
;WIPE_START
G1 F7200
G1 X120.85 Y118.025 E-.12
;WIPE_END
G1 X115.517 Y112.564 Z.68 F21000
G1 X113.983 Y110.993 Z.68
G1 Z.28
G1 E.8 F2700
SET_VELOCITY_LIMIT ACCEL=3000 ACCEL_TO_DECEL=1500 SQUARE_CORNER_VELOCITY=7
;TYPE:Inner wall
;WIDTH:0.465875
G1 F1093
G1 X113.999 Y110.917 E.0011
;WIDTH:0.514474
G1 X114.023 Y110.8 E.00188
;WIDTH:0.563074
G1 X114.047 Y110.683 E.00207
;WIDTH:0.611673
G1 X114.072 Y110.565 E.00225
;WIDTH:0.660273
G1 X114.096 Y110.448 E.00243
;WIDTH:0.708872
G1 X114.12 Y110.331 E.00262
G1 X114.213 Y110.307 E.00209
;WIDTH:0.662419
G1 X114.305 Y110.284 E.00195
;WIDTH:0.615966
G1 X114.398 Y110.261 E.00181
;WIDTH:0.569513
G1 X114.491 Y110.238 E.00167
;WIDTH:0.52306
G1 X114.583 Y110.214 E.00153
;WIDTH:0.476606
G1 X114.676 Y110.191 E.00139
;WIDTH:0.430153
G1 X114.769 Y110.168 E.00125
;WIDTH:0.3837
G1 X114.941 Y110.161 E.002
;WIDTH:0.368676
G1 X120.059 Y110.161 E.05683
;WIDTH:0.417276
G1 X120.176 Y110.185 E.00151
;WIDTH:0.465876
G1 X120.293 Y110.209 E.0017
;WIDTH:0.514476
G1 X120.411 Y110.233 E.00188
;WIDTH:0.563076
G1 X120.528 Y110.258 E.00207
;WIDTH:0.611676
G1 X120.645 Y110.282 E.00225
;WIDTH:0.660276
G1 X120.763 Y110.306 E.00243
;WIDTH:0.708876
G1 X120.88 Y110.331 E.00262
G1 X120.904 Y110.448 E.00262
;WIDTH:0.660276
G1 X120.929 Y110.565 E.00243
;WIDTH:0.611676
G1 X120.953 Y110.683 E.00225
;WIDTH:0.563075
G1 X120.977 Y110.8 E.00207
;WIDTH:0.514475
G1 X121.001 Y110.917 E.00188
;WIDTH:0.465875
G1 X121.026 Y111.035 E.0017
;WIDTH:0.417274
G1 X121.05 Y111.152 E.00151
;WIDTH:0.368674
G1 X121.05 Y116.412 E.05842
;WIDTH:0.417274
G1 X121.026 Y116.509 E.00126
;WIDTH:0.465875
G1 X121.001 Y116.606 E.00142
;WIDTH:0.514475
G1 X120.977 Y116.703 E.00157
;WIDTH:0.563075
G1 X120.953 Y116.8 E.00172
;WIDTH:0.611676
G1 X120.929 Y116.897 E.00188
;WIDTH:0.660276
G1 X120.904 Y116.993 E.00203
;WIDTH:0.708876
G1 X120.88 Y117.09 E.00218
G1 X120.787 Y117.114 E.00209
;WIDTH:0.662422
G1 X120.695 Y117.137 E.00195
;WIDTH:0.615969
G1 X120.602 Y117.16 E.00181
;WIDTH:0.569515
G1 X120.509 Y117.183 E.00167
;WIDTH:0.523061
G1 X120.417 Y117.207 E.00153
;WIDTH:0.476608
G1 X120.324 Y117.23 E.00139
;WIDTH:0.430154
G1 X120.231 Y117.253 E.00125
;WIDTH:0.3837
G1 X120.059 Y117.261 E.002
;WIDTH:0.368676
G1 X114.941 Y117.261 E.05683
;WIDTH:0.417276
G1 X114.824 Y117.236 E.00151
;WIDTH:0.465875
G1 X114.707 Y117.212 E.0017
;WIDTH:0.514474
G1 X114.589 Y117.188 E.00188
;WIDTH:0.563074
G1 X114.472 Y117.163 E.00207
;WIDTH:0.611673
G1 X114.355 Y117.139 E.00225
;WIDTH:0.660273
G1 X114.237 Y117.115 E.00243
;WIDTH:0.708872
G1 X114.12 Y117.09 E.00262
G1 X114.097 Y116.998 E.00209
;WIDTH:0.662419
G1 X114.074 Y116.905 E.00195
;WIDTH:0.615966
G1 X114.05 Y116.812 E.00181
;WIDTH:0.569513
G1 X114.027 Y116.72 E.00167
;WIDTH:0.52306
G1 X114.004 Y116.627 E.00153
;WIDTH:0.476606
G1 X113.981 Y116.534 E.00139
;WIDTH:0.430153
G1 X113.958 Y116.442 E.00125
;WIDTH:0.3837
G1 X113.95 Y116.269 E.002
;WIDTH:0.368676
G1 X113.95 Y111.152 E.05683
;WIDTH:0.417276
G1 X113.974 Y111.035 E.00151
;WIDTH:0.465875
G1 X113.975 Y111.032 E.00003
; stop printing object 推杆固定板 - 小臂.STL id:0 copy 0
;LAYER_CHANGE
;Z:0.36
;HEIGHT:0.08
;BEFORE_LAYER_CHANGE
G92 E0
;0.36


G1 E-.68 F3600
;WIPE_START
G1 F12000
G1 X113.999 Y110.917 E-.01409
G1 X114.023 Y110.8 E-.01438
G1 X114.047 Y110.683 E-.01438
G1 X114.072 Y110.565 E-.01438
G1 X114.096 Y110.448 E-.01438
G1 X114.12 Y110.331 E-.01438
G1 X114.213 Y110.307 E-.01146
G1 X114.305 Y110.284 E-.01146
G1 X114.395 Y110.262 E-.01109
;WIPE_END
EXCLUDE_OBJECT_END NAME=推杆固定板_-_小臂.STL_id_0_copy_0
;AFTER_LAYER_CHANGE
;0.36
;_SET_FAN_SPEED_CHANGING_LAYER
; printing object 推杆固定板 - 小臂.STL id:0 copy 0
SET_VELOCITY_LIMIT ACCEL=5000 ACCEL_TO_DECEL=2500 SQUARE_CORNER_VELOCITY=9
EXCLUDE_OBJECT_START NAME=推杆固定板_-_小臂.STL_id_0_copy_0
G1 X114.402 Y111.008 Z.68 F21000
G1 Z.36
G1 E.8 F2700
SET_VELOCITY_LIMIT ACCEL=3000 ACCEL_TO_DECEL=1500 SQUARE_CORNER_VELOCITY=7
;WIDTH:0.449999
G1 F1089
G1 X114.518 Y110.728 E.00414
G1 X114.855 Y110.553 E.0052
G1 X120.059 Y110.553 E.07116
G1 X120.482 Y110.728 E.00627
G1 X120.658 Y111.152 E.00627
G1 X120.658 Y116.269 E.06998
G1 X120.649 Y116.373 E.00142
G1 X120.482 Y116.693 E.00494
G1 X120.145 Y116.868 E.0052
G1 X114.941 Y116.868 E.07116
G1 X114.518 Y116.693 E.00627
G1 X114.342 Y116.355 E.0052
G1 X114.342 Y111.152 E.07116
G1 X114.387 Y111.045 E.00159
SET_VELOCITY_LIMIT ACCEL=5000 ACCEL_TO_DECEL=2500 SQUARE_CORNER_VELOCITY=9
G1 X114.75 Y111.152 F21000
SET_VELOCITY_LIMIT ACCEL=3000 ACCEL_TO_DECEL=1500 SQUARE_CORNER_VELOCITY=7
;TYPE:Outer wall
;WIDTH:0.399999
G1 F1089
G1 X114.806 Y111.017 E.00177
G1 X114.941 Y110.961 E.00177
G1 X120.059 Y110.961 E.0619
G1 X120.194 Y111.017 E.00177
G1 X120.25 Y111.152 E.00177
G1 X120.25 Y116.269 E.0619
G1 X120.194 Y116.404 E.00177
G1 X120.059 Y116.461 E.00177
G1 X114.941 Y116.461 E.0619
G1 X114.806 Y116.404 E.00177
G1 X114.75 Y116.269 E.00177
G1 X114.75 Y111.192 E.06142
SET_VELOCITY_LIMIT ACCEL=5000 ACCEL_TO_DECEL=2500 SQUARE_CORNER_VELOCITY=9
G1 E-.68 F3600
;WIPE_START
G1 F7200
G1 X114.806 Y111.017 E-.02209
G1 X114.941 Y110.961 E-.01758
G1 X115.611 Y110.961 E-.08033
;WIPE_END
G1 X120.625 Y116.715 Z.76 F21000
G1 X121.442 Y117.653 Z.76
G1 Z.36
G1 E.8 F2700
SET_VELOCITY_LIMIT ACCEL=3000 ACCEL_TO_DECEL=1500 SQUARE_CORNER_VELOCITY=7
;TYPE:Inner wall
;WIDTH:0.449999
G1 F1089
G1 X113.558 Y117.653 E.10783
G1 X113.558 Y109.768 E.10783
M73 P4 R16
G1 X121.442 Y109.768 E.10783
G1 X121.442 Y117.613 E.10728
SET_VELOCITY_LIMIT ACCEL=5000 ACCEL_TO_DECEL=2500 SQUARE_CORNER_VELOCITY=9
G1 X121.85 Y118.061 F21000
SET_VELOCITY_LIMIT ACCEL=3000 ACCEL_TO_DECEL=1500 SQUARE_CORNER_VELOCITY=7
;TYPE:Outer wall
;WIDTH:0.399999
G1 F1089
G1 X113.15 Y118.061 E.10524
G1 X113.15 Y109.361 E.10524
G1 X121.85 Y109.361 E.10524
G1 X121.85 Y118.021 E.10475
SET_VELOCITY_LIMIT ACCEL=5000 ACCEL_TO_DECEL=2500 SQUARE_CORNER_VELOCITY=9
G1 E-.68 F3600
;WIPE_START
G1 F7200
G1 X120.85 Y118.025 E-.12
;WIPE_END
G1 X115.517 Y112.564 Z.76 F21000
G1 X113.983 Y110.993 Z.76
G1 Z.36
G1 E.8 F2700
SET_VELOCITY_LIMIT ACCEL=3000 ACCEL_TO_DECEL=1500 SQUARE_CORNER_VELOCITY=7
;TYPE:Inner wall
;WIDTH:0.465875
G1 F1089
G1 X113.999 Y110.917 E.0011
;WIDTH:0.514474
G1 X114.023 Y110.8 E.00188
;WIDTH:0.563074
G1 X114.047 Y110.683 E.00207
;WIDTH:0.611673
G1 X114.072 Y110.565 E.00225
;WIDTH:0.660273
G1 X114.096 Y110.448 E.00243
;WIDTH:0.708872
G1 X114.12 Y110.331 E.00262
G1 X114.213 Y110.307 E.00209
;WIDTH:0.662419
G1 X114.305 Y110.284 E.00195
;WIDTH:0.615966
G1 X114.398 Y110.261 E.00181
;WIDTH:0.569513
G1 X114.491 Y110.238 E.00167
;WIDTH:0.52306
G1 X114.583 Y110.214 E.00153
;WIDTH:0.476606
G1 X114.676 Y110.191 E.00139
;WIDTH:0.430153
G1 X114.769 Y110.168 E.00125
;WIDTH:0.3837
G1 X114.941 Y110.161 E.002
;WIDTH:0.368676
G1 X120.059 Y110.161 E.05683
;WIDTH:0.417276
G1 X120.176 Y110.185 E.00151
;WIDTH:0.465876
G1 X120.293 Y110.209 E.0017
;WIDTH:0.514476
G1 X120.411 Y110.233 E.00188
;WIDTH:0.563076
G1 X120.528 Y110.258 E.00207
;WIDTH:0.611676
G1 X120.645 Y110.282 E.00225
;WIDTH:0.660276
G1 X120.763 Y110.306 E.00243
;WIDTH:0.708876
G1 X120.88 Y110.331 E.00262
