; HEADER_BLOCK_START
; generated by OrcaSlicer 2.1.1 on 2025-01-25 at 16:31:17
; total layer number: 82
; filament_density: 1.27
; filament_diameter: 1.75
; max_z_height: 6.68
; HEADER_BLOCK_END

; THUMBNAIL_BLOCK_START

;
; THUMBNAIL_BLOCK_END







; external perimeters extrusion width = 0.40mm
; perimeters extrusion width = 0.45mm
; infill extrusion width = 0.45mm
; solid infill extrusion width = 0.45mm
; top infill extrusion width = 0.38mm
; first layer extrusion width = 0.42mm

; EXECUTABLE_BLOCK_START
EXCLUDE_OBJECT_DEFINE NAME=支撑1.STL_id_0_copy_0 CENTER=117.5,115 POLYGON=[[113.85,115],[113.876,114.52],[113.952,114.046],[114.079,113.583],[114.254,113.136],[114.476,112.71],[114.742,112.31],[115.05,111.941],[115.394,111.607],[115.773,111.311],[116.181,111.057],[116.613,110.849],[117.066,110.687],[117.533,110.575],[118.009,110.513],[118.489,110.502],[118.968,110.543],[119.439,110.634],[119.898,110.775],[120.34,110.964],[120.759,111.199],[121.15,111.477],[121.15,118.523],[120.759,118.801],[120.34,119.036],[119.898,119.225],[119.439,119.366],[118.968,119.457],[118.489,119.498],[118.009,119.487],[117.533,119.425],[117.066,119.313],[116.613,119.151],[116.181,118.943],[115.773,118.689],[115.394,118.393],[115.05,118.059],[114.742,117.69],[114.476,117.29],[114.254,116.864],[114.079,116.417],[113.952,115.954],[113.876,115.48],[113.85,115]]
M73 P0 R11
;TYPE:Custom
;ELEGOO NEPTUNE 4 PRO
M220 S100 ;Set the feed speed to 100%
M221 S100 ;Set the flow rate to 100%
M104 S140
M190 S70
G90
G28 ;home
G1 Z10 F300
G1 X67.5 Y0 F6000
G1 Z0 F300
M109 S240
G92 E0 ;Reset Extruder
G1 X67.5 Y0 Z0.4 F300 ;Move to start position
G1 X167.5 E30 F400 ;Draw the first line
G1 Z0.6 F120.0 ;Move to side a little
M73 P2 R11
G1 X162.5 F3000
G92 E0 ;Reset Extruder
G90
G21
M83 ; use relative distances for extrusion
; filament start gcode
M106 S0
;LAYER_CHANGE
;Z:0.2
;HEIGHT:0.2
;BEFORE_LAYER_CHANGE
G92 E0
;0.2


G1 E-.8 F3600
;AFTER_LAYER_CHANGE
;0.2
;_SET_FAN_SPEED_CHANGING_LAYER
SET_VELOCITY_LIMIT ACCEL=1000 ACCEL_TO_DECEL=500
SET_VELOCITY_LIMIT SQUARE_CORNER_VELOCITY=7
; printing object 支撑1.STL id:0 copy 0
EXCLUDE_OBJECT_START NAME=支撑1.STL_id_0_copy_0
G1 X120.027 Y112.674 F21000
G1 Z.4
G1 Z.2
G1 E.8 F2700
;TYPE:Inner wall
;WIDTH:0.537175
G1 F847
G1 X119.824 Y112.536 E.0096
G1 X119.317 Y112.298 E.02186
;WIDTH:0.530944
G1 X118.748 Y112.16 E.02255
;WIDTH:0.543359
G1 X118.168 Y112.136 E.02296
G1 X117.522 Y112.252 E.02593
;WIDTH:0.540841
G1 X117.025 Y112.454 E.02113
;WIDTH:0.53577
M73 P3 R11
G1 X116.602 Y112.725 E.01955
;WIDTH:0.531784
G1 X116.213 Y113.085 E.02047
;WIDTH:0.529839
G1 X115.897 Y113.511 E.02039
;WIDTH:0.531309
G1 X115.666 Y113.988 E.02045
;WIDTH:0.534858
G1 X115.528 Y114.479 E.01981
;WIDTH:0.540378
G1 X115.479 Y114.989 E.02017
;WIDTH:0.541776
G1 X115.546 Y115.608 E.02453
G1 X115.741 Y116.2 E.02453
;WIDTH:0.540201
G1 X115.993 Y116.637 E.01985
;WIDTH:0.534578
G1 X116.305 Y117.011 E.0189
;WIDTH:0.540815
G1 X116.691 Y117.346 E.0201
G1 X117.245 Y117.651 E.02487
;WIDTH:0.543623
G1 X117.816 Y117.816 E.02349
G1 X118.427 Y117.871 E.02429
;WIDTH:0.539692
G1 X118.959 Y117.803 E.02104
;WIDTH:0.53593
G1 X119.465 Y117.643 E.02065
;WIDTH:0.538468
G1 X120.027 Y117.331 E.02517
G1 X120.027 Y117.907 E.02253
G1 X119.619 Y118.108 E.01778
;WIDTH:0.538584
G1 X119.139 Y118.274 E.01989
G1 X118.542 Y118.357 E.02362
G1 X118.174 Y118.35 E.0144
;WIDTH:0.53835
G1 X117.65 Y118.288 E.02067
;WIDTH:0.538834
G1 X117.092 Y118.122 E.02281
G1 X116.855 Y118.006 E.01035
;WIDTH:0.540899
G1 X116.362 Y117.722 E.02237
G1 X115.943 Y117.338 E.02234
;WIDTH:0.534578
G1 X115.573 Y116.891 E.02254
;WIDTH:0.538803
G1 X115.305 Y116.435 E.02071
G1 X115.151 Y116.016 E.0175
;WIDTH:0.533184
G1 X115.033 Y115.526 E.0195
;WIDTH:0.538417
G1 X114.985 Y114.947 E.02274
G1 X115.053 Y114.312 E.025
G1 X115.202 Y113.834 E.0196
;WIDTH:0.531309
G1 X115.437 Y113.335 E.02127
;WIDTH:0.533645
G1 X115.764 Y112.856 E.02248
;WIDTH:0.540011
G1 X116.119 Y112.478 E.02035
G1 X116.338 Y112.313 E.01078
;WIDTH:0.53577
G1 X116.828 Y112.002 E.02261
;WIDTH:0.540841
G1 X117.415 Y111.766 E.02486
;WIDTH:0.543359
G1 X118.102 Y111.64 E.02761
G1 X118.483 Y111.636 E.01506
;WIDTH:0.539841
G1 X119.014 Y111.706 E.02104
;WIDTH:0.534257
G1 X119.569 Y111.874 E.02252
;WIDTH:0.537175
G1 X120.027 Y112.093 E.01982
G1 X120.027 Y112.634 E.02111
G1 E-.68 F3600
;WIPE_START
G1 F3000
G1 X119.824 Y112.536 E-.0271
G1 X119.317 Y112.298 E-.06718
G1 X119.109 Y112.248 E-.02572
;WIPE_END
G1 X120.463 Y113.761 Z.6 F21000
G1 Z.2
G1 E.8 F2700
;WIDTH:0.419999
G1 F847
G1 X120.21 Y113.427 E.01247
G1 X119.917 Y113.135 E.01231
G1 X119.58 Y112.897 E.01231
G1 X119.207 Y112.72 E.01231
G1 X118.713 Y112.591 E.0152
G1 X118.205 Y112.573 E.01512
G1 X117.633 Y112.675 E.01733
G1 X117.204 Y112.85 E.0138
G1 X116.775 Y113.142 E.01545
G1 X116.403 Y113.545 E.01633
G1 X116.124 Y114.017 E.01634
G1 X115.979 Y114.44 E.01332
G1 X115.916 Y114.971 E.01593
G1 X115.975 Y115.516 E.01633
G1 X116.147 Y116.037 E.01633
G1 X116.363 Y116.41 E.01285
G1 X116.63 Y116.725 E.01231
G1 X116.946 Y116.991 E.01231
G1 X117.391 Y117.239 E.01515
G1 X117.871 Y117.381 E.01492
G1 X118.394 Y117.436 E.01565
G1 X118.893 Y117.373 E.015
G1 X119.309 Y117.239 E.01302
G1 X119.674 Y117.045 E.01231
G1 X120.001 Y116.791 E.01231
G1 X120.28 Y116.487 E.01231
G1 X120.463 Y116.203 E.01005
G1 X120.463 Y118.148 E.05791
G1 X120.035 Y118.417 E.01504
G1 X119.272 Y118.696 E.02422
G1 X118.468 Y118.808 E.02419
G1 X117.658 Y118.746 E.02419
G1 X116.88 Y118.514 E.02419
G1 X116.367 Y118.233 E.01741
G1 X115.858 Y117.883 E.0184
G1 X115.296 Y117.277 E.02462
G1 X114.883 Y116.578 E.02419
G1 X114.627 Y115.807 E.02419
G1 X114.54 Y115 E.02419
G1 X114.627 Y114.193 E.02419
G1 X114.883 Y113.422 E.02419
G1 X115.296 Y112.723 E.02419
G1 X115.848 Y112.127 E.02418
G1 X116.514 Y111.662 E.02419
G1 X117.263 Y111.349 E.02419
G1 X118.022 Y111.209 E.02299
G1 X118.453 Y111.19 E.01284
G1 X119.272 Y111.304 E.02464
G1 X120.035 Y111.583 E.02421
G1 X120.463 Y111.852 E.01505
G1 X120.463 Y113.721 E.05565
G1 E-.68 F3600
;WIPE_START
G1 F3000
G1 X120.21 Y113.427 E-.04651
G1 X119.917 Y113.135 E-.04958
G1 X119.754 Y113.02 E-.02391
;WIPE_END
G1 X120.84 Y118.356 Z.6 F21000
G1 Z.2
G1 E.8 F2700
;TYPE:Outer wall
G1 F847
G1 X120.202 Y118.757 E.02243
G1 X119.364 Y119.064 E.0266
G1 X118.479 Y119.187 E.02659
G1 X117.589 Y119.119 E.0266
G1 X116.733 Y118.864 E.0266
G1 X116.027 Y118.476 E.02402
G1 X115.602 Y118.162 E.01573
G1 X114.992 Y117.504 E.02674
G1 X114.538 Y116.735 E.0266
G1 X114.256 Y115.888 E.02659
G1 X114.161 Y115 E.02659
G1 X114.256 Y114.112 E.02659
G1 X114.538 Y113.265 E.02659
G1 X114.992 Y112.496 E.0266
G1 X115.599 Y111.841 E.02659
G1 X116.331 Y111.33 E.02659
G1 X117.154 Y110.985 E.0266
G1 X117.953 Y110.838 E.0242
G1 X118.474 Y110.813 E.01554
G1 X119.364 Y110.936 E.02675
G1 X120.202 Y111.243 E.0266
G1 X120.84 Y111.644 E.02244
G1 X120.84 Y113.661 E.06008
;WIDTH:0.420686
G1 X120.84 Y114.161 E.01492
;WIDTH:0.447267
G1 X120.826 Y114.938 E.02481
G1 X120.84 Y115.72 E.02499
;WIDTH:0.419999
G1 X120.84 Y118.316 E.07733
G1 E-.68 F3600
;WIPE_START
G1 F3000
G1 X120.202 Y118.757 E-.09302
G1 X119.991 Y118.834 E-.02698
;WIPE_END
G1 X120.421 Y114.914 Z.6 F21000
G1 Z.2
G1 E.8 F2700
;WIDTH:0.459993
G1 F847
G1 X120.422 Y114.929 E.00049
;WIDTH:0.455447
G1 X120.408 Y115.281 E.01148
G1 X120.198 Y115.909 E.02157
;WIDTH:0.419999
G1 X119.997 Y116.238 E.01148
G1 X119.764 Y116.498 E.01041
G1 X119.49 Y116.715 E.01041
G1 X119.184 Y116.884 E.01041
G1 X118.845 Y116.999 E.01064
G1 X118.336 Y117.06 E.01529
G1 X117.825 Y116.992 E.01536
G1 X117.487 Y116.87 E.01069
M73 P4 R11
G1 X116.995 Y116.545 E.01758
G1 X116.684 Y116.212 E.01356
G1 X116.516 Y115.939 E.00956
G1 X116.343 Y115.437 E.01582
G1 X116.291 Y114.929 E.01521
G1 X116.34 Y114.55 E.01135
G1 X116.46 Y114.186 E.01142
G1 X116.706 Y113.769 E.01443
G1 X117.066 Y113.389 E.01559
G1 X117.359 Y113.194 E.01049
G1 X117.728 Y113.04 E.01189
G1 X118.237 Y112.948 E.01542
G1 X118.714 Y112.973 E.01421
G1 X119.051 Y113.063 E.01041
G1 X119.368 Y113.21 E.01041
G1 X119.656 Y113.407 E.01041
G1 X119.907 Y113.651 E.01041
G1 X120.112 Y113.934 E.01041
;WIDTH:0.459993
G1 X120.379 Y114.545 E.02197
G1 X120.416 Y114.875 E.01094
; stop printing object 支撑1.STL id:0 copy 0
;LAYER_CHANGE
;Z:0.28
;HEIGHT:0.08
;BEFORE_LAYER_CHANGE
G92 E0
;0.28


G1 E-.68 F3600
;WIPE_START
G1 F3000
G1 X120.422 Y114.929 E-.0066
G1 X120.408 Y115.281 E-.04228
G1 X120.22 Y115.843 E-.07112
;WIPE_END
EXCLUDE_OBJECT_END NAME=支撑1.STL_id_0_copy_0
;AFTER_LAYER_CHANGE
;0.28
;_SET_FAN_SPEED_CHANGING_LAYER
SET_VELOCITY_LIMIT ACCEL=5000 ACCEL_TO_DECEL=2500
SET_VELOCITY_LIMIT SQUARE_CORNER_VELOCITY=9
M140 S70 ; set bed temperature
; printing object 支撑1.STL id:0 copy 0
EXCLUDE_OBJECT_START NAME=支撑1.STL_id_0_copy_0
G1 X120.053 Y112.723 Z.6 F21000
G1 Z.28
G1 E.8 F2700
SET_VELOCITY_LIMIT ACCEL=3000 ACCEL_TO_DECEL=1500 SQUARE_CORNER_VELOCITY=7
;TYPE:Inner wall
;WIDTH:0.562229
G1 F805
G1 X119.817 Y112.563 E.00491
;WIDTH:0.565465
G1 X119.256 Y112.3 E.01074
G1 X118.733 Y112.185 E.00927
;WIDTH:0.572406
G1 X118.153 Y112.165 E.01018
G1 X117.521 Y112.278 E.01127
;WIDTH:0.569454
G1 X117.019 Y112.483 E.00947
;WIDTH:0.566274
G1 X116.574 Y112.773 E.0092
;WIDTH:0.565035
G1 X116.192 Y113.141 E.00918
;WIDTH:0.567001
G1 X115.879 Y113.587 E.00947
;WIDTH:0.569673
G1 X115.652 Y114.098 E.00976
G1 X115.521 Y114.702 E.0108
G1 X115.516 Y115.27 E.0099
;WIDTH:0.567145
G1 X115.603 Y115.745 E.00839
;WIDTH:0.578326
G1 X115.768 Y116.163 E.00797
G1 X116.098 Y116.743 E.01184
;WIDTH:0.567217
G1 X116.448 Y117.118 E.00892
;WIDTH:0.568962
G1 X117.013 Y117.51 E.01199
G1 X117.549 Y117.733 E.01012
;WIDTH:0.568135
G1 X118.06 Y117.833 E.00907
;WIDTH:0.565564
G1 X118.591 Y117.838 E.00919
G1 X119.113 Y117.744 E.00919
;WIDTH:0.568016
G1 X119.606 Y117.555 E.0092
G1 X120.05 Y117.282 E.00907
G1 X120.05 Y117.938 E.01142
G1 X119.637 Y118.142 E.00802
;WIDTH:0.566633
G1 X119.076 Y118.317 E.01021
;WIDTH:0.569345
G1 X118.44 Y118.396 E.01118
G1 X117.935 Y118.369 E.00883
;WIDTH:0.568113
G1 X117.359 Y118.25 E.01024
G1 X116.841 Y118.041 E.00973
;WIDTH:0.566197
G1 X116.359 Y117.733 E.00992
;WIDTH:0.566849
G1 X115.917 Y117.369 E.00995
G1 X115.572 Y116.954 E.00938
;WIDTH:0.578326
G1 X115.256 Y116.392 E.01143
G1 X115.07 Y115.875 E.00974
;WIDTH:0.567145
G1 X114.967 Y115.296 E.01022
;WIDTH:0.569761
G1 X114.971 Y114.653 E.01123
G1 X115.061 Y114.157 E.00879
;WIDTH:0.56885
G1 X115.264 Y113.579 E.01068
G1 X115.527 Y113.114 E.00931
;WIDTH:0.567461
G1 X115.893 Y112.654 E.01022
;WIDTH:0.569906
G1 X116.417 Y112.207 E.01203
G1 X117.025 Y111.872 E.01213
;WIDTH:0.570844
G1 X117.466 Y111.723 E.00813
;WIDTH:0.572406
G1 X118.07 Y111.616 E.01076
G1 X118.485 Y111.611 E.00728
;WIDTH:0.569217
G1 X119.178 Y111.708 E.01222
G1 X119.606 Y111.845 E.00784
;WIDTH:0.566689
G1 X120.053 Y112.081 E.00877
;WIDTH:0.562229
G1 X120.053 Y112.683 E.01037
SET_VELOCITY_LIMIT ACCEL=5000 ACCEL_TO_DECEL=2500 SQUARE_CORNER_VELOCITY=9
G1 E-.68 F3600
;WIPE_START
G1 F12000
G1 X119.817 Y112.563 E-.03177
G1 X119.256 Y112.3 E-.07439
G1 X119.143 Y112.275 E-.01384
;WIPE_END
G1 X120.542 Y114.199 Z.68 F21000
G1 Z.28
G1 E.8 F2700
SET_VELOCITY_LIMIT ACCEL=3000 ACCEL_TO_DECEL=1500 SQUARE_CORNER_VELOCITY=7
;WIDTH:0.449999
G1 F805
G1 X120.404 Y113.855 E.00508
G1 X120.152 Y113.482 E.00615
G1 X119.869 Y113.199 E.00547
G1 X119.455 Y112.919 E.00685
G1 X118.947 Y112.726 E.00743
G1 X118.387 Y112.645 E.00774
G1 X117.918 Y112.707 E.00647
G1 X117.462 Y112.821 E.00642
G1 X116.993 Y113.079 E.00732
G1 X116.615 Y113.405 E.00683
G1 X116.33 Y113.785 E.0065
G1 X116.123 Y114.242 E.00686
G1 X116.009 Y114.765 E.00732
G1 X116.008 Y115.271 E.00693
G1 X116.133 Y115.785 E.00723
G1 X116.401 Y116.316 E.00813
G1 X116.757 Y116.736 E.00753
G1 X117.253 Y117.081 E.00826
G1 X117.707 Y117.267 E.00672
G1 X118.124 Y117.347 E.0058
G1 X118.649 Y117.335 E.00718
G1 X119.168 Y117.205 E.00732
G1 X119.627 Y116.98 E.007
G1 X119.943 Y116.736 E.00547
G1 X120.299 Y116.315 E.00753
G1 X120.542 Y115.833 E.00739
G1 X120.542 Y118.209 E.03249
G1 X120.422 Y118.293 E.00201
G1 X119.83 Y118.593 E.00907
G1 X119.292 Y118.776 E.00778
G1 X118.794 Y118.862 E.0069
G1 X118.184 Y118.883 E.00836
G1 X117.684 Y118.832 E.00687
G1 X117.194 Y118.713 E.0069
G1 X116.544 Y118.443 E.00962
G1 X116.081 Y118.131 E.00764
G1 X115.652 Y117.797 E.00743
G1 X115.299 Y117.408 E.00719
G1 X114.981 Y116.944 E.0077
G1 X114.73 Y116.412 E.00804
G1 X114.547 Y115.825 E.00841
G1 X114.476 Y115.322 E.00694
G1 X114.487 Y114.545 E.01063
G1 X114.587 Y114.028 E.0072
G1 X114.827 Y113.352 E.00981
G1 X115.208 Y112.708 E.01022
G1 X115.551 Y112.302 E.00728
G1 X116.122 Y111.81 E.0103
G1 X116.566 Y111.546 E.00708
G1 X117.049 Y111.338 E.00719
G1 X117.684 Y111.168 E.009
G1 X118.393 Y111.112 E.00972
G1 X118.937 Y111.178 E.00749
G1 X119.561 Y111.307 E.00871
G1 X120.056 Y111.503 E.00729
G1 X120.542 Y111.811 E.00787
G1 X120.542 Y114.159 E.03211
SET_VELOCITY_LIMIT ACCEL=5000 ACCEL_TO_DECEL=2500 SQUARE_CORNER_VELOCITY=9
G1 E-.68 F3600
;WIPE_START
G1 F12000
G1 X120.404 Y113.855 E-.0402
G1 X120.152 Y113.482 E-.05396
G1 X120 Y113.329 E-.02584
;WIPE_END
G1 X120.95 Y118.42 Z.68 F21000
G1 Z.28
G1 E.8 F2700
SET_VELOCITY_LIMIT ACCEL=3000 ACCEL_TO_DECEL=1500 SQUARE_CORNER_VELOCITY=7
;TYPE:Outer wall
;WIDTH:0.399999
G1 F805
G1 X120.621 Y118.649 E.00485
G1 X119.991 Y118.968 E.00855
G1 X119.451 Y119.153 E.00691
G1 X118.94 Y119.259 E.00631
G1 X118.42 Y119.296 E.00631
G1 X117.819 Y119.261 E.00728
G1 X117.314 Y119.167 E.00621
G1 X116.75 Y118.988 E.00716
G1 X116.282 Y118.769 E.00624
G1 X115.603 Y118.295 E.01002
G1 X115.291 Y118.015 E.00507
G1 X114.943 Y117.618 E.00638
G1 X114.649 Y117.188 E.00631
G1 X114.413 Y116.722 E.00631
G1 X114.203 Y116.112 E.00781
G1 X114.085 Y115.52 E.0073
G1 X114.05 Y115 E.00631
G1 X114.085 Y114.48 E.00631
G1 X114.194 Y113.92 E.00689
G1 X114.358 Y113.419 E.00638
G1 X114.62 Y112.868 E.00738
G1 X114.903 Y112.43 E.00631
G1 X115.267 Y112.009 E.00673
G1 X115.838 Y111.514 E.00914
G1 X116.277 Y111.233 E.00631
G1 X116.75 Y111.012 E.00631
G1 X117.255 Y110.847 E.00643
G1 X117.962 Y110.721 E.00868
M73 P5 R11
G1 X118.478 Y110.702 E.00625
G1 X119.15 Y110.796 E.00821
G1 X119.769 Y110.944 E.00771
G1 X120.247 Y111.141 E.00624
G1 X120.95 Y111.587 E.01007
G1 X120.95 Y113.828 E.0271
;WIDTH:0.438871
G1 X120.931 Y114.011 E.00246
;WIDTH:0.477743
G1 X120.911 Y114.194 E.00268
;WIDTH:0.516614
G1 X120.892 Y114.378 E.00291
;WIDTH:0.555486
G1 X120.872 Y114.561 E.00314
G1 X120.88 Y115.246 E.01164
;WIDTH:0.540925
G1 X120.903 Y115.423 E.00297
;WIDTH:0.49395
G1 X120.927 Y115.601 E.0027
;WIDTH:0.446974
G1 X120.95 Y115.779 E.00244
;WIDTH:0.399999
G1 X120.95 Y118.38 E.03146
SET_VELOCITY_LIMIT ACCEL=5000 ACCEL_TO_DECEL=2500 SQUARE_CORNER_VELOCITY=9
G1 E-.68 F3600
;WIPE_START
G1 F7200
G1 X120.621 Y118.649 E-.05097
G1 X120.108 Y118.909 E-.06903
;WIPE_END
G1 X120.347 Y114.942 Z.68 F21000
G1 Z.28
G1 E.8 F2700
SET_VELOCITY_LIMIT ACCEL=3000 ACCEL_TO_DECEL=1500 SQUARE_CORNER_VELOCITY=7
;WIDTH:0.555486
G1 F805
G1 X120.356 Y115.234 E.00498
;WIDTH:0.540925
G1 X120.216 Y115.534 E.00547
;WIDTH:0.49395
G1 X120.075 Y115.833 E.00498
;WIDTH:0.446974
G1 X119.935 Y116.132 E.00449
;WIDTH:0.399999
G1 X119.687 Y116.419 E.00458
G1 X119.202 Y116.751 E.00711
G1 X118.825 Y116.891 E.00486
G1 X118.446 Y116.944 E.00463
G1 X117.875 Y116.891 E.00695
G1 X117.452 Y116.725 E.0055
G1 X117.013 Y116.419 E.00647
G1 X116.725 Y116.052 E.00563
G1 X116.498 Y115.601 E.00611
G1 X116.414 Y115.231 E.00458
G1 X116.414 Y114.817 E.00502
G1 X116.535 Y114.288 E.00656
G1 X116.794 Y113.834 E.00632
G1 X117.138 Y113.473 E.00603
G1 X117.63 Y113.192 E.00685
G1 X118.307 Y113.054 E.00836
G1 X118.695 Y113.081 E.00471
G1 X119.213 Y113.257 E.00661
G1 X119.587 Y113.494 E.00536
G1 X119.824 Y113.724 E.004
G1 X120.025 Y114.007 E.00419
;WIDTH:0.433668
G1 X120.115 Y114.184 E.00262
;WIDTH:0.467337
G1 X120.204 Y114.362 E.00283
;WIDTH:0.501006
G1 X120.294 Y114.539 E.00304
;WIDTH:0.528246
G1 X120.315 Y114.567 E.00057
;WIDTH:0.555486
G1 X120.336 Y114.595 E.0006
G1 X120.346 Y114.902 E.00521
; stop printing object 支撑1.STL id:0 copy 0
;LAYER_CHANGE
;Z:0.36
;HEIGHT:0.08
;BEFORE_LAYER_CHANGE
G92 E0
;0.36


G1 E-.68 F3600
