; HEADER_BLOCK_START
; generated by OrcaSlicer 2.1.1 on 2024-12-07 at 18:18:02
; total layer number: 205
; filament_density: 1.27
; filament_diameter: 1.75
; max_z_height: 16.52
; HEADER_BLOCK_END

; THUMBNAIL_BLOCK_START

;
; THUMBNAIL_BLOCK_END







; external perimeters extrusion width = 0.40mm
; perimeters extrusion width = 0.45mm
; infill extrusion width = 0.45mm
; solid infill extrusion width = 0.45mm
; top infill extrusion width = 0.38mm
; first layer extrusion width = 0.42mm

; EXECUTABLE_BLOCK_START
EXCLUDE_OBJECT_DEFINE NAME=支撑6.STL_id_0_copy_0 CENTER=117.5,115 POLYGON=[[113.752,114.869],[113.807,114.349],[113.934,113.841],[114.13,113.356],[114.391,112.903],[114.713,112.491],[115.09,112.127],[115.513,111.82],[115.975,111.574],[116.466,111.395],[116.978,111.286],[117.5,111.25],[118.022,111.286],[118.534,111.395],[119.025,111.574],[119.487,111.82],[119.91,112.127],[120.287,112.491],[120.609,112.903],[120.87,113.356],[121.066,113.841],[121.193,114.349],[121.248,114.869],[121.229,115.392],[121.139,115.907],[120.977,116.405],[120.748,116.875],[120.455,117.309],[120.105,117.698],[119.704,118.034],[119.261,118.311],[118.783,118.524],[118.28,118.668],[117.762,118.741],[117.5,118.75],[117.238,118.741],[116.72,118.668],[116.217,118.524],[115.739,118.311],[115.296,118.034],[114.895,117.698],[114.545,117.309],[114.252,116.875],[114.023,116.405],[113.861,115.907],[113.771,115.392],[113.752,114.869]]
M73 P0 R28
;TYPE:Custom
;ELEGOO NEPTUNE 4 PRO
M220 S100 ;Set the feed speed to 100%
M221 S100 ;Set the flow rate to 100%
M104 S140
M190 S70
G90
G28 ;home
G1 Z10 F300
G1 X67.5 Y0 F6000
G1 Z0 F300
M109 S240
G92 E0 ;Reset Extruder
G1 X67.5 Y0 Z0.4 F300 ;Move to start position
G1 X167.5 E30 F400 ;Draw the first line
G1 Z0.6 F120.0 ;Move to side a little
M73 P1 R28
G1 X162.5 F3000
G92 E0 ;Reset Extruder
G90
G21
M83 ; use relative distances for extrusion
; filament start gcode
M106 S0
;LAYER_CHANGE
;Z:0.2
;HEIGHT:0.2
;BEFORE_LAYER_CHANGE
G92 E0
;0.2


G1 E-.8 F3600
;AFTER_LAYER_CHANGE
;0.2
;_SET_FAN_SPEED_CHANGING_LAYER
SET_VELOCITY_LIMIT ACCEL=1000 ACCEL_TO_DECEL=500
SET_VELOCITY_LIMIT SQUARE_CORNER_VELOCITY=7
; printing object 支撑6.STL id:0 copy 0
EXCLUDE_OBJECT_START NAME=支撑6.STL_id_0_copy_0
G1 X116.97 Y112.058 F21000
G1 Z.4
G1 Z.2
G1 E.8 F2700
;TYPE:Inner wall
;WIDTH:0.541872
G1 F600
G1 X117.421 Y112.005 E.0179
;WIDTH:0.543538
G1 X117.943 Y112.036 E.02064
G1 X118.43 Y112.153 E.01981
;WIDTH:0.54158
G1 X118.89 Y112.349 E.01971
;WIDTH:0.541059
G1 X119.312 Y112.617 E.01968
;WIDTH:0.542625
G1 X119.687 Y112.952 E.01985
;WIDTH:0.542775
G1 X120.015 Y113.372 E.02105
G1 X120.249 Y113.815 E.01977
;WIDTH:0.541101
G1 X120.419 Y114.334 E.0215
;WIDTH:0.542908
G1 X120.495 Y114.966 E.02515
;WIDTH:0.542236
G1 X120.457 Y115.465 E.01974
;WIDTH:0.540945
G1 X120.338 Y115.951 E.01968
;WIDTH:0.541783
G1 X120.142 Y116.411 E.01972
;WIDTH:0.543953
G1 X119.85 Y116.861 E.0212
G1 X119.506 Y117.224 E.01981
;WIDTH:0.541711
G1 X119.107 Y117.526 E.01971
;WIDTH:0.54098
G1 X118.664 Y117.758 E.01968
;WIDTH:0.545692
G1 X118.109 Y117.934 E.02313
G1 X117.389 Y117.992 E.02867
;WIDTH:0.544981
G1 X116.848 Y117.925 E.02162
G1 X116.336 Y117.758 E.02135
;WIDTH:0.540982
G1 X115.893 Y117.526 E.01968
;WIDTH:0.541634
G1 X115.482 Y117.213 E.02036
;WIDTH:0.543894
G1 X115.128 Y116.833 E.02053
G1 X114.858 Y116.411 E.01983
;WIDTH:0.541782
G1 X114.662 Y115.951 E.01972
;WIDTH:0.540946
G1 X114.543 Y115.465 E.01968
;WIDTH:0.542394
G1 X114.504 Y114.96 E.02
;WIDTH:0.543071
G1 X114.557 Y114.434 E.02089
G1 X114.695 Y113.952 E.01978
;WIDTH:0.541195
G1 X114.909 Y113.5 E.01969
G1 X115.209 Y113.071 E.0206
;WIDTH:0.543462
G1 X115.559 Y112.715 E.01977
G1 X115.979 Y112.419 E.02029
;WIDTH:0.542238
G1 X116.431 Y112.204 E.01974
;WIDTH:0.54088
G1 X116.911 Y112.065 E.01968
;WIDTH:0.541872
G1 X116.931 Y112.063 E.00076
G1 X116.919 Y111.622 F21000
;TYPE:Outer wall
;WIDTH:0.419999
G1 F600
G1 X117.391 Y111.568 E.01414
G1 X117.928 Y111.591 E.016
G1 X118.401 Y111.684 E.01435
G1 X118.899 Y111.858 E.01572
G1 X119.362 Y112.112 E.01572
G1 X119.761 Y112.414 E.01493
G1 X120.15 Y112.82 E.01674
G1 X120.469 Y113.282 E.01672
G1 X120.753 Y113.892 E.02006
G1 X120.887 Y114.403 E.01572
G1 X120.933 Y114.981 E.01728
G1 X120.888 Y115.541 E.01674
G1 X120.704 Y116.242 E.02159
G1 X120.478 Y116.72 E.01572
G1 X120.177 Y117.155 E.01577
M73 P1 R27
G1 X119.787 Y117.559 E.01673
G1 X119.375 Y117.874 E.01545
G1 X118.905 Y118.13 E.01594
G1 X118.402 Y118.311 E.01594
G1 X117.786 Y118.424 E.01863
G1 X117.389 Y118.431 E.01183
G1 X116.833 Y118.371 E.01667
G1 X116.37 Y118.245 E.01428
G1 X115.885 Y118.037 E.01572
G1 X115.441 Y117.751 E.01572
G1 X115.036 Y117.391 E.01617
G1 X114.702 Y116.987 E.01561
G1 X114.427 Y116.526 E.01598
G1 X114.227 Y116.03 E.01594
G1 X114.106 Y115.509 E.01594
G1 X114.066 Y114.975 E.01594
G1 X114.108 Y114.451 E.01567
G1 X114.217 Y113.984 E.01428
G1 X114.409 Y113.492 E.01572
G1 X114.678 Y113.039 E.01572
G1 X115.01 Y112.635 E.01556
G1 X115.43 Y112.263 E.01672
G1 X115.855 Y111.989 E.01505
G1 X116.343 Y111.77 E.01594
G1 X116.859 Y111.629 E.01594
G1 X116.879 Y111.626 E.0006
G1 E-.68 F3600
;WIPE_START
G1 F3000
G1 X117.391 Y111.568 E-.06178
G1 X117.876 Y111.589 E-.05822
;WIPE_END
G1 X115.346 Y116.228 Z.6 F21000
G1 Z.2
G1 E.8 F2700
;TYPE:Inner wall
;WIDTH:0.546308
G1 F600
G1 X115.188 Y115.935 E.01324
G1 X115.031 Y115.37 E.02331
;WIDTH:0.541408
G1 X115.007 Y114.855 E.02029
G1 X115.072 Y114.422 E.01723
;WIDTH:0.546191
G1 X115.257 Y113.91 E.02167
G1 X115.364 Y113.706 E.00916
;WIDTH:0.542675
G1 X115.661 Y113.311 E.01951
G1 X115.973 Y113.025 E.01672
;WIDTH:0.546288
G1 X116.487 Y112.721 E.02372
G1 X117.026 Y112.549 E.02249
;WIDTH:0.54187
G1 X117.544 Y112.503 E.02049
G1 X117.974 Y112.549 E.01706
;WIDTH:0.546287
G1 X118.513 Y112.721 E.02249
G1 X119.027 Y113.025 E.02372
;WIDTH:0.541193
G1 X119.399 Y113.378 E.02018
;WIDTH:0.546189
G1 X119.743 Y113.91 E.02519
G1 X119.928 Y114.422 E.02167
;WIDTH:0.542221
G1 X119.997 Y114.942 E.02067
G1 X119.969 Y115.37 E.01691
;WIDTH:0.546306
G1 X119.812 Y115.935 E.02331
G1 X119.538 Y116.441 E.0229
;WIDTH:0.541634
G1 X119.198 Y116.831 E.02039
G1 X118.854 Y117.097 E.01715
;WIDTH:0.546247
G1 X118.355 Y117.343 E.02208
G1 X118.042 Y117.436 E.013
;WIDTH:0.545692
G1 X117.5 Y117.497 E.02166
;WIDTH:0.545902
G1 X116.961 Y117.437 E.02156
G1 X116.475 Y117.277 E.02033
;WIDTH:0.544531
G1 X116.043 Y117.028 E.01976
G1 X115.734 Y116.765 E.01604
;WIDTH:0.542153
G1 X115.462 Y116.441 E.0167
;WIDTH:0.546308
G1 X115.365 Y116.263 E.00808
G1 X115.731 Y116.02 F21000
;TYPE:Outer wall
;WIDTH:0.419999
G1 F600
G1 X115.596 Y115.771 E.00843
G1 X115.459 Y115.277 E.01525
G1 X115.443 Y114.897 E.01136
G1 X115.55 Y114.354 E.01647
G1 X115.743 Y113.924 E.01403
G1 X115.964 Y113.627 E.01104
G1 X116.218 Y113.387 E.01041
G1 X116.668 Y113.122 E.01555
G1 X117.168 Y112.967 E.01558
G1 X117.516 Y112.94 E.01041
G1 X118.083 Y113.03 E.0171
G1 X118.518 Y113.21 E.01403
G1 X118.806 Y113.407 E.01041
G1 X119.057 Y113.651 E.01041
G1 X119.35 Y114.108 E.01617
G1 X119.517 Y114.582 E.01496
G1 X119.559 Y114.929 E.01041
G1 X119.489 Y115.519 E.0177
G1 X119.332 Y115.942 E.01344
G1 X119.147 Y116.238 E.01041
G1 X118.914 Y116.498 E.01041
G1 X118.452 Y116.821 E.01678
G1 X117.986 Y117 E.01486
G1 X117.476 Y117.059 E.0153
G1 X116.976 Y116.993 E.01502
G1 X116.548 Y116.821 E.01374
G1 X116.086 Y116.498 E.01678
G1 X115.834 Y116.212 E.01136
G1 X115.75 Y116.055 E.00532
; stop printing object 支撑6.STL id:0 copy 0
;LAYER_CHANGE
;Z:0.28
;HEIGHT:0.08
;BEFORE_LAYER_CHANGE
G92 E0
;0.28


G1 E-.68 F3600
;WIPE_START
G1 F3000
G1 X115.596 Y115.771 E-.03875
G1 X115.459 Y115.277 E-.06142
G1 X115.452 Y115.112 E-.01983
;WIPE_END
EXCLUDE_OBJECT_END NAME=支撑6.STL_id_0_copy_0
;AFTER_LAYER_CHANGE
;0.28
;_SET_FAN_SPEED_CHANGING_LAYER
SET_VELOCITY_LIMIT ACCEL=5000 ACCEL_TO_DECEL=2500
SET_VELOCITY_LIMIT SQUARE_CORNER_VELOCITY=9
M140 S70 ; set bed temperature
; printing object 支撑6.STL id:0 copy 0
EXCLUDE_OBJECT_START NAME=支撑6.STL_id_0_copy_0
G1 X117.007 Y111.908 Z.6 F21000
G1 Z.28
G1 E.8 F2700
SET_VELOCITY_LIMIT ACCEL=3000 ACCEL_TO_DECEL=1500 SQUARE_CORNER_VELOCITY=7
;TYPE:Inner wall
;WIDTH:0.449999
G1 F679
G1 X117.091 Y111.888 E.00118
G1 X117.611 Y111.867 E.00711
G1 X118.126 Y111.931 E.0071
G1 X118.626 Y112.076 E.00712
G1 X119.14 Y112.324 E.0078
G1 X119.562 Y112.635 E.00717
G1 X119.922 Y113.011 E.00711
G1 X120.216 Y113.439 E.00711
G1 X120.438 Y113.909 E.00711
G1 X120.582 Y114.409 E.00711
G1 X120.635 Y114.98 E.00785
G1 X120.593 Y115.499 E.00712
G1 X120.468 Y116.004 E.00711
G1 X120.232 Y116.546 E.00809
G1 X119.949 Y116.963 E.00689
G1 X119.588 Y117.337 E.00711
G1 X119.173 Y117.649 E.00711
G1 X118.712 Y117.89 E.00711
G1 X118.153 Y118.072 E.00804
G1 X117.649 Y118.133 E.00694
G1 X117.13 Y118.112 E.00711
G1 X116.621 Y118.007 E.00711
G1 X116.136 Y117.822 E.0071
G1 X115.633 Y117.523 E.008
G1 X115.251 Y117.184 E.00699
G1 X114.922 Y116.781 E.00711
G1 X114.663 Y116.331 E.00711
G1 X114.463 Y115.792 E.00786
G1 X114.375 Y115.279 E.00712
G1 X114.375 Y114.759 E.00711
G1 X114.459 Y114.246 E.00711
G1 X114.625 Y113.753 E.00711
G1 X114.896 Y113.244 E.0079
G1 X115.224 Y112.843 E.00708
G1 X115.613 Y112.498 E.00711
G1 X116.053 Y112.221 E.00711
G1 X116.531 Y112.019 E.0071
G1 X116.968 Y111.917 E.00614
SET_VELOCITY_LIMIT ACCEL=5000 ACCEL_TO_DECEL=2500 SQUARE_CORNER_VELOCITY=9
G1 X116.914 Y111.513 F21000
SET_VELOCITY_LIMIT ACCEL=3000 ACCEL_TO_DECEL=1500 SQUARE_CORNER_VELOCITY=7
;TYPE:Outer wall
;WIDTH:0.399999
G1 F679
G1 X117.375 Y111.459 E.00562
G1 X117.932 Y111.481 E.00673
G1 X118.423 Y111.576 E.00605
G1 X118.944 Y111.757 E.00667
G1 X119.426 Y112.023 E.00666
G1 X119.845 Y112.342 E.00637
G1 X120.243 Y112.76 E.00698
G1 X120.57 Y113.235 E.00698
G1 X120.855 Y113.851 E.00821
G1 X120.996 Y114.384 E.00666
G1 X121.045 Y114.924 E.00656
G1 X121.033 Y115.292 E.00445
G1 X120.954 Y115.804 E.00626
G1 X120.791 Y116.33 E.00666
G1 X120.543 Y116.821 E.00666
G1 X120.252 Y117.235 E.00612
G1 X119.851 Y117.65 E.00698
G1 X119.43 Y117.969 E.00639
G1 X118.949 Y118.231 E.00662
G1 X118.435 Y118.416 E.00662
G1 X117.898 Y118.52 E.00662
G1 X117.351 Y118.541 E.00662
G1 X116.817 Y118.48 E.00649
G1 X116.293 Y118.337 E.00657
G1 X115.833 Y118.134 E.00608
G1 X115.371 Y117.836 E.00666
G1 X114.948 Y117.457 E.00687
G1 X114.584 Y117.009 E.00698
G1 X114.328 Y116.573 E.00612
G1 X114.123 Y116.066 E.00662
G1 X114 Y115.537 E.00657
G1 X113.957 Y114.988 E.00666
G1 X113.999 Y114.439 E.00665
G1 X114.111 Y113.958 E.00598
G1 X114.31 Y113.444 E.00666
G1 X114.592 Y112.971 E.00666
G1 X114.94 Y112.549 E.00662
G1 X115.373 Y112.168 E.00698
G1 X115.805 Y111.891 E.00621
G1 X116.301 Y111.669 E.00657
G1 X116.832 Y111.522 E.00666
G1 X116.874 Y111.517 E.00051
SET_VELOCITY_LIMIT ACCEL=5000 ACCEL_TO_DECEL=2500 SQUARE_CORNER_VELOCITY=9
G1 E-.68 F3600
;WIPE_START
G1 F7200
G1 X117.375 Y111.459 E-.06055
G1 X117.87 Y111.478 E-.05945
;WIPE_END
G1 X115.466 Y116.155 Z.68 F21000
G1 Z.28
G1 E.8 F2700
SET_VELOCITY_LIMIT ACCEL=3000 ACCEL_TO_DECEL=1500 SQUARE_CORNER_VELOCITY=7
;TYPE:Inner wall
;WIDTH:0.449999
G1 F679
G1 X115.32 Y115.882 E.00424
G1 X115.17 Y115.35 E.00756
G1 X115.149 Y114.849 E.00685
G1 X115.265 Y114.267 E.00812
G1 X115.467 Y113.808 E.00686
G1 X115.765 Y113.406 E.00685
G1 X116.06 Y113.135 E.00547
G1 X116.54 Y112.854 E.00761
G1 X117.052 Y112.687 E.00737
G1 X117.551 Y112.644 E.00685
G1 X117.948 Y112.687 E.00547
G1 X118.454 Y112.851 E.00728
G1 X118.94 Y113.135 E.0077
G1 X119.302 Y113.482 E.00685
G1 X119.616 Y113.974 E.00798
G1 X119.792 Y114.454 E.007
G1 X119.856 Y114.951 E.00685
G1 X119.83 Y115.35 E.00547
G1 X119.68 Y115.882 E.00756
G1 X119.424 Y116.36 E.00742
G1 X119.093 Y116.736 E.00685
G1 X118.597 Y117.081 E.00826
G1 X118.108 Y117.278 E.00721
G1 X117.649 Y117.352 E.00636
G1 X117.25 Y117.343 E.00547
G1 X116.698 Y117.211 E.00775
G1 X116.223 Y116.98 E.00723
G1 X115.833 Y116.666 E.00685
G1 X115.576 Y116.36 E.00547
G1 X115.485 Y116.191 E.00263
SET_VELOCITY_LIMIT ACCEL=5000 ACCEL_TO_DECEL=2500 SQUARE_CORNER_VELOCITY=9
G1 X115.809 Y115.959 F21000
SET_VELOCITY_LIMIT ACCEL=3000 ACCEL_TO_DECEL=1500 SQUARE_CORNER_VELOCITY=7
;TYPE:Outer wall
;WIDTH:0.399999
G1 F679
G1 X115.804 Y115.953 E.00009
G1 X115.62 Y115.502 E.00589
G1 X115.552 Y114.933 E.00693
G1 X115.655 Y114.386 E.00674
G1 X115.866 Y113.94 E.00597
G1 X116.047 Y113.7 E.00364
G1 X116.493 Y113.335 E.00697
G1 X116.946 Y113.136 E.00598
G1 X117.484 Y113.051 E.00659
G1 X117.845 Y113.081 E.00439
G1 X118.286 Y113.222 E.0056
G1 X118.717 Y113.477 E.00605
G1 X118.974 Y113.724 E.00431
G1 X119.252 Y114.157 E.00622
G1 X119.411 Y114.625 E.00597
M73 P2 R27
G1 X119.448 Y114.933 E.00376
G1 X119.382 Y115.496 E.00685
G1 X119.196 Y115.953 E.00597
G1 X118.861 Y116.396 E.00672
G1 X118.578 Y116.624 E.00439
G1 X118.172 Y116.824 E.00548
G1 X117.682 Y116.941 E.0061
G1 X117.319 Y116.941 E.00439
G1 X116.834 Y116.826 E.00602
G1 X116.414 Y116.619 E.00567
G1 X116.139 Y116.396 E.00428
G1 X115.833 Y115.991 E.00615
SET_VELOCITY_LIMIT ACCEL=5000 ACCEL_TO_DECEL=2500 SQUARE_CORNER_VELOCITY=9
G1 E-.68 F3600
;WIPE_START
G1 F7200
G1 X115.804 Y115.953 E-.00569
G1 X115.62 Y115.502 E-.05845
G1 X115.564 Y115.04 E-.05586
;WIPE_END
G1 X116.997 Y112.301 Z.68 F21000
G1 Z.28
G1 E.8 F2700
SET_VELOCITY_LIMIT ACCEL=3000 ACCEL_TO_DECEL=1500 SQUARE_CORNER_VELOCITY=7
;TYPE:Inner wall
;WIDTH:0.366204
G1 F679
G1 X117.5 Y112.251 E.00557
G1 X118.046 Y112.311 E.00606
;WIDTH:0.372486
G1 X118.617 Y112.492 E.00672
G1 X119.158 Y112.813 E.00707
;WIDTH:0.365298
G1 X119.505 Y113.124 E.00512
;WIDTH:0.369946
G1 X119.777 Y113.464 E.00486
G1 X120.014 Y113.899 E.00553
;WIDTH:0.362914
G1 X120.177 Y114.391 E.00565
;WIDTH:0.365816
G1 X120.247 Y114.898 E.00564
G1 X120.21 Y115.432 E.0059
;WIDTH:0.372526
G1 X120.046 Y116.029 E.00695
G1 X119.755 Y116.564 E.00684
;WIDTH:0.366236
G1 X119.409 Y116.977 E.00595
G1 X118.967 Y117.32 E.00617
;WIDTH:0.372408
G1 X118.439 Y117.58 E.0066
G1 X117.816 Y117.726 E.00718
;WIDTH:0.365848
G1 X117.351 Y117.742 E.00513
;WIDTH:0.370382
G1 X116.929 Y117.687 E.00475
G1 X116.446 Y117.534 E.00565
;WIDTH:0.361976
G1 X115.992 Y117.294 E.0056
;WIDTH:0.366238
G1 X115.591 Y116.977 E.00564
G1 X115.245 Y116.564 E.00595
;WIDTH:0.372528
G1 X114.954 Y116.029 E.00684
G1 X114.79 Y115.432 E.00695
;WIDTH:0.366342
G1 X114.753 Y114.904 E.00583
G1 X114.836 Y114.34 E.00629
;WIDTH:0.372296
G1 X115.032 Y113.796 E.00649
G1 X115.385 Y113.25 E.0073
;WIDTH:0.366424
G1 X115.71 Y112.917 E.00514
;WIDTH:0.37077
G1 X116.045 Y112.671 E.00464
G1 X116.507 Y112.442 E.00577
;WIDTH:0.361758
G1 X116.959 Y112.312 E.00512
; stop printing object 支撑6.STL id:0 copy 0
;LAYER_CHANGE
;Z:0.36
;HEIGHT:0.08
;BEFORE_LAYER_CHANGE
G92 E0
;0.36


G1 E-.68 F3600
;WIPE_START
G1 F12000
G1 X117.5 Y112.251 E-.06532
G1 X117.953 Y112.301 E-.05468
;WIPE_END
EXCLUDE_OBJECT_END NAME=支撑6.STL_id_0_copy_0
;AFTER_LAYER_CHANGE
;0.36
;_SET_FAN_SPEED_CHANGING_LAYER
; printing object 支撑6.STL id:0 copy 0
SET_VELOCITY_LIMIT ACCEL=5000 ACCEL_TO_DECEL=2500 SQUARE_CORNER_VELOCITY=9
EXCLUDE_OBJECT_START NAME=支撑6.STL_id_0_copy_0
G1 X116.957 Y111.917 Z.68 F21000
G1 Z.36
G1 E.8 F2700
SET_VELOCITY_LIMIT ACCEL=3000 ACCEL_TO_DECEL=1500 SQUARE_CORNER_VELOCITY=7
;WIDTH:0.449999
G1 F676
G1 X117.528 Y111.861 E.00784
G1 X118.126 Y111.931 E.00823
G1 X118.626 Y112.076 E.00712
G1 X119.14 Y112.324 E.0078
G1 X119.56 Y112.636 E.00716
G1 X119.922 Y113.011 E.00712
G1 X120.216 Y113.439 E.00711
G1 X120.438 Y113.909 E.00711
G1 X120.582 Y114.409 E.00711
G1 X120.638 Y114.918 E.007
G1 X120.623 Y115.328 E.00562
G1 X120.52 Y115.844 E.00719
G1 X120.337 Y116.331 E.00711
G1 X120.055 Y116.815 E.00767
G1 X119.7 Y117.239 E.00756
G1 X119.315 Y117.56 E.00686
G1 X118.865 Y117.822 E.00712
G1 X118.379 Y118.007 E.00711
G1 X117.841 Y118.116 E.00752
G1 X117.281 Y118.133 E.00766
G1 X116.782 Y118.053 E.00691
G1 X116.288 Y117.89 E.00711
G1 X115.829 Y117.649 E.00709
G1 X115.397 Y117.325 E.00738
G1 X115.051 Y116.963 E.00686
G1 X114.795 Y116.593 E.00614
G1 X114.579 Y116.15 E.00674
G1 X114.4 Y115.462 E.00972
G1 X114.362 Y114.918 E.00747
G1 X114.418 Y114.409 E.007
G1 X114.562 Y113.91 E.0071
G1 X114.784 Y113.439 E.00712
G1 X115.094 Y112.99 E.00746
G1 X115.482 Y112.594 E.00758
