; HEADER_BLOCK_START
; generated by OrcaSlicer 2.1.1 on 2024-11-30 at 19:09:42
; total layer number: 36
; filament_density: 1.24
; filament_diameter: 1.75
; max_z_height: 3.00
; HEADER_BLOCK_END

; THUMBNAIL_BLOCK_START

;
; THUMBNAIL_BLOCK_END







; external perimeters extrusion width = 0.40mm
; perimeters extrusion width = 0.45mm
; infill extrusion width = 0.45mm
; solid infill extrusion width = 0.45mm
; top infill extrusion width = 0.38mm
; first layer extrusion width = 0.42mm

; EXECUTABLE_BLOCK_START
EXCLUDE_OBJECT_DEFINE NAME=铲头连杆1.STL_id_0_copy_0 CENTER=117.5,115 POLYGON=[[112.502,104.516],[112.585,103.751],[112.784,103.008],[113.095,102.304],[113.51,101.657],[114.019,101.08],[114.611,100.589],[115.271,100.194],[115.984,99.9052],[116.733,99.729],[117.5,99.6699],[118.267,99.729],[119.016,99.9052],[119.729,100.194],[120.389,100.589],[120.981,101.08],[121.49,101.657],[121.905,102.304],[122.216,103.008],[122.415,103.751],[122.498,104.516],[122.498,125.484],[122.415,126.249],[122.216,126.992],[121.905,127.696],[121.49,128.343],[120.981,128.92],[120.389,129.411],[119.729,129.806],[119.016,130.095],[118.267,130.271],[117.5,130.33],[116.733,130.271],[115.984,130.095],[115.271,129.806],[114.611,129.411],[114.019,128.92],[113.51,128.343],[113.095,127.696],[112.784,126.992],[112.585,126.249],[112.502,125.484],[112.502,104.516]]
M73 P0 R5
;TYPE:Custom
;ELEGOO NEPTUNE 4 PRO
M220 S100 ;Set the feed speed to 100%
M221 S100 ;Set the flow rate to 100%
M104 S140
M190 S60
G90
G28 ;home
G1 Z10 F300
G1 X67.5 Y0 F6000
G1 Z0 F300
M109 S210
G92 E0 ;Reset Extruder
G1 X67.5 Y0 Z0.4 F300 ;Move to start position
M73 P1 R5
G1 X167.5 E30 F400 ;Draw the first line
G1 Z0.6 F120.0 ;Move to side a little
M73 P5 R5
G1 X162.5 F3000
G92 E0 ;Reset Extruder
G90
G21
M83 ; use relative distances for extrusion
; filament start gcode
M106 S0
;LAYER_CHANGE
;Z:0.2
;HEIGHT:0.2
;BEFORE_LAYER_CHANGE
G92 E0
;0.2


G1 E-.8 F3600
;AFTER_LAYER_CHANGE
;0.2
;_SET_FAN_SPEED_CHANGING_LAYER
SET_VELOCITY_LIMIT ACCEL=1000 ACCEL_TO_DECEL=500
SET_VELOCITY_LIMIT SQUARE_CORNER_VELOCITY=7
; printing object 铲头连杆1.STL id:0 copy 0
EXCLUDE_OBJECT_START NAME=铲头连杆1.STL_id_0_copy_0
G1 X119.18 Y121.641 F21000
G1 Z.4
G1 Z.2
G1 E.8 F2700
;TYPE:Inner wall
;WIDTH:0.419999
G1 F3000
G1 X118.778 Y121.474 E.01338
G1 X118.1 Y121.313 E.0214
G1 X117.395 Y121.271 E.02172
G1 X116.735 Y121.341 E.02038
G1 X116.222 Y121.474 E.01627
G1 X115.82 Y121.641 E.01338
G1 X115.985 Y121.442 E.00795
G1 X116.064 Y121.064 E.01186
G1 X116.064 Y108.936 E.37266
G1 X115.9 Y108.404 E.01711
M73 P6 R5
G1 X116.554 Y108.62 E.02117
G1 X117.233 Y108.723 E.02109
G1 X117.927 Y108.709 E.02133
G1 X118.601 Y108.58 E.02109
G1 X119.1 Y108.404 E.01627
G1 X118.936 Y108.936 E.01711
G1 X118.936 Y121.064 E.37266
G1 X119.015 Y121.442 E.01187
G1 X119.154 Y121.61 E.00672
G1 X119.327 Y121.104 F21000
G1 F3000
G1 X119.33 Y121.2 E.00294
;WIDTH:0.46231
G1 X119.394 Y121.328 E.00489
;WIDTH:0.504621
G1 X119.459 Y121.455 E.00538
;WIDTH:0.546932
G1 X119.523 Y121.583 E.00588
G1 X119.655 Y121.671 E.00653
;WIDTH:0.543243
G1 X120.238 Y122.088 E.02919
;WIDTH:0.541201
G1 X120.742 Y122.595 E.02905
;WIDTH:0.539657
G1 X121.154 Y123.18 E.02895
;WIDTH:0.540138
G1 X121.411 Y123.686 E.023
;WIDTH:0.547895
G1 X121.589 Y124.187 E.02187
;WIDTH:0.548274
G1 X121.715 Y124.828 E.0269
G1 X121.742 Y125.48 E.0269
;WIDTH:0.548157
G1 X121.67 Y126.129 E.02689
;WIDTH:0.547539
G1 X121.498 Y126.76 E.02686
;WIDTH:0.546424
G1 X121.232 Y127.356 E.0268
;WIDTH:0.544809
G1 X120.855 Y127.931 E.02812
;WIDTH:0.542656
G1 X120.369 Y128.456 E.02915
;WIDTH:0.540747
G1 X119.802 Y128.892 E.02902
;WIDTH:0.539335
G1 X119.17 Y129.227 E.02893
;WIDTH:0.539769
G1 X118.635 Y129.417 E.02298
;WIDTH:0.548043
G1 X118.132 Y129.528 E.02119
;WIDTH:0.548511
G1 X117.481 Y129.575 E.02691
G1 X116.83 Y129.522 E.02691
;WIDTH:0.548042
G1 X116.194 Y129.37 E.02688
;WIDTH:0.547296
G1 X115.59 Y129.123 E.02685
;WIDTH:0.546049
G1 X115.03 Y128.785 E.02678
;WIDTH:0.544301
G1 X114.495 Y128.328 E.02876
;WIDTH:0.542106
G1 X114.036 Y127.779 E.02911
;WIDTH:0.540326
G1 X113.675 Y127.161 E.029
;WIDTH:0.540892
G1 X113.462 Y126.635 E.02304
;WIDTH:0.54754
G1 X113.323 Y126.091 E.02308
;WIDTH:0.548157
G1 X113.256 Y125.441 E.02689
;WIDTH:0.548275
G1 X113.29 Y124.789 E.0269
G1 X113.422 Y124.15 E.02689
;WIDTH:0.547896
G1 X113.651 Y123.538 E.02688
;WIDTH:0.547015
G1 X113.971 Y122.968 E.02683
;WIDTH:0.545636
G1 X114.378 Y122.451 E.02695
;WIDTH:0.543734
G1 X114.907 Y121.97 E.02922
;WIDTH:0.550068
G1 X115.47 Y121.59 E.02806
G1 X115.527 Y121.49 E.00474
;WIDTH:0.506712
G1 X115.583 Y121.39 E.00433
;WIDTH:0.463356
G1 X115.64 Y121.291 E.00393
;WIDTH:0.419999
G1 X115.687 Y121.064 E.00712
G1 X115.687 Y108.936 E.37266
;WIDTH:0.461881
G1 X115.622 Y108.725 E.00754
;WIDTH:0.503762
G1 X115.558 Y108.513 E.0083
;WIDTH:0.529154
G1 X115.518 Y108.464 E.00251
;WIDTH:0.554546
G1 X115.479 Y108.414 E.00264
G1 X114.824 Y107.965 E.03313
;WIDTH:0.548288
G1 X114.35 Y107.515 E.0269
;WIDTH:0.547988
G1 X113.95 Y106.999 E.02688
;WIDTH:0.547189
G1 X113.634 Y106.427 E.02684
;WIDTH:0.545889
G1 X113.41 Y105.814 E.02678
;WIDTH:0.544088
G1 X113.279 Y105.115 E.02902
;WIDTH:0.541893
G1 X113.266 Y104.4 E.0291
;WIDTH:0.540169
G1 X113.374 Y103.692 E.02899
;WIDTH:0.540715
G1 X113.539 Y103.149 E.02303
;WIDTH:0.547629
G1 X113.769 Y102.644 E.02281
;WIDTH:0.548258
G1 X114.124 Y102.096 E.0269
G1 X114.559 Y101.609 E.02689
G1 X115.063 Y101.194 E.02689
;WIDTH:0.547826
G1 X115.625 Y100.861 E.02687
;WIDTH:0.546894
G1 X116.231 Y100.617 E.02683
;WIDTH:0.545462
G1 X116.879 Y100.469 E.02721
;WIDTH:0.543439
G1 X117.561 Y100.426 E.0279
G1 X118.305 Y100.505 E.03049
;WIDTH:0.539796
G1 X118.993 Y100.701 E.02897
;WIDTH:0.540297
G1 X119.51 Y100.934 E.02301
;WIDTH:0.547826
G1 X119.969 Y101.216 E.02214
;WIDTH:0.548193
G1 X120.469 Y101.636 E.02689
G1 X120.899 Y102.127 E.02689
G1 X121.249 Y102.679 E.02689
;WIDTH:0.547628
G1 X121.511 Y103.277 E.02686
;WIDTH:0.546564
G1 X121.678 Y103.909 E.02681
;WIDTH:0.545002
G1 X121.745 Y104.586 E.02786
;WIDTH:0.542885
G1 X121.696 Y105.3 E.02916
;WIDTH:0.540922
G1 X121.529 Y105.996 E.02904
;WIDTH:0.539461
G1 X121.247 Y106.653 E.02894
;WIDTH:0.538497
G1 X120.86 Y107.255 E.02888
;WIDTH:0.538132
G1 X120.378 Y107.783 E.02886
G1 X119.936 Y108.139 E.0229
;WIDTH:0.559422
G1 X119.478 Y108.443 E.02315
G1 X119.423 Y108.607 E.00729
;WIDTH:0.512948
G1 X119.368 Y108.772 E.00663
;WIDTH:0.466474
G1 X119.313 Y108.936 E.00598
;WIDTH:0.419999
G1 X119.313 Y120.54 E.35655
G1 X119.326 Y121.064 E.01613
G1 X119.694 Y121.072 F21000
;TYPE:Outer wall
G1 F3000
G1 X119.772 Y121.22 E.00514
G1 X120.44 Y121.677 E.02487
G1 X120.965 Y122.171 E.02217
G1 X121.409 Y122.74 E.02217
G1 X121.734 Y123.324 E.02052
G1 X121.872 Y123.674 E.01156
G1 X122.058 Y124.281 E.0195
G1 X122.156 Y124.807 E.01647
G1 X122.187 Y125.475 E.02052
G1 X122.109 Y126.192 E.02217
G1 X121.923 Y126.889 E.02217
G1 X121.631 Y127.548 E.02217
G1 X121.242 Y128.156 E.02217
G1 X120.764 Y128.696 E.02217
G1 X120.209 Y129.157 E.02217
G1 X119.59 Y129.528 E.02217
G1 X118.922 Y129.799 E.02217
G1 X118.219 Y129.964 E.02217
G1 X117.5 Y130.019 E.02217
G1 X116.781 Y129.964 E.02217
G1 X116.078 Y129.799 E.02217
G1 X115.41 Y129.528 E.02217
G1 X114.791 Y129.157 E.02217
G1 X114.236 Y128.696 E.02217
G1 X113.758 Y128.156 E.02217
G1 X113.369 Y127.548 E.02217
G1 X113.077 Y126.889 E.02217
G1 X112.891 Y126.192 E.02217
G1 X112.813 Y125.475 E.02217
G1 X112.846 Y124.754 E.02217
G1 X112.99 Y124.047 E.02217
G1 X113.24 Y123.37 E.02217
G1 X113.591 Y122.74 E.02217
G1 X114.035 Y122.171 E.02217
G1 X114.56 Y121.677 E.02217
G1 X115.228 Y121.22 E.02487
G1 X115.31 Y121.064 E.0054
G1 X115.31 Y108.936 E.37266
G1 X115.228 Y108.78 E.0054
G1 X114.56 Y108.323 E.02487
G1 X114.035 Y107.829 E.02217
G1 X113.591 Y107.26 E.02217
G1 X113.24 Y106.63 E.02217
G1 X112.99 Y105.953 E.02217
G1 X112.846 Y105.246 E.02217
G1 X112.813 Y104.525 E.02217
G1 X112.891 Y103.808 E.02217
G1 X113.077 Y103.111 E.02217
G1 X113.369 Y102.452 E.02217
G1 X113.758 Y101.844 E.02217
G1 X114.236 Y101.304 E.02217
G1 X114.791 Y100.843 E.02217
G1 X115.41 Y100.472 E.02217
G1 X116.078 Y100.201 E.02217
G1 X116.781 Y100.036 E.02217
G1 X117.5 Y99.981 E.02217
G1 X118.219 Y100.036 E.02217
G1 X118.922 Y100.201 E.02217
G1 X119.59 Y100.472 E.02217
G1 X120.209 Y100.843 E.02217
M73 P7 R5
G1 X120.764 Y101.304 E.02217
G1 X121.242 Y101.844 E.02217
G1 X121.631 Y102.452 E.02217
G1 X121.923 Y103.111 E.02217
G1 X122.109 Y103.808 E.02217
G1 X122.187 Y104.525 E.02217
G1 X122.154 Y105.246 E.02217
G1 X122.01 Y105.953 E.02217
G1 X121.76 Y106.63 E.02217
G1 X121.409 Y107.26 E.02217
G1 X120.965 Y107.829 E.02217
G1 X120.44 Y108.323 E.02217
G1 X119.772 Y108.78 E.02487
G1 X119.69 Y108.936 E.0054
G1 X119.69 Y121.033 E.37169
G1 E-.68 F3600
;WIPE_START
G1 F3000
G1 X119.772 Y121.22 E-.0245
G1 X120.429 Y121.669 E-.0955
;WIPE_END
G1 X121.145 Y124.535 Z.6 F21000
G1 Z.2
G1 E.8 F2700
;TYPE:Inner wall
;WIDTH:0.548274
G1 F3000
G1 X121.212 Y124.872 E.01414
G1 X121.239 Y125.442 E.02353
;WIDTH:0.548157
G1 X121.179 Y126.011 E.02353
;WIDTH:0.547539
G1 X121.034 Y126.564 E.02351
;WIDTH:0.546424
G1 X120.822 Y127.064 E.02231
;WIDTH:0.542854
G1 X120.543 Y127.515 E.02157
;WIDTH:0.542106
G1 X120.131 Y127.998 E.02584
;WIDTH:0.5443
G1 X119.652 Y128.398 E.02547
;WIDTH:0.546046
G1 X119.158 Y128.687 E.02347
;WIDTH:0.547295
G1 X118.627 Y128.898 E.02351
;WIDTH:0.548043
G1 X118.07 Y129.027 E.02353
;WIDTH:0.548511
G1 X117.5 Y129.07 E.02354
G1 X116.93 Y129.027 E.02354
;WIDTH:0.548042
G1 X116.373 Y128.898 E.02353
;WIDTH:0.547296
G1 X115.842 Y128.687 E.02351
;WIDTH:0.546049
G1 X115.358 Y128.405 E.02297
;WIDTH:0.543454
G1 X114.947 Y128.071 E.0216
;WIDTH:0.542657
G1 X114.519 Y127.601 E.02587
;WIDTH:0.544811
G1 X114.193 Y127.089 E.02482
;WIDTH:0.540892
G1 X113.934 Y126.478 E.02694
G1 X113.792 Y125.858 E.02578
;WIDTH:0.539433
G1 X113.757 Y125.224 E.0257
;WIDTH:0.538477
G1 X113.829 Y124.593 E.02565
;WIDTH:0.538069
G1 X114.006 Y123.983 E.02563
;WIDTH:0.538614
G1 X114.284 Y123.412 E.02565
;WIDTH:0.539657
G1 X114.654 Y122.896 E.02571
;WIDTH:0.541201
G1 X115.105 Y122.449 E.0258
;WIDTH:0.543242
G1 X115.626 Y122.085 E.02591
G1 X115.826 Y122.014 E.00867
;WIDTH:0.502161
G1 X116.027 Y121.942 E.00795
;WIDTH:0.46108
G1 X116.227 Y121.871 E.00724
;WIDTH:0.419999
G1 X116.83 Y121.706 E.01921
G1 X117.427 Y121.647 E.01842
G1 X118.071 Y121.689 E.01985
G1 X118.683 Y121.839 E.01935
;WIDTH:0.46231
G1 X118.879 Y121.902 E.00706
;WIDTH:0.504621
G1 X119.076 Y121.965 E.00777
;WIDTH:0.546932
G1 X119.273 Y122.027 E.00848
G1 X119.812 Y122.382 E.0265
;WIDTH:0.543734
G1 X120.278 Y122.815 E.02593
;WIDTH:0.545636
G1 X120.629 Y123.272 E.02364
;WIDTH:0.547016
G1 X120.904 Y123.774 E.0235
;WIDTH:0.547895
G1 X121.1 Y124.311 E.02353
;WIDTH:0.548274
G1 X121.137 Y124.496 E.00775
G1 X120.729 Y124.608 F21000
;TYPE:Outer wall
;WIDTH:0.419999
G1 F3000
G1 X120.732 Y124.617 E.0003
G1 X120.806 Y125.174 E.01725
G1 X120.785 Y125.735 E.01725
G1 X120.669 Y126.284 E.01725
G1 X120.463 Y126.806 E.01725
G1 X120.171 Y127.285 E.01725
G1 X119.802 Y127.709 E.01725
G1 X119.376 Y128.056 E.01688
G1 X118.878 Y128.339 E.01761
G1 X118.349 Y128.529 E.01725
G1 X117.799 Y128.626 E.01717
G1 X117.233 Y128.629 E.01741
G1 X116.681 Y128.537 E.01717
G1 X116.151 Y128.353 E.01725
G1 X115.66 Y128.081 E.01725
G1 X115.221 Y127.731 E.01725
G1 X114.848 Y127.311 E.01725
G1 X114.567 Y126.859 E.01637
G1 X114.34 Y126.315 E.01812
G1 X114.219 Y125.766 E.01725
G1 X114.193 Y125.206 E.01725
G1 X114.261 Y124.648 E.01725
G1 X114.423 Y124.111 E.01725
G1 X114.673 Y123.608 E.01725
G1 X115.005 Y123.155 E.01725
G1 X115.408 Y122.765 E.01725
G1 X115.872 Y122.448 E.01725
G1 X116.382 Y122.215 E.01725
G1 X116.925 Y122.071 E.01725
G1 X117.459 Y122.023 E.01646
G1 X118.042 Y122.065 E.01798
G1 X118.588 Y122.204 E.0173
G1 X119.091 Y122.429 E.01695
G1 X119.567 Y122.745 E.01754
G1 X119.974 Y123.131 E.01725
G1 X120.275 Y123.534 E.01545
G1 X120.565 Y124.081 E.01903
G1 X120.717 Y124.57 E.01572
G1 E-.68 F3600
;WIPE_START
G1 F3000
G1 X120.732 Y124.617 E-.00596
G1 X120.806 Y125.174 E-.06737
G1 X120.791 Y125.562 E-.04667
;WIPE_END
G1 X119.221 Y118.093 Z.6 F21000
G1 X117.17 Y108.336 Z.6
G1 Z.2
G1 E.8 F2700
;TYPE:Inner wall
G1 F3000
G1 X116.618 Y108.249 E.01718
G1 X116.026 Y108.048 E.01921
;WIDTH:0.466473
G1 X115.954 Y108.038 E.00249
;WIDTH:0.512946
G1 X115.883 Y108.028 E.00276
;WIDTH:0.559419
G1 X115.811 Y108.017 E.00304
G1 X115.359 Y107.742 E.02227
;WIDTH:0.538132
G1 X114.947 Y107.41 E.02137
G1 X114.521 Y106.939 E.02563
;WIDTH:0.538496
G1 X114.18 Y106.403 E.02565
;WIDTH:0.539461
G1 X113.935 Y105.817 E.0257
;WIDTH:0.540923
G1 X113.791 Y105.198 E.02578
;WIDTH:0.542886
G1 X113.754 Y104.564 E.02589
;WIDTH:0.545003
G1 X113.821 Y103.967 E.02456
;WIDTH:0.546566
G1 X113.973 Y103.416 E.02348
;WIDTH:0.547629
G1 X114.207 Y102.894 E.02352
;WIDTH:0.548193
G1 X114.516 Y102.414 E.02353
G1 X114.895 Y101.986 E.02353
G1 X115.334 Y101.619 E.02353
;WIDTH:0.547826
G1 X115.823 Y101.324 E.02352
;WIDTH:0.546894
G1 X116.302 Y101.12 E.02137
;WIDTH:0.542073
G1 X116.815 Y100.988 E.02154
;WIDTH:0.541494
G1 X117.421 Y100.926 E.02477
;WIDTH:0.543465
G1 X118.076 Y100.967 E.02675
;WIDTH:0.54546
G1 X118.648 Y101.105 E.0241
;WIDTH:0.546894
G1 X119.177 Y101.324 E.02349
;WIDTH:0.540297
G1 X119.811 Y101.723 E.03039
;WIDTH:0.539022
G1 X120.276 Y102.156 E.02568
;WIDTH:0.538252
G1 X120.661 Y102.662 E.02564
G1 X120.955 Y103.225 E.02564
;WIDTH:0.538939
G1 X121.15 Y103.829 E.02567
;WIDTH:0.540169
G1 X121.24 Y104.458 E.02574
;WIDTH:0.541892
G1 X121.223 Y105.093 E.02583
;WIDTH:0.544087
G1 X121.1 Y105.711 E.02573
;WIDTH:0.545888
G1 X120.896 Y106.246 E.02346
;WIDTH:0.547188
G1 X120.615 Y106.744 E.0235
;WIDTH:0.547989
G1 X120.262 Y107.193 E.02353
;WIDTH:0.548289
G1 X119.845 Y107.584 E.02354
;WIDTH:0.554545
G1 X119.252 Y107.979 E.02971
G1 X119.167 Y108.012 E.00379
;WIDTH:0.529156
G1 X119.082 Y108.045 E.0036
;WIDTH:0.503767
G1 X119.028 Y108.046 E.00203
;WIDTH:0.461883
G1 X118.974 Y108.048 E.00184
;WIDTH:0.419999
G1 X118.475 Y108.224 E.01627
G1 X117.863 Y108.338 E.01913
G1 X117.233 Y108.346 E.01937
G1 X117.209 Y108.342 E.00072
G1 X117.244 Y107.969 F21000
;TYPE:Outer wall
G1 F3000
G1 X117.233 Y107.969 E.00034
G1 X116.681 Y107.877 E.01717
G1 X116.151 Y107.692 E.01725
G1 X115.66 Y107.421 E.01725
G1 X115.221 Y107.07 E.01725
G1 X114.848 Y106.651 E.01725
G1 X114.552 Y106.174 E.01725
G1 X114.34 Y105.654 E.01725
G1 X114.219 Y105.106 E.01725
G1 X114.193 Y104.545 E.01725
G1 X114.257 Y104.023 E.01616
G1 X114.423 Y103.451 E.01832
G1 X114.673 Y102.948 E.01725
G1 X115.005 Y102.495 E.01725
G1 X115.408 Y102.105 E.01725
G1 X115.872 Y101.788 E.01725
G1 X116.382 Y101.555 E.01725
G1 X116.925 Y101.41 E.01725
G1 X117.459 Y101.362 E.01646
G1 X118.042 Y101.405 E.01798
G1 X118.537 Y101.531 E.0157
G1 X119.1 Y101.773 E.01883
G1 X119.567 Y102.085 E.01725
G1 X119.974 Y102.471 E.01725
G1 X120.31 Y102.921 E.01725
G1 X120.565 Y103.421 E.01725
G1 X120.732 Y103.957 E.01725
G1 X120.806 Y104.513 E.01725
G1 X120.785 Y105.074 E.01725
G1 X120.671 Y105.618 E.01708
G1 X120.463 Y106.146 E.01741
G1 X120.171 Y106.625 E.01725
G1 X119.802 Y107.048 E.01725
G1 X119.367 Y107.403 E.01725
G1 X118.878 Y107.679 E.01725
G1 X118.349 Y107.869 E.01725
G1 X117.799 Y107.966 E.01717
G1 X117.284 Y107.968 E.01583
G1 E-.68 F3600
;WIPE_START
G1 F3000
G1 X117.233 Y107.969 E-.00614
G1 X116.681 Y107.877 E-.06705
G1 X116.313 Y107.749 E-.0468
;WIPE_END
G1 X118.823 Y109.363 Z.6 F21000
G1 Z.2
M73 P8 R5
G1 E.8 F2700
;TYPE:Bottom surface
;WIDTH:0.422039
G1 F3028
G1 X118.376 Y108.916 E.01951
G1 X117.909 Y108.986 E.01458
G1 X118.653 Y109.729 E.03249
G1 X118.653 Y110.265 E.01656
G1 X117.385 Y108.997 E.05542
G1 X117.031 Y108.989 E.01092
G1 X116.794 Y108.943 E.00746
G1 X118.653 Y110.802 E.08121
G1 X118.653 Y111.338 E.01656
G1 X116.347 Y109.032 E.10075
G1 X116.347 Y109.568 E.01656
G1 X118.653 Y111.874 E.10075
G1 X118.653 Y112.41 E.01656
G1 X116.347 Y110.104 E.10075
G1 X116.347 Y110.64 E.01656
G1 X118.653 Y112.946 E.10075
G1 X118.653 Y113.482 E.01656
G1 X116.347 Y111.176 E.10075
G1 X116.347 Y111.712 E.01656
G1 X118.653 Y114.019 E.10075
G1 X118.653 Y114.555 E.01656
G1 X116.347 Y112.249 E.10075
