; HEADER_BLOCK_START
; generated by OrcaSlicer 2.1.1 on 2024-12-14 at 16:20:15
; total layer number: 180
; filament_density: 1.27
; filament_diameter: 1.75
; max_z_height: 14.52
; HEADER_BLOCK_END

; THUMBNAIL_BLOCK_START

;
; THUMBNAIL_BLOCK_END







; external perimeters extrusion width = 0.40mm
; perimeters extrusion width = 0.45mm
; infill extrusion width = 0.45mm
; solid infill extrusion width = 0.45mm
; top infill extrusion width = 0.38mm
; first layer extrusion width = 0.42mm

; EXECUTABLE_BLOCK_START
EXCLUDE_OBJECT_DEFINE NAME=驾驶舱连臂板轴_-_小.STL_id_0_copy_0 CENTER=117.5,115 POLYGON=[[104,112.5],[131,112.5],[131,117.5],[122.967,117.5],[112.033,117.5],[104,117.5],[104,112.5]]
M73 P0 R25
;TYPE:Custom
;ELEGOO NEPTUNE 4 PRO
M220 S100 ;Set the feed speed to 100%
M221 S100 ;Set the flow rate to 100%
M104 S140
M190 S70
G90
G28 ;home
G1 Z10 F300
G1 X67.5 Y0 F6000
G1 Z0 F300
M109 S240
G92 E0 ;Reset Extruder
G1 X67.5 Y0 Z0.4 F300 ;Move to start position
G1 X167.5 E30 F400 ;Draw the first line
G1 Z0.6 F120.0 ;Move to side a little
M73 P1 R25
G1 X162.5 F3000
G92 E0 ;Reset Extruder
G90
G21
M83 ; use relative distances for extrusion
; filament start gcode
M106 S0
;LAYER_CHANGE
;Z:0.2
;HEIGHT:0.2
;BEFORE_LAYER_CHANGE
G92 E0
;0.2


G1 E-.8 F3600
;AFTER_LAYER_CHANGE
;0.2
;_SET_FAN_SPEED_CHANGING_LAYER
SET_VELOCITY_LIMIT ACCEL=1000 ACCEL_TO_DECEL=500
SET_VELOCITY_LIMIT SQUARE_CORNER_VELOCITY=7
; printing object 驾驶舱连臂板轴 - 小.STL id:0 copy 0
EXCLUDE_OBJECT_START NAME=驾驶舱连臂板轴_-_小.STL_id_0_copy_0
G1 X128.632 Y113.187 F21000
G1 Z.4
G1 Z.2
G1 E.8 F2700
;TYPE:Inner wall
;WIDTH:0.419999
G1 F2776
G1 X130.313 Y113.187 E.05008
G1 X130.313 Y113.667 E.01428
;WIDTH:0.464081
G1 X130.291 Y114.408 E.02468
G1 X130.311 Y115.128 E.02397
;WIDTH:0.433429
G1 X130.313 Y116.813 E.05197
;WIDTH:0.419999
G1 X128.632 Y116.813 E.05007
G1 X129.094 Y116.592 E.01525
G1 X129.561 Y116.138 E.01942
;WIDTH:0.464081
G1 X129.873 Y115.556 E.02194
G1 X129.937 Y115 E.01863
G1 X129.873 Y114.444 E.01863
G1 X129.543 Y113.832 E.02312
;WIDTH:0.419999
G1 X129.093 Y113.407 E.01843
G1 X128.668 Y113.204 E.01403
G1 E-.68 F3600
;WIPE_START
G1 F3000
G1 X129.668 Y113.194 E-.12
;WIPE_END
G1 X129.923 Y113.556 Z.6 F21000
G1 Z.2
G1 E.8 F2700
;WIDTH:0.502466
G1 F2776
G1 X129.866 Y113.556 E.00209
G1 X129.837 Y113.605 E.00209
G1 X129.866 Y113.655 E.00209
G1 X129.923 Y113.655 E.00209
G1 X129.952 Y113.605 E.00209
G1 E-.68 F3600
;WIPE_START
G1 F3000
G1 X129.923 Y113.655 E-.024
G1 X129.866 Y113.655 E-.024
G1 X129.837 Y113.605 E-.024
G1 X129.866 Y113.556 E-.024
G1 X129.923 Y113.556 E-.024
;WIPE_END
G1 X129.923 Y116.345 Z.6 F21000
G1 Z.2
G1 E.8 F2700
;WIDTH:0.502464
G1 F2776
G1 X129.866 Y116.345 E.00209
G1 X129.837 Y116.395 E.00209
G1 X129.866 Y116.444 E.00209
G1 X129.923 Y116.444 E.00209
G1 X129.952 Y116.395 E.00209
G1 E-.68 F3600
;WIPE_START
G1 F3000
G1 X129.923 Y116.444 E-.024
G1 X129.866 Y116.444 E-.024
G1 X129.837 Y116.395 E-.024
G1 X129.866 Y116.345 E-.024
G1 X129.923 Y116.345 E-.024
;WIPE_END
G1 X126.197 Y113.564 Z.6 F21000
G1 Z.2
G1 E.8 F2700
;WIDTH:0.419999
G1 F2776
G1 X126.004 Y113.843 E.01011
G1 X125.813 Y114.266 E.01381
G1 X125.733 Y114.574 E.00949
G1 X125.694 Y115.036 E.01381
G1 X125.721 Y115.354 E.00949
G1 X125.838 Y115.803 E.01381
G1 X125.973 Y116.099 E.00971
G1 X126.204 Y116.436 E.01217
G1 X108.798 Y116.436 E.51847
G1 X109.117 Y115.917 E.01814
G1 X109.223 Y115.616 E.00949
G1 X109.315 Y115 E.01857
G1 X109.223 Y114.383 E.01856
G1 X109.117 Y114.083 E.00948
G1 X108.798 Y113.564 E.01814
G1 X126.157 Y113.564 E.51707
G1 X126.805 Y113.51 F21000
G1 F2776
G1 X126.455 Y113.84 E.01434
G1 X126.157 Y114.421 E.01945
G1 X126.068 Y115.089 E.02005
G1 X126.203 Y115.708 E.01887
G1 X126.554 Y116.279 E.02
G1 X127.047 Y116.681 E.01893
G1 X127.371 Y116.813 E.0104
G1 X107.632 Y116.813 E.58795
G1 X108.094 Y116.592 E.01525
G1 X108.561 Y116.138 E.01943
G1 X108.851 Y115.553 E.01945
G1 X108.938 Y115 E.01667
G1 X108.851 Y114.447 E.01665
G1 X108.561 Y113.862 E.01944
G1 X108.093 Y113.407 E.01945
G1 X107.632 Y113.187 E.01522
G1 X127.336 Y113.187 E.58692
G1 X126.93 Y113.392 E.01355
G1 X126.834 Y113.482 E.00392
G1 X127.08 Y113.746 F21000
;TYPE:Outer wall
;WIDTH:0.46751
G1 F2776
G1 X127.27 Y113.622 E.00761
;WIDTH:0.51502
G1 X127.492 Y113.477 E.00988
;WIDTH:0.546797
G1 X127.528 Y113.45 E.00179
;WIDTH:0.578574
G1 X127.564 Y113.423 E.00191
G1 X128.073 Y113.379 E.02164
;WIDTH:0.563314
G1 X128.319 Y113.4 E.01014
G1 X128.476 Y113.486 E.00735
;WIDTH:0.515543
G1 X128.633 Y113.571 E.00667
;WIDTH:0.467771
G1 X128.79 Y113.657 E.006
;WIDTH:0.419999
G1 X129.192 Y113.997 E.01569
G1 X129.458 Y114.451 E.01569
G1 X129.558 Y114.968 E.01569
G1 X129.479 Y115.489 E.01569
G1 X129.232 Y115.954 E.01569
G1 X128.844 Y116.309 E.01567
;WIDTH:0.454999
G1 X128.689 Y116.395 E.00576
;WIDTH:0.489999
G1 X128.534 Y116.48 E.00625
;WIDTH:0.524998
G1 X128.379 Y116.565 E.00674
;WIDTH:0.561869
G1 X128.3 Y116.6 E.00355
;WIDTH:0.563198
G1 X127.75 Y116.61 E.02263
G1 X127.59 Y116.532 E.00729
;WIDTH:0.515465
G1 X127.43 Y116.454 E.00662
;WIDTH:0.467732
G1 X127.271 Y116.377 E.00596
;WIDTH:0.419999
G1 X126.865 Y116.066 E.01522
G1 X126.567 Y115.613 E.01615
G1 X126.445 Y115.107 E.01549
G1 X126.501 Y114.577 E.01589
G1 X126.692 Y114.154 E.01381
G1 X127.047 Y113.768 E.01563
G1 E-.68 F3600
;WIPE_START
G1 F3000
G1 X127.27 Y113.622 E-.032
G1 X127.492 Y113.477 E-.03178
G1 X127.528 Y113.45 E-.0054
G1 X127.564 Y113.423 E-.00541
G1 X127.94 Y113.39 E-.0454
;WIPE_END
G1 X120.308 Y113.411 Z.6 F21000
G1 X105.873 Y113.45 Z.6
G1 Z.2
G1 E.8 F2700
;TYPE:Inner wall
G1 F2776
G1 X105.776 Y113.506 E.00332
G1 X105.348 Y113.999 E.01945
;WIDTH:0.442691
G1 X105.097 Y114.605 E.02073
G1 X105.072 Y115.215 E.01926
;WIDTH:0.427359
G1 X105.203 Y115.708 E.01548
;WIDTH:0.419999
G1 X105.554 Y116.279 E.02
G1 X106.047 Y116.681 E.01893
G1 X106.371 Y116.813 E.0104
G1 X104.687 Y116.813 E.05014
G1 X104.687 Y115.774 E.03096
;WIDTH:0.421632
G1 X104.688 Y115.116 E.01966
;WIDTH:0.442691
G1 X104.687 Y113.856 E.03979
;WIDTH:0.419999
G1 X104.687 Y113.187 E.01993
G1 X106.336 Y113.187 E.04911
G1 X105.908 Y113.431 E.01468
G1 X105.134 Y113.555 F21000
;WIDTH:0.501948
G1 F2776
G1 X105.076 Y113.555 E.00208
G1 X105.048 Y113.605 E.00208
G1 X105.076 Y113.655 E.00208
G1 X105.134 Y113.655 E.00208
G1 X105.163 Y113.605 E.00208
G1 X106.013 Y113.805 F21000
;TYPE:Outer wall
;WIDTH:0.419999
G1 F2776
G1 X106.048 Y113.767 E.00155
;WIDTH:0.467509
G1 X106.27 Y113.622 E.00888
;WIDTH:0.515019
G1 X106.492 Y113.477 E.00988
;WIDTH:0.546796
G1 X106.528 Y113.45 E.00179
;WIDTH:0.578573
G1 X106.564 Y113.423 E.00191
G1 X107.073 Y113.379 E.02163
;WIDTH:0.563313
G1 X107.319 Y113.4 E.01014
G1 X107.476 Y113.486 E.00735
;WIDTH:0.515542
G1 X107.633 Y113.571 E.00667
;WIDTH:0.467771
G1 X107.79 Y113.657 E.006
;WIDTH:0.419999
G1 X108.192 Y113.997 E.01569
G1 X108.458 Y114.451 E.01569
G1 X108.558 Y114.967 E.01567
G1 X108.479 Y115.489 E.01571
G1 X108.232 Y115.954 E.01569
G1 X107.844 Y116.309 E.01567
;WIDTH:0.454998
G1 X107.689 Y116.395 E.00576
;WIDTH:0.489997
G1 X107.534 Y116.48 E.00625
;WIDTH:0.524995
G1 X107.379 Y116.565 E.00674
;WIDTH:0.56187
G1 X107.3 Y116.6 E.00355
;WIDTH:0.563198
G1 X106.75 Y116.61 E.02263
G1 X106.59 Y116.532 E.00729
;WIDTH:0.515465
G1 X106.43 Y116.454 E.00662
;WIDTH:0.467732
G1 X106.271 Y116.377 E.00596
;WIDTH:0.419999
G1 X105.865 Y116.066 E.01522
G1 X105.567 Y115.613 E.01615
G1 X105.451 Y115.164 E.01381
G1 X105.485 Y114.638 E.01569
G1 X105.692 Y114.154 E.01569
G1 X105.986 Y113.834 E.01295
G1 E-.68 F3600
;WIPE_START
G1 F3000
G1 X106.048 Y113.767 E-.01103
G1 X106.27 Y113.622 E-.03178
G1 X106.492 Y113.477 E-.03178
G1 X106.528 Y113.45 E-.00541
G1 X106.564 Y113.423 E-.00541
G1 X106.851 Y113.398 E-.03459
;WIPE_END
G1 X105.142 Y116.336 Z.6 F21000
G1 Z.2
G1 E.8 F2700
;TYPE:Inner wall
;WIDTH:0.516738
G1 F2776
G1 X105.083 Y116.336 E.00222
G1 X105.053 Y116.387 E.00222
G1 X105.083 Y116.439 E.00222
G1 X105.142 Y116.439 E.00222
G1 X105.172 Y116.387 E.00222
G1 E-.68 F3600
;WIPE_START
G1 F3000
G1 X105.142 Y116.439 E-.024
G1 X105.083 Y116.439 E-.024
G1 X105.053 Y116.387 E-.024
G1 X105.083 Y116.336 E-.024
G1 X105.142 Y116.336 E-.024
;WIPE_END
G1 X112.77 Y116.591 Z.6 F21000
G1 X130.69 Y117.19 Z.6
G1 Z.2
G1 E.8 F2700
;TYPE:Outer wall
;WIDTH:0.419999
G1 F2776
G1 X128.954 Y117.19 E.05171
;WIDTH:0.468522
G1 X128.762 Y117.166 E.00649
;WIDTH:0.517044
G1 X128.571 Y117.141 E.00723
;WIDTH:0.565566
G1 X128.379 Y117.117 E.00797
G1 X127.826 Y117.124 E.02286
;WIDTH:0.551796
G1 X127.62 Y117.146 E.0083
;WIDTH:0.507864
G1 X127.415 Y117.168 E.00759
;WIDTH:0.463932
G1 X127.21 Y117.19 E.00687
;WIDTH:0.419999
G1 X107.954 Y117.19 E.57356
;WIDTH:0.468522
G1 X107.763 Y117.166 E.00649
;WIDTH:0.517045
G1 X107.571 Y117.141 E.00723
;WIDTH:0.565567
G1 X107.379 Y117.117 E.00797
G1 X106.826 Y117.124 E.02286
;WIDTH:0.551796
G1 X106.62 Y117.146 E.0083
;WIDTH:0.507864
G1 X106.415 Y117.168 E.00759
;WIDTH:0.463932
G1 X106.21 Y117.19 E.00687
;WIDTH:0.419999
G1 X104.31 Y117.19 E.05658
G1 X104.31 Y112.81 E.13047
G1 X105.881 Y112.81 E.04679
;WIDTH:0.459643
G1 X106.043 Y112.83 E.00537
;WIDTH:0.499286
G1 X106.205 Y112.85 E.00588
;WIDTH:0.53893
G1 X106.367 Y112.869 E.00639
;WIDTH:0.578573
G1 X106.529 Y112.889 E.0069
G1 X107.349 Y112.882 E.03471
;WIDTH:0.563313
G1 X107.55 Y112.858 E.00834
;WIDTH:0.515542
G1 X107.752 Y112.834 E.00757
;WIDTH:0.467771
G1 X107.953 Y112.81 E.00681
;WIDTH:0.419999
G1 X126.881 Y112.81 E.56379
;WIDTH:0.459643
G1 X127.043 Y112.83 E.00537
;WIDTH:0.499287
G1 X127.205 Y112.85 E.00588
;WIDTH:0.538931
G1 X127.367 Y112.869 E.00639
;WIDTH:0.578574
G1 X127.529 Y112.889 E.0069
G1 X128.349 Y112.882 E.03471
;WIDTH:0.563314
G1 X128.55 Y112.858 E.00834
;WIDTH:0.515543
G1 X128.752 Y112.834 E.00757
;WIDTH:0.467771
G1 X128.953 Y112.81 E.00681
;WIDTH:0.419999
G1 X130.69 Y112.81 E.05173
G1 X130.69 Y117.15 E.12927
G1 E-.68 F3600
;WIPE_START
G1 F3000
G1 X129.69 Y117.173 E-.12
;WIPE_END
G1 X125.187 Y113.677 Z.6 F21000
G1 Z.2
G1 E.8 F2700
;TYPE:Bottom surface
;WIDTH:0.429556
G1 F2776
G1 X125.588 Y114.079 E.01733
G1 X125.552 Y114.157 E.00262
G1 X125.463 Y114.5 E.01084
G1 X124.81 Y113.847 E.02821
G1 X124.263 Y113.847 E.0167
G1 X125.414 Y114.998 E.0497
G1 X125.445 Y115.418 E.01288
G1 X125.501 Y115.631 E.00673
G1 X123.716 Y113.847 E.07708
G1 X123.17 Y113.847 E.0167
G1 X125.476 Y116.153 E.0996
G1 X124.929 Y116.153 E.0167
G1 X122.623 Y113.847 E.0996
G1 X122.076 Y113.847 E.0167
G1 X124.382 Y116.153 E.0996
G1 X123.835 Y116.153 E.0167
G1 X121.529 Y113.847 E.0996
G1 X120.982 Y113.847 E.0167
G1 X123.288 Y116.153 E.0996
G1 X122.742 Y116.153 E.0167
G1 X120.436 Y113.847 E.0996
G1 X119.889 Y113.847 E.0167
G1 X122.195 Y116.153 E.0996
G1 X121.648 Y116.153 E.0167
G1 X119.342 Y113.847 E.0996
G1 X118.795 Y113.847 E.0167
G1 X121.101 Y116.153 E.0996
G1 X120.555 Y116.153 E.0167
G1 X118.248 Y113.847 E.0996
G1 X117.702 Y113.847 E.0167
G1 X120.008 Y116.153 E.0996
G1 X119.461 Y116.153 E.0167
G1 X117.155 Y113.847 E.0996
G1 X116.608 Y113.847 E.0167
G1 X118.914 Y116.153 E.0996
G1 X118.367 Y116.153 E.0167
M73 P2 R25
G1 X116.061 Y113.847 E.0996
G1 X115.515 Y113.847 E.0167
G1 X117.821 Y116.153 E.0996
G1 X117.274 Y116.153 E.0167
G1 X114.968 Y113.847 E.0996
G1 X114.421 Y113.847 E.0167
G1 X116.727 Y116.153 E.0996
G1 X116.18 Y116.153 E.0167
G1 X113.874 Y113.847 E.0996
G1 X113.327 Y113.847 E.0167
G1 X115.633 Y116.153 E.0996
G1 X115.087 Y116.153 E.0167
G1 X112.781 Y113.847 E.0996
G1 X112.234 Y113.847 E.0167
G1 X114.54 Y116.153 E.0996
G1 X113.993 Y116.153 E.0167
G1 X111.687 Y113.847 E.0996
G1 X111.14 Y113.847 E.0167
G1 X113.446 Y116.153 E.0996
G1 X112.9 Y116.153 E.0167
G1 X110.593 Y113.847 E.0996
G1 X110.047 Y113.847 E.0167
G1 X112.353 Y116.153 E.0996
G1 X111.806 Y116.153 E.0167
G1 X109.5 Y113.847 E.0996
G1 X109.308 Y113.847 E.00585
G1 X109.367 Y113.952 E.00369
G1 X109.5 Y114.329 E.01219
G1 X109.512 Y114.405 E.00237
G1 X111.259 Y116.153 E.07548
G1 X110.712 Y116.153 E.0167
G1 X109.593 Y115.034 E.04833
G1 X109.524 Y115.511 E.01473
G1 X110.166 Y116.153 E.02772
G1 X109.619 Y116.153 E.0167
G1 X109.272 Y115.807 E.01496
; stop printing object 驾驶舱连臂板轴 - 小.STL id:0 copy 0
;LAYER_CHANGE
;Z:0.28
;HEIGHT:0.08
;BEFORE_LAYER_CHANGE
G92 E0
;0.28


G1 E-.68 F3600
;WIPE_START
G1 F4800
G1 X109.619 Y116.153 E-.05877
G1 X110.129 Y116.153 E-.06123
;WIPE_END
EXCLUDE_OBJECT_END NAME=驾驶舱连臂板轴_-_小.STL_id_0_copy_0
;AFTER_LAYER_CHANGE
;0.28
;_SET_FAN_SPEED_CHANGING_LAYER
SET_VELOCITY_LIMIT ACCEL=5000 ACCEL_TO_DECEL=2500
SET_VELOCITY_LIMIT SQUARE_CORNER_VELOCITY=9
M140 S70 ; set bed temperature
; printing object 驾驶舱连臂板轴 - 小.STL id:0 copy 0
EXCLUDE_OBJECT_START NAME=驾驶舱连臂板轴_-_小.STL_id_0_copy_0
G1 X117.659 Y114.907 Z.6 F21000
G1 X128.331 Y113.141 Z.6
G1 Z.28
G1 E.8 F2700
SET_VELOCITY_LIMIT ACCEL=3000 ACCEL_TO_DECEL=1500 SQUARE_CORNER_VELOCITY=7
;TYPE:Inner wall
;WIDTH:0.51594
G1 F2575
G1 X128.633 Y113.124 E.00476
;WIDTH:0.48297
G1 X128.934 Y113.108 E.00445
;WIDTH:0.449999
G1 X130.392 Y113.108 E.01994
G1 X130.392 Y113.685 E.0079
;WIDTH:0.496608
G1 X130.369 Y114.056 E.00563
;WIDTH:0.543216
G1 X130.346 Y114.427 E.00618
G1 X130.367 Y115 E.00953
;WIDTH:0.543517
G1 X130.345 Y115.576 E.00959
G1 X130.369 Y115.946 E.00615
;WIDTH:0.496758
G1 X130.392 Y116.315 E.0056
;WIDTH:0.449999
G1 X130.392 Y116.892 E.0079
G1 X128.935 Y116.892 E.01993
;WIDTH:0.486055
G1 X128.655 Y116.874 E.00415
;WIDTH:0.52211
G1 X128.375 Y116.856 E.00447
G1 X128.629 Y116.742 E.00445
;WIDTH:0.486055
G1 X128.883 Y116.628 E.00413
;WIDTH:0.449999
G1 X129.375 Y116.241 E.00856
G1 X129.502 Y116.083 E.00277
;WIDTH:0.496608
G1 X129.663 Y115.806 E.00485
;WIDTH:0.543217
G1 X129.823 Y115.528 E.00532
G1 X129.883 Y115 E.00884
G1 X129.823 Y114.472 E.00884
G1 X129.771 Y114.378 E.00179
;WIDTH:0.505811
G1 X129.718 Y114.284 E.00166
;WIDTH:0.468406
G1 X129.375 Y113.759 E.00893
;WIDTH:0.449999
G1 X128.883 Y113.372 E.00856
;WIDTH:0.48297
G1 X128.607 Y113.257 E.00441
;WIDTH:0.51594
G1 X128.368 Y113.156 E.00409
SET_VELOCITY_LIMIT ACCEL=5000 ACCEL_TO_DECEL=2500 SQUARE_CORNER_VELOCITY=9
G1 E-.68 F3600
;WIPE_START
G1 F12000
G1 X128.633 Y113.124 E-.03203
G1 X128.934 Y113.108 E-.03628
G1 X129.365 Y113.108 E-.05169
;WIPE_END
G1 X129.965 Y113.605 Z.68 F21000
G1 Z.28
G1 E.8 F2700
SET_VELOCITY_LIMIT ACCEL=3000 ACCEL_TO_DECEL=1500 SQUARE_CORNER_VELOCITY=7
;WIDTH:0.57931
G1 F2575
G1 X129.93 Y113.666 E.00125
G1 X129.86 Y113.666 E.00125
G1 X129.824 Y113.605 E.00125
G1 X129.86 Y113.544 E.00125
G1 X129.93 Y113.544 E.00125
SET_VELOCITY_LIMIT ACCEL=5000 ACCEL_TO_DECEL=2500 SQUARE_CORNER_VELOCITY=9
G1 E-.6946 F3600
;WIPE_START
G1 F12000
G1 X129.86 Y113.544 E-.02108
G1 X129.824 Y113.605 E-.02108
G1 X129.86 Y113.666 E-.02108
G1 X129.93 Y113.666 E-.02108
G1 X129.965 Y113.605 E-.02108
;WIPE_END
G1 X129.93 Y116.334 Z.68 F21000
G1 Z.28
G1 E.8 F2700
SET_VELOCITY_LIMIT ACCEL=3000 ACCEL_TO_DECEL=1500 SQUARE_CORNER_VELOCITY=7
;WIDTH:0.579312
G1 F2575
G1 X129.86 Y116.334 E.00125
G1 X129.824 Y116.395 E.00125
G1 X129.86 Y116.456 E.00125
G1 X129.93 Y116.456 E.00125
G1 X129.965 Y116.395 E.00125
SET_VELOCITY_LIMIT ACCEL=5000 ACCEL_TO_DECEL=2500 SQUARE_CORNER_VELOCITY=9
G1 E-.6946 F3600
;WIPE_START
G1 F12000
G1 X129.93 Y116.456 E-.02108
G1 X129.86 Y116.456 E-.02108
G1 X129.824 Y116.395 E-.02108
G1 X129.86 Y116.334 E-.02108
G1 X129.93 Y116.334 E-.02108
;WIPE_END
G1 X126.251 Y113.541 Z.68 F21000
G1 Z.28
G1 E.8 F2700
SET_VELOCITY_LIMIT ACCEL=3000 ACCEL_TO_DECEL=1500 SQUARE_CORNER_VELOCITY=7
;WIDTH:0.449999
G1 F2575
G1 X126.017 Y113.87 E.00553
G1 X125.842 Y114.258 E.00582
G1 X125.754 Y114.595 E.00477
G1 X125.718 Y115.019 E.00582
G1 X125.747 Y115.367 E.00477
G1 X125.854 Y115.778 E.00582
G1 X125.998 Y116.096 E.00477
G1 X126.246 Y116.459 E.00601
G1 X108.747 Y116.459 E.23933
G1 X109.088 Y115.923 E.0087
G1 X109.204 Y115.594 E.00477
G1 X109.291 Y115 E.00821
G1 X109.204 Y114.406 E.00821
G1 X109.088 Y114.077 E.00477
G1 X108.747 Y113.541 E.0087
G1 X126.211 Y113.541 E.23884
SET_VELOCITY_LIMIT ACCEL=5000 ACCEL_TO_DECEL=2500 SQUARE_CORNER_VELOCITY=9
G1 X126.856 Y113.571 F21000
SET_VELOCITY_LIMIT ACCEL=3000 ACCEL_TO_DECEL=1500 SQUARE_CORNER_VELOCITY=7
G1 F2575
G1 X126.525 Y113.881 E.0062
G1 X126.236 Y114.436 E.00856
G1 X126.147 Y115.081 E.0089
