; HEADER_BLOCK_START
; generated by OrcaSlicer 2.1.1 on 2024-12-14 at 16:19:32
; total layer number: 36
; filament_density: 1.27
; filament_diameter: 1.75
; max_z_height: 3.00
; HEADER_BLOCK_END

; THUMBNAIL_BLOCK_START

;
; THUMBNAIL_BLOCK_END







; external perimeters extrusion width = 0.40mm
; perimeters extrusion width = 0.45mm
; infill extrusion width = 0.45mm
; solid infill extrusion width = 0.45mm
; top infill extrusion width = 0.38mm
; first layer extrusion width = 0.42mm

; EXECUTABLE_BLOCK_START
EXCLUDE_OBJECT_DEFINE NAME=驾驶舱连臂板.STL_id_0_copy_0 CENTER=117.5,115 POLYGON=[[78.25,89.5],[78.2992,88.8743],[78.4458,88.2639],[78.686,87.684],[79.0139,87.1489],[79.4216,86.6716],[79.8989,86.2639],[80.434,85.936],[81.0139,85.6958],[81.6243,85.5492],[82.25,85.5],[152.75,85.5],[153.376,85.5492],[153.986,85.6958],[154.566,85.936],[155.101,86.2639],[155.578,86.6716],[155.986,87.1489],[156.314,87.684],[156.554,88.2639],[156.701,88.8743],[156.75,89.5],[156.75,140.5],[156.701,141.126],[156.554,141.736],[156.314,142.316],[155.986,142.851],[155.578,143.328],[155.101,143.736],[154.566,144.064],[153.986,144.304],[153.376,144.451],[152.75,144.5],[82.25,144.5],[81.6243,144.451],[81.0139,144.304],[80.434,144.064],[79.8989,143.736],[79.4216,143.328],[79.0139,142.851],[78.686,142.316],[78.4458,141.736],[78.2992,141.126],[78.25,140.5],[78.25,89.5]]
M73 P0 R44
;TYPE:Custom
;ELEGOO NEPTUNE 4 PRO
M220 S100 ;Set the feed speed to 100%
M221 S100 ;Set the flow rate to 100%
M104 S140
M190 S70
G90
G28 ;home
G1 Z10 F300
G1 X67.5 Y0 F6000
G1 Z0 F300
M109 S240
G92 E0 ;Reset Extruder
G1 X67.5 Y0 Z0.4 F300 ;Move to start position
G1 X167.5 E30 F400 ;Draw the first line
G1 Z0.6 F120.0 ;Move to side a little
M73 P0 R43
G1 X162.5 F3000
G92 E0 ;Reset Extruder
G90
G21
M83 ; use relative distances for extrusion
; filament start gcode
M106 S0
;LAYER_CHANGE
;Z:0.2
;HEIGHT:0.2
;BEFORE_LAYER_CHANGE
G92 E0
;0.2


G1 E-.8 F3600
;AFTER_LAYER_CHANGE
;0.2
;_SET_FAN_SPEED_CHANGING_LAYER
SET_VELOCITY_LIMIT ACCEL=1000 ACCEL_TO_DECEL=500
SET_VELOCITY_LIMIT SQUARE_CORNER_VELOCITY=7
; printing object 驾驶舱连臂板.STL id:0 copy 0
EXCLUDE_OBJECT_START NAME=驾驶舱连臂板.STL_id_0_copy_0
G1 X153.728 Y86.744 F21000
G1 Z.4
G1 Z.2
G1 E.8 F2700
;TYPE:Inner wall
;WIDTH:0.419999
G1 F3000
G1 X154.203 Y86.961 E.01556
G1 X154.666 Y87.292 E.01697
G1 X155.038 Y87.678 E.01595
G1 X155.308 Y88.08 E.01443
G1 X155.5 Y88.5 E.01376
G1 X155.646 Y89.041 E.0167
G1 X155.686 Y89.588 E.01632
G1 X155.686 Y140.05 E1.50311
G1 X155.655 Y140.852 E.02388
G1 X155.563 Y141.308 E.01386
G1 X155.363 Y141.831 E.0167
G1 X155.038 Y142.322 E.01753
G1 X154.666 Y142.708 E.01595
G1 X154.203 Y143.039 E.01697
G1 X153.75 Y143.25 E.01488
G1 X153.209 Y143.396 E.0167
G1 X152.708 Y143.436 E.01496
G1 X82.874 Y143.436 E2.08013
G1 X82.078 Y143.419 E.02371
G1 X81.52 Y143.331 E.01681
G1 X81.015 Y143.153 E.01597
G1 X80.526 Y142.872 E.01678
G1 X80.117 Y142.502 E.01644
G1 X79.761 Y142.033 E.01755
G1 X79.5 Y141.5 E.01768
G1 X79.354 Y140.959 E.01671
G1 X79.314 Y140.458 E.01496
G1 X79.314 Y90.017 E1.50247
G1 X79.346 Y89.143 E.02604
G1 X79.437 Y88.693 E.01369
G1 X79.637 Y88.169 E.01671
G1 X79.946 Y87.696 E.01682
G1 X80.32 Y87.305 E.01612
G1 X80.808 Y86.955 E.01788
G1 X81.25 Y86.75 E.01451
G1 X81.791 Y86.604 E.01671
G1 X82.292 Y86.564 E.01496
G1 X152.476 Y86.564 E2.09054
G1 X153.111 Y86.596 E.01894
G1 X153.656 Y86.711 E.0166
G1 X153.691 Y86.727 E.00115
G1 X153.902 Y86.405 F21000
G1 F3000
G1 X154.253 Y86.55 E.0113
G1 X154.696 Y86.822 E.01548
G1 X155.091 Y87.159 E.01547
G1 X155.428 Y87.554 E.01547
G1 X155.7 Y87.997 E.01547
G1 X155.899 Y88.477 E.01548
G1 X156.02 Y88.982 E.01548
G1 X156.063 Y89.588 E.01808
G1 X156.063 Y140.473 E1.5157
G1 X156.02 Y141.018 E.01628
M73 P1 R43
G1 X155.899 Y141.523 E.01548
G1 X155.7 Y142.003 E.01548
G1 X155.428 Y142.446 E.01547
G1 X155.091 Y142.841 E.01547
G1 X154.696 Y143.178 E.01548
G1 X154.253 Y143.45 E.01548
G1 X153.773 Y143.649 E.01547
G1 X153.268 Y143.77 E.01547
G1 X152.723 Y143.813 E.01628
G1 X82.277 Y143.813 E2.09834
G1 X81.732 Y143.77 E.01628
G1 X81.227 Y143.649 E.01548
G1 X80.747 Y143.45 E.01547
G1 X80.304 Y143.178 E.01548
G1 X79.918 Y142.849 E.01511
G1 X79.571 Y142.445 E.01586
G1 X79.3 Y142.003 E.01545
G1 X79.101 Y141.523 E.01547
G1 X78.98 Y141.018 E.01548
G1 X78.937 Y140.473 E.01628
G1 X78.937 Y89.527 E1.51751
G1 X78.98 Y88.982 E.01628
G1 X79.101 Y88.477 E.01548
G1 X79.3 Y87.997 E.01547
G1 X79.572 Y87.554 E.01548
G1 X79.901 Y87.168 E.01511
G1 X80.305 Y86.821 E.01586
G1 X80.747 Y86.55 E.01545
G1 X81.227 Y86.351 E.01547
G1 X81.732 Y86.23 E.01548
G1 X82.277 Y86.187 E.01628
G1 X152.723 Y86.187 E2.09834
G1 X153.268 Y86.23 E.01628
G1 X153.773 Y86.351 E.01547
G1 X153.866 Y86.39 E.00298
G1 X154.042 Y86.055 F21000
;TYPE:Outer wall
G1 F3000
G1 X154.597 Y86.318 E.01829
G1 X155.044 Y86.623 E.01611
G1 X155.466 Y87.017 E.01721
G1 X155.841 Y87.505 E.01834
G1 X156.1 Y87.976 E.016
G1 X156.296 Y88.516 E.01712
G1 X156.406 Y89.08 E.0171
G1 X156.44 Y89.588 E.01516
G1 X156.44 Y140.488 E1.51614
G1 X156.394 Y141.077 E.01761
G1 X156.258 Y141.64 E.01724
G1 X156.037 Y142.175 E.01724
G1 X155.734 Y142.668 E.01724
G1 X155.359 Y143.109 E.01724
G1 X154.918 Y143.484 E.01724
G1 X154.425 Y143.787 E.01724
G1 X153.89 Y144.008 E.01724
G1 X153.327 Y144.144 E.01724
G1 X152.738 Y144.19 E.01761
G1 X82.262 Y144.19 E2.09923
G1 X81.673 Y144.144 E.01761
G1 X81.11 Y144.008 E.01724
G1 X80.575 Y143.787 E.01724
G1 X80.082 Y143.484 E.01724
G1 X79.651 Y143.117 E.01686
G1 X79.265 Y142.668 E.01763
G1 X78.963 Y142.175 E.01723
G1 X78.742 Y141.64 E.01724
G1 X78.606 Y141.077 E.01724
G1 X78.56 Y140.488 E.01761
G1 X78.56 Y89.512 E1.51839
G1 X78.606 Y88.923 E.01761
G1 X78.742 Y88.36 E.01724
G1 X78.963 Y87.825 E.01724
G1 X79.266 Y87.332 E.01724
G1 X79.633 Y86.901 E.01686
G1 X80.082 Y86.515 E.01763
G1 X80.575 Y86.213 E.01723
G1 X81.11 Y85.992 E.01724
G1 X81.673 Y85.856 E.01724
G1 X82.262 Y85.81 E.01761
G1 X152.476 Y85.81 E2.09142
G1 X152.983 Y85.829 E.01512
G1 X153.48 Y85.893 E.01493
G1 X154.004 Y86.043 E.01622
G1 E-.68 F3600
;WIPE_START
G1 F3000
G1 X154.597 Y86.318 E-.07844
G1 X154.883 Y86.513 E-.04156
;WIPE_END
G1 X150.985 Y93.075 Z.6 F21000
G1 X150.142 Y94.493 Z.6
G1 Z.2
G1 E.8 F2700
;TYPE:Inner wall
G1 F3000
G1 X150.027 Y94.476 E.00346
G1 X149.534 Y94.311 E.01547
G1 X149.086 Y94.071 E.01515
G1 X148.668 Y93.745 E.0158
G1 X148.318 Y93.361 E.01547
G1 X148.039 Y92.923 E.01547
G1 X147.837 Y92.444 E.01547
G1 X147.719 Y91.939 E.01547
G1 X147.689 Y91.42 E.01547
G1 X147.746 Y90.904 E.01547
G1 X147.89 Y90.405 E.01547
G1 X148.117 Y89.937 E.01547
G1 X148.419 Y89.515 E.01547
G1 X148.788 Y89.149 E.01547
G1 X149.077 Y88.935 E.01072
G1 X149.534 Y88.689 E.01547
G1 X150.027 Y88.524 E.01547
G1 X150.629 Y88.441 E.0181
G1 X151.218 Y88.474 E.01757
G1 X151.723 Y88.596 E.01548
G1 X152.2 Y88.803 E.01547
G1 X152.623 Y89.076 E.015
G1 X152.999 Y89.42 E.01518
G1 X153.329 Y89.848 E.01612
G1 X153.572 Y90.312 E.01559
G1 X153.733 Y90.806 E.01547
G1 X153.807 Y91.32 E.01547
G1 X153.793 Y91.839 E.01547
G1 X153.692 Y92.349 E.01547
G1 X153.507 Y92.834 E.01547
G1 X153.241 Y93.28 E.01547
G1 X152.905 Y93.676 E.01547
G1 X152.506 Y94.009 E.01547
G1 X152.057 Y94.269 E.01547
G1 X151.57 Y94.45 E.01547
G1 X151.06 Y94.547 E.01547
G1 X150.54 Y94.555 E.01547
G1 X150.181 Y94.5 E.01082
G1 X150.203 Y94.125 F21000
G1 F3000
G1 X150.137 Y94.115 E.00197
G1 X149.704 Y93.974 E.01357
G1 X149.301 Y93.762 E.01357
G1 X148.94 Y93.484 E.01357
G1 X148.63 Y93.15 E.01357
G1 X148.325 Y92.642 E.01765
G1 X148.202 Y92.349 E.00946
G1 X148.095 Y91.907 E.01357
G1 X148.065 Y91.452 E.01357
G1 X148.111 Y90.999 E.01357
G1 X148.234 Y90.56 E.01357
G1 X148.429 Y90.148 E.01357
G1 X148.691 Y89.776 E.01357
G1 X149.012 Y89.452 E.01357
G1 X149.301 Y89.238 E.01072
G1 X149.793 Y88.99 E.01641
G1 X150.231 Y88.865 E.01357
G1 X150.645 Y88.819 E.01241
G1 X151.139 Y88.842 E.01471
G1 X151.582 Y88.946 E.01357
G1 X152.002 Y89.124 E.01357
G1 X152.385 Y89.369 E.01357
G1 X152.722 Y89.676 E.01357
G1 X153.002 Y90.036 E.01357
G1 X153.217 Y90.438 E.01357
G1 X153.361 Y90.87 E.01357
G1 X153.43 Y91.32 E.01357
G1 X153.422 Y91.776 E.01357
G1 X153.337 Y92.223 E.01357
G1 X153.177 Y92.65 E.01357
G1 X152.948 Y93.044 E.01357
G1 X152.656 Y93.393 E.01357
G1 X152.308 Y93.688 E.01357
G1 X151.916 Y93.92 E.01357
G1 X151.491 Y94.082 E.01357
G1 X151.044 Y94.17 E.01357
G1 X150.588 Y94.181 E.01357
G1 X150.242 Y94.13 E.01041
G1 X150.257 Y93.756 F21000
;TYPE:Outer wall
G1 F3000
G1 X150.248 Y93.755 E.00029
G1 X149.874 Y93.637 E.01167
G1 X149.525 Y93.458 E.01167
G1 X149.212 Y93.223 E.01167
G1 X148.943 Y92.939 E.01167
G1 X148.669 Y92.487 E.01574
G1 X148.476 Y91.906 E.01822
G1 X148.44 Y91.484 E.01262
G1 X148.476 Y91.094 E.01167
G1 X148.578 Y90.715 E.01167
G1 X148.741 Y90.36 E.01167
G1 X148.963 Y90.037 E.01167
G1 X149.236 Y89.756 E.01167
G1 X149.525 Y89.542 E.01072
G1 X149.904 Y89.351 E.01262
G1 X150.279 Y89.239 E.01167
G1 X150.634 Y89.196 E.01066
G1 X151.059 Y89.211 E.01266
G1 X151.442 Y89.296 E.01167
G1 X151.964 Y89.543 E.01721
G1 X152.406 Y89.89 E.01676
G1 X152.673 Y90.22 E.01262
G1 X152.861 Y90.563 E.01167
G1 X152.989 Y90.933 E.01167
G1 X153.053 Y91.32 E.01167
G1 X153.05 Y91.712 E.01167
G1 X152.981 Y92.097 E.01167
G1 X152.848 Y92.466 E.01167
G1 X152.655 Y92.807 E.01167
G1 X152.406 Y93.11 E.01167
G1 X152.111 Y93.367 E.01167
G1 X151.776 Y93.57 E.01167
G1 X151.411 Y93.713 E.01167
G1 X151.028 Y93.793 E.01167
G1 X150.636 Y93.807 E.01167
G1 X150.297 Y93.761 E.01019
G1 E-.68 F3600
;WIPE_START
G1 F3000
G1 X150.248 Y93.755 E-.00598
G1 X149.874 Y93.637 E-.04701
G1 X149.525 Y93.458 E-.04701
G1 X149.392 Y93.358 E-.02
;WIPE_END
G1 X148.393 Y100.925 Z.6 F21000
G1 X147.467 Y107.935 Z.6
G1 Z.2
G1 E.8 F2700
;TYPE:Inner wall
G1 F3000
G1 X147.262 Y107.962 E.00615
G1 X146.67 Y107.87 E.01783
G1 X146.375 Y107.751 E.0095
G1 X145.943 Y107.466 E.01541
G1 X145.593 Y107.05 E.0162
G1 X145.479 Y106.839 E.00713
G1 X145.312 Y106.321 E.01622
G1 X145.302 Y105.768 E.01646
G1 X145.354 Y105.513 E.00776
G1 X145.545 Y105.025 E.01562
G1 X145.901 Y104.574 E.01712
G1 X146.375 Y104.249 E.01711
G1 X146.669 Y104.131 E.00945
G1 X147.204 Y104.037 E.01618
G1 X147.655 Y104.085 E.01351
G1 X148.149 Y104.253 E.01554
G1 X148.665 Y104.637 E.01913
G1 X148.962 Y105.051 E.0152
G1 X149.093 Y105.342 E.00949
G1 X149.207 Y105.833 E.01502
G1 X149.178 Y106.337 E.01506
G1 X149.098 Y106.646 E.00949
G1 X148.875 Y107.104 E.01516
G1 X148.538 Y107.474 E.01492
G1 X148.282 Y107.663 E.00949
G1 X147.765 Y107.895 E.01687
G1 X147.506 Y107.929 E.00778
G1 X147.424 Y107.558 F21000
G1 F3000
G1 X147.24 Y107.586 E.00556
G1 X146.698 Y107.487 E.01639
G1 X146.247 Y107.228 E.01551
G1 X145.899 Y106.829 E.01576
G1 X145.68 Y106.226 E.01912
G1 X145.687 Y105.723 E.01499
G1 X145.854 Y105.245 E.01507
G1 X146.17 Y104.837 E.01538
G1 X146.597 Y104.556 E.01523
G1 X147.081 Y104.427 E.01492
G1 X147.52 Y104.438 E.01306
G1 X147.974 Y104.587 E.01422
G1 X148.394 Y104.899 E.01559
G1 X148.696 Y105.344 E.01603
G1 X148.832 Y105.865 E.01602
G1 X148.786 Y106.401 E.01602
G1 X148.564 Y106.891 E.01603
G1 X148.191 Y107.279 E.01603
G1 X147.74 Y107.51 E.01508
G1 X147.464 Y107.552 E.00832
G1 X147.362 Y107.183 F21000
;TYPE:Outer wall
G1 F3000
G1 X147.151 Y107.202 E.00633
G1 X146.77 Y107.109 E.01168
G1 X146.428 Y106.886 E.01216
G1 X146.182 Y106.567 E.012
G1 X146.054 Y106.173 E.01232
G1 X146.065 Y105.764 E.01217
G1 X146.211 Y105.383 E.01216
G1 X146.476 Y105.072 E.01216
G1 X146.829 Y104.868 E.01216
G1 X147.208 Y104.791 E.01152
G1 X147.435 Y104.806 E.00676
G1 X147.822 Y104.936 E.01217
G1 X148.144 Y105.187 E.01216
G1 X148.364 Y105.532 E.01216
G1 X148.456 Y105.929 E.01216
G1 X148.411 Y106.335 E.01216
G1 X148.233 Y106.703 E.01216
G1 X147.943 Y106.99 E.01216
G1 X147.548 Y107.167 E.01289
G1 X147.402 Y107.18 E.00436
G1 E-.68 F3600
;WIPE_START
G1 F3000
G1 X147.151 Y107.202 E-.0303
G1 X146.77 Y107.109 E-.04703
G1 X146.472 Y106.914 E-.04267
;WIPE_END
G1 X147.649 Y114.456 Z.6 F21000
G1 X149.178 Y124.253 Z.6
G1 Z.2
G1 E.8 F2700
;TYPE:Inner wall
G1 F3000
G1 X149.151 Y124.497 E.0073
G1 X148.956 Y124.961 E.01499
G1 X148.777 Y125.225 E.00949
G1 X148.413 Y125.583 E.01522
G1 X147.951 Y125.83 E.01562
G1 X147.526 Y125.93 E.01299
G1 X147.078 Y125.955 E.01335
G1 X146.575 Y125.844 E.01535
G1 X146.081 Y125.57 E.01684
G1 X145.841 Y125.359 E.00949
G1 X145.62 Y125.084 E.01052
G1 X145.469 Y124.812 E.00926
G1 X145.312 Y124.321 E.01538
G1 X145.302 Y123.768 E.01645
G1 X145.354 Y123.513 E.00775
G1 X145.545 Y123.025 E.01562
G1 X145.852 Y122.627 E.01497
G1 X146.081 Y122.43 E.00898
G1 X146.584 Y122.153 E.01712
G1 X147.118 Y122.041 E.01624
G1 X147.516 Y122.054 E.01187
G1 X148.079 Y122.22 E.01749
G1 X148.548 Y122.535 E.01683
G1 X148.769 Y122.765 E.00949
G1 X149.039 Y123.188 E.01495
G1 X149.181 Y123.676 E.01513
G1 X149.208 Y123.993 E.00949
G1 X149.183 Y124.213 E.0066
G1 X148.803 Y124.198 F21000
G1 F3000
G1 X148.786 Y124.401 E.00606
G1 X148.564 Y124.891 E.01603
G1 X148.191 Y125.279 E.01602
G1 X147.745 Y125.508 E.01494
G1 X147.244 Y125.585 E.0151
G1 X146.75 Y125.501 E.01493
G1 X146.278 Y125.249 E.01593
G1 X145.918 Y124.854 E.01593
G1 X145.709 Y124.361 E.01593
G1 X145.677 Y123.827 E.01593
G1 X145.825 Y123.313 E.01593
G1 X146.135 Y122.878 E.01593
G1 X146.572 Y122.57 E.01593
G1 X147.081 Y122.427 E.01575
G1 X147.461 Y122.427 E.01132
G1 X147.989 Y122.595 E.0165
G1 X148.394 Y122.899 E.01508
G1 X148.696 Y123.344 E.01603
G1 X148.832 Y123.865 E.01603
G1 X148.807 Y124.159 E.00878
G1 X148.429 Y124.169 F21000
;TYPE:Outer wall
G1 F3000
G1 X148.411 Y124.335 E.00499
G1 X148.233 Y124.703 E.01216
G1 X147.943 Y124.99 E.01216
G1 X147.579 Y125.162 E.01199
G1 X147.167 Y125.205 E.01234
G1 X146.77 Y125.109 E.01216
G1 X146.428 Y124.886 E.01216
G1 X146.21 Y124.616 E.01033
G1 X146.054 Y124.173 E.01399
G1 X146.065 Y123.764 E.01216
G1 X146.211 Y123.383 E.01216
G1 X146.476 Y123.072 E.01217
G1 X146.84 Y122.865 E.01247
G1 X147.208 Y122.791 E.01119
G1 X147.435 Y122.806 E.00676
G1 X147.822 Y122.936 E.01217
G1 X148.144 Y123.187 E.01216
G1 X148.364 Y123.532 E.01216
G1 X148.456 Y123.929 E.01216
G1 X148.434 Y124.129 E.00598
G1 E-.68 F3600
;WIPE_START
G1 F3000
G1 X148.411 Y124.335 E-.0249
G1 X148.233 Y124.703 E-.049
G1 X147.96 Y124.973 E-.0461
;WIPE_END
G1 X151.021 Y131.965 Z.6 F21000
G1 X153.797 Y138.306 Z.6
G1 Z.2
G1 E.8 F2700
;TYPE:Inner wall
G1 F3000
G1 X153.807 Y138.68 E.01115
G1 X153.733 Y139.194 E.01547
G1 X153.572 Y139.688 E.01547
G1 X153.331 Y140.148 E.01547
G1 X153.015 Y140.56 E.01547
G1 X152.635 Y140.914 E.01547
G1 X152.2 Y141.197 E.01547
G1 X151.723 Y141.404 E.01547
G1 X151.218 Y141.526 E.01547
G1 X150.7 Y141.562 E.01547
G1 X150.183 Y141.509 E.01547
G1 X149.683 Y141.37 E.01547
G1 X149.213 Y141.149 E.01547
G1 X148.702 Y140.773 E.0189
G1 X148.318 Y140.361 E.01676
G1 X148.039 Y139.923 E.01548
G1 X147.837 Y139.444 E.01547
G1 X147.719 Y138.939 E.01547
G1 X147.689 Y138.42 E.01547
G1 X147.746 Y137.904 E.01547
G1 X147.837 Y137.556 E.01072
G1 X148.039 Y137.077 E.01547
G1 X148.318 Y136.639 E.01547
G1 X148.668 Y136.255 E.01547
G1 X149.077 Y135.935 E.01547
G1 X149.534 Y135.689 E.01547
G1 X150.027 Y135.524 E.01547
G1 X150.542 Y135.445 E.01552
G1 X151.047 Y135.453 E.01504
G1 X151.57 Y135.55 E.01585
G1 X152.057 Y135.731 E.01547
G1 X152.506 Y135.991 E.01547
G1 X152.905 Y136.324 E.01547
G1 X153.241 Y136.72 E.01547
G1 X153.507 Y137.166 E.01547
G1 X153.692 Y137.651 E.01547
G1 X153.793 Y138.161 E.01547
G1 X153.796 Y138.266 E.00313
G1 X153.42 Y138.258 F21000
G1 F3000
G1 X153.43 Y138.32 E.00186
G1 X153.422 Y138.776 E.01357
G1 X153.337 Y139.223 E.01357
G1 X153.172 Y139.66 E.0139
G1 X152.855 Y140.159 E.01762
G1 X152.545 Y140.49 E.01352
G1 X152.162 Y140.778 E.01427
G1 X151.916 Y140.92 E.00844
G1 X151.491 Y141.082 E.01357
G1 X151.044 Y141.17 E.01357
G1 X150.588 Y141.181 E.01357
G1 X150.137 Y141.115 E.01357
G1 X149.704 Y140.974 E.01357
G1 X149.301 Y140.762 E.01357
G1 X148.97 Y140.508 E.01241
G1 X148.631 Y140.15 E.01471
G1 X148.382 Y139.768 E.01357
G1 X148.202 Y139.349 E.01357
G1 X148.095 Y138.907 E.01357
G1 X148.065 Y138.452 E.01357
G1 X148.111 Y137.999 E.01357
G1 X148.202 Y137.651 E.01072
G1 X148.414 Y137.172 E.01559
G1 X148.691 Y136.776 E.0144
