; HEADER_BLOCK_START
; generated by OrcaSlicer 2.1.1 on 2024-12-14 at 16:19:59
; total layer number: 180
; filament_density: 1.27
; filament_diameter: 1.75
; max_z_height: 14.52
; HEADER_BLOCK_END

; THUMBNAIL_BLOCK_START

;
; THUMBNAIL_BLOCK_END







; external perimeters extrusion width = 0.40mm
; perimeters extrusion width = 0.45mm
; infill extrusion width = 0.45mm
; solid infill extrusion width = 0.45mm
; top infill extrusion width = 0.38mm
; first layer extrusion width = 0.42mm

; EXECUTABLE_BLOCK_START
EXCLUDE_OBJECT_DEFINE NAME=驾驶舱连臂板轴_-_大.STL_id_0_copy_0 CENTER=117.5,115 POLYGON=[[104,103.5],[131,103.5],[131,126.5],[104,126.5],[104,103.5]]
M73 P0 R31
;TYPE:Custom
;ELEGOO NEPTUNE 4 PRO
M220 S100 ;Set the feed speed to 100%
M221 S100 ;Set the flow rate to 100%
M104 S140
M190 S70
G90
G28 ;home
G1 Z10 F300
G1 X67.5 Y0 F6000
G1 Z0 F300
M109 S240
G92 E0 ;Reset Extruder
G1 X67.5 Y0 Z0.4 F300 ;Move to start position
G1 X167.5 E30 F400 ;Draw the first line
G1 Z0.6 F120.0 ;Move to side a little
M73 P1 R31
G1 X162.5 F3000
G92 E0 ;Reset Extruder
G90
G21
M83 ; use relative distances for extrusion
; filament start gcode
M106 S0
;LAYER_CHANGE
;Z:0.2
;HEIGHT:0.2
;BEFORE_LAYER_CHANGE
G92 E0
;0.2


G1 E-.8 F3600
;AFTER_LAYER_CHANGE
;0.2
;_SET_FAN_SPEED_CHANGING_LAYER
SET_VELOCITY_LIMIT ACCEL=1000 ACCEL_TO_DECEL=500
SET_VELOCITY_LIMIT SQUARE_CORNER_VELOCITY=7
; printing object 驾驶舱连臂板轴 - 大.STL id:0 copy 0
EXCLUDE_OBJECT_START NAME=驾驶舱连臂板轴_-_大.STL_id_0_copy_0
G1 X128.7 Y105.287 F21000
G1 Z.4
G1 Z.2
G1 E.8 F2700
;TYPE:Inner wall
;WIDTH:0.514478
G1 F3000
G1 X128.628 Y105.254 E.00295
;WIDTH:0.561717
G1 X128.407 Y105.152 E.00998
G1 X128.043 Y105.126 E.01492
;WIDTH:0.581874
G1 X127.421 Y105.18 E.02658
G1 X127.256 Y105.274 E.0081
;WIDTH:0.541406
G1 X127.091 Y105.368 E.00749
;WIDTH:0.500937
G1 X126.925 Y105.461 E.00688
;WIDTH:0.460468
G1 X126.76 Y105.555 E.00627
;WIDTH:0.419999
G1 X126.504 Y105.745 E.00949
G1 X126.183 Y106.079 E.01381
G1 X126.004 Y106.343 E.00949
G1 X125.813 Y106.766 E.01381
G1 X125.733 Y107.072 E.00943
G1 X125.695 Y107.701 E.01876
G1 X125.837 Y108.3 E.01833
G1 X125.969 Y108.593 E.00958
G1 X126.393 Y109.162 E.02115
G1 X126.822 Y109.483 E.01594
G1 X127.106 Y109.626 E.00949
G1 X127.691 Y109.794 E.0181
G1 X128.329 Y109.783 E.01902
G1 X128.641 Y109.716 E.00949
G1 X129.071 Y109.543 E.01383
G1 X129.343 Y109.375 E.0095
G1 X129.69 Y109.069 E.01379
G1 X129.936 Y108.74 E.01223
G1 X129.936 Y121.26 E.37292
G1 X129.69 Y120.93 E.01224
G1 X129.342 Y120.624 E.01381
G1 X129.071 Y120.457 E.00949
G1 X128.398 Y120.222 E.02121
G1 X127.921 Y120.195 E.01424
G1 X127.304 Y120.293 E.01862
G1 X126.76 Y120.555 E.01799
G1 X126.549 Y120.701 E.00763
G1 X126.183 Y121.079 E.01569
G1 X126.004 Y121.343 E.00949
G1 X125.765 Y121.899 E.01802
G1 X125.694 Y122.527 E.01883
G1 X125.72 Y122.843 E.00946
G1 X125.837 Y123.3 E.01403
G1 X125.969 Y123.593 E.00958
G1 X126.229 Y123.977 E.01381
G1 X126.455 Y124.212 E.00971
G1 X126.841 Y124.493 E.01424
;WIDTH:0.458827
G1 X127.014 Y124.579 E.00632
;WIDTH:0.497654
G1 X127.186 Y124.665 E.00691
;WIDTH:0.536482
G1 X127.358 Y124.751 E.0075
;WIDTH:0.575309
G1 X127.53 Y124.837 E.00809
G1 X127.868 Y124.867 E.0143
;WIDTH:0.567092
G1 X128.465 Y124.842 E.0247
G1 X128.526 Y124.807 E.00293
;WIDTH:0.533667
G1 X128.588 Y124.772 E.00274
;WIDTH:0.500242
G1 X128.649 Y124.738 E.00256
;WIDTH:0.466817
G1 X129.182 Y124.489 E.01968
;WIDTH:0.419999
G1 X129.69 Y124.069 E.01964
G1 X129.936 Y123.74 E.01223
G1 X129.936 Y125.436 E.05051
G1 X129.244 Y125.436 E.0206
;WIDTH:0.466016
G1 X128.944 Y125.413 E.01007
;WIDTH:0.512033
G1 X128.643 Y125.39 E.01117
;WIDTH:0.55805
G1 X128.343 Y125.367 E.01226
;WIDTH:0.575309
G1 X127.452 Y125.358 E.03745
G1 X127.34 Y125.378 E.00479
;WIDTH:0.536482
G1 X127.228 Y125.397 E.00444
;WIDTH:0.497654
G1 X127.116 Y125.416 E.00409
;WIDTH:0.458827
G1 X127.003 Y125.436 E.00374
;WIDTH:0.419999
G1 X108.243 Y125.436 E.5588
;WIDTH:0.466016
G1 X107.943 Y125.413 E.01006
;WIDTH:0.512033
G1 X107.643 Y125.39 E.01116
;WIDTH:0.55805
G1 X107.343 Y125.367 E.01225
;WIDTH:0.57531
G1 X106.452 Y125.358 E.03745
G1 X106.34 Y125.378 E.00479
;WIDTH:0.536483
G1 X106.228 Y125.397 E.00444
;WIDTH:0.497655
G1 X106.116 Y125.416 E.00409
;WIDTH:0.458827
G1 X106.003 Y125.436 E.00374
;WIDTH:0.419999
G1 X105.064 Y125.436 E.02798
G1 X105.064 Y123.734 E.05069
G1 X105.229 Y123.977 E.00874
G1 X105.455 Y124.212 E.00971
G1 X105.862 Y124.507 E.01498
;WIDTH:0.458827
G1 X106.029 Y124.59 E.00612
;WIDTH:0.497655
G1 X106.196 Y124.672 E.00669
;WIDTH:0.536483
G1 X106.363 Y124.755 E.00726
;WIDTH:0.57531
G1 X106.53 Y124.837 E.00783
G1 X106.868 Y124.867 E.0143
;WIDTH:0.567092
G1 X107.465 Y124.842 E.0247
G1 X107.526 Y124.807 E.00293
;WIDTH:0.533687
G1 X107.588 Y124.772 E.00274
;WIDTH:0.500282
G1 X107.649 Y124.738 E.00256
;WIDTH:0.466876
G1 X108.342 Y124.376 E.02617
;WIDTH:0.419999
G1 X108.69 Y124.07 E.01381
G1 X108.89 Y123.822 E.00949
G1 X109.117 Y123.417 E.01381
G1 X109.223 Y123.116 E.00949
G1 X109.301 Y122.659 E.01381
G1 X109.3 Y122.333 E.00971
G1 X109.149 Y121.647 E.02094
G1 X108.889 Y121.176 E.01602
G1 X108.69 Y120.93 E.00941
G1 X108.202 Y120.522 E.01897
G1 X107.64 Y120.284 E.01818
G1 X107.153 Y120.194 E.01474
G1 X106.476 Y120.254 E.02026
G1 X106.174 Y120.346 E.00941
G1 X105.76 Y120.555 E.01381
G1 X105.504 Y120.745 E.00949
G1 X105.064 Y121.255 E.02006
G1 X105.064 Y108.734 E.37296
G1 X105.229 Y108.977 E.00874
G1 X105.455 Y109.212 E.00971
G1 X105.841 Y109.493 E.01424
G1 X106.123 Y109.633 E.00935
G1 X106.552 Y109.763 E.01337
G1 X106.866 Y109.803 E.00941
G1 X107.504 Y109.759 E.01906
G1 X108.071 Y109.543 E.01806
G1 X108.342 Y109.376 E.00949
G1 X108.833 Y108.912 E.02012
G1 X109.117 Y108.417 E.01699
G1 X109.223 Y108.116 E.00949
G1 X109.314 Y107.514 E.01816
G1 X109.223 Y106.884 E.01896
G1 X109.117 Y106.583 E.00949
G1 X108.89 Y106.178 E.01381
G1 X108.69 Y105.93 E.00949
G1 X108.342 Y105.624 E.01381
G1 X108.071 Y105.457 E.00949
;WIDTH:0.467239
G1 X107.849 Y105.355 E.00817
;WIDTH:0.514479
G1 X107.628 Y105.254 E.00907
;WIDTH:0.561718
G1 X107.407 Y105.152 E.00998
G1 X107.043 Y105.126 E.01492
;WIDTH:0.581874
G1 X106.421 Y105.18 E.02658
G1 X106.267 Y105.268 E.00755
;WIDTH:0.541406
G1 X106.114 Y105.356 E.00698
;WIDTH:0.500937
G1 X105.96 Y105.444 E.00642
;WIDTH:0.460468
G1 X105.806 Y105.532 E.00585
;WIDTH:0.419999
G1 X105.504 Y105.745 E.011
G1 X105.064 Y106.255 E.02006
G1 X105.064 Y104.564 E.05036
;WIDTH:0.42319
G1 X105.988 Y104.566 E.02775
;WIDTH:0.462861
G1 X106.085 Y104.586 E.00328
;WIDTH:0.502532
G1 X106.181 Y104.605 E.00359
;WIDTH:0.542203
G1 X106.278 Y104.625 E.0039
;WIDTH:0.581874
G1 X106.375 Y104.645 E.00421
G1 X106.88 Y104.628 E.02152
;WIDTH:0.561718
G1 X107.437 Y104.635 E.02282
G1 X107.551 Y104.615 E.00475
;WIDTH:0.520981
G1 X107.665 Y104.594 E.00438
;WIDTH:0.480243
G1 X107.779 Y104.574 E.004
;WIDTH:0.439505
G1 X108.243 Y104.564 E.01455
;WIDTH:0.419999
G1 X126 Y104.564 E.52891
;WIDTH:0.423188
G1 X126.988 Y104.566 E.02968
;WIDTH:0.46286
G1 X127.085 Y104.586 E.00328
;WIDTH:0.502531
G1 X127.181 Y104.605 E.00359
;WIDTH:0.542203
G1 X127.278 Y104.625 E.0039
;WIDTH:0.581874
G1 X127.375 Y104.645 E.00421
G1 X127.88 Y104.628 E.02152
;WIDTH:0.561717
G1 X128.437 Y104.635 E.02282
G1 X128.551 Y104.615 E.00475
;WIDTH:0.520979
G1 X128.665 Y104.594 E.00438
;WIDTH:0.48024
G1 X128.779 Y104.574 E.004
;WIDTH:0.439501
G1 X129.243 Y104.564 E.01455
;WIDTH:0.419999
G1 X129.936 Y104.564 E.02063
G1 X129.936 Y106.26 E.05051
G1 X129.69 Y105.93 E.01224
G1 X129.342 Y105.624 E.01381
G1 X129.071 Y105.457 E.00949
;WIDTH:0.467239
G1 X128.849 Y105.355 E.00817
;WIDTH:0.514478
G1 X128.736 Y105.303 E.00463
G1 E-.68 F3600
;WIPE_START
G1 F3000
G1 X128.628 Y105.254 E-.01431
G1 X128.407 Y105.152 E-.02923
G1 X128.043 Y105.126 E-.04368
G1 X127.771 Y105.149 E-.03277
;WIPE_END
G1 X128.279 Y104.187 Z.6 F21000
G1 Z.2
G1 E.8 F2700
;WIDTH:0.419999
G1 F3000
G1 X130.313 Y104.187 E.06059
G1 X130.313 Y106.167 E.05896
;WIDTH:0.464114
G1 X130.291 Y106.908 E.02467
G1 X130.313 Y107.499 E.0197
;WIDTH:0.464351
G1 X130.291 Y108.095 E.01984
G1 X130.313 Y108.833 E.02459
;WIDTH:0.419999
G1 X130.313 Y121.167 E.36736
;WIDTH:0.464089
G1 X130.291 Y121.908 E.02468
G1 X130.313 Y122.5 E.01971
;WIDTH:0.464351
G1 X130.291 Y123.095 E.01982
G1 X130.313 Y123.833 E.02459
;WIDTH:0.419999
G1 X130.313 Y125.813 E.05896
G1 X104.687 Y125.813 E.76331
G1 X104.687 Y123.271 E.07572
;WIDTH:0.421474
G1 X104.688 Y122.609 E.01979
;WIDTH:0.44276
G1 X104.687 Y121.356 E.03956
;WIDTH:0.419999
G1 X104.687 Y108.271 E.38977
;WIDTH:0.421474
G1 X104.688 Y107.609 E.01979
;WIDTH:0.44276
G1 X104.687 Y106.356 E.03956
;WIDTH:0.419999
G1 X104.687 Y104.187 E.06462
G1 X128.239 Y104.187 E.70152
G1 E-.68 F3600
;WIPE_START
G1 F3000
G1 X129.239 Y104.187 E-.12
;WIPE_END
G1 X128.369 Y105.614 Z.6 F21000
G1 Z.2
G1 E.8 F2700
G1 F3000
G1 X128.499 Y105.634 E.00393
G1 X128.997 Y105.839 E.01603
G1 X129.441 Y106.214 E.01731
;WIDTH:0.433054
G1 X129.793 Y106.764 E.02013
;WIDTH:0.464114
G1 X129.873 Y106.943 E.00653
G1 X129.937 Y107.499 E.01862
G1 X129.873 Y108.056 E.01865
G1 X129.561 Y108.638 E.02195
;WIDTH:0.419999
G1 X129.094 Y109.092 E.01942
G1 X128.5 Y109.366 E.01947
G1 X127.85 Y109.426 E.01945
G1 X127.66 Y109.402 E.00569
G1 X127.142 Y109.237 E.01619
G1 X126.673 Y108.904 E.01713
G1 X126.541 Y108.766 E.00569
G1 X126.253 Y108.336 E.01541
G1 X126.085 Y107.75 E.01817
G1 X126.069 Y107.56 E.00567
G1 X126.157 Y106.921 E.0192
G1 X126.455 Y106.34 E.01945
G1 X126.93 Y105.892 E.01945
G1 X127.501 Y105.631 E.0187
G1 X128.043 Y105.564 E.01629
G1 X128.329 Y105.608 E.00861
G1 X128.31 Y105.977 F21000
;TYPE:Outer wall
G1 F3000
G1 X128.359 Y105.984 E.00145
G1 X128.844 Y106.19 E.01571
G1 X129.232 Y106.546 E.01569
G1 X129.479 Y107.011 E.01568
G1 X129.558 Y107.531 E.01567
G1 X129.458 Y108.049 E.01571
G1 X129.192 Y108.503 E.01568
G1 X128.79 Y108.843 E.01567
G1 X128.297 Y109.029 E.01571
G1 X127.771 Y109.041 E.01569
G1 X127.283 Y108.885 E.01524
G1 X126.877 Y108.583 E.01507
G1 X126.594 Y108.171 E.01491
G1 X126.45 Y107.656 E.01592
G1 X126.501 Y107.077 E.01732
G1 X126.727 Y106.601 E.01569
G1 X127.099 Y106.229 E.01569
G1 X127.566 Y106.003 E.01544
G1 X128.065 Y105.943 E.01499
G1 X128.271 Y105.971 E.00618
G1 E-.68 F3600
;WIPE_START
G1 F3000
G1 X128.359 Y105.984 E-.01064
G1 X128.844 Y106.19 E-.06327
G1 X129.127 Y106.45 E-.04609
;WIPE_END
G1 X129.477 Y114.074 Z.6 F21000
G1 X129.833 Y121.855 Z.6
G1 Z.2
G1 E.8 F2700
;TYPE:Inner wall
;WIDTH:0.464089
G1 F3000
G1 X129.873 Y121.944 E.00323
G1 X129.937 Y122.5 E.01863
G1 X129.873 Y123.056 E.01863
G1 X129.561 Y123.638 E.02194
;WIDTH:0.419999
G1 X129.094 Y124.092 E.01942
G1 X128.931 Y124.193 E.0057
G1 X128.387 Y124.398 E.01732
G1 X127.85 Y124.426 E.01602
G1 X127.232 Y124.272 E.01897
G1 X126.677 Y123.907 E.01979
G1 X126.281 Y123.382 E.01957
G1 X126.085 Y122.75 E.01972
G1 X126.109 Y122.105 E.01921
G1 X126.157 Y121.921 E.00566
G1 X126.378 Y121.442 E.01573
G1 X126.776 Y121.006 E.01759
G1 X126.93 Y120.892 E.00569
G1 X127.421 Y120.651 E.01632
G1 X127.97 Y120.569 E.01652
G1 X128.354 Y120.597 E.01148
G1 X128.93 Y120.807 E.01826
G1 X129.441 Y121.214 E.01945
;WIDTH:0.433015
G1 X129.793 Y121.764 E.02013
;WIDTH:0.464089
G1 X129.817 Y121.818 E.00198
G1 X129.489 Y122.077 F21000
;TYPE:Outer wall
;WIDTH:0.419999
G1 F3000
G1 X129.558 Y122.532 E.0137
G1 X129.458 Y123.049 E.01569
G1 X129.192 Y123.503 E.01568
G1 X128.812 Y123.832 E.01496
G1 X128.322 Y124.027 E.01572
G1 X127.771 Y124.041 E.01641
G1 X127.285 Y123.883 E.01522
G1 X126.853 Y123.555 E.01615
G1 X126.567 Y123.112 E.0157
G1 X126.445 Y122.593 E.0159
G1 X126.501 Y122.077 E.01546
G1 X126.711 Y121.62 E.01498
G1 X127.057 Y121.258 E.01492
G1 X127.513 Y121.02 E.01533
G1 X128.019 Y120.943 E.01523
G1 X128.359 Y120.984 E.01019
G1 X128.844 Y121.19 E.01571
G1 X129.232 Y121.546 E.01569
G1 X129.479 Y122.011 E.01569
G1 X129.483 Y122.037 E.00079
G1 E-.68 F3600
;WIPE_START
G1 F3000
G1 X129.558 Y122.532 E-.06
G1 X129.463 Y123.023 E-.06
;WIPE_END
G1 X130.69 Y126.19 Z.6 F21000
G1 Z.2
G1 E.8 F2700
G1 F3000
G1 X104.31 Y126.19 E.78577
G1 X104.31 Y103.81 E.66662
G1 X130.69 Y103.81 E.78577
G1 X130.69 Y126.15 E.66543
G1 E-.68 F3600
;WIPE_START
G1 F3000
G1 X129.69 Y126.152 E-.12
;WIPE_END
G1 X122.275 Y124.344 Z.6 F21000
G1 X106.869 Y120.588 Z.6
G1 Z.2
G1 E.8 F2700
;TYPE:Inner wall
G1 F3000
G1 X106.97 Y120.569 E.00307
G1 X107.354 Y120.597 E.01148
G1 X107.93 Y120.807 E.01826
G1 X108.093 Y120.907 E.0057
G1 X108.469 Y121.24 E.01495
G1 X108.78 Y121.752 E.01786
G1 X108.844 Y121.93 E.00561
G1 X108.937 Y122.489 E.0169
G1 X108.851 Y123.053 E.01698
G1 X108.561 Y123.638 E.01945
G1 X108.093 Y124.093 E.01945
G1 X107.5 Y124.366 E.01945
G1 X107.313 Y124.406 E.00569
G1 X106.662 Y124.402 E.0194
G1 X106.076 Y124.197 E.0185
G1 X105.541 Y123.766 E.02045
G1 X105.202 Y123.206 E.0195
;WIDTH:0.427199
G1 X105.072 Y122.707 E.01564
;WIDTH:0.44276
G1 X105.098 Y122.104 E.01907
G1 X105.348 Y121.499 E.02069
;WIDTH:0.419999
G1 X105.776 Y121.006 E.01945
G1 X106.344 Y120.683 E.01945
G1 X106.829 Y120.595 E.0147
G1 X106.942 Y120.955 F21000
;TYPE:Outer wall
G1 F3000
G1 X107.019 Y120.943 E.00232
G1 X107.359 Y120.984 E.01019
G1 X107.831 Y121.18 E.01524
G1 X108.209 Y121.514 E.01501
G1 X108.46 Y121.953 E.01507
G1 X108.557 Y122.467 E.01558
G1 X108.479 Y122.989 E.01573
G1 X108.232 Y123.454 E.01569
G1 X107.844 Y123.81 E.01569
G1 X107.359 Y124.016 E.01569
G1 X106.834 Y124.049 E.01569
G1 X106.341 Y123.911 E.01523
G1 X105.899 Y123.602 E.01609
G1 X105.594 Y123.171 E.01573
G1 X105.45 Y122.656 E.01592
G1 X105.485 Y122.138 E.01546
G1 X105.692 Y121.654 E.01568
G1 X106.048 Y121.267 E.01569
G1 X106.513 Y121.02 E.01569
G1 X106.902 Y120.961 E.01172
G1 E-.68 F3600
;WIPE_START
G1 F3000
G1 X107.019 Y120.943 E-.01415
G1 X107.359 Y120.984 E-.04106
G1 X107.831 Y121.18 E-.06141
G1 X107.852 Y121.199 E-.00339
;WIPE_END
G1 X107.654 Y113.569 Z.6 F21000
G1 X107.448 Y105.631 Z.6
G1 Z.2
G1 E.8 F2700
;TYPE:Inner wall
G1 F3000
G1 X107.93 Y105.807 E.01529
G1 X108.441 Y106.214 E.01945
G1 X108.787 Y106.767 E.01945
G1 X108.929 Y107.404 E.01945
G1 X108.929 Y107.596 E.00569
G1 X108.834 Y108.125 E.01603
G1 X108.561 Y108.638 E.01729
G1 X108.441 Y108.786 E.0057
G1 X108.055 Y109.123 E.01526
G1 X107.5 Y109.366 E.01805
G1 X107.313 Y109.406 E.00569
G1 X106.662 Y109.402 E.0194
G1 X106.063 Y109.188 E.01893
G1 X105.541 Y108.766 E.02
G1 X105.202 Y108.206 E.0195
;WIDTH:0.426123
G1 X105.082 Y107.75 E.01426
;WIDTH:0.44276
G1 X105.098 Y107.104 E.02042
G1 X105.348 Y106.499 E.02069
;WIDTH:0.419999
G1 X105.776 Y106.006 E.01945
G1 X106.344 Y105.683 E.01945
G1 X106.97 Y105.569 E.01897
G1 X107.354 Y105.597 E.01148
G1 X107.41 Y105.617 E.00177
G1 X107.268 Y105.973 F21000
;TYPE:Outer wall
G1 F3000
G1 X107.359 Y105.984 E.00272
G1 X107.844 Y106.19 E.01571
G1 X108.232 Y106.546 E.01569
G1 X108.479 Y107.011 E.01569
G1 X108.558 Y107.532 E.01569
G1 X108.466 Y108.033 E.01517
G1 X108.221 Y108.472 E.01498
G1 X107.844 Y108.81 E.01507
G1 X107.359 Y109.016 E.01569
G1 X106.834 Y109.049 E.01569
G1 X106.341 Y108.911 E.01523
G1 X105.899 Y108.602 E.01609
G1 X105.594 Y108.171 E.01573
G1 X105.45 Y107.656 E.01592
G1 X105.485 Y107.138 E.01546
G1 X105.692 Y106.654 E.01568
G1 X106.048 Y106.267 E.01569
G1 X106.513 Y106.02 E.01569
G1 X107.019 Y105.943 E.01523
G1 X107.228 Y105.968 E.00628
G1 E-.68 F3600
;WIPE_START
G1 F3000
G1 X107.359 Y105.984 E-.01576
G1 X107.844 Y106.19 E-.06327
G1 X108.095 Y106.421 E-.04097
;WIPE_END
G1 X105.446 Y104.678 Z.6 F21000
G1 Z.2
G1 E.8 F2700
;TYPE:Bottom surface
;WIDTH:0.465869
G1 F4800
G1 X105.922 Y105.154 E.0225
G1 X105.625 Y105.307 E.01114
G1 X105.539 Y105.37 E.00356
G1 X105.177 Y105.008 E.01711
G1 E-.68 F3600
;WIPE_START
G1 F4800
G1 X105.539 Y105.37 E-.06145
G1 X105.625 Y105.307 E-.0128
G1 X105.922 Y105.154 E-.04002
G1 X105.888 Y105.121 E-.00573
;WIPE_END
G1 X105.929 Y112.753 Z.6 F21000
G1 X105.997 Y125.323 Z.6
G1 Z.2
G1 E.8 F2700
;WIDTH:0.447284
G1 F4800
G1 X105.177 Y124.503 E.03704
G1 E-.68 F3600
;WIPE_START
G1 F4800
G1 X105.884 Y125.21 E-.12
;WIPE_END
G1 X113.517 Y125.144 Z.6 F21000
G1 X129.823 Y125.003 Z.6
G1 Z.2
G1 E.8 F2700
;WIDTH:0.495415
G1 F4800
G1 X129.459 Y124.639 E.01841
G1 X129.324 Y124.735 E.00591
G1 X129.053 Y124.873 E.01086
