; HEADER_BLOCK_START
; generated by OrcaSlicer 2.1.1 on 2025-01-01 at 15:03:33
; total layer number: 36
; filament_density: 1.27
; filament_diameter: 1.75
; max_z_height: 3.00
; HEADER_BLOCK_END

; THUMBNAIL_BLOCK_START

;
; THUMBNAIL_BLOCK_END







; external perimeters extrusion width = 0.40mm
; perimeters extrusion width = 0.45mm
; infill extrusion width = 0.45mm
; solid infill extrusion width = 0.45mm
; top infill extrusion width = 0.38mm
; first layer extrusion width = 0.42mm

; EXECUTABLE_BLOCK_START
EXCLUDE_OBJECT_DEFINE NAME=电池盒固定架_-_磁门框.STL_id_0_copy_0 CENTER=117.5,115 POLYGON=[[113.5,109.5],[121.5,109.5],[121.5,120.5],[113.5,120.5],[113.5,109.5]]
M73 P0 R5
;TYPE:Custom
;ELEGOO NEPTUNE 4 PRO
M220 S100 ;Set the feed speed to 100%
M221 S100 ;Set the flow rate to 100%
M104 S140
M190 S70
G90
G28 ;home
G1 Z10 F300
G1 X67.5 Y0 F6000
G1 Z0 F300
M109 S240
G92 E0 ;Reset Extruder
G1 X67.5 Y0 Z0.4 F300 ;Move to start position
M73 P1 R5
G1 X167.5 E30 F400 ;Draw the first line
G1 Z0.6 F120.0 ;Move to side a little
M73 P5 R5
G1 X162.5 F3000
G92 E0 ;Reset Extruder
G90
G21
M83 ; use relative distances for extrusion
; filament start gcode
M106 S0
;LAYER_CHANGE
;Z:0.2
;HEIGHT:0.2
;BEFORE_LAYER_CHANGE
G92 E0
;0.2


G1 E-.8 F3600
;AFTER_LAYER_CHANGE
;0.2
;_SET_FAN_SPEED_CHANGING_LAYER
SET_VELOCITY_LIMIT ACCEL=1000 ACCEL_TO_DECEL=500
SET_VELOCITY_LIMIT SQUARE_CORNER_VELOCITY=7
; printing object 电池盒固定架 - 磁门框.STL id:0 copy 0
EXCLUDE_OBJECT_START NAME=电池盒固定架_-_磁门框.STL_id_0_copy_0
G1 X119.091 Y119.439 F21000
G1 Z.4
M73 P6 R5
G1 Z.2
G1 E.8 F2700
;TYPE:Inner wall
;WIDTH:0.419999
G1 F1909
G1 X119.127 Y119.309 E.00403
G1 X119.138 Y118.744 E.01683
G1 X118.958 Y118.209 E.0168
G1 X118.721 Y117.888 E.01191
G1 X118.447 Y117.647 E.01086
G1 X118.1 Y117.453 E.01182
G1 X117.569 Y117.341 E.01617
G1 X117.126 Y117.378 E.01326
G1 X116.597 Y117.617 E.01729
G1 X116.289 Y117.867 E.01181
G1 X116.136 Y118.056 E.00724
G1 X115.899 Y118.569 E.01682
G1 X115.851 Y118.964 E.01188
G1 X115.927 Y119.439 E.01432
G1 X114.564 Y119.437 E.04058
G1 X114.564 Y110.564 E.2643
G1 X120.436 Y110.564 E.1749
G1 X120.436 Y119.437 E.2643
G1 X119.131 Y119.439 E.03886
G1 E-.68 F3600
;WIPE_START
G1 F3000
G1 X119.127 Y119.309 E-.01567
G1 X119.138 Y118.744 E-.06779
G1 X119.041 Y118.455 E-.03654
;WIPE_END
G1 X116.533 Y119.803 Z.6 F21000
G1 Z.2
G1 E.8 F2700
G1 F1909
G1 X116.501 Y119.817 E.00103
G1 X114.187 Y119.814 E.06893
G1 X114.187 Y110.187 E.28675
G1 X120.813 Y110.187 E.19736
G1 X120.813 Y119.814 E.28675
G1 X118.499 Y119.817 E.06893
G1 X118.614 Y119.62 E.0068
G1 X118.763 Y119.21 E.01301
G1 X118.762 Y118.773 E.01299
G1 X118.614 Y118.364 E.01297
G1 X118.472 Y118.171 E.00715
G1 X118.198 Y117.93 E.01086
G1 X117.99 Y117.814 E.00709
G1 X117.578 Y117.718 E.0126
G1 X117.214 Y117.744 E.01085
G1 X116.767 Y117.954 E.01472
G1 X116.582 Y118.104 E.00708
G1 X116.335 Y118.462 E.01296
G1 X116.225 Y118.849 E.01198
G1 X116.259 Y119.292 E.01323
G1 X116.365 Y119.572 E.00894
G1 X116.509 Y119.771 E.00732
G1 E-.68 F3600
;WIPE_START
G1 F3000
G1 X116.501 Y119.817 E-.00561
G1 X115.548 Y119.816 E-.11439
;WIPE_END
G1 X114.242 Y112.296 Z.6 F21000
G1 X113.81 Y109.81 Z.6
G1 Z.2
G1 E.8 F2700
;TYPE:Outer wall
G1 F1909
G1 X121.19 Y109.81 E.21982
G1 X121.19 Y120.19 E.30919
M73 P7 R5
G1 X118.715 Y120.194 E.07372
;WIDTH:0.430779
G1 X117.566 Y120.235 E.03524
;WIDTH:0.424203
G1 X116.501 Y120.194 E.03209
;WIDTH:0.419999
G1 X113.81 Y120.19 E.08015
G1 X113.81 Y109.85 E.308
G1 E-.68 F3600
;WIPE_START
G1 F3000
G1 X114.81 Y109.845 E-.12
;WIPE_END
G1 X116.795 Y117.214 Z.6 F21000
G1 X117.507 Y119.855 Z.6
G1 Z.2
G1 E.8 F2700
;WIDTH:0.424203
G1 F1909
G1 X117.152 Y119.813 E.01076
G1 X116.881 Y119.64 E.00968
;WIDTH:0.419999
G1 X116.635 Y119.257 E.01356
G1 X116.602 Y118.895 E.01082
G1 X116.723 Y118.53 E.01148
G1 X116.937 Y118.29 E.00956
G1 X117.34 Y118.106 E.01319
G1 X117.646 Y118.103 E.00913
G1 X117.949 Y118.213 E.00958
G1 X118.27 Y118.518 E.0132
G1 X118.386 Y118.803 E.00915
G1 X118.399 Y119.111 E.00917
G1 X118.308 Y119.399 E.00901
G1 X118.119 Y119.644 E.00922
;WIDTH:0.437304
G1 X117.851 Y119.821 E.01
G1 X117.547 Y119.853 E.00953
G1 E-.68 F3600
;WIPE_START
G1 F3000
G1 X117.152 Y119.813 E-.04759
G1 X116.881 Y119.64 E-.03858
G1 X116.729 Y119.403 E-.03383
;WIPE_END
G1 X119.063 Y112.136 Z.6 F21000
G1 X119.531 Y110.677 Z.6
G1 Z.2
G1 E.8 F2700
;TYPE:Bottom surface
;WIDTH:0.433673
G1 F1909
G1 X120.153 Y111.299 E.02713
G1 X120.153 Y111.851 E.01706
G1 X119.149 Y110.847 E.04385
G1 X118.596 Y110.847 E.01706
G1 X120.153 Y112.404 E.06797
G1 X120.153 Y112.957 E.01706
G1 X118.043 Y110.847 E.09209
G1 X117.491 Y110.847 E.01706
G1 X120.153 Y113.509 E.11622
G1 X120.153 Y114.062 E.01706
G1 X116.938 Y110.847 E.14034
G1 X116.385 Y110.847 E.01706
G1 X120.153 Y114.615 E.16446
G1 X120.153 Y115.167 E.01706
G1 X115.833 Y110.847 E.18858
G1 X115.28 Y110.847 E.01706
G1 X120.153 Y115.72 E.21271
G1 X120.153 Y116.272 E.01706
M73 P8 R5
G1 X114.847 Y110.966 E.23162
G1 X114.847 Y111.519 E.01706
G1 X120.153 Y116.825 E.23162
G1 X120.153 Y117.378 E.01706
G1 X114.847 Y112.071 E.23162
G1 X114.847 Y112.624 E.01706
G1 X120.153 Y117.93 E.23162
G1 X120.153 Y118.483 E.01706
G1 X114.847 Y113.177 E.23162
G1 X114.847 Y113.729 E.01706
G1 X120.153 Y119.035 E.23162
G1 X120.153 Y119.155 E.00369
G1 X119.721 Y119.156 E.01335
G1 X119.232 Y118.667 E.02133
G1 E-.68 F3600
;WIPE_START
G1 F4800
G1 X119.721 Y119.156 E-.08292
G1 X120.03 Y119.155 E-.03708
;WIPE_END
G1 X117.83 Y117.265 Z.6 F21000
G1 Z.2
G1 E.8 F2700
G1 F1909
G1 X114.847 Y114.282 E.13023
G1 X114.847 Y114.835 E.01706
G1 X117.11 Y117.098 E.09879
G1 X117.06 Y117.102 E.00154
G1 X116.705 Y117.246 E.01182
G1 X114.847 Y115.387 E.08113
G1 X114.847 Y115.94 E.01706
G1 X116.359 Y117.452 E.066
G1 X116.058 Y117.703 E.01211
G1 X114.847 Y116.492 E.05284
G1 X114.847 Y117.045 E.01706
G1 X115.831 Y118.029 E.04295
G1 X115.715 Y118.238 E.00737
G1 X115.656 Y118.407 E.00553
G1 X114.847 Y117.598 E.03532
G1 X114.847 Y118.15 E.01706
G1 X115.569 Y118.872 E.03151
G1 X115.587 Y119.156 E.00878
G1 X115.3 Y119.156 E.00887
G1 X114.677 Y118.533 E.02717
; stop printing object 电池盒固定架 - 磁门框.STL id:0 copy 0
;LAYER_CHANGE
;Z:0.28
;HEIGHT:0.08
;BEFORE_LAYER_CHANGE
G92 E0
;0.28


G1 E-.68 F3600
;WIPE_START
G1 F4800
G1 X115.3 Y119.156 E-.10563
G1 X115.419 Y119.156 E-.01438
;WIPE_END
EXCLUDE_OBJECT_END NAME=电池盒固定架_-_磁门框.STL_id_0_copy_0
;AFTER_LAYER_CHANGE
;0.28
;_SET_FAN_SPEED_CHANGING_LAYER
SET_VELOCITY_LIMIT ACCEL=5000 ACCEL_TO_DECEL=2500
SET_VELOCITY_LIMIT SQUARE_CORNER_VELOCITY=9
M140 S70 ; set bed temperature
; printing object 电池盒固定架 - 磁门框.STL id:0 copy 0
EXCLUDE_OBJECT_START NAME=电池盒固定架_-_磁门框.STL_id_0_copy_0
G1 X119.052 Y119.459 Z.6 F21000
G1 Z.28
G1 E.8 F2700
SET_VELOCITY_LIMIT ACCEL=3000 ACCEL_TO_DECEL=1500 SQUARE_CORNER_VELOCITY=7
;TYPE:Inner wall
;WIDTH:0.449999
G1 F1629
M73 P9 R5
G1 X119.117 Y119.241 E.00312
G1 X119.134 Y118.855 E.00527
G1 X119.053 Y118.489 E.00513
G1 X118.857 Y118.1 E.00595
G1 X118.664 Y117.862 E.0042
G1 X118.246 Y117.553 E.00711
G1 X117.746 Y117.378 E.00724
G1 X117.328 Y117.374 E.00571
G1 X116.796 Y117.524 E.00756
G1 X116.344 Y117.843 E.00756
G1 X116.012 Y118.327 E.00803
G1 X115.893 Y118.736 E.00583
G1 X115.871 Y119.026 E.00398
G1 X115.931 Y119.459 E.00598
G1 X114.541 Y119.459 E.01902
G1 X114.541 Y110.541 E.12197
G1 X120.459 Y110.541 E.08095
G1 X120.459 Y119.459 E.12197
G1 X119.092 Y119.459 E.0187
SET_VELOCITY_LIMIT ACCEL=5000 ACCEL_TO_DECEL=2500 SQUARE_CORNER_VELOCITY=9
G1 X118.318 Y119.887 F21000
SET_VELOCITY_LIMIT ACCEL=3000 ACCEL_TO_DECEL=1500 SQUARE_CORNER_VELOCITY=7
G1 F1629
G1 X118.476 Y119.695 E.0034
G1 X118.615 Y119.44 E.00398
G1 X118.686 Y119.204 E.00337
G1 X118.686 Y118.797 E.00556
G1 X118.521 Y118.373 E.00624
G1 X118.328 Y118.134 E.0042
G1 X118.085 Y117.954 E.00413
G1 X117.8 Y117.84 E.00419
G1 X117.565 Y117.797 E.00326
G1 X117.148 Y117.849 E.00575
G1 X116.785 Y118.032 E.00556
G1 X116.498 Y118.335 E.00571
G1 X116.324 Y118.768 E.00638
G1 X116.303 Y119.058 E.00398
G1 X116.404 Y119.497 E.00615
G1 X116.543 Y119.719 E.00359
G1 X116.715 Y119.892 E.00334
G1 X114.108 Y119.892 E.03566
G1 X114.108 Y110.108 E.13381
G1 X120.892 Y110.108 E.09278
G1 X120.892 Y119.892 E.13381
G1 X118.358 Y119.887 E.03466
SET_VELOCITY_LIMIT ACCEL=5000 ACCEL_TO_DECEL=2500 SQUARE_CORNER_VELOCITY=9
G1 E-.68 F3600
;WIPE_START
G1 F12000
G1 X118.476 Y119.695 E-.02703
G1 X118.615 Y119.44 E-.03491
G1 X118.686 Y119.204 E-.02959
G1 X118.686 Y118.967 E-.02847
;WIPE_END
G1 X113.7 Y120.3 Z.68 F21000
G1 Z.28
G1 E.8 F2700
SET_VELOCITY_LIMIT ACCEL=3000 ACCEL_TO_DECEL=1500 SQUARE_CORNER_VELOCITY=7
;TYPE:Outer wall
;WIDTH:0.399999
G1 F1629
G1 X113.7 Y109.7 E.12822
G1 X121.3 Y109.7 E.09193
G1 X121.3 Y120.3 E.12822
M73 P10 R5
G1 X118.593 Y120.3 E.03275
;WIDTH:0.421858
G1 X117.916 Y120.289 E.00865
;WIDTH:0.465553
G1 X117.353 Y120.267 E.00799
G1 X117.073 Y120.284 E.00397
;WIDTH:0.432776
G1 X116.794 Y120.3 E.00368
;WIDTH:0.399999
G1 X113.74 Y120.3 E.03694
SET_VELOCITY_LIMIT ACCEL=5000 ACCEL_TO_DECEL=2500 SQUARE_CORNER_VELOCITY=9
G1 E-.68 F3600
;WIPE_START
G1 F7200
G1 X113.736 Y119.3 E-.12
;WIPE_END
G1 X117.55 Y119.823 Z.68 F21000
G1 Z.28
G1 E.8 F2700
SET_VELOCITY_LIMIT ACCEL=3000 ACCEL_TO_DECEL=1500 SQUARE_CORNER_VELOCITY=7
;WIDTH:0.461185
G1 F1629
G1 X117.294 Y119.792 E.00361
;WIDTH:0.440687
G1 X117.06 Y119.661 E.00359
;WIDTH:0.399999
G1 X116.788 Y119.361 E.0049
G1 X116.72 Y119.167 E.00248
G1 X116.731 Y118.799 E.00446
G1 X116.9 Y118.474 E.00443
G1 X117.109 Y118.304 E.00326
G1 X117.364 Y118.214 E.00326
G1 X117.648 Y118.219 E.00344
G1 X118.01 Y118.39 E.00485
G1 X118.24 Y118.701 E.00467
G1 X118.297 Y118.965 E.00326
G1 X118.257 Y119.245 E.00342
G1 X118.066 Y119.56 E.00446
;WIDTH:0.421858
G1 X117.833 Y119.737 E.00374
;WIDTH:0.461185
G1 X117.589 Y119.819 E.00362
SET_VELOCITY_LIMIT ACCEL=5000 ACCEL_TO_DECEL=2500 SQUARE_CORNER_VELOCITY=9
G1 E-.68 F3600
;WIPE_START
G1 F7200
G1 X117.294 Y119.792 E-.03547
G1 X117.06 Y119.661 E-.03224
G1 X116.788 Y119.361 E-.04859
G1 X116.778 Y119.332 E-.0037
;WIPE_END
G1 X115.494 Y118.89 Z.68 F21000
G1 Z.28
G1 E.8 F2700
;TYPE:Internal solid infill
;WIDTH:0.35633
G1 F1629
G1 X115.413 Y118.918 E.00092
G1 X115.221 Y118.784 E.00252
G1 X115.119 Y118.682 E.00154
G1 X115.033 Y118.748 E.00116
G1 X114.927 Y118.726 E.00117
G1 X114.927 Y119.073 E.00372
G1 X115.493 Y119.073 E.00606
G1 X115.494 Y118.93 E.00154
G1 X115.285 Y118.639 F21000
;WIDTH:0.456659
G1 F1629
G1 X120.135 Y113.789 E.09524
G1 X120.135 Y113.168 E.00863
G1 X114.972 Y118.33 E.10138
G1 X114.885 Y117.913 E.00591
G1 X114.885 Y117.795 E.00163
G1 X120.135 Y112.546 E.10309
G1 X120.135 Y111.924 E.00863
G1 X114.885 Y117.174 E.10309
G1 X114.885 Y116.552 E.00863
G1 X120.135 Y111.303 E.10309
G1 X120.135 Y110.865 E.00608
G1 X119.951 Y110.865 E.00255
G1 X114.885 Y115.931 E.09948
G1 X114.885 Y115.309 E.00863
G1 X119.329 Y110.865 E.08727
G1 X118.708 Y110.865 E.00863
G1 X114.885 Y114.688 E.07507
M73 P11 R5
G1 X114.885 Y114.066 E.00863
G1 X118.086 Y110.865 E.06286
G1 X117.465 Y110.865 E.00863
G1 X114.885 Y113.445 E.05065
G1 X114.885 Y112.823 E.00863
G1 X116.843 Y110.865 E.03845
G1 X116.222 Y110.865 E.00863
G1 X114.885 Y112.202 E.02624
G1 X114.885 Y111.738 E.00644
G1 X114.865 Y111.718 E.00039
G1 X114.865 Y111.6 E.00164
G1 X115.795 Y110.671 E.01826
G1 X114.988 Y110.918 F21000
;WIDTH:0.42825
G1 F1629
G1 X114.937 Y110.918 E.00067
G1 X114.911 Y110.963 E.00067
G1 X114.937 Y111.007 E.00067
G1 X114.994 Y110.997 E.00075
G1 X117.535 Y116.944 F21000
;WIDTH:0.451637
G1 F1629
G1 X117.851 Y116.96 E.00435
G1 X118.397 Y117.147 E.00791
G1 X118.961 Y117.552 E.00953
G1 X119.219 Y117.867 E.00559
G1 X119.456 Y118.337 E.00723
G1 X119.573 Y118.844 E.00715
G1 X119.567 Y119.019 E.0024
G1 X120.019 Y119.019 E.00621
G1 X120.027 Y114.453 E.06269
G1 X117.563 Y116.916 E.04782
G1 X118.401 Y116.691 F21000
;WIDTH:0.449999
G1 F1629
G1 X118.712 Y116.829 E.00466
G1 X119.218 Y117.203 E.00861
G1 X119.531 Y117.556 E.00644
G1 X119.594 Y117.654 E.00159
G1 X119.594 Y115.498 E.02949
G1 X118.429 Y116.663 E.02252
G1 X119.172 Y116.536 F21000
;WIDTH:0.48636
G1 F1629
G1 X119.113 Y116.536 E.00087
G1 X119.084 Y116.587 E.00087
G1 X119.113 Y116.638 E.00087
G1 X119.172 Y116.638 E.00087
G1 X119.181 Y116.621 E.00028
; stop printing object 电池盒固定架 - 磁门框.STL id:0 copy 0
;LAYER_CHANGE
;Z:0.36
;HEIGHT:0.08
;BEFORE_LAYER_CHANGE
G92 E0
;0.36


G1 E-.72403 F3600
;WIPE_START
G1 F12000
G1 X119.172 Y116.638 E-.0056
G1 X119.113 Y116.638 E-.01759
G1 X119.084 Y116.587 E-.01759
G1 X119.113 Y116.536 E-.01759
G1 X119.172 Y116.536 E-.01759
;WIPE_END
EXCLUDE_OBJECT_END NAME=电池盒固定架_-_磁门框.STL_id_0_copy_0
;AFTER_LAYER_CHANGE
;0.36
;_SET_FAN_SPEED_CHANGING_LAYER
; printing object 电池盒固定架 - 磁门框.STL id:0 copy 0
EXCLUDE_OBJECT_START NAME=电池盒固定架_-_磁门框.STL_id_0_copy_0
G1 X119.061 Y119.459 Z.68 F21000
G1 Z.36
G1 E.8 F2700
SET_VELOCITY_LIMIT ACCEL=3000 ACCEL_TO_DECEL=1500 SQUARE_CORNER_VELOCITY=7
;TYPE:Inner wall
;WIDTH:0.449999
G1 F1632
G1 X119.117 Y119.241 E.00309
G1 X119.134 Y118.855 E.00528
G1 X119.053 Y118.489 E.00513
G1 X118.857 Y118.1 E.00595
G1 X118.664 Y117.862 E.0042
G1 X118.326 Y117.589 E.00594
G1 X117.784 Y117.391 E.00789
G1 X117.465 Y117.363 E.00439
G1 X116.865 Y117.499 E.00841
G1 X116.499 Y117.707 E.00576
G1 X116.113 Y118.137 E.00789
G1 X116.008 Y118.337 E.0031
G1 X115.891 Y118.745 E.0058
G1 X115.871 Y119.03 E.00391
G1 X115.934 Y119.459 E.00594
G1 X114.541 Y119.459 E.01906
G1 X114.541 Y110.541 E.12197
G1 X120.459 Y110.541 E.08095
G1 X120.459 Y119.459 E.12197
G1 X119.101 Y119.459 E.01858
SET_VELOCITY_LIMIT ACCEL=5000 ACCEL_TO_DECEL=2500 SQUARE_CORNER_VELOCITY=9
G1 X118.319 Y119.888 F21000
SET_VELOCITY_LIMIT ACCEL=3000 ACCEL_TO_DECEL=1500 SQUARE_CORNER_VELOCITY=7
G1 F1632
G1 X118.55 Y119.588 E.00519
G1 X118.686 Y119.204 E.00556
G1 X118.686 Y118.797 E.00556
G1 X118.521 Y118.373 E.00624
G1 X118.328 Y118.134 E.0042
G1 X117.948 Y117.883 E.00622
G1 X117.46 Y117.795 E.00678
G1 X116.997 Y117.911 E.00652
G1 X116.63 Y118.168 E.00612
G1 X116.39 Y118.539 E.00604
G1 X116.316 Y118.865 E.00458
G1 X116.34 Y119.317 E.00618
G1 X116.421 Y119.528 E.0031
G1 X116.708 Y119.892 E.00634
G1 X114.108 Y119.892 E.03556
G1 X114.108 Y110.108 E.13381
G1 X120.892 Y110.108 E.09278
M73 P12 R5
G1 X120.892 Y119.892 E.13381
G1 X118.359 Y119.888 E.03465
SET_VELOCITY_LIMIT ACCEL=5000 ACCEL_TO_DECEL=2500 SQUARE_CORNER_VELOCITY=9
G1 E-.68 F3600
;WIPE_START
G1 F12000
G1 X118.55 Y119.588 E-.04275
G1 X118.686 Y119.204 E-.04881
G1 X118.686 Y118.967 E-.02843
;WIPE_END
G1 X113.7 Y120.3 Z.76 F21000
G1 Z.36
G1 E.8 F2700
SET_VELOCITY_LIMIT ACCEL=3000 ACCEL_TO_DECEL=1500 SQUARE_CORNER_VELOCITY=7
;TYPE:Outer wall
;WIDTH:0.399999
G1 F1632
G1 X113.7 Y109.7 E.12822
G1 X121.3 Y109.7 E.09193
G1 X121.3 Y120.3 E.12822
G1 X118.087 Y120.3 E.03886
;WIDTH:0.432777
G1 X117.72 Y120.284 E.00483
;WIDTH:0.465554
G1 X117.353 Y120.267 E.00521
G1 X117.063 Y120.284 E.00411
;WIDTH:0.432777
G1 X116.774 Y120.3 E.00381
;WIDTH:0.399999
G1 X113.74 Y120.3 E.0367
SET_VELOCITY_LIMIT ACCEL=5000 ACCEL_TO_DECEL=2500 SQUARE_CORNER_VELOCITY=9
G1 E-.68 F3600
;WIPE_START
G1 F7200
G1 X113.736 Y119.3 E-.12
;WIPE_END
G1 X117.55 Y119.823 Z.76 F21000
G1 Z.36
G1 E.8 F2700
SET_VELOCITY_LIMIT ACCEL=3000 ACCEL_TO_DECEL=1500 SQUARE_CORNER_VELOCITY=7
;WIDTH:0.461185
G1 F1632
G1 X117.293 Y119.791 E.00364
;WIDTH:0.440117
G1 X117.045 Y119.653 E.0038
;WIDTH:0.399999
G1 X116.802 Y119.383 E.00439
G1 X116.721 Y119.171 E.00274
G1 X116.73 Y118.805 E.00444
G1 X116.9 Y118.474 E.0045
G1 X117.122 Y118.3 E.00342
G1 X117.472 Y118.204 E.00439
G1 X117.764 Y118.247 E.00357
G1 X118.01 Y118.39 E.00344
G1 X118.24 Y118.701 E.00467
G1 X118.297 Y118.965 E.00326
G1 X118.263 Y119.232 E.00326
G1 X118.144 Y119.472 E.00324
G1 X117.954 Y119.651 E.00315
;WIDTH:0.430592
G1 X117.761 Y119.738 E.00277
;WIDTH:0.461185
G1 X117.588 Y119.816 E.00266
SET_VELOCITY_LIMIT ACCEL=5000 ACCEL_TO_DECEL=2500 SQUARE_CORNER_VELOCITY=9
G1 E-.68 F3600
;WIPE_START
G1 F7200
G1 X117.293 Y119.791 E-.03556
G1 X117.045 Y119.653 E-.0341
G1 X116.802 Y119.383 E-.04354
G1 X116.782 Y119.33 E-.0068
;WIPE_END
G1 X117.167 Y116.973 Z.76 F21000
G1 Z.36
G1 E.8 F2700
;TYPE:Internal solid infill
;WIDTH:0.453494
G1 F1632
