;FLAVOR:Marlin
;TIME:3201
;Filament used:0.742229m
;Layer height: 0.1
;MINX:99.915
;MINY:84.352
;MINZ:0.1
;MAXX:120.119
;MAXY:135.228
;MAXZ:10.9
                             
;Creality Print GCode Generated by CXEngine:NO_MAGE_VERSION_GIT_HEAD_BRANCH
;CXEngine Release Time:2022-09-30 09:53:04
;Gcode Generated Time:2023-04-14 20:52:49
;----------Machine Config--------------
;Machine Name:Ender-3 V2
;Machine Height:250
;Machine Width:220
;Machine Depth:220
;Material name:PLA
;Number of Extruders:1
;ExtruderParams[0] Nozzle Diameter1000
;----------Profile Config---------------
;Engine Version:275f99b
;Engine Release Time:2022-09-30 09:42:18
;Layer Height:0.1
;Wall Thickness:0.8
;Top/Bottom Thickness:0.5
;Out Wall Line Width:0.4
;Inner Wall Line Width:0.4
;Inital Layer Height:100
;Wall Line Count:2
;Infill Line Distance:4
;Infill Pattern:grid
;Infill Sparse Density:20
;Infill Wipe Distance:0
;Print Temperature:200
;Bed Temperature:60
;Support Enable:true
;Support Density:0
;Support Angle:60
;Adhesion Type:none
;machine is belt:false
;machine belt offset:10
;machine belt offset Y:0
;Raft Base Line Spacing:1.6
;Wait Heatup Sync:true
;----------Shell Config----------------
;Outer Wall Wipe Distance:200
;Outer Inset First:false
;Infill Before Walls:false
;Infill Overlap:0.16
;Fill Gaps Between Walls:everywhere
;Minimum Infill Area:1
;Top Surface Skin Layer:0
;Top Layers:4
;Z Seam Alignment:sharpest_corner
;Seam Corner Preference:z_seam_corner_inner
;Z Seam X:110
;Z Seam Y:110
;Horizontal Expansion:0
;Top/Bottom Pattern:zigzag
;Ironing Pattern:zigzag
;Vase Model:false
;----------Support Config----------------
;Support Type:everywhere
;Support Pattern:zigzag
;Support Infill Layer Thickness:0.1
;Minimum Support Area:5
;Enable Support Roof:false
;Support Roof Thickness:0.8
;Support Roof Pattern:lines
;Connect Support Lines:0
;Connect Support ZigZags:1
;Minimum Support X/Y Distance:0.2
;Support Line Distance:0
; ---------PrintSpeed & Travel----------
;Enable Print Cool:true
;Avoid Printed Parts Traveling:true
;Enable Retraction:true
;Retraction Distance:8
;Retraction Speed:100
;Retraction Prime Speed:100
;Maximum Retraction Count:100
;Minimum Extrusion Distance Window:1
;Z Hop When Retracted:false
;Z Hop Height:0.2
;Retract Before Outer Wall:true
;Print Speed:50
;Infill Speed:50

;Prime Tower Speed:50
;Travel Speed:120
;Initial Layer Speed:25
;Skirt/Brim Speed:25
;Combing Mode:infill
; --------SpecialModel&Mesh Fixes--------
;Union Overlapping Volum:true
;Remove All Holes:false
;Maximum Travel Resolution:0.6
;Maximum Deviation:0.05
;Maximum Model Angle:0.872665
;IS Mold Print:false
;Make Overhang Printable:false
;Enable Coasting:false
;Coasting Volumes:0.06
;Coasting Speed:0.9
;Raft AirGap:0.25
;Layer0 ZOverLap:0.13
;---------------------End of Head--------------------------
M140 S60
M105
M104 S200
M105
M109 S200
M105
M190 S60
M82 ;absolute extrusion mode
M220 S100 ;Reset Feedrate
M221 S100 ;Reset Flowrate

G28 ;Home

G92 E0 ;Reset Extruder
G1 Z2.0 F3000 ;Move Z Axis up
G1 X10.1 Y20 Z0.28 F5000.0 ;Move to start position
G1 X10.1 Y145.0 Z0.28 F1500.0 E15 ;Draw the first line
G1 X10.4 Y145.0 Z0.28 F5000.0 ;Move to side a little
G1 X10.4 Y20 Z0.28 F1500.0 E30 ;Draw the second line
G92 E0  ;Reset Extruder
G1 E-1.0000 F1800 ;Retract a bit
G1 Z2.0 F3000 ;Move Z Axis up
G1 E0.0000 F1800 

G92 E0
G92 E0
G1 F6000 E-8

;LAYER_COUNT:109

;LAYER:0
M107
G0 F3600 X106.63 Y87.754 Z0.1
;TYPE:SUPPORT
G1 F6000 E0
G1 F1500 X107.541 Y87.712 E0.01335
G1 X108.565 Y87.378 E0.02911
G1 X109.109 Y88.126 E0.04264
G1 X108.516 Y89.216 E0.0608
G1 X108.423 Y90.735 E0.08308
G1 X108.421 Y91.534 E0.09477
G1 X108.736 Y92.752 E0.11318
G1 X108.829 Y94.002 E0.13152
G1 X108.689 Y95.36 E0.1515
G1 X108.164 Y96.88 E0.17504
G1 X108.044 Y98.224 E0.19478
G1 X108.196 Y99.534 E0.21408
G1 X108.247 Y100.912 E0.23426
G1 X108.235 Y102.085 E0.25143
G1 X108.081 Y104.725 E0.29013
G1 X108.192 Y106.184 E0.31154
G1 X108.187 Y107.404 E0.3294
G1 X108.047 Y108.789 E0.34977
G1 X108.196 Y110.358 E0.37283
G1 X109.572 Y109.488 E0.39666
G1 X110.656 Y108.509 E0.41803
G1 X111.265 Y108.146 E0.42841
G1 X111.748 Y106.597 E0.45216
G1 X111.673 Y105.363 E0.47025
G1 X111.771 Y104.154 E0.488
G1 X111.949 Y102.761 E0.50855
G1 X111.8 Y101.484 E0.52737
G1 X111.536 Y100.054 E0.54865
G1 X111.742 Y98.661 E0.56925
G1 X111.795 Y97.405 E0.58765
G1 X111.491 Y96.11 E0.60712
G1 X111.163 Y95.036 E0.62355
G1 X111.207 Y93.847 E0.64096
G1 X111.379 Y92.631 E0.65894
G1 X111.361 Y91.785 E0.67132
G1 X110.14 Y91.191 E0.69119
G1 X109.884 Y90.405 E0.70329
G1 X110.151 Y89.586 E0.7159
G1 X110.864 Y88.895 E0.73043
G1 X110.864 Y87.761 E0.74702
G1 X111.793 Y87.459 E0.76132
G1 X112.629 Y87.81 E0.77459
G1 X113.308 Y87.873 E0.78457
G1 X113.872 Y88.622 E0.79829
G1 X113.264 Y89.489 E0.81378
G1 X114.037 Y90.552 E0.83302
G1 X113.672 Y91.551 E0.84858
G1 X112.808 Y92.908 E0.87213
G1 X112.921 Y94.21 E0.89125
G1 X113.197 Y95.565 E0.91149
G1 X113.594 Y96.703 E0.92913
G1 X113.601 Y97.966 E0.94761
G1 X113.413 Y99.454 E0.96956
G1 X113.648 Y102.106 E1.00852
G1 X113.669 Y103.293 E1.0259
G1 X113.638 Y105.861 E1.06348
G1 X113.394 Y107.392 E1.08617
G1 X112.989 Y108.604 E1.10487
G1 X113.459 Y109.764 E1.12319
G1 X113.672 Y112.479 E1.16304
G1 X113.562 Y116.275 E1.21862
G1 X113.616 Y117.649 E1.23874
G1 X113.758 Y119.317 E1.26324
G1 X113.72 Y120.607 E1.28213
G1 X113.834 Y121.845 E1.30032
G1 X113.852 Y123.2 E1.32015
G1 X114.672 Y124.187 E1.33893
G1 X115.226 Y124.582 E1.34889
G1 X115.405 Y125.13 E1.35732
G1 X115.225 Y125.679 E1.36578
G1 X114.755 Y126.021 E1.37428
G1 X114.192 Y126.021 E1.38252
G1 X112.996 Y124.892 E1.40659
G1 X112.359 Y124.892 E1.41592
G1 X111.902 Y124.559 E1.42419
G1 X111.727 Y124.024 E1.43243
G1 X112.079 Y122.93 E1.44925
G1 X111.833 Y121.436 E1.47141
G1 X111.956 Y120.193 E1.48968
G1 X111.703 Y118.918 E1.50871
G1 X111.72 Y117.635 E1.52748
G1 X111.676 Y116.315 E1.54681
G1 X111.862 Y115.087 E1.56499
G1 X111.752 Y113.805 E1.58382
G1 X111.776 Y112.475 E1.60329
G1 X111.704 Y111.258 E1.62113
G1 X111.74 Y110.657 E1.62994
G1 X111.478 Y110.548 E1.63409
G1 X110.516 Y111.618 E1.65515
G1 X109.294 Y112.136 E1.67457
G1 X108.464 Y113.346 E1.69605
G1 X108.136 Y114.541 E1.71418
G1 X108.146 Y115.958 E1.73492
G1 X108.284 Y118.443 E1.77134
G1 X108.103 Y119.624 E1.78883
G1 X108.122 Y121.974 E1.82322
G1 X107.999 Y123.19 E1.8411
G1 X107.556 Y124.333 E1.85904
G1 X106.641 Y125.252 E1.87802
G1 X105.981 Y126.047 E1.89314
G1 X105.437 Y126.047 E1.9011
G1 X104.972 Y125.708 E1.90953
G1 X104.804 Y125.194 E1.91744
G1 X105.419 Y124.276 E1.93361
G1 X106.064 Y123.166 E1.9524
G1 X106.277 Y121.843 E1.97201
G1 X106.334 Y120.443 E1.99251
G1 X106.26 Y119.192 E2.01085
G1 X106.453 Y117.784 E2.03165
G1 X106.373 Y116.452 E2.05118
G1 X106.211 Y115.313 E2.06802
G1 X106.494 Y113.736 E2.09146
G1 X106.836 Y112.59 E2.10897
G1 X106.559 Y111.37 E2.12727
G1 X106.263 Y110.272 E2.14392
G1 X106.183 Y108.882 E2.16429
G1 X106.3 Y107.742 E2.18106
G1 X106.348 Y106.347 E2.20149
G1 X106.309 Y103.975 E2.23621
G1 X106.363 Y102.765 E2.25393
G1 X106.465 Y101.454 E2.27318
G1 X106.231 Y97.498 E2.33117
G1 X106.501 Y96.119 E2.35174
G1 X107.048 Y94.59 E2.3755
G1 X107.241 Y93.195 E2.39611
G1 X107.071 Y92.237 E2.41035
G1 X106.665 Y91.518 E2.42243
G1 X106.856 Y90.931 E2.43147
G1 X106.086 Y90.678 E2.44333
G1 X106.176 Y89.867 E2.45527
G1 X106.716 Y89.446 E2.46529
G1 X106.078 Y88.514 E2.48182
G1 X106.63 Y87.754 E2.49557
;;retract;;
G1 F6000 E-5.50443
G0 F3600 X105.926 Y87.243
G0 X105.023 Y88.499
G0 X103.851 Y125.063
G0 X104.234 Y126.244
G0 X105.154 Y126.915
G0 X106.388 Y126.913
G0 X110.252 Y125.367
G0 X110.613 Y126.158
G1 F6000 E2.49557
G1 F1500 X110.775 Y126.469 E2.5007
G1 X110.56 Y127.66 E2.51841
G1 X109.743 Y127.884 E2.53081
G1 X109.962 Y127.473 E2.53762
G1 X109.591 Y126.623 E2.55119
G1 X110.613 Y126.158 E2.56763
G0 F3600 X110.585 Y127.697
G1 F1500 X110.704 Y127.791 E2.56984
G1 X110.672 Y127.83 E2.57058
G1 X110.585 Y127.697 E2.57291
;;retract;;
G1 F6000 E-5.42709
G0 F3600 X111.377 Y128.342
G0 X114.159 Y128.732
G0 X114.666 Y129.239
G0 X114.666 Y130.859
G0 X114.159 Y131.366
G0 X109.123 Y134.176
G0 X108.619 Y132.596
G0 X109.61 Y131.348
G0 X110.407 Y131.739
G1 F6000 E2.57291
G1 F1500 X110.162 Y132.351 E2.58256
G1 X109.579 Y132.771 E2.59307
G1 X110.377 Y131.742 E2.61213
G1 X110.407 Y131.739 E2.61257
;;retract;;
G1 F6000 E-5.38743
G0 F3600 X111.215 Y132.06
G0 X114.159 Y131.366
G0 X114.615 Y130.91
G0 X115.112 Y129.665
G0 X115.943 Y129.411
G1 F6000 E2.61257
G1 F1500 X115.519 Y128.022 E2.63382
G1 X115.256 Y127.348 E2.64441
G1 X115.438 Y126.789 E2.65301
G1 X115.922 Y126.438 E2.66176
G1 X116.514 Y126.438 E2.67043
G1 X117 Y126.791 E2.67922
G1 X117.78 Y129.024 E2.71383
G1 X117.595 Y129.591 E2.72256
G1 X117.107 Y129.946 E2.73139
G1 X116.522 Y129.946 E2.73995
G1 X115.943 Y129.411 E2.75149
;;retract;;
G1 F6000 E-5.24851
G0 F3600 X115.112 Y129.665
G0 X110.998 Y125.039
G0 X108.467 Y126.193
G0 X105.329 Y128.387
G0 X104.461 Y128.431
G1 F6000 E2.75149
G1 F1500 X104.029 Y129.844 E2.77311
G1 X103.542 Y130.198 E2.78192
G1 X102.944 Y130.198 E2.79068
G1 X102.476 Y129.857 E2.79915
G1 X102.378 Y128.879 E2.81353
G1 X102.888 Y127.394 E2.83651
G1 X103.368 Y127.045 E2.8452
G1 X103.956 Y127.045 E2.8538
G1 X104.409 Y127.375 E2.862
G1 X104.461 Y128.431 E2.87748
;;retract;;
G1 F6000 E-5.12252
;MESH:
G0 F3600 X105.294 Y128.685
G0 X105.334 Y130.86
G0 X105.841 Y131.367
G0 X109.123 Y134.176
G0 X113.4 Y131.37
G0 X113.4 Y130.1
;TYPE:WALL-INNER
G1 F6000 E2.87748
G1 F600 X106.6 Y130.101 E3.00187
G1 X106.6 Y129.999 E3.00374
G1 X113.4 Y129.998 E3.03539
G1 X113.4 Y130.1 E3.03726
G0 F3600 X113.8 Y129.798
;TYPE:WALL-OUTER
G1 F676.6 X113.8 Y130.5 E3.0501
G1 X106.4 Y130.501 E3.18547
G1 X106.2 Y130.501 E3.18913
G1 X106.2 Y130.301 E3.1915
G1 X106.2 Y129.599 E3.20434
G1 X113.6 Y129.598 E3.33971
G1 X113.8 Y129.598 E3.34337
G1 X113.8 Y129.798 E3.34574
G0 F3600 X113.8 Y129.998
G0 X113.359 Y130.039
;;retract;;
G1 F6000 E-4.65426
;MESH:NONMESH
G0 F600 X113.359 Y130.039 Z0.2
G0 F3600 X113.359 Y128.728
G0 X110.998 Y125.039
G0 X108.721 Y126.077
G0 X105.309 Y127.982
G0 X104.557 Y128.02
;TIME_ELAPSED:23.052078

;LAYER:1
M140 S60
M106 S127.5
;TYPE:SUPPORT
G1 F6000 E3.34574
G1 F2250 X104.012 Y129.923 E3.37207
G1 X103.531 Y130.272 E3.37998
G1 X102.939 Y130.272 E3.38785
G1 X102.463 Y129.926 E3.39568
G1 X102.293 Y129.209 E3.40549
G1 X102.669 Y127.934 E3.42317
G1 X103.347 Y127.117 E3.4373
G1 X103.901 Y127.117 E3.44467
G1 X104.375 Y127.462 E3.45247
G1 X104.557 Y128.02 E3.46027
;;retract;;
G1 F6000 E-4.53973
G0 F5400 X105.384 Y127.75
G0 X108.936 Y127.448
G0 X110.387 Y127.548
G1 F6000 E3.46027
G1 F2250 X110.126 Y127.568 E3.46376
G1 X109.769 Y127.736 E3.46901
G1 X109.893 Y127.518 E3.47234
G1 X109.572 Y126.696 E3.48408
G1 X110.571 Y126.251 E3.49863
G1 X110.653 Y126.439 E3.50136
G1 X110.232 Y127.293 E3.51403
G1 X110.387 Y127.548 E3.518
;;retract;;
G1 F6000 E-4.482
G0 F5400 X111.523 Y126.589
G0 X111.65 Y125.28
G0 X111.955 Y124.465
G1 F6000 E3.518
G1 F2250 X111.787 Y123.949 E3.52522
G1 X111.976 Y122.789 E3.54085
G1 X111.97 Y121.564 E3.55715
G1 X111.788 Y118.887 E3.59285
G1 X111.673 Y117.696 E3.60877
G1 X111.925 Y115.021 E3.64451
G1 X111.721 Y112.431 E3.67908
G1 X111.795 Y111.201 E3.69547
G1 X111.453 Y110.415 E3.70688
G1 X110.419 Y111.606 E3.72786
G1 X109.188 Y112.312 E3.74674
G1 X108.556 Y112.759 E3.75704
G1 X108.258 Y114.011 E3.77416
G1 X108.178 Y115.311 E3.79149
G1 X108.251 Y116.566 E3.80821
G1 X108.219 Y117.748 E3.82394
G1 X108.082 Y119.15 E3.84268
G1 X108.115 Y120.404 E3.85937
G1 X107.948 Y123.094 E3.89523
G1 X107.728 Y124.081 E3.90868
G1 X106.683 Y125.177 E3.92883
G1 X106.027 Y125.973 E3.94255
G1 X105.489 Y125.973 E3.94971
G1 X105.028 Y125.637 E3.9573
G1 X104.862 Y125.128 E3.96442
G1 X105.47 Y124.219 E3.97897
G1 X106.123 Y123.102 E3.99619
G1 X106.287 Y121.568 E4.01671
G1 X106.247 Y120.391 E4.03238
G1 X106.344 Y118.952 E4.05157
G1 X106.449 Y116.315 E4.08668
G1 X106.22 Y114.873 E4.1061
G1 X106.847 Y112.313 E4.14117
G1 X106.439 Y111.105 E4.15813
G1 X106.22 Y109.945 E4.17384
G1 X106.401 Y107.503 E4.20641
G1 X106.223 Y106.183 E4.22413
G1 X106.394 Y103.688 E4.2574
G1 X106.406 Y102.337 E4.27538
G1 X106.46 Y101.093 E4.29195
G1 X106.202 Y98.71 E4.32383
G1 X106.354 Y97.387 E4.34155
G1 X106.588 Y95.796 E4.36295
G1 X107.178 Y94.312 E4.38419
G1 X107.35 Y92.942 E4.40256
G1 X106.592 Y91.536 E4.42381
G1 X106.808 Y90.871 E4.43311
G1 X106.031 Y90.698 E4.4437
G1 X106.163 Y89.953 E4.45377
G1 X106.672 Y89.464 E4.46316
G1 X106.048 Y88.573 E4.47763
G1 X106.617 Y87.817 E4.49022
G1 X107.616 Y87.652 E4.50369
G1 X108.618 Y87.325 E4.51771
G1 X109.15 Y88.057 E4.52975
G1 X108.457 Y89.165 E4.54714
G1 X108.677 Y90.157 E4.56066
G1 X108.301 Y91.376 E4.57763
G1 X108.845 Y92.665 E4.59624
G1 X108.924 Y93.768 E4.61096
G1 X108.754 Y95.065 E4.62836
G1 X108.284 Y96.518 E4.64868
G1 X108.043 Y97.96 E4.66813
G1 X108.076 Y99.385 E4.68709
G1 X108.322 Y101.997 E4.72199
G1 X108.155 Y103.297 E4.73943
G1 X108.061 Y104.639 E4.75733
G1 X108.178 Y105.79 E4.77272
G1 X108.173 Y107.018 E4.78906
G1 X108.076 Y108.307 E4.80626
G1 X108.141 Y109.643 E4.82405
G1 X108.071 Y110.214 E4.8317
G1 X108.277 Y110.351 E4.835
G1 X109.425 Y109.692 E4.85261
G1 X110.771 Y108.508 E4.87646
G1 X111.483 Y107.528 E4.89257
G1 X111.744 Y106.339 E4.90877
G1 X111.707 Y104.922 E4.92762
G1 X111.905 Y102.357 E4.96185
G1 X111.699 Y101.195 E4.97755
G1 X111.606 Y100.009 E4.99338
G1 X111.826 Y98.301 E5.01629
G1 X111.784 Y96.994 E5.03369
G1 X111.296 Y95.715 E5.0519
G1 X111.148 Y94.516 E5.06797
G1 X111.266 Y93.322 E5.08393
G1 X111.305 Y91.821 E5.10391
G1 X110.076 Y91.228 E5.12206
G1 X109.821 Y90.447 E5.133
G1 X110.078 Y89.658 E5.14403
G1 X111.167 Y89.02 E5.16083
G1 X110.66 Y88.166 E5.17404
G1 X111.195 Y87.43 E5.18614
G1 X112.211 Y87.761 E5.20036
G1 X113.268 Y87.781 E5.21443
G1 X113.906 Y88.696 E5.22927
G1 X113.38 Y89.482 E5.24185
G1 X114.071 Y90.495 E5.25816
G1 X113.692 Y91.474 E5.27213
G1 X112.908 Y92.429 E5.28857
G1 X112.797 Y93.687 E5.30537
G1 X113.061 Y95.279 E5.32684
G1 X113.596 Y96.632 E5.34619
G1 X113.699 Y97.813 E5.36197
G1 X113.469 Y99.176 E5.38036
G1 X113.481 Y100.427 E5.397
G1 X113.593 Y101.628 E5.41305
G1 X113.797 Y103.07 E5.43242
G1 X113.578 Y104.353 E5.44974
G1 X113.438 Y106.971 E5.48462
G1 X113.065 Y108.373 E5.50392
G1 X113.448 Y109.678 E5.52201
G1 X113.604 Y110.875 E5.53807
G1 X113.682 Y112.078 E5.55411
G1 X113.603 Y113.293 E5.57031
G1 X113.621 Y114.457 E5.5858
G1 X113.584 Y115.672 E5.60197
G1 X113.5 Y116.91 E5.61848
G1 X113.628 Y118.066 E5.63395
G1 X113.666 Y119.337 E5.65087
G1 X113.807 Y120.563 E5.66729
G1 X113.694 Y121.712 E5.68265
G1 X113.835 Y122.92 E5.69883
G1 X114.606 Y124.121 E5.71782
G1 X115.17 Y124.519 E5.727
G1 X115.348 Y125.063 E5.73461
G1 X115.17 Y125.607 E5.74223
G1 X114.705 Y125.946 E5.74989
G1 X114.147 Y125.946 E5.75731
G1 X112.984 Y124.85 E5.77857
G1 X111.955 Y124.465 E5.79319
;;retract;;
G1 F6000 E-2.20681
G0 F5400 X111.65 Y125.28
G0 X114.666 Y128.65
G0 X115.172 Y129.919
G0 X116.004 Y129.666
G1 F6000 E5.79319
G1 F2250 X115.32 Y127.413 E5.82451
G1 X115.503 Y126.853 E5.83235
G1 X115.981 Y126.505 E5.84022
G1 X116.569 Y126.505 E5.84804
G1 X117.048 Y126.853 E5.85591
G1 X117.812 Y129.146 E5.88807
G1 X117.629 Y129.71 E5.89596
G1 X117.151 Y130.057 E5.90382
G1 X116.489 Y130.018 E5.91264
G1 X116.004 Y129.666 E5.92061
;;retract;;
G1 F6000 E-2.07939
;MESH:
G0 F5400 X113.4 Y130.563
;TYPE:WALL-INNER
G1 F6000 E5.92061
G1 F632.9 X106.799 Y130.564 E6.03039
G1 X106.6 Y130.564 E6.0337
G1 X106.6 Y130.365 E6.03584
G1 X106.6 Y129.41 E6.05172
G1 X113.201 Y129.409 E6.16149
G1 X113.4 Y129.409 E6.1648
G1 X113.4 Y129.608 E6.16694
G1 X113.4 Y130.563 E6.18283
;;retract;;
G1 F6000 E-1.81717
G0 F5400 X113.8 Y129.209
;TYPE:WALL-OUTER
G1 F6000 E6.18283
G1 F1500 X113.8 Y130.963 E6.212
G1 X106.4 Y130.964 E6.33506
G1 X106.2 Y130.964 E6.33838
G1 X106.2 Y130.764 E6.34054
G1 X106.2 Y129.01 E6.36971
G1 X113.6 Y129.009 E6.49277
G1 X113.8 Y129.009 E6.4961
G1 X113.8 Y129.209 E6.49825
G0 F5400 X113.8 Y129.409
G0 X113.359 Y129.45
G0 X113.159 Y130.322
;TYPE:SKIN
G1 F632.9 X113.159 Y130.085 E6.50219
G1 X112.921 Y130.323 E6.50779
G1 X112.355 Y130.323 E6.5172
