;FLAVOR:Marlin
;TIME:2287
;Filament used:0.606807m
;Layer height: 0.1
;MINX:105.33
;MINY:56.33
;MINZ:0.1
;MAXX:114.67
;MAXY:163.67
;MAXZ:2.9
                                 
;Creality Print GCode Generated by CXEngine:NO_MAGE_VERSION_GIT_HEAD_BRANCH
;CXEngine Release Time:2022-09-30 09:53:04
;Gcode Generated Time:2023-04-14 20:58:37
;----------Machine Config--------------
;Machine Name:Ender-3 V2
;Machine Height:250
;Machine Width:220
;Machine Depth:220
;Material name:PLA
;Number of Extruders:1
;ExtruderParams[0] Nozzle Diameter1000
;----------Profile Config---------------
;Engine Version:275f99b
;Engine Release Time:2022-09-30 09:42:18
;Layer Height:0.1
;Wall Thickness:0.8
;Top/Bottom Thickness:0.5
;Out Wall Line Width:0.4
;Inner Wall Line Width:0.4
;Inital Layer Height:100
;Wall Line Count:2
;Infill Line Distance:4
;Infill Pattern:grid
;Infill Sparse Density:20
;Infill Wipe Distance:0
;Print Temperature:200
;Bed Temperature:60
;Support Enable:true
;Support Density:0
;Support Angle:60
;Adhesion Type:none
;machine is belt:false
;machine belt offset:10
;machine belt offset Y:0
;Raft Base Line Spacing:1.6
;Wait Heatup Sync:true
;----------Shell Config----------------
;Outer Wall Wipe Distance:200
;Outer Inset First:false
;Infill Before Walls:false
;Infill Overlap:0.16
;Fill Gaps Between Walls:everywhere
;Minimum Infill Area:1
;Top Surface Skin Layer:0
;Top Layers:4
;Z Seam Alignment:sharpest_corner
;Seam Corner Preference:z_seam_corner_inner
;Z Seam X:110
;Z Seam Y:110
;Horizontal Expansion:0
;Top/Bottom Pattern:zigzag
;Ironing Pattern:zigzag
;Vase Model:false
;----------Support Config----------------
;Support Type:everywhere
;Support Pattern:zigzag
;Support Infill Layer Thickness:0.1
;Minimum Support Area:5
;Enable Support Roof:false
;Support Roof Thickness:0.8
;Support Roof Pattern:lines
;Connect Support Lines:0
;Connect Support ZigZags:1
;Minimum Support X/Y Distance:0.2
;Support Line Distance:0
; ---------PrintSpeed & Travel----------
;Enable Print Cool:true
;Avoid Printed Parts Traveling:true
;Enable Retraction:true
;Retraction Distance:8
;Retraction Speed:100
;Retraction Prime Speed:100
;Maximum Retraction Count:100
;Minimum Extrusion Distance Window:1
;Z Hop When Retracted:false
;Z Hop Height:0.2
;Retract Before Outer Wall:true
;Print Speed:50
;Infill Speed:50

;Prime Tower Speed:50
;Travel Speed:120
;Initial Layer Speed:25
;Skirt/Brim Speed:25
;Combing Mode:infill
; --------SpecialModel&Mesh Fixes--------
;Union Overlapping Volum:true
;Remove All Holes:false
;Maximum Travel Resolution:0.6
;Maximum Deviation:0.05
;Maximum Model Angle:0.872665
;IS Mold Print:false
;Make Overhang Printable:false
;Enable Coasting:false
;Coasting Volumes:0.06
;Coasting Speed:0.9
;Raft AirGap:0.25
;Layer0 ZOverLap:0.13
;---------------------End of Head--------------------------
M140 S60
M105
M104 S200
M105
M109 S200
M105
M190 S60
M82 ;absolute extrusion mode
M220 S100 ;Reset Feedrate
M221 S100 ;Reset Flowrate

G28 ;Home

G92 E0 ;Reset Extruder
G1 Z2.0 F3000 ;Move Z Axis up
G1 X10.1 Y20 Z0.28 F5000.0 ;Move to start position
G1 X10.1 Y145.0 Z0.28 F1500.0 E15 ;Draw the first line
G1 X10.4 Y145.0 Z0.28 F5000.0 ;Move to side a little
G1 X10.4 Y20 Z0.28 F1500.0 E30 ;Draw the second line
G92 E0  ;Reset Extruder
G1 E-1.0000 F1800 ;Retract a bit
G1 Z2.0 F3000 ;Move Z Axis up
G1 E0.0000 F1800 

G92 E0
G92 E0
G1 F6000 E-8

;LAYER_COUNT:29

;LAYER:0
M107
;MESH:
G0 F3600 X108.738 Y59.387 Z0.1
;TYPE:WALL-INNER
G1 F6000 E0
G1 F600 X109.087 Y59.953 E0.01216
G1 X109.668 Y60.277 E0.02433
G1 X110.332 Y60.277 E0.03648
G1 X110.913 Y59.953 E0.04865
G1 X111.262 Y59.387 E0.06081
G1 X111.29 Y58.721 E0.07301
G1 X110.99 Y58.129 E0.08515
G1 X110.77 Y57.98 E0.09001
G1 X110.482 Y57.784 E0.09638
G1 X110.163 Y57.704 E0.1024
G1 X109.56 Y57.755 E0.11347
G1 X109.233 Y57.977 E0.1207
G1 X109.01 Y58.129 E0.12563
G1 X108.71 Y58.721 E0.13777
G1 X108.738 Y59.387 E0.14997
G0 F3600 X109.133 Y59.266
;TYPE:WALL-OUTER
G1 F600 X109.373 Y59.654 E0.15831
G1 X109.772 Y59.877 E0.16668
G1 X110.228 Y59.877 E0.17502
G1 X110.627 Y59.654 E0.18338
G1 X110.867 Y59.266 E0.19173
G1 X110.886 Y58.809 E0.20009
G1 X110.68 Y58.402 E0.20844
G1 X110.316 Y58.155 E0.21648
G1 X110.13 Y58.108 E0.21999
G1 X109.698 Y58.145 E0.22792
G1 X109.32 Y58.402 E0.23629
G1 X109.114 Y58.809 E0.24463
G1 X109.133 Y59.266 E0.253
G0 F3600 X109.238 Y59.436
G0 X108.863 Y59.666
;;retract;;
G1 F6000 E-7.747
G0 F3600 X109.992 Y59.006
G0 X105.336 Y66.9
G0 X106.805 Y66.9
;TYPE:WALL-INNER
G1 F6000 E0.253
G1 F1500 X106.606 Y66.9 E0.25664
G1 X106.606 Y66.701 E0.25899
G1 X106.608 Y57.6 E0.42548
G1 X109.164 Y57.6 E0.47224
G1 X109.56 Y57.6 E0.47737
G1 X110.163 Y57.6 E0.48094
G1 X110.482 Y57.6 E0.48302
G1 X110.831 Y57.6 E0.48777
G1 X113.4 Y57.6 E0.53476
G1 X113.4 Y66.9 E0.70489
G1 X110.8 Y66.9 E0.75245
G1 X110.8 Y69.3 E0.79635
G1 X113.4 Y69.3 E0.84391
G1 X113.4 Y162.201 E2.54336
G1 X113.4 Y162.4 E2.547
G1 X113.201 Y162.4 E2.54935
G1 X110.867 Y162.397 E2.59205
G1 X110.332 Y162.397 E2.60184
G1 X109.668 Y162.396 E2.61398
G1 X109.129 Y162.396 E2.62384
G1 X106.6 Y162.392 E2.67011
G1 X106.6 Y101.496 E3.78408
G1 X106.606 Y69.3 E4.37305
G1 X109.2 Y69.3 E4.4205
G1 X109.2 Y66.9 E4.4644
G1 X106.805 Y66.9 E4.50821
G0 F3600 X106.8 Y67.3
;TYPE:WALL-OUTER
G1 F600 X106.8 Y68.9 E4.53748
G1 X108.8 Y68.9 E4.57407
G1 X108.8 Y67.3 E4.60334
G1 X106.8 Y67.3 E4.63992
G0 F3600 X106.8 Y67.5
;;retract;;
G1 F6000 E-3.36008
G0 F3600 X105.336 Y67.5
G0 X109.991 Y65.003
G0 X108.738 Y65.387
;TYPE:WALL-INNER
G1 F6000 E4.63992
G1 F600 X109.087 Y65.953 E4.65209
G1 X109.668 Y66.277 E4.66426
G1 X110.332 Y66.277 E4.6764
G1 X110.913 Y65.953 E4.68857
G1 X111.262 Y65.387 E4.70074
G1 X111.29 Y64.721 E4.71293
G1 X110.99 Y64.129 E4.72507
G1 X110.482 Y63.784 E4.7363
G1 X110.163 Y63.704 E4.74232
G1 X109.56 Y63.755 E4.75339
G1 X109.01 Y64.129 E4.76556
G1 X108.71 Y64.721 E4.7777
G1 X108.738 Y65.387 E4.78989
G0 F3600 X109.133 Y65.266
;TYPE:WALL-OUTER
G1 F600 X109.373 Y65.654 E4.79824
G1 X109.772 Y65.877 E4.8066
G1 X110.228 Y65.877 E4.81494
G1 X110.627 Y65.654 E4.8233
G1 X110.867 Y65.266 E4.83165
G1 X110.886 Y64.809 E4.84002
G1 X110.68 Y64.402 E4.84836
G1 X110.316 Y64.155 E4.85641
G1 X110.13 Y64.108 E4.85992
G1 X109.698 Y64.145 E4.86785
G1 X109.32 Y64.402 E4.87621
G1 X109.114 Y64.809 E4.88455
G1 X109.133 Y65.266 E4.89292
G0 F3600 X109.238 Y65.436
G0 X108.863 Y65.666
;;retract;;
G1 F6000 E-3.10708
G0 F3600 X111.2 Y67.3
G1 F6000 E4.89292
G1 F600 X111.2 Y68.9 E4.92219
G1 X113.2 Y68.9 E4.95878
G1 X113.2 Y67.3 E4.98805
G1 X111.2 Y67.3 E5.02463
G0 F3600 X111.2 Y67.5
G0 X110.76 Y67.5
;;retract;;
G1 F6000 E-2.97537
G0 F3600 X110.002 Y65.009
G0 X109.991 Y135.003
G0 X108.738 Y135.387
;TYPE:WALL-INNER
G1 F6000 E5.02463
G1 F600 X109.087 Y135.953 E5.0368
G1 X109.668 Y136.277 E5.04897
G1 X110.332 Y136.277 E5.06111
G1 X110.913 Y135.953 E5.07328
G1 X111.262 Y135.387 E5.08544
G1 X111.29 Y134.72 E5.09766
G1 X110.99 Y134.128 E5.1098
G1 X110.482 Y133.784 E5.12102
G1 X110.163 Y133.704 E5.12704
G1 X109.56 Y133.755 E5.13811
G1 X109.01 Y134.128 E5.15026
G1 X108.71 Y134.72 E5.1624
G1 X108.738 Y135.387 E5.17462
G0 F3600 X109.133 Y135.266
;TYPE:WALL-OUTER
G1 F600 X109.373 Y135.654 E5.18296
G1 X109.772 Y135.877 E5.19132
G1 X110.228 Y135.877 E5.19967
G1 X110.627 Y135.654 E5.20803
G1 X110.867 Y135.266 E5.21637
G1 X110.886 Y134.808 E5.22476
G1 X110.68 Y134.401 E5.2331
G1 X110.316 Y134.155 E5.24114
G1 X110.13 Y134.108 E5.24465
G1 X109.698 Y134.145 E5.25258
G1 X109.32 Y134.401 E5.26093
G1 X109.114 Y134.808 E5.26928
G1 X109.133 Y135.266 E5.27766
G0 F3600 X109.238 Y135.436
G0 X108.863 Y135.666
;;retract;;
G1 F6000 E-2.72234
G0 F3600 X109.992 Y135.006
G0 X109.991 Y155.003
G0 X108.738 Y155.387
;TYPE:WALL-INNER
G1 F6000 E5.27766
G1 F600 X109.087 Y155.953 E5.28983
G1 X109.668 Y156.277 E5.302
G1 X110.332 Y156.277 E5.31414
G1 X110.913 Y155.953 E5.32631
G1 X111.262 Y155.387 E5.33848
G1 X111.29 Y154.721 E5.35067
G1 X110.99 Y154.126 E5.36286
G1 X110.482 Y153.784 E5.37406
G1 X110.163 Y153.704 E5.38008
G1 X109.56 Y153.755 E5.39115
G1 X109.01 Y154.127 E5.40329
G1 X108.71 Y154.721 E5.41547
G1 X108.738 Y155.387 E5.42766
G0 F3600 X109.133 Y155.266
;TYPE:WALL-OUTER
G1 F600 X109.373 Y155.654 E5.43601
G1 X109.772 Y155.877 E5.44437
G1 X110.228 Y155.877 E5.45271
G1 X110.627 Y155.654 E5.46107
G1 X110.867 Y155.266 E5.46942
G1 X110.886 Y154.808 E5.4778
G1 X110.68 Y154.4 E5.48616
G1 X110.316 Y154.155 E5.49419
G1 X110.13 Y154.108 E5.4977
G1 X109.698 Y154.145 E5.50563
G1 X109.32 Y154.4 E5.51397
G1 X109.114 Y154.808 E5.52233
G1 X109.133 Y155.266 E5.53072
G0 F3600 X109.238 Y155.436
G0 X108.863 Y155.666
;;retract;;
G1 F6000 E-2.46928
G0 F3600 X109.992 Y155.006
G0 X109.991 Y161.003
G0 X108.738 Y161.387
;TYPE:WALL-INNER
G1 F6000 E5.53072
G1 F600 X109.087 Y161.953 E5.54288
G1 X109.198 Y162.015 E5.54521
G1 X109.668 Y162.277 E5.55171
G1 X110.332 Y162.277 E5.55535
G1 X110.799 Y162.017 E5.56181
G1 X110.913 Y161.953 E5.5642
G1 X111.262 Y161.387 E5.57637
G1 X111.29 Y160.721 E5.58856
G1 X110.99 Y160.126 E5.60075
G1 X110.482 Y159.784 E5.61195
G1 X110.163 Y159.704 E5.61797
G1 X109.56 Y159.755 E5.62904
G1 X109.01 Y160.127 E5.64118
G1 X108.71 Y160.721 E5.65336
G1 X108.738 Y161.387 E5.66555
G0 F3600 X109.133 Y161.266
;TYPE:WALL-OUTER
G1 F600 X109.373 Y161.654 E5.6739
G1 X109.772 Y161.877 E5.68226
G1 X110.228 Y161.877 E5.6906
G1 X110.627 Y161.654 E5.69896
G1 X110.867 Y161.266 E5.70731
G1 X110.886 Y160.808 E5.71569
G1 X110.68 Y160.4 E5.72405
G1 X110.316 Y160.155 E5.73208
G1 X110.13 Y160.108 E5.73559
G1 X109.698 Y160.145 E5.74352
G1 X109.32 Y160.4 E5.75186
G1 X109.114 Y160.808 E5.76022
G1 X109.133 Y161.266 E5.76861
G0 F3600 X109.238 Y161.436
G0 X108.863 Y161.666
;;retract;;
G1 F6000 E-2.23139
G0 F3600 X109.992 Y161.006
G0 X114.67 Y162.6
G0 X113.8 Y162.6
G1 F6000 E5.76861
G1 F1500 X113.8 Y162.8 E5.77227
G1 X113.6 Y162.8 E5.77464
G1 X106.2 Y162.792 E5.91001
G1 X106.2 Y101.496 E7.0313
G1 X106.208 Y57.2 E7.84161
G1 X113.8 Y57.2 E7.98049
G1 X113.8 Y162.6 E9.90858
G0 F3600 X113.8 Y162.8
;;retract;;
G1 F6000 E1.90858
G0 F3600 X113.8 Y163.67
G0 X106.839 Y163.663
G0 X106.84 Y162.151
;TYPE:SKIN
G1 F6000 E9.90858
G1 F600 X107.28 Y162.151 E9.91663
G1 X107.846 Y162.152 E9.92698
G1 X106.839 Y161.145 E9.95303
G1 X106.839 Y160.579 E9.96339
G1 X108.412 Y162.153 E10.00409
G1 X108.955 Y162.154 E10.01403
G1 X108.914 Y162.131 E10.01489
G1 X108.847 Y162.021 E10.01724
G1 X106.839 Y160.014 E10.06918
G1 X106.839 Y159.448 E10.07953
G1 X108.485 Y161.094 E10.12212
G1 X108.468 Y160.666 E10.12995
G1 X108.52 Y160.563 E10.13206
G1 X106.839 Y158.882 E10.17555
G1 X106.839 Y158.316 E10.1859
G1 X108.71 Y160.187 E10.23431
G1 X108.824 Y159.962 E10.23892
G1 X108.958 Y159.87 E10.24189
G1 X106.839 Y157.751 E10.29671
G1 X106.839 Y157.185 E10.30707
G1 X109.296 Y159.642 E10.37063
G1 X109.477 Y159.52 E10.37462
G1 X109.719 Y159.499 E10.37907
G1 X106.839 Y156.619 E10.45357
G1 X106.839 Y156.054 E10.46391
G1 X110.268 Y159.482 E10.55261
G0 F3600 X110.581 Y159.561
G1 F600 X111.176 Y159.96 E10.56571
G1 X111.531 Y160.667 E10.58018
G1 X111.528 Y160.743 E10.58157
G1 X111.506 Y161.286 E10.59152
G1 X112.377 Y162.157 E10.61405
G1 X111.811 Y162.157 E10.6244
G1 X111.351 Y161.697 E10.6363
G1 X111.135 Y162.047 E10.64383
G1 X111.244 Y162.156 E10.64665
G1 X111.039 Y162.156 E10.6504
G1 X111.085 Y162.131 E10.65135
G0 F3600 X111.528 Y160.743
G1 F600 X112.944 Y162.158 E10.68797
G1 X113.159 Y162.159 E10.69191
G1 X113.159 Y161.808 E10.69833
G1 F1500 X106.839 Y155.488 E10.86183
G1 F600 X106.839 Y154.922 E10.87218
G1 F1500 X113.159 Y161.242 E11.03568
G1 F600 X113.159 Y160.677 E11.04602
G1 F1500 X106.839 Y154.357 E11.20952
G1 F600 X106.839 Y153.791 E11.21987
G1 X108.499 Y155.451 E11.26282
G1 X108.476 Y154.862 E11.2736
G1 X106.839 Y153.225 E11.31595
G1 X106.839 Y152.66 E11.32628
G1 X108.595 Y154.415 E11.3717
G1 X108.785 Y154.04 E11.37939
G1 X106.839 Y152.094 E11.42973
G1 X106.839 Y151.528 E11.44009
G1 X109.091 Y153.78 E11.49835
G1 X109.429 Y153.552 E11.50581
G1 X106.839 Y150.963 E11.5728
G1 X106.839 Y150.397 E11.58315
G1 X109.924 Y153.482 E11.66296
G1 X110.182 Y153.461 E11.6677
G1 X110.564 Y153.556 E11.6749
G1 X106.839 Y149.831 E11.77126
G1 X106.839 Y149.265 E11.78162
G1 F1500 X113.159 Y155.586 E11.94513
G1 F600 X113.159 Y155.02 E11.95549
G1 F1500 X106.839 Y148.7 E12.11899
G1 F600 X106.839 Y148.134 E12.12934
G1 F1500 X113.159 Y154.454 E12.29284
G1 F600 X113.159 Y153.889 E12.30318
G1 F1500 X106.839 Y147.568 E12.46669
G1 F600 X106.839 Y147.003 E12.47702
G1 F1500 X113.159 Y153.323 E12.64052
G1 F600 X113.159 Y152.757 E12.65088
G1 F1500 X106.839 Y146.437 E12.81438
G1 F600 X106.839 Y145.871 E12.82473
G1 F1500 X113.159 Y152.192 E12.98825
G1 F600 X113.159 Y151.626 E12.9986
G1 F1500 X106.839 Y145.306 E13.1621
G1 F600 X106.839 Y144.74 E13.17245
G1 F1500 X113.159 Y151.06 E13.33595
G1 F600 X113.159 Y150.494 E13.34631
G1 F1500 X106.839 Y144.174 E13.50981
G1 F600 X106.839 Y143.609 E13.52014
G1 F1500 X113.159 Y149.929 E13.68365
G1 F600 X113.159 Y149.363 E13.694
G1 F1500 X106.839 Y143.043 E13.8575
G1 F600 X106.839 Y142.477 E13.86785
G1 F1500 X113.159 Y148.797 E14.03135
G1 F600 X113.159 Y148.232 E14.04169
G1 F1500 X106.839 Y141.912 E14.20519
G1 F600 X106.839 Y141.346 E14.21554
G1 F1500 X113.159 Y147.666 E14.37904
G1 F600 X113.159 Y147.1 E14.3894
G1 F1500 X106.839 Y140.78 E14.5529
G1 F600 X106.839 Y140.215 E14.56323
G1 F1500 X113.159 Y146.535 E14.72673
G1 F600 X113.159 Y145.969 E14.73709
G1 F1500 X106.839 Y139.649 E14.90059
G1 F600 X106.839 Y139.083 E14.91094
G1 F1500 X113.159 Y145.403 E15.07444
G1 F600 X113.159 Y144.838 E15.08478
G1 F1500 X106.839 Y138.517 E15.24829
G1 F600 X106.839 Y137.952 E15.25863
G1 F1500 X113.159 Y144.272 E15.42213
G1 F600 X113.159 Y143.706 E15.43248
G1 F1500 X106.839 Y137.386 E15.59598
G1 F600 X106.839 Y136.82 E15.60634
G1 F1500 X113.159 Y143.141 E15.76985
G1 F600 X113.159 Y142.575 E15.7802
G1 F1500 X106.839 Y136.255 E15.9437
G1 F600 X106.839 Y135.689 E15.95406
G1 F1500 X113.159 Y142.009 E16.11756
G1 F600 X113.159 Y141.443 E16.12791
G1 F1500 X106.839 Y135.123 E16.29141
G1 F600 X106.839 Y134.558 E16.30175
G1 F1500 X113.159 Y140.878 E16.46525
G1 F600 X113.159 Y140.312 E16.4756
G1 X109.058 Y136.211 E16.5817
G1 X109.606 Y136.516 E16.59317
G1 X109.928 Y136.516 E16.59906
G1 X113.159 Y139.746 E16.68263
G1 X113.159 Y139.181 E16.69297
G1 X110.459 Y136.48 E16.76283
G1 X110.822 Y136.277 E16.77044
G1 X113.159 Y138.615 E16.83091
G1 X113.159 Y138.049 E16.84127
G1 X111.144 Y136.034 E16.89339
G1 X111.36 Y135.684 E16.90092
G1 X113.159 Y137.484 E16.94747
G1 X113.159 Y136.918 E16.95783
G1 X111.507 Y135.265 E17.00058
G1 X111.529 Y134.722 E17.01052
G1 X111.531 Y134.665 E17.01156
G1 X111.176 Y133.963 E17.02595
G1 X110.581 Y133.561 E17.03909
G0 F3600 X110.296 Y133.489
G1 F600 X106.838 Y130.031 E17.12855
G1 X106.838 Y130.597 E17.1389
G1 X109.739 Y133.498 E17.21395
G1 X109.477 Y133.52 E17.21876
G1 X109.308 Y133.633 E17.22248
G1 X106.838 Y131.163 E17.28638
G1 X106.838 Y131.729 E17.29673
G1 X108.972 Y133.862 E17.35193
G1 X108.824 Y133.963 E17.3552
G1 X108.718 Y134.174 E17.35952
G1 X106.839 Y132.295 E17.40813
G1 X106.839 Y132.861 E17.41849
G1 X108.528 Y134.549 E17.46217
G1 X108.468 Y134.666 E17.46458
G1 X108.485 Y135.072 E17.47201
G1 X106.839 Y133.426 E17.51459
G1 X106.839 Y133.992 E17.52495
G1 X108.812 Y135.965 E17.57599
G1 X108.914 Y136.131 E17.57955
G0 F3600 X111.529 Y134.722
G1 F600 X113.159 Y136.352 E17.62172
G1 X113.159 Y135.787 E17.63206
G1 F1500 X106.838 Y129.466 E17.79558
G1 F600 X106.838 Y128.9 E17.80594
G1 F1500 X113.159 Y135.221 E17.96946
G1 F600 X113.159 Y134.655 E17.97982
G1 F1500 X106.838 Y128.334 E18.14334
G1 F600 X106.838 Y127.769 E18.15368
G1 F1500 X113.159 Y134.09 E18.3172
G1 F600 X113.159 Y133.524 E18.32756
G1 F1500 X106.838 Y127.203 E18.49108
G1 F600 X106.838 Y126.637 E18.50144
G1 F1500 X113.159 Y132.958 E18.66496
G1 F600 X113.159 Y132.393 E18.6753
G1 F1500 X106.838 Y126.072 E18.83883
G1 F600 X106.838 Y125.506 E18.84918
G1 F1500 X113.159 Y131.827 E19.01271
G1 F600 X113.159 Y131.261 E19.02306
G1 F1500 X106.838 Y124.94 E19.18659
G1 F600 X106.838 Y124.375 E19.19692
G1 F1500 X113.159 Y130.695 E19.36044
