;FLAVOR:Marlin
;TIME:2784
;Filament used:0.499653m
;Layer height: 0.1
;MINX:101.332
;MINY:92.348
;MINZ:0.1
;MAXX:117.17
;MAXY:127.658
;MAXZ:8.9
                              
;Creality Print GCode Generated by CXEngine:NO_MAGE_VERSION_GIT_HEAD_BRANCH
;CXEngine Release Time:2022-09-30 09:53:04
;Gcode Generated Time:2023-04-14 21:04:59
;----------Machine Config--------------
;Machine Name:Ender-3 V2
;Machine Height:250
;Machine Width:220
;Machine Depth:220
;Material name:PLA
;Number of Extruders:1
;ExtruderParams[0] Nozzle Diameter1000
;----------Profile Config---------------
;Engine Version:275f99b
;Engine Release Time:2022-09-30 09:42:18
;Layer Height:0.1
;Wall Thickness:0.8
;Top/Bottom Thickness:0.5
;Out Wall Line Width:0.4
;Inner Wall Line Width:0.4
;Inital Layer Height:100
;Wall Line Count:2
;Infill Line Distance:4
;Infill Pattern:grid
;Infill Sparse Density:20
;Infill Wipe Distance:0
;Print Temperature:200
;Bed Temperature:60
;Support Enable:true
;Support Density:0
;Support Angle:60
;Adhesion Type:none
;machine is belt:false
;machine belt offset:10
;machine belt offset Y:0
;Raft Base Line Spacing:1.6
;Wait Heatup Sync:true
;----------Shell Config----------------
;Outer Wall Wipe Distance:200
;Outer Inset First:false
;Infill Before Walls:false
;Infill Overlap:0.16
;Fill Gaps Between Walls:everywhere
;Minimum Infill Area:1
;Top Surface Skin Layer:0
;Top Layers:4
;Z Seam Alignment:sharpest_corner
;Seam Corner Preference:z_seam_corner_inner
;Z Seam X:110
;Z Seam Y:110
;Horizontal Expansion:0
;Top/Bottom Pattern:zigzag
;Ironing Pattern:zigzag
;Vase Model:false
;----------Support Config----------------
;Support Type:everywhere
;Support Pattern:zigzag
;Support Infill Layer Thickness:0.1
;Minimum Support Area:5
;Enable Support Roof:false
;Support Roof Thickness:0.8
;Support Roof Pattern:lines
;Connect Support Lines:0
;Connect Support ZigZags:1
;Minimum Support X/Y Distance:0.2
;Support Line Distance:0
; ---------PrintSpeed & Travel----------
;Enable Print Cool:true
;Avoid Printed Parts Traveling:true
;Enable Retraction:true
;Retraction Distance:8
;Retraction Speed:100
;Retraction Prime Speed:100
;Maximum Retraction Count:100
;Minimum Extrusion Distance Window:1
;Z Hop When Retracted:false
;Z Hop Height:0.2
;Retract Before Outer Wall:true
;Print Speed:50
;Infill Speed:50

;Prime Tower Speed:50
;Travel Speed:120
;Initial Layer Speed:25
;Skirt/Brim Speed:25
;Combing Mode:infill
; --------SpecialModel&Mesh Fixes--------
;Union Overlapping Volum:true
;Remove All Holes:false
;Maximum Travel Resolution:0.6
;Maximum Deviation:0.05
;Maximum Model Angle:0.872665
;IS Mold Print:false
;Make Overhang Printable:false
;Enable Coasting:false
;Coasting Volumes:0.06
;Coasting Speed:0.9
;Raft AirGap:0.25
;Layer0 ZOverLap:0.13
;---------------------End of Head--------------------------
M140 S60
M105
M104 S200
M105
M109 S200
M105
M190 S60
M82 ;absolute extrusion mode
M220 S100 ;Reset Feedrate
M221 S100 ;Reset Flowrate

G28 ;Home

G92 E0 ;Reset Extruder
G1 Z2.0 F3000 ;Move Z Axis up
G1 X10.1 Y20 Z0.28 F5000.0 ;Move to start position
G1 X10.1 Y145.0 Z0.28 F1500.0 E15 ;Draw the first line
G1 X10.4 Y145.0 Z0.28 F5000.0 ;Move to side a little
G1 X10.4 Y20 Z0.28 F1500.0 E30 ;Draw the second line
G92 E0  ;Reset Extruder
G1 E-1.0000 F1800 ;Retract a bit
G1 Z2.0 F3000 ;Move Z Axis up
G1 E0.0000 F1800 

G92 E0
G92 E0
G1 F6000 E-8

;LAYER_COUNT:89

;LAYER:0
M107
G0 F3600 X108.734 Y94.329 Z0.1
;TYPE:SUPPORT
G1 F6000 E0
G1 F1500 X109.439 Y94.795 E0.01237
G1 X109.631 Y95.242 E0.01949
G1 X109.363 Y95.21 E0.02344
G1 X109.087 Y94.968 E0.02881
G1 X108.355 Y95.499 E0.04204
G1 X108.915 Y94.84 E0.0547
G1 X108.734 Y94.329 E0.06263
G0 F3600 X110.423 Y94.389
G1 F1500 X111.157 Y94.875 E0.07552
G1 X111.615 Y94.749 E0.08247
G1 X111.394 Y95.314 E0.09135
G1 X110.841 Y95.47 E0.09975
G1 X110.94 Y95.247 E0.10332
G1 X110.423 Y94.389 E0.11798
;;retract;;
G1 F6000 E-7.88202
G0 F3600 X110.903 Y93.664
G0 X110.341 Y123.045
G0 X110.815 Y124.051
G1 F6000 E0.11798
G1 F1500 X111.402 Y124.317 E0.12742
G1 X111.42 Y124.808 E0.13461
G1 X111.147 Y124.728 E0.13877
G1 X110.438 Y125.239 E0.15156
G1 X111.062 Y124.42 E0.16663
G1 X110.815 Y124.051 E0.17313
G0 F3600 X109.493 Y124.477
G1 F1500 X109.337 Y125.01 E0.18125
G1 X108.645 Y125.313 E0.19231
G1 X108.615 Y125.218 E0.19377
G1 X108.914 Y124.462 E0.20566
G1 X108.888 Y124.425 E0.20633
G1 X109.161 Y124.562 E0.2108
G1 X109.493 Y124.477 E0.21581
;;retract;;
G1 F6000 E-7.78419
;MESH:
G0 F3600 X109.279 Y123.635
G0 X107.099 Y96.282
G0 X107.1 Y97.551
;TYPE:WALL-INNER
G1 F6000 E0.21581
G1 F1500 X108.4 Y97.551 E0.23959
G1 X108.4 Y122.487 E0.69575
G1 X107.299 Y122.488 E0.71589
G1 X107.1 Y122.488 E0.71953
G1 X107.1 Y122.289 E0.72188
G1 X107.1 Y97.551 E1.17442
G0 F3600 X106.7 Y97.939
;TYPE:WALL-OUTER
G1 F1500 X103.9 Y97.94 E1.22564
G1 X103.7 Y97.94 E1.2293
G1 X103.7 Y97.74 E1.23167
G1 X103.7 Y97.152 E1.24242
G1 X108.6 Y97.151 E1.33206
G1 X108.8 Y97.151 E1.33572
G1 X108.8 Y97.351 E1.33809
G1 X108.8 Y122.887 E1.80522
G1 X106.9 Y122.888 E1.83998
G1 X106.7 Y122.888 E1.84363
G1 X106.7 Y122.688 E1.846
G1 X106.7 Y97.939 E2.29874
G0 F3600 X106.5 Y97.939
;;retract;;
G1 F6000 E-5.70126
G0 F3600 X105.842 Y98.797
G0 X105.83 Y122.247
G0 X107.34 Y122.247
;TYPE:SKIN
G1 F6000 E2.29874
G1 F1500 X107.538 Y122.246 E2.30236
G1 X107.339 Y122.047 E2.30751
G1 X107.339 Y121.481 E2.31786
G1 X108.104 Y122.246 E2.33765
G1 X108.159 Y122.246 E2.33866
G1 X108.159 Y121.736 E2.34799
G1 X107.339 Y120.915 E2.36922
G1 X107.339 Y120.35 E2.37955
G1 X108.159 Y121.17 E2.40076
G1 X108.159 Y120.604 E2.41112
G1 X107.339 Y119.784 E2.43233
G1 X107.339 Y119.218 E2.44269
G1 X108.159 Y120.039 E2.46391
G1 X108.159 Y119.473 E2.47427
G1 X107.339 Y118.653 E2.49548
G1 X107.339 Y118.087 E2.50583
G1 X108.159 Y118.907 E2.52705
G1 X108.159 Y118.342 E2.53738
G1 X107.339 Y117.521 E2.55861
G1 X107.339 Y116.956 E2.56895
G1 X108.159 Y117.776 E2.59016
G1 X108.159 Y117.21 E2.60051
G1 X107.339 Y116.39 E2.62173
G1 X107.339 Y115.824 E2.63208
G1 X108.159 Y116.645 E2.65331
G1 X108.159 Y116.079 E2.66366
G1 X107.339 Y115.259 E2.68487
G1 X107.339 Y114.693 E2.69523
G1 X108.159 Y115.513 E2.71644
G1 X108.159 Y114.947 E2.7268
G1 X107.339 Y114.127 E2.74801
G1 X107.339 Y113.562 E2.75835
G1 X108.159 Y114.382 E2.77956
G1 X108.159 Y113.816 E2.78991
G1 X107.339 Y112.996 E2.81113
G1 X107.339 Y112.43 E2.82148
G1 X108.159 Y113.25 E2.84269
G1 X108.159 Y112.685 E2.85303
G1 X107.339 Y111.864 E2.87426
G1 X107.339 Y111.299 E2.88459
G1 X108.159 Y112.119 E2.90581
G1 X108.159 Y111.553 E2.91616
G1 X107.339 Y110.733 E2.93737
G1 X107.339 Y110.167 E2.94773
G1 X108.159 Y110.988 E2.96895
G1 X108.159 Y110.422 E2.97931
G1 X107.339 Y109.602 E3.00052
G1 X107.339 Y109.036 E3.01087
G1 X108.159 Y109.856 E3.03209
G1 X108.159 Y109.291 E3.04242
G1 X107.339 Y108.47 E3.06365
G1 X107.339 Y107.905 E3.07399
G1 X108.159 Y108.725 E3.0952
G1 X108.159 Y108.159 E3.10555
G1 X107.339 Y107.339 E3.12677
G1 X107.339 Y106.773 E3.13712
G1 X108.159 Y107.594 E3.15835
G1 X108.159 Y107.028 E3.1687
G1 X107.339 Y106.208 E3.18992
G1 X107.339 Y105.642 E3.20027
G1 X108.159 Y106.462 E3.22148
G1 X108.159 Y105.897 E3.23182
G1 X107.339 Y105.076 E3.25305
G1 X107.339 Y104.511 E3.26338
G1 X108.159 Y105.331 E3.28459
G1 X108.159 Y104.765 E3.29495
G1 X107.339 Y103.945 E3.31616
G1 X107.339 Y103.379 E3.32652
G1 X108.159 Y104.199 E3.34773
G1 X108.159 Y103.634 E3.35807
G1 X107.339 Y102.814 E3.37928
G1 X107.339 Y102.248 E3.38963
G1 X108.159 Y103.068 E3.41085
G1 X108.159 Y102.502 E3.4212
G1 X107.339 Y101.682 E3.44241
G1 X107.339 Y101.116 E3.45277
G1 X108.159 Y101.937 E3.47399
G1 X108.159 Y101.371 E3.48435
G1 X107.339 Y100.551 E3.50556
G1 X107.339 Y99.985 E3.51592
G1 X108.159 Y100.805 E3.53713
G1 X108.159 Y100.24 E3.54747
G1 X107.339 Y99.419 E3.56869
G1 X107.339 Y98.854 E3.57903
G1 X108.159 Y99.674 E3.60024
G1 X108.159 Y99.108 E3.61059
G1 X107.339 Y98.288 E3.63181
G1 X107.339 Y97.79 E3.64092
G1 X107.408 Y97.791 E3.64218
G1 X108.159 Y98.543 E3.66162
G1 X108.159 Y97.977 E3.67198
G1 X107.973 Y97.791 E3.67679
G1 X108.159 Y97.791 E3.68019
G0 F3600 X107.059 Y97.725
;TYPE:SKIN
G1 F1500 X106.54 Y97.206 E3.6869
G0 F3600 X106.257 Y97.206
G1 F1500 X106.935 Y97.884 E3.69567
G0 F3600 X106.652 Y97.884
G1 F1500 X105.974 Y97.206 E3.70444
G0 F3600 X105.691 Y97.206
G1 F1500 X106.369 Y97.884 E3.71321
G0 F3600 X106.086 Y97.884
G1 F1500 X105.409 Y97.206 E3.72198
G0 F3600 X105.126 Y97.206
G1 F1500 X105.803 Y97.884 E3.73074
G0 F3600 X105.52 Y97.884
G1 F1500 X104.843 Y97.206 E3.7395
G0 F3600 X104.56 Y97.206
G1 F1500 X105.238 Y97.884 E3.74827
G0 F3600 X104.955 Y97.884
G1 F1500 X104.277 Y97.206 E3.75704
G0 F3600 X103.994 Y97.206
G1 F1500 X104.673 Y97.884 E3.76582
G0 F3600 X104.39 Y97.884
G1 F1500 X103.754 Y97.249 E3.77404
G0 F3600 X103.93 Y97.707
G1 F1500 X103.789 Y97.849 E3.77951
;;retract;;
G1 F6000 E-4.22049
G0 F3600 X103.755 Y98.809
G0 X102.834 Y98.299
G0 X102.834 Y96.793
G0 X103.341 Y96.286
G0 X106.822 Y96.282
G0 X106.823 Y97.206
G1 F6000 E3.77951
G1 F1500 X107.059 Y97.442 E3.78256
;;retract;;
G1 F6000 E-4.21744
G0 F3600 X107.058 Y96.282
G0 X107.642 Y93.819
G0 X108.774 Y93.319
G0 X110.366 Y93.315
G0 X112.164 Y93.701
G0 X112.713 Y94.31
G0 X112.899 Y96.282
G0 X112.9 Y97.56
;TYPE:WALL-INNER
G1 F6000 E3.78256
G1 F1500 X112.9 Y122.487 E4.23855
G1 X111.799 Y122.488 E4.25869
G1 X111.6 Y122.488 E4.26233
G1 X111.6 Y122.289 E4.26469
G1 X111.6 Y97.752 E4.71354
G1 X111.6 Y97.552 E4.7172
G1 X111.8 Y97.553 E4.71957
G1 X112.9 Y97.56 E4.73969
G0 F3600 X113.3 Y97.958
;TYPE:WALL-OUTER
G1 F1500 X113.3 Y122.887 E5.19572
G1 X111.4 Y122.888 E5.23047
G1 X111.2 Y122.888 E5.23413
G1 X111.2 Y122.688 E5.2365
G1 X111.2 Y97.152 E5.70363
G1 X116.1 Y97.151 E5.79327
G1 X116.3 Y97.151 E5.79693
G1 X116.3 Y97.351 E5.7993
G1 X116.3 Y97.94 E5.81007
G1 X113.3 Y97.958 E5.86495
G0 F3600 X113.3 Y98.158
G0 X112.86 Y98.158
G0 X112.659 Y97.798
;TYPE:SKIN
G1 F1500 X112.505 Y97.797 E5.86777
G1 X112.659 Y97.951 E5.87175
G1 X112.659 Y98.517 E5.88211
G1 X111.935 Y97.793 E5.90084
G1 X111.838 Y97.792 E5.90261
G1 X111.838 Y98.262 E5.91121
G1 X112.659 Y99.083 E5.93245
G1 X112.659 Y99.649 E5.9428
G1 X111.838 Y98.828 E5.96404
G1 X111.838 Y99.393 E5.97438
G1 X112.659 Y100.214 E5.99562
G1 X112.659 Y100.78 E6.00597
G1 X111.838 Y99.959 E6.02721
G1 X111.838 Y100.525 E6.03756
G1 X112.659 Y101.346 E6.0588
G1 X112.659 Y101.911 E6.06914
G1 X111.838 Y101.09 E6.09038
G1 X111.838 Y101.656 E6.10073
G1 X112.659 Y102.477 E6.12197
G1 X112.659 Y103.043 E6.13233
G1 X111.838 Y102.222 E6.15357
G1 X111.838 Y102.787 E6.1639
G1 X112.659 Y103.608 E6.18514
G1 X112.659 Y104.174 E6.19549
G1 X111.838 Y103.353 E6.21673
G1 X111.838 Y103.919 E6.22709
G1 X112.659 Y104.74 E6.24833
G1 X112.659 Y105.305 E6.25866
G1 X111.838 Y104.484 E6.2799
G1 X111.838 Y105.05 E6.29026
G1 X112.659 Y105.871 E6.3115
G1 X112.659 Y106.437 E6.32185
G1 X111.838 Y105.616 E6.34309
G1 X111.838 Y106.181 E6.35343
G1 X112.659 Y107.002 E6.37466
G1 X112.659 Y107.568 E6.38502
G1 X111.838 Y106.747 E6.40626
G1 X111.838 Y107.313 E6.41661
G1 X112.659 Y108.134 E6.43785
G1 X112.659 Y108.699 E6.44819
G1 X111.838 Y107.879 E6.46941
G1 X111.838 Y108.444 E6.47975
G1 X112.659 Y109.265 E6.50099
G1 X112.659 Y109.831 E6.51134
G1 X111.838 Y109.01 E6.53258
G1 X111.838 Y109.576 E6.54294
G1 X112.659 Y110.397 E6.56418
G1 X112.659 Y110.962 E6.57451
G1 X111.839 Y110.142 E6.59573
G1 X111.839 Y110.708 E6.60608
G1 X112.659 Y111.528 E6.62729
G1 X112.659 Y112.094 E6.63765
G1 X111.839 Y111.273 E6.65887
G1 X111.839 Y111.839 E6.66923
G1 X112.659 Y112.659 E6.69044
G1 X112.659 Y113.225 E6.70079
G1 X111.839 Y112.405 E6.72201
G1 X111.839 Y112.97 E6.73234
G1 X112.659 Y113.791 E6.75357
G1 X112.659 Y114.356 E6.76391
G1 X111.839 Y113.536 E6.78512
G1 X111.839 Y114.102 E6.79547
G1 X112.659 Y114.922 E6.81669
G1 X112.659 Y115.488 E6.82704
G1 X111.839 Y114.667 E6.84827
G1 X111.839 Y115.233 E6.85862
G1 X112.659 Y116.053 E6.87984
G1 X112.659 Y116.619 E6.89019
G1 X111.839 Y115.799 E6.9114
G1 X111.839 Y116.365 E6.92176
G1 X112.659 Y117.185 E6.94297
G1 X112.659 Y117.75 E6.95331
G1 X111.839 Y116.93 E6.97452
G1 X111.839 Y117.496 E6.98487
G1 X112.659 Y118.316 E7.00609
G1 X112.659 Y118.882 E7.01644
G1 X111.839 Y118.062 E7.03765
G1 X111.839 Y118.627 E7.04799
G1 X112.659 Y119.448 E7.06922
G1 X112.659 Y120.013 E7.07955
G1 X111.839 Y119.193 E7.10077
G1 X111.839 Y119.759 E7.11112
G1 X112.659 Y120.579 E7.13233
G1 X112.659 Y121.145 E7.14269
G1 X111.839 Y120.324 E7.16391
G1 X111.839 Y120.89 E7.17427
G1 X112.659 Y121.71 E7.19548
G1 X112.659 Y122.246 E7.20529
G1 X112.63 Y122.246 E7.20582
G1 X111.839 Y121.456 E7.22627
G1 X111.839 Y122.021 E7.2366
G1 X112.064 Y122.246 E7.24242
G1 X111.84 Y122.247 E7.24652
;;retract;;
G1 F6000 E-0.75348
G0 F3600 X110.33 Y122.247
G0 X114.158 Y98.811
G0 X113.175 Y97.902
;TYPE:SKIN
G1 F6000 E7.24652
G1 F1500 X112.939 Y97.665 E7.24958
G0 F3600 X112.939 Y97.382
G1 F1500 X113.457 Y97.901 E7.25629
G0 F3600 X113.738 Y97.899
G1 F1500 X113.046 Y97.207 E7.26524
G0 F3600 X113.329 Y97.207
G1 F1500 X114.019 Y97.897 E7.27416
G0 F3600 X114.3 Y97.896
G1 F1500 X113.612 Y97.207 E7.28307
G0 F3600 X113.895 Y97.207
G1 F1500 X114.582 Y97.894 E7.29196
G0 F3600 X114.863 Y97.892
G1 F1500 X114.177 Y97.207 E7.30082
G0 F3600 X114.46 Y97.207
G1 F1500 X115.144 Y97.891 E7.30967
G0 F3600 X115.425 Y97.889
G1 F1500 X114.742 Y97.206 E7.31851
G0 F3600 X115.025 Y97.206
G1 F1500 X115.706 Y97.887 E7.32731
G0 F3600 X115.988 Y97.886
G1 F1500 X115.308 Y97.206 E7.33611
G0 F3600 X115.591 Y97.206
G1 F1500 X116.244 Y97.859 E7.34456
G0 F3600 X116.244 Y97.576
G1 F1500 X115.874 Y97.206 E7.34934
G0 F3600 X116.157 Y97.206
G1 F1500 X116.244 Y97.293 E7.35047
;;retract;;
G1 F6000 E-0.64953
;MESH:NONMESH
G0 F600 X116.244 Y97.293 Z0.2
G0 F3600 X116.243 Y96.282
G0 X109.078 Y96.049
G0 X108.98 Y94.981
;TIME_ELAPSED:34.971174

;LAYER:1
M140 S60
M106 S127.5
;TYPE:SUPPORT
G1 F6000 E7.35047
G1 F2250 X109.031 Y94.912 E7.35161
G1 X108.727 Y94.344 E7.36018
G1 X109.31 Y94.539 E7.36836
G1 X109.226 Y94.725 E7.37107
G1 X109.418 Y95.082 E7.37647
G1 X109.054 Y94.932 E7.38171
G1 X108.98 Y94.981 E7.38289
G0 F5400 X110.681 Y94.577
G1 F2250 X111.179 Y94.943 E7.39111
G1 X111.466 Y94.814 E7.39529
G1 X111.268 Y95.338 E7.40275
G1 X110.932 Y95.341 E7.40722
G1 X111.061 Y95.143 E7.41036
G1 X110.681 Y94.577 E7.41943
;;retract;;
G1 F6000 E-0.58057
G0 F5400 X111.284 Y93.948
G0 X110.345 Y123.021
G0 X110.474 Y123.719
;TYPE:SUPPORT-INTERFACE
G1 F6000 E7.41943
G1 F1749.9 X110.416 Y123.777 E7.42052
G0 F5400 X111.224 Y124.666
G1 F1749.9 X111.353 Y124.537 E7.42295
;;retract;;
G1 F6000 E-0.57705
G0 F5400 X109.426 Y124.766
G1 F6000 E7.42295
G1 F1749.9 X109.322 Y124.871 E7.42492
G0 F5400 X108.47 Y124.025
G1 F1749.9 X108.579 Y123.916 E7.42697
;;retract;;
G1 F6000 E-0.57303
;MESH:
G0 F5400 X109.51 Y123.893
G0 X110.01 Y124.416
G0 X110.441 Y125.066
G0 X109.939 Y125.807
G0 X109.231 Y125.661
G0 X106.341 Y124.257
G0 X105.834 Y123.75
G0 X105.842 Y99.26
G0 X107.1 Y98.201
;TYPE:WALL-INNER
G1 F6000 E7.42697
G1 F1500 X107.1 Y98.002 E7.43028
G1 X106.901 Y98.002 E7.43242
G1 X104.299 Y98.003 E7.47569
G1 X104.1 Y98.003 E7.479
G1 X104.1 Y97.804 E7.48114
G1 X104.1 Y96.994 E7.49461
G1 X108.201 Y96.993 E7.56281
G1 X108.4 Y96.993 E7.56612
G1 X108.4 Y97.192 E7.56826
G1 X108.4 Y122.99 E7.99728
G1 X107.299 Y122.991 E8.01559
G1 X107.1 Y122.991 E8.0189
G1 X107.1 Y122.792 E8.02104
G1 X107.1 Y98.201 E8.42999
G0 F5400 X106.7 Y98.402
;TYPE:WALL-OUTER
G1 F1500 X106.5 Y98.402 E8.43332
G1 X103.9 Y98.403 E8.47656
G1 X103.7 Y98.403 E8.47988
G1 X103.7 Y98.203 E8.48204
G1 X103.7 Y96.594 E8.50879
G1 X108.6 Y96.593 E8.59028
G1 X108.8 Y96.593 E8.59361
G1 X108.8 Y96.793 E8.59576
G1 X108.8 Y123.39 E9.03807
G1 X106.9 Y123.391 E9.06967
G1 X106.7 Y123.391 E9.07299
G1 X106.7 Y123.191 E9.07515
G1 X106.7 Y98.602 E9.48406
G1 X106.7 Y98.402 E9.48622
G0 F5400 X106.5 Y98.402
G0 X106.5 Y97.962
G0 X104.339 Y97.234
;TYPE:SKIN
G1 F1500 X104.339 Y97.61 E9.49247
G1 X104.339 Y97.763 E9.49502
G1 X104.752 Y97.763 E9.50188
G1 X105.281 Y97.233 E9.51434
G1 X105.847 Y97.233 E9.52375
G1 X105.317 Y97.763 E9.53621
G1 X105.883 Y97.763 E9.54563
G1 X106.413 Y97.232 E9.5581
G1 X106.979 Y97.232 E9.56752
