;FLAVOR:Marlin
;TIME:420
;Filament used:0.0559578m
;Layer height: 0.1
;MINX:104.33
;MINY:103.33
;MINZ:0.1
;MAXX:115.67
;MAXY:116.67
;MAXZ:1.7
                                
;Creality Print GCode Generated by CXEngine:NO_MAGE_VERSION_GIT_HEAD_BRANCH
;CXEngine Release Time:2022-09-30 09:53:04
;Gcode Generated Time:2023-04-15 18:39:16
;----------Machine Config--------------
;Machine Name:Ender-3 V2
;Machine Height:250
;Machine Width:220
;Machine Depth:220
;Material name:PLA
;Number of Extruders:1
;ExtruderParams[0] Nozzle Diameter1000
;----------Profile Config---------------
;Engine Version:275f99b
;Engine Release Time:2022-09-30 09:42:18
;Layer Height:0.1
;Wall Thickness:0.8
;Top/Bottom Thickness:0.5
;Out Wall Line Width:0.4
;Inner Wall Line Width:0.4
;Inital Layer Height:100
;Wall Line Count:2
;Infill Line Distance:4
;Infill Pattern:grid
;Infill Sparse Density:20
;Infill Wipe Distance:0
;Print Temperature:200
;Bed Temperature:60
;Support Enable:true
;Support Density:0
;Support Angle:60
;Adhesion Type:none
;machine is belt:false
;machine belt offset:10
;machine belt offset Y:0
;Raft Base Line Spacing:1.6
;Wait Heatup Sync:true
;----------Shell Config----------------
;Outer Wall Wipe Distance:200
;Outer Inset First:false
;Infill Before Walls:false
;Infill Overlap:0.16
;Fill Gaps Between Walls:everywhere
;Minimum Infill Area:1
;Top Surface Skin Layer:0
;Top Layers:4
;Z Seam Alignment:sharpest_corner
;Seam Corner Preference:z_seam_corner_inner
;Z Seam X:110
;Z Seam Y:110
;Horizontal Expansion:0
;Top/Bottom Pattern:zigzag
;Ironing Pattern:zigzag
;Vase Model:false
;----------Support Config----------------
;Support Type:everywhere
;Support Pattern:zigzag
;Support Infill Layer Thickness:0.1
;Minimum Support Area:5
;Enable Support Roof:false
;Support Roof Thickness:0.8
;Support Roof Pattern:lines
;Connect Support Lines:0
;Connect Support ZigZags:1
;Minimum Support X/Y Distance:0.2
;Support Line Distance:0
; ---------PrintSpeed & Travel----------
;Enable Print Cool:true
;Avoid Printed Parts Traveling:true
;Enable Retraction:true
;Retraction Distance:8
;Retraction Speed:100
;Retraction Prime Speed:100
;Maximum Retraction Count:100
;Minimum Extrusion Distance Window:1
;Z Hop When Retracted:false
;Z Hop Height:0.2
;Retract Before Outer Wall:true
;Print Speed:50
;Infill Speed:50

;Prime Tower Speed:50
;Travel Speed:120
;Initial Layer Speed:25
;Skirt/Brim Speed:25
;Combing Mode:infill
; --------SpecialModel&Mesh Fixes--------
;Union Overlapping Volum:true
;Remove All Holes:false
;Maximum Travel Resolution:0.6
;Maximum Deviation:0.05
;Maximum Model Angle:0.872665
;IS Mold Print:false
;Make Overhang Printable:false
;Enable Coasting:false
;Coasting Volumes:0.06
;Coasting Speed:0.9
;Raft AirGap:0.25
;Layer0 ZOverLap:0.13
;---------------------End of Head--------------------------
M140 S60
M105
M104 S200
M105
M109 S200
M105
M190 S60
M82 ;absolute extrusion mode
M220 S100 ;Reset Feedrate
M221 S100 ;Reset Flowrate

G28 ;Home

G92 E0 ;Reset Extruder
G1 Z2.0 F3000 ;Move Z Axis up
G1 X10.1 Y20 Z0.28 F5000.0 ;Move to start position
G1 X10.1 Y145.0 Z0.28 F1500.0 E15 ;Draw the first line
G1 X10.4 Y145.0 Z0.28 F5000.0 ;Move to side a little
G1 X10.4 Y20 Z0.28 F1500.0 E30 ;Draw the second line
G92 E0  ;Reset Extruder
G1 E-1.0000 F1800 ;Retract a bit
G1 Z2.0 F3000 ;Move Z Axis up
G1 E0.0000 F1800 

G92 E0
G92 E0
G1 F6000 E-8

;LAYER_COUNT:17

;LAYER:0
M107
;MESH:
G0 F3600 X112.576 Y115.4 Z0.1
;TYPE:WALL-INNER
G1 F6000 E0
G1 F1500 X112.182 Y115.4 E0.00721
G1 X112.181 Y115.4 E0.00723
G1 X107.753 Y115.4 E0.08823
G1 X107.624 Y115.4 E0.09059
G1 X107.407 Y115.4 E0.09456
G1 X107.624 Y115.192 E0.0968
G1 X107.661 Y115.069 E0.09869
G1 X107.818 Y114.557 E0.10849
G1 X107.679 Y113.906 E0.12067
G1 X107.528 Y113.735 E0.12484
G1 X107.289 Y113.463 E0.13146
G1 X107.239 Y113.406 E0.13285
G1 X106.968 Y113.311 E0.1381
G1 X106.611 Y113.185 E0.14503
G1 X105.98 Y113.293 E0.15674
G1 X105.957 Y113.297 E0.15717
G1 X105.6 Y113.585 E0.16556
G1 X105.6 Y113.297 E0.1674
G1 X105.6 Y113.273 E0.16783
G1 X105.6 Y110.861 E0.21195
G1 X105.6 Y110.551 E0.21762
G1 X105.6 Y110.016 E0.22741
G1 X105.6 Y109.481 E0.23719
G1 X105.6 Y109.131 E0.2436
G1 X105.6 Y104.6 E0.32648
G1 X108.691 Y104.6 E0.38303
G1 X108.764 Y104.6 E0.38436
G1 X108.691 Y104.782 E0.3863
G1 X108.774 Y105.442 E0.39847
G1 X109.056 Y105.809 E0.40694
G1 X109.12 Y105.892 E0.40886
G1 X109.194 Y105.988 E0.41107
G1 X108.924 Y106.043 E0.41392
G1 X108.825 Y106.077 E0.41554
G1 X108.417 Y106.217 E0.42343
G1 X107.937 Y106.456 E0.43324
G1 X107.491 Y106.756 E0.44307
G1 X107.089 Y107.112 E0.4529
G1 X106.737 Y107.516 E0.4627
G1 X106.441 Y107.964 E0.47252
G1 X106.206 Y108.446 E0.48233
G1 X106.034 Y108.953 E0.49212
G1 X105.998 Y109.137 E0.49555
G1 X105.932 Y109.481 E0.50143
G1 X105.9 Y110.016 E0.50919
G1 X105.937 Y110.551 E0.51702
G1 X105.998 Y110.855 E0.52226
G1 X106.043 Y111.076 E0.52638
G1 X106.217 Y111.583 E0.53619
G1 X106.456 Y112.063 E0.546
G1 X106.756 Y112.509 E0.55583
G1 X107.112 Y112.911 E0.56565
G1 X107.213 Y112.999 E0.5681
G1 X107.429 Y113.187 E0.57263
G1 X107.516 Y113.263 E0.57429
G1 X107.819 Y113.463 E0.58014
G1 X107.964 Y113.559 E0.58332
G1 X108.446 Y113.794 E0.59313
G1 X108.953 Y113.966 E0.60292
G1 X109.479 Y114.068 E0.61272
G1 X110.001 Y114.101 E0.62229
G1 X110.551 Y114.063 E0.63237
G1 X111.076 Y113.957 E0.64217
G1 X111.583 Y113.783 E0.65198
G1 X112.063 Y113.544 E0.66179
G1 X112.178 Y113.466 E0.66433
G1 X112.242 Y113.424 E0.66573
G1 X112.509 Y113.244 E0.67162
G1 X112.733 Y113.045 E0.6771
G1 X112.814 Y112.973 E0.67908
G1 X112.911 Y112.888 E0.68144
G1 X113.263 Y112.484 E0.69124
G1 X113.559 Y112.036 E0.70107
G1 X113.794 Y111.554 E0.71088
G1 X113.966 Y111.047 E0.72067
G1 X114.002 Y110.863 E0.7241
G1 X114.068 Y110.519 E0.73051
G1 X114.1 Y109.984 E0.74031
G1 X114.063 Y109.449 E0.75012
G1 X114.002 Y109.145 E0.75579
G1 X113.957 Y108.924 E0.75992
G1 X113.783 Y108.417 E0.76973
G1 X113.544 Y107.937 E0.77953
G1 X113.244 Y107.491 E0.78937
G1 X112.888 Y107.089 E0.79919
G1 X112.484 Y106.737 E0.80899
G1 X112.036 Y106.441 E0.81881
G1 X111.554 Y106.206 E0.82862
G1 X111.178 Y106.078 E0.83589
G1 X111.047 Y106.034 E0.83842
G1 X110.771 Y105.981 E0.84356
G1 X110.888 Y105.869 E0.84392
G1 X110.988 Y105.773 E0.84599
G1 X111.124 Y105.642 E0.84945
G1 X111.318 Y105.007 E0.86159
G1 X111.282 Y104.84 E0.86472
G1 X111.231 Y104.6 E0.8692
G1 X111.476 Y104.6 E0.87194
G1 X111.477 Y104.6 E0.87196
G1 X114.4 Y104.6 E0.92543
G1 X114.4 Y109.139 E1.00847
G1 X114.4 Y109.449 E1.0137
G1 X114.4 Y109.984 E1.02151
G1 X114.4 Y110.519 E1.02926
G1 X114.4 Y110.869 E1.03513
G1 X114.4 Y113.238 E1.07846
G1 X114.4 Y113.406 E1.08154
G1 X114.4 Y113.589 E1.08489
G1 X114.239 Y113.406 E1.08642
G1 X114.081 Y113.351 E1.08874
G1 X113.611 Y113.185 E1.09785
G1 X113.064 Y113.279 E1.10801
G1 X112.957 Y113.297 E1.10984
G1 X112.712 Y113.495 E1.11463
G1 X112.439 Y113.715 E1.12008
G1 X112.411 Y113.786 E1.12139
G1 X112.191 Y114.332 E1.13216
G1 X112.274 Y114.992 E1.14433
G1 X112.341 Y115.083 E1.1464
G1 X112.576 Y115.4 E1.15039
G0 F3600 X112.93 Y115.206
;TYPE:WALL-OUTER
G1 F600 X113.331 Y115.386 E1.15843
G1 X113.494 Y115.401 E1.16143
G1 X113.517 Y115.402 E1.16185
G1 X113.523 Y115.401 E1.16196
G1 X113.942 Y115.291 E1.16988
G1 X114.272 Y114.975 E1.17824
G1 X114.401 Y114.554 E1.1863
G1 X114.405 Y114.539 E1.18658
G1 X114.401 Y114.517 E1.18699
G1 X114.31 Y114.092 E1.19494
G1 X114.008 Y113.749 E1.2033
G1 X113.576 Y113.597 E1.21168
G1 X113.127 Y113.674 E1.22001
G1 X112.771 Y113.961 E1.22838
G1 X112.601 Y114.385 E1.23673
G1 X112.658 Y114.838 E1.24509
G1 X112.93 Y115.206 E1.25346
G0 F3600 X113.112 Y115.288
;;retract;;
G1 F6000 E-6.74654
G0 F3600 X113.493 Y114.508
G0 X106.508 Y114.494
G0 X107.31 Y114.092
G1 F6000 E1.25346
G1 F600 X107.008 Y113.749 E1.26182
G1 X106.576 Y113.597 E1.27019
G1 X106.127 Y113.674 E1.27853
G1 X105.771 Y113.961 E1.28689
G1 X105.601 Y114.385 E1.29525
G1 X105.658 Y114.838 E1.3036
G1 X105.93 Y115.206 E1.31197
G1 X106.331 Y115.386 E1.32001
G1 X106.494 Y115.401 E1.32301
G1 X106.517 Y115.402 E1.32343
G1 X106.523 Y115.401 E1.32354
G1 X106.942 Y115.291 E1.33146
G1 X107.272 Y114.975 E1.33982
G1 X107.405 Y114.539 E1.34816
G1 X107.31 Y114.092 E1.35652
G0 F3600 X107.178 Y113.942
G0 X107.509 Y113.653
;;retract;;
G1 F6000 E-6.64348
G0 F3600 X108.286 Y112.25
G0 X107.265 Y109.275
G0 X106.422 Y109.056
G1 F6000 E1.35652
G1 F1500 X106.33 Y109.531 E1.36537
G1 X106.301 Y110.014 E1.37422
G1 X106.334 Y110.497 E1.38308
G1 X106.43 Y110.971 E1.39193
G1 X106.587 Y111.428 E1.40077
G1 X106.803 Y111.862 E1.40963
G1 X107.073 Y112.264 E1.41849
G1 X107.394 Y112.626 E1.42734
G1 X107.759 Y112.944 E1.4362
G1 X108.163 Y113.211 E1.44506
G1 X108.598 Y113.423 E1.45391
G1 X109.056 Y113.578 E1.46275
G1 X109.53 Y113.67 E1.47159
G1 X110 Y113.7 E1.4802
G1 X110.497 Y113.666 E1.48931
G1 X110.971 Y113.57 E1.49816
G1 X111.428 Y113.413 E1.507
G1 X111.862 Y113.197 E1.51587
G1 X112.264 Y112.927 E1.52473
G1 X112.626 Y112.606 E1.53358
G1 X112.944 Y112.241 E1.54243
G1 X113.211 Y111.837 E1.55129
G1 X113.423 Y111.402 E1.56014
G1 X113.578 Y110.944 E1.56899
G1 X113.67 Y110.469 E1.57784
G1 X113.699 Y109.986 E1.58669
G1 X113.666 Y109.503 E1.59555
G1 X113.57 Y109.029 E1.6044
G1 X113.413 Y108.572 E1.61323
G1 X113.197 Y108.138 E1.6221
G1 X112.927 Y107.736 E1.63096
G1 X112.606 Y107.374 E1.63981
G1 X112.241 Y107.056 E1.64867
G1 X111.837 Y106.789 E1.65753
G1 X111.402 Y106.577 E1.66638
G1 X110.944 Y106.422 E1.67522
G1 X110.469 Y106.33 E1.68407
G1 X109.986 Y106.301 E1.69293
G1 X109.503 Y106.334 E1.70178
G1 X109.029 Y106.43 E1.71063
G1 X108.572 Y106.587 E1.71947
G1 X108.138 Y106.803 E1.72834
G1 X107.736 Y107.073 E1.73719
G1 X107.374 Y107.394 E1.74605
G1 X107.056 Y107.759 E1.7549
G1 X106.789 Y108.163 E1.76376
G1 X106.577 Y108.598 E1.77261
G1 X106.422 Y109.056 E1.78146
G0 F3600 X106.384 Y109.252
G0 X105.953 Y109.168
;;retract;;
G1 F6000 E-6.21854
G0 F3600 X107.265 Y109.275
G0 X109.993 Y104.958
G0 X109.43 Y105.656
G1 F6000 E1.78146
G1 F1500 X109.831 Y105.836 E1.7895
G1 X110.017 Y105.852 E1.79291
G1 X110.442 Y105.741 E1.80095
G1 X110.772 Y105.425 E1.80931
G1 X110.905 Y104.989 E1.81764
G1 X110.817 Y104.576 E1.82537
G1 X110.81 Y104.542 E1.826
G1 X110.509 Y104.2 E1.83434
G1 X110.81 Y104.2 E1.83622
G1 X110.845 Y104.2 E1.83683
G1 X114.8 Y104.2 E1.90917
G1 X114.8 Y114.516 E2.09789
G1 X114.8 Y114.539 E2.0983
G1 X114.8 Y114.555 E2.0986
G1 X114.8 Y115.8 E2.12137
G1 X113.524 Y115.8 E2.14471
G1 X113.517 Y115.8 E2.14484
G1 X113.494 Y115.8 E2.14526
G1 X106.524 Y115.8 E2.27276
G1 X106.517 Y115.8 E2.27289
G1 X106.494 Y115.8 E2.27331
G1 X105.2 Y115.8 E2.29698
G1 X105.2 Y104.2 E2.50918
G1 X109.132 Y104.2 E2.58111
G1 X109.271 Y104.2 E2.58365
G1 X109.533 Y104.2 E2.58844
G1 X109.271 Y104.411 E2.5908
G1 X109.22 Y104.54 E2.59284
G1 X109.101 Y104.835 E2.59865
G1 X109.158 Y105.288 E2.60701
G1 X109.43 Y105.656 E2.61538
G0 F3600 X109.612 Y105.738
;;retract;;
G1 F6000 E-5.38462
G0 F3600 X109.993 Y104.958
G0 X107.381 Y108.931
G0 X105.839 Y108.777
;TYPE:SKIN
G1 F6000 E2.61538
G1 F600 X105.868 Y108.696 E2.61695
G1 X105.983 Y108.354 E2.62355
G1 X106.019 Y108.282 E2.62502
G1 X105.839 Y108.102 E2.62968
G1 X105.839 Y107.536 E2.64004
G1 X106.204 Y107.901 E2.64948
G1 X106.232 Y107.844 E2.65064
G1 X106.423 Y107.555 E2.65698
G1 X105.839 Y106.971 E2.67209
G1 X105.839 Y106.405 E2.68244
G1 X106.666 Y107.232 E2.70383
G1 X106.919 Y106.942 E2.71087
G1 X106.93 Y106.93 E2.71117
G1 X105.839 Y105.839 E2.7394
G1 X105.839 Y105.274 E2.74973
G1 X107.229 Y106.664 E2.78569
G1 X107.342 Y106.564 E2.78845
G1 X107.553 Y106.422 E2.7931
G1 X105.971 Y104.84 E2.83403
G1 X106.537 Y104.84 E2.84438
G1 X107.901 Y106.204 E2.87967
G1 X108.279 Y106.017 E2.88739
G1 X107.103 Y104.84 E2.91782
G1 X107.669 Y104.84 E2.92818
G1 X108.695 Y105.867 E2.95473
G1 X108.776 Y105.84 E2.95629
G1 X108.543 Y105.537 E2.96329
G1 X108.487 Y105.093 E2.97147
G1 X108.234 Y104.84 E2.97802
G1 X108.455 Y104.84 E2.98206
;;retract;;
G1 F6000 E-5.01794
G0 F3600 X109.99 Y104.952
G0 X110.725 Y107.265
G0 X111.643 Y105.983
G1 F6000 E2.98206
G1 F600 X112.154 Y106.231 E2.99245
G1 X112.628 Y106.544 E3.00284
G1 X113.056 Y106.918 E3.01324
G1 X113.434 Y107.343 E3.02364
G1 X113.751 Y107.816 E3.03406
G1 X114.004 Y108.325 E3.04446
G1 X114.016 Y108.359 E3.04512
G1 X114.159 Y108.502 E3.04882
G1 X114.159 Y108.777 E3.05385
;;retract;;
G1 F6000 E-4.94615
G0 F3600 X112.608 Y108.904
G0 X111.069 Y107.381
G0 X111.333 Y105.771
G1 F6000 E3.05385
G1 F600 X111.253 Y105.849 E3.05589
G1 X111.638 Y105.981 E3.06334
G1 X111.355 Y105.699 E3.07065
G1 X111.488 Y105.265 E3.07895
G1 X114.159 Y107.937 E3.14806
G1 X114.159 Y107.371 E3.15842
G1 X111.628 Y104.839 E3.22391
G1 X112.193 Y104.839 E3.23424
G1 X114.159 Y106.805 E3.2851
G1 X114.159 Y106.239 E3.29546
G1 X112.759 Y104.839 E3.33168
G1 X113.325 Y104.839 E3.34203
G1 X114.159 Y105.674 E3.36362
G1 X114.159 Y105.108 E3.37397
G1 X113.89 Y104.839 E3.38093
G1 X114.159 Y104.839 E3.38585
;;retract;;
G1 F6000 E-4.61415
G0 F3600 X115.67 Y104.839
G0 X112.25 Y111.714
G0 X113.332 Y112.767
G1 F6000 E3.38585
G1 F600 X113.521 Y112.956 E3.39074
G1 X113.63 Y112.937 E3.39277
G1 X114.159 Y113.122 E3.40302
G1 X114.159 Y113.028 E3.40474
G1 X113.575 Y112.444 E3.41985
G1 X113.767 Y112.154 E3.42621
G1 X113.794 Y112.097 E3.42736
G1 X114.159 Y112.462 E3.4368
G1 X114.159 Y111.896 E3.44716
G1 X113.979 Y111.717 E3.4518
G1 X114.015 Y111.645 E3.45327
G1 X114.131 Y111.302 E3.4599
G1 X114.159 Y111.222 E3.46145
G0 F3600 X113.106 Y113.028
G1 F600 X113.521 Y112.956 E3.46915
;;retract;;
G1 F6000 E-4.53085
G0 F3600 X113.497 Y114.491
G0 X107.884 Y116.67
G0 X107.884 Y115.159
G1 F6000 E3.46915
G1 F600 X108.371 Y115.159 E3.47806
G1 X107.997 Y114.786 E3.48772
G1 X108.065 Y114.567 E3.49192
G1 X107.989 Y114.211 E3.49858
G1 X108.936 Y115.159 E3.52309
G1 X109.502 Y115.159 E3.53344
G1 X108.36 Y114.017 E3.56299
G1 X108.892 Y114.198 E3.57327
G1 X109.159 Y114.25 E3.57824
G1 X110.068 Y115.159 E3.60176
G1 X110.633 Y115.159 E3.6121
G1 X109.803 Y114.328 E3.63358
G1 X110.001 Y114.34 E3.63721
G1 X110.356 Y114.316 E3.64372
G1 X111.199 Y115.159 E3.66553
G1 X111.765 Y115.159 E3.67588
G1 X110.852 Y114.246 E3.6995
G1 X111.138 Y114.187 E3.70484
G1 X111.303 Y114.131 E3.70803
G1 X112.014 Y114.842 E3.72642
G1 X111.945 Y114.3 E3.73642
G1 X111.972 Y114.235 E3.73771
G1 X111.719 Y113.982 E3.74425
G1 X112.098 Y113.795 E3.75198
G1 X112.161 Y113.763 E3.75328
;;retract;;
G1 F6000 E-4.24672
G0 F3600 X111.421 Y112.446
G0 X106.497 Y114.491
G0 X105.839 Y113.081
G1 F6000 E3.75328
G1 F600 X105.855 Y113.07 E3.75363
G1 X106.219 Y113.007 E3.76039
G1 X105.839 Y112.627 E3.77022
G1 X105.839 Y112.062 E3.78055
G1 X106.758 Y112.981 E3.80433
G1 X106.898 Y113.03 E3.80704
G1 X106.565 Y112.656 E3.8162
G1 X106.247 Y112.183 E3.82663
G1 X105.994 Y111.674 E3.83703
G1 X105.983 Y111.64 E3.83768
G1 X105.839 Y111.496 E3.84141
G1 X105.839 Y111.222 E3.84642
G0 F3600 X105.655 Y111.312
;TYPE:SKIN
G1 F600 X106.28 Y111.937 E3.8545
G0 F3600 X105.852 Y111.792
G1 F600 X105.738 Y111.96 E3.85761
G1 X105.885 Y110.977 E3.87283
G0 F3600 X105.988 Y111.079
G0 X106.611 Y112.55
G1 F600 X107.166 Y113.106 E3.88001
G0 F3600 X106.799 Y113.021
G1 F600 X106.543 Y113.049 E3.88463
G1 X105.936 Y113.007 E3.89553
G1 X105.782 Y113.136 E3.89913
G0 F3600 X105.909 Y113.263
G0 X107.654 Y113.593
G0 X107.879 Y113.819
G1 F600 X107.847 Y114.069 E3.90492
G1 X108.112 Y113.769 E3.91411
;;retract;;
G1 F6000 E-4.08589
G0 F3600 X108.931 Y112.618
G0 X111.096 Y112.608
G0 X111.77 Y113.75
G1 F6000 E3.91411
G1 F600 X112.195 Y114.175 E3.9196
G0 F3600 X112.117 Y113.814
G1 F600 X112.249 Y113.663 E3.92247
G1 X113.067 Y113.067 E3.93696
G1 X113.416 Y112.85 E3.94285
G0 F3600 X113.202 Y112.636
G0 X113.976 Y111.996
G0 X113.862 Y111.882
G1 F600 X114.093 Y111.83 E3.94752
G1 X114.193 Y111.081 E3.96245
G1 X114.316 Y110.922 E3.96642
G0 F3600 X114.344 Y110.95
G0 X114.215 Y109.124
G0 X114.113 Y109.021
G1 F600 X114.105 Y108.731 E3.97323
G1 X114.146 Y108.206 E3.98557
G1 X114.26 Y108.038 E3.99033
;;retract;;
G1 F6000 E-4.00967
G0 F3600 X115.67 Y108.121
G0 X111.069 Y107.381
G0 X111.246 Y105.872
G1 F6000 E3.99033
G1 F600 X111.02 Y105.929 E3.99354
G1 X111.351 Y105.694 E3.99914
