;FLAVOR:Marlin
;TIME:2500
;Filament used:0.494945m
;Layer height: 0.1
;MINX:102.547
;MINY:91.504
;MINZ:0.1
;MAXX:117.198
;MAXY:128.483
;MAXZ:20.6
                            
;Creality Print GCode Generated by CXEngine:NO_MAGE_VERSION_GIT_HEAD_BRANCH
;CXEngine Release Time:2022-09-30 09:53:04
;Gcode Generated Time:2023-04-14 21:04:33
;----------Machine Config--------------
;Machine Name:Ender-3 V2
;Machine Height:250
;Machine Width:220
;Machine Depth:220
;Material name:PLA
;Number of Extruders:1
;ExtruderParams[0] Nozzle Diameter1000
;----------Profile Config---------------
;Engine Version:275f99b
;Engine Release Time:2022-09-30 09:42:18
;Layer Height:0.1
;Wall Thickness:0.8
;Top/Bottom Thickness:0.5
;Out Wall Line Width:0.4
;Inner Wall Line Width:0.4
;Inital Layer Height:100
;Wall Line Count:2
;Infill Line Distance:4
;Infill Pattern:grid
;Infill Sparse Density:20
;Infill Wipe Distance:0
;Print Temperature:200
;Bed Temperature:60
;Support Enable:true
;Support Density:0
;Support Angle:60
;Adhesion Type:none
;machine is belt:false
;machine belt offset:10
;machine belt offset Y:0
;Raft Base Line Spacing:1.6
;Wait Heatup Sync:true
;----------Shell Config----------------
;Outer Wall Wipe Distance:200
;Outer Inset First:false
;Infill Before Walls:false
;Infill Overlap:0.16
;Fill Gaps Between Walls:everywhere
;Minimum Infill Area:1
;Top Surface Skin Layer:0
;Top Layers:4
;Z Seam Alignment:sharpest_corner
;Seam Corner Preference:z_seam_corner_inner
;Z Seam X:110
;Z Seam Y:110
;Horizontal Expansion:0
;Top/Bottom Pattern:zigzag
;Ironing Pattern:zigzag
;Vase Model:false
;----------Support Config----------------
;Support Type:everywhere
;Support Pattern:zigzag
;Support Infill Layer Thickness:0.1
;Minimum Support Area:5
;Enable Support Roof:false
;Support Roof Thickness:0.8
;Support Roof Pattern:lines
;Connect Support Lines:0
;Connect Support ZigZags:1
;Minimum Support X/Y Distance:0.2
;Support Line Distance:0
; ---------PrintSpeed & Travel----------
;Enable Print Cool:true
;Avoid Printed Parts Traveling:true
;Enable Retraction:true
;Retraction Distance:8
;Retraction Speed:100
;Retraction Prime Speed:100
;Maximum Retraction Count:100
;Minimum Extrusion Distance Window:1
;Z Hop When Retracted:false
;Z Hop Height:0.2
;Retract Before Outer Wall:true
;Print Speed:50
;Infill Speed:50

;Prime Tower Speed:50
;Travel Speed:120
;Initial Layer Speed:25
;Skirt/Brim Speed:25
;Combing Mode:infill
; --------SpecialModel&Mesh Fixes--------
;Union Overlapping Volum:true
;Remove All Holes:false
;Maximum Travel Resolution:0.6
;Maximum Deviation:0.05
;Maximum Model Angle:0.872665
;IS Mold Print:false
;Make Overhang Printable:false
;Enable Coasting:false
;Coasting Volumes:0.06
;Coasting Speed:0.9
;Raft AirGap:0.25
;Layer0 ZOverLap:0.13
;---------------------End of Head--------------------------
M140 S60
M105
M104 S200
M105
M109 S200
M105
M190 S60
M82 ;absolute extrusion mode
M220 S100 ;Reset Feedrate
M221 S100 ;Reset Flowrate

G28 ;Home

G92 E0 ;Reset Extruder
G1 Z2.0 F3000 ;Move Z Axis up
G1 X10.1 Y20 Z0.28 F5000.0 ;Move to start position
G1 X10.1 Y145.0 Z0.28 F1500.0 E15 ;Draw the first line
G1 X10.4 Y145.0 Z0.28 F5000.0 ;Move to side a little
G1 X10.4 Y20 Z0.28 F1500.0 E30 ;Draw the second line
G92 E0  ;Reset Extruder
G1 E-1.0000 F1800 ;Retract a bit
G1 Z2.0 F3000 ;Move Z Axis up
G1 E0.0000 F1800 

G92 E0
G92 E0
G1 F6000 E-8

;LAYER_COUNT:206

;LAYER:0
M107
G0 F3600 X105.807 Y95.475 Z0.1
;TYPE:SUPPORT
G1 F6000 E0
G1 F1500 X106.692 Y95.186 E0.01362
G1 X107.282 Y95.997 E0.0283
G1 X107.229 Y97.459 E0.04971
G1 X106.335 Y97.751 E0.06347
G1 X105.74 Y96.933 E0.07828
G1 X105.807 Y95.475 E0.09964
;;retract;;
G1 F6000 E-7.90036
G0 F3600 X104.938 Y95.437
G0 X104.86 Y97.197
G0 X106.006 Y98.765
G0 X108.47 Y98.67
G0 X109.313 Y98.88
G1 F6000 E0.09964
G1 F1500 X110.235 Y98.579 E0.11383
G1 X110.833 Y99.402 E0.12872
G1 X110.836 Y101.288 E0.15632
G1 X110.729 Y102.2 E0.16976
G1 X111.284 Y102.605 E0.17981
G1 X111.528 Y101.854 E0.19137
G1 X112.503 Y101.144 E0.20902
G1 X113.705 Y101.144 E0.22661
G1 X114.68 Y101.854 E0.24426
G1 X115.053 Y102.997 E0.26186
G1 X114.68 Y104.14 E0.27945
G1 X113.705 Y104.85 E0.2971
G1 X112.503 Y104.85 E0.31469
G1 X111.624 Y104.211 E0.3306
G1 X110.678 Y105.955 E0.35963
G1 X110.557 Y107.76 E0.38611
G1 X110.584 Y108.764 E0.4008
G1 X110.794 Y108.873 E0.40427
G1 X111.96 Y108.094 E0.42479
G1 X112.532 Y108.094 E0.43316
G1 X112.993 Y108.43 E0.44151
G1 X113.171 Y108.977 E0.44993
G1 X112.828 Y110.42 E0.47163
G1 X112.382 Y110.745 E0.47971
G1 X110.618 Y110.611 E0.5056
G1 X110.744 Y112.613 E0.53495
G1 X110.921 Y114.386 E0.56103
G1 X110.793 Y116.406 E0.59065
G1 X110.879 Y118.137 E0.61601
G1 X110.999 Y118.676 E0.6241
G1 X112.352 Y119.377 E0.6464
G1 X112.509 Y119.859 E0.65381
G1 X112.346 Y120.357 E0.66148
G1 X111.939 Y120.654 E0.66886
G1 X110.347 Y120.319 E0.69266
G1 X109.859 Y120.675 E0.7015
G1 X109.898 Y120.917 E0.70509
G1 X110.424 Y121.085 E0.71317
G1 X110.215 Y121.679 E0.72239
G1 X109.689 Y121.802 E0.73029
G1 X110.071 Y122.271 E0.73915
G1 X109.451 Y122.133 E0.74844
G1 X109.542 Y121.632 E0.75589
G1 X109.801 Y121.68 E0.75975
G1 X109.944 Y121.444 E0.76379
G1 X108.732 Y119.886 E0.79267
G1 X109.26 Y118.448 E0.81509
G1 X109.124 Y116.568 E0.84268
G1 X109.11 Y112.865 E0.89687
G1 X109.021 Y111.16 E0.92185
G1 X108.984 Y109.566 E0.94519
G1 X108.768 Y109.458 E0.94872
G1 X108.095 Y109.945 E0.96088
G1 X107.528 Y109.945 E0.96918
G1 X107.067 Y109.609 E0.97752
G1 X106.892 Y109.073 E0.98578
G1 X107.183 Y108.234 E0.99877
G1 X108.048 Y107.839 E1.01269
G1 X108.873 Y107.788 E1.02478
G1 X109.045 Y105.865 E1.05304
G1 X109.387 Y104.819 E1.06914
G1 X110.145 Y103.615 E1.08996
G1 X108.716 Y103.445 E1.11102
G1 X107.495 Y104.645 E1.13608
G1 X106.309 Y104.645 E1.15343
G1 X105.334 Y103.935 E1.17109
G1 X104.961 Y102.792 E1.18868
G1 X105.334 Y101.649 E1.20628
G1 X106.309 Y100.939 E1.22393
G1 X107.517 Y100.939 E1.24161
G1 X108.908 Y101.871 E1.26611
G1 X109.122 Y101.753 E1.26969
G1 X109.064 Y99.876 E1.29717
G1 X109.313 Y98.88 E1.31219
;;retract;;
G1 F6000 E-6.68781
G0 F3600 X109.043 Y98.053
G0 X110.411 Y97.614
G0 X111.9 Y97.375
G0 X112.603 Y96.863
G1 F6000 E1.31219
G1 F1500 X112.879 Y95.524 E1.3322
G1 X113.795 Y95.225 E1.3463
G1 X114.379 Y96.029 E1.36084
G1 X114.103 Y97.368 E1.38085
G1 X113.187 Y97.667 E1.39495
G1 X112.603 Y96.863 E1.40949
;;retract;;
G1 F6000 E-6.59051
G0 F3600 X111.9 Y97.375
G0 X113.988 Y100.276
G0 X115.418 Y101.318
G0 X115.966 Y102.997
G0 X113.422 Y119.859
G0 X113.071 Y121.133
G1 F6000 E1.40949
G1 F1500 X113.609 Y121.133 E1.41737
G1 X114.041 Y121.447 E1.42518
G1 X114.427 Y123.076 E1.44968
G1 X114.257 Y123.597 E1.4577
G1 X113.817 Y123.917 E1.46567
G1 X113.279 Y123.917 E1.47354
G1 X112.847 Y123.603 E1.48135
G1 X112.461 Y121.974 E1.50585
G1 X112.631 Y121.453 E1.51387
G1 X113.071 Y121.133 E1.52184
;;retract;;
G1 F6000 E-6.47816
G0 F3600 X113.269 Y120.28
G0 X113.892 Y120.265
G0 X114.811 Y120.933
G0 X115.328 Y123.112
G0 X114.995 Y124.135
G0 X114.19 Y124.72
G0 X111.362 Y125.765
G0 X110.5 Y125.644
G1 F6000 E1.52184
G1 F1500 X110.352 Y126.692 E1.53733
G1 X109.845 Y126.386 E1.54599
G1 X109.53 Y126.457 E1.55072
G1 X109.662 Y125.759 E1.56111
G1 X109.837 Y125.811 E1.56378
G1 X109.987 Y125.597 E1.56761
G1 X110.199 Y125.706 E1.5711
G1 X110.5 Y125.644 E1.5756
;;retract;;
G1 F6000 E-6.4244
G0 F3600 X111.362 Y125.765
G0 X111.016 Y128.086
G0 X108.452 Y127.569
G0 X107.981 Y123.442
G0 X107.184 Y123.094
G1 F6000 E1.5756
G1 F1500 X106.74 Y123.417 E1.58363
G1 X106.206 Y123.417 E1.59145
G1 X105.771 Y123.101 E1.59931
G1 X105.608 Y122.6 E1.60702
G1 X105.862 Y121.984 E1.61678
G1 X106.309 Y121.66 E1.62485
G1 X106.847 Y121.66 E1.63273
G1 X107.287 Y121.98 E1.64069
G1 X107.451 Y122.483 E1.64843
G1 X107.184 Y123.094 E1.65819
;;retract;;
G1 F6000 E-6.34181
;MESH:
G0 F3600 X107.981 Y123.442
G0 X108.452 Y127.569
G0 X111.016 Y128.086
G0 X111.916 Y124.409
G0 X111.916 Y123.233
G0 X111.409 Y122.726
G0 X111.05 Y123.792
;TYPE:WALL-OUTER
G1 F6000 E1.65819
G1 F600 X111.05 Y124.05 E1.66291
G1 X109.15 Y124.051 E1.69767
G1 X108.95 Y124.051 E1.70133
G1 X108.95 Y123.851 E1.70369
G1 X108.95 Y123.593 E1.70841
G1 X110.85 Y123.592 E1.74317
G1 X111.05 Y123.592 E1.74683
G1 X111.05 Y123.792 E1.7492
G0 F3600 X111.05 Y123.992
G0 X110.809 Y123.82
;TYPE:SKIN
G1 F600 X110.956 Y123.684 E1.75245
G1 X110.244 Y123.82 E1.7642
G1 X109.145 Y123.853 E1.78203
;;retract;;
G1 F6000 E-6.21797
G0 F3600 X108.542 Y122.8
G0 X107.755 Y120.038
G0 X104.048 Y102.792
G0 X104.596 Y101.113
G0 X108.591 Y98.206
G0 X111.677 Y97.063
G0 X112.858 Y98.681
G0 X114.848 Y98.034
G0 X115.305 Y95.829
G0 X114.124 Y94.211
G0 X112.134 Y94.858
G0 X111.92 Y95.501
G0 X111.05 Y95.501
;TYPE:WALL-OUTER
G1 F6000 E1.78203
G1 F600 X111.05 Y96.032 E1.79174
G1 X109.15 Y96.033 E1.8265
G1 X108.95 Y96.033 E1.83016
G1 X108.95 Y95.833 E1.83252
G1 X108.95 Y95.302 E1.84224
G1 X110.85 Y95.301 E1.87699
G1 X111.05 Y95.301 E1.88065
G1 X111.05 Y95.501 E1.88302
G0 F3600 X111.05 Y95.701
G0 X110.994 Y95.721
;TYPE:SKIN
G1 F600 X110.63 Y95.356 E1.88774
G0 F3600 X110.347 Y95.356
G1 F600 X110.967 Y95.977 E1.89576
G0 F3600 X110.684 Y95.977
G1 F600 X110.064 Y95.356 E1.90379
G0 F3600 X109.781 Y95.356
G1 F600 X110.401 Y95.977 E1.91182
G0 F3600 X110.119 Y95.977
G1 F600 X109.499 Y95.356 E1.91984
G0 F3600 X109.216 Y95.356
G1 F600 X109.836 Y95.977 E1.92787
G0 F3600 X109.553 Y95.977
G1 F600 X109.004 Y95.427 E1.93498
G0 F3600 X109.004 Y95.71
G1 F600 X109.27 Y95.977 E1.93842
G0 F3600 X110.913 Y95.356
G1 F600 X110.994 Y95.438 E1.93948
;;retract;;
G1 F6000 E-6.06052
;MESH:NONMESH
G0 F600 X110.994 Y95.438 Z0.2
G0 F3600 X110.993 Y94.432
G0 X108.591 Y94.436
G0 X108.135 Y94.892
G0 X107.271 Y95.911
;TIME_ELAPSED:21.238814

;LAYER:1
M140 S60
M106 S127.5
;TYPE:SUPPORT
G1 F6000 E1.93948
G1 F2250 X107.147 Y97.457 E1.96011
G1 X106.256 Y97.748 E1.97258
G1 X105.67 Y96.941 E1.98585
G1 X105.807 Y95.399 E2.00645
G1 X106.69 Y95.112 E2.0188
G1 X107.271 Y95.911 E2.03194
;;retract;;
G1 F6000 E-5.96806
G0 F5400 X108.138 Y95.98
G0 X111.882 Y96.623
G0 X112.69 Y96.863
G1 F6000 E2.03194
G1 F2250 X112.893 Y95.443 E2.05103
G1 X113.792 Y95.15 E2.06361
G1 X114.374 Y95.952 E2.07679
G1 X114.171 Y97.372 E2.09587
G1 X113.272 Y97.665 E2.10845
G1 X112.69 Y96.863 E2.12164
;;retract;;
G1 F6000 E-5.87836
G0 F5400 X111.986 Y97.375
G0 X114.065 Y100.263
G0 X115.491 Y101.302
G0 X116.037 Y102.976
G0 X115.491 Y104.65
G0 X114.065 Y105.689
G0 X111.721 Y105.838
G0 X111.237 Y121.323
G0 X110.293 Y121.597
G1 F6000 E2.12164
G1 F2250 X109.83 Y121.354 E2.12859
G1 X108.676 Y119.844 E2.15388
G1 X109.27 Y118.362 E2.17512
G1 X109.001 Y116.389 E2.20161
G1 X109.221 Y114.713 E2.2241
G1 X109.244 Y112.972 E2.24726
G1 X108.899 Y111.022 E2.27361
G1 X109.207 Y109.521 E2.29399
G1 X108.974 Y109.373 E2.29767
G1 X108.113 Y110.017 E2.31197
G1 X107.553 Y110.017 E2.31942
G1 X107.109 Y109.693 E2.32673
G1 X106.942 Y108.735 E2.33967
G1 X107.114 Y108.209 E2.34703
G1 X107.966 Y107.83 E2.35944
G1 X108.97 Y107.81 E2.3728
G1 X109.004 Y105.954 E2.3975
G1 X109.358 Y104.908 E2.41219
G1 X110.108 Y103.793 E2.43006
G1 X109.402 Y103.283 E2.44165
G1 X107.429 Y104.643 E2.47353
G1 X106.23 Y104.643 E2.48948
G1 X105.259 Y103.936 E2.50546
G1 X104.888 Y102.798 E2.52139
G1 X105.259 Y101.66 E2.53731
G1 X106.23 Y100.953 E2.55329
G1 X107.434 Y100.953 E2.56931
G1 X109.022 Y101.963 E2.59435
G1 X109.235 Y101.835 E2.59765
G1 X109.086 Y100.031 E2.62174
G1 X109.327 Y98.966 E2.63626
G1 X110.236 Y98.669 E2.64899
G1 X110.827 Y99.483 E2.66237
G1 X110.808 Y101.239 E2.68573
G1 X111.059 Y102.573 E2.70379
G1 X111.369 Y102.593 E2.70792
G1 X111.615 Y101.838 E2.71849
G1 X112.586 Y101.131 E2.73447
G1 X113.782 Y101.131 E2.75038
G1 X114.753 Y101.838 E2.76636
G1 X115.124 Y102.976 E2.78228
G1 X114.753 Y104.114 E2.79821
G1 X113.782 Y104.821 E2.81419
G1 X112.586 Y104.821 E2.8301
G1 X111.672 Y104.156 E2.84514
G1 X110.663 Y106.01 E2.87322
G1 X110.604 Y108.88 E2.91141
G1 X112.612 Y108.06 E2.94027
G1 X113.032 Y108.366 E2.94718
G1 X113.21 Y108.911 E2.95481
G1 X112.897 Y110.443 E2.97561
G1 X112.456 Y110.765 E2.98287
G1 X111.743 Y110.722 E2.99238
G1 X110.635 Y110.429 E3.00763
G1 X110.802 Y112.389 E3.0338
G1 X110.879 Y114.15 E3.05725
G1 X110.732 Y115.891 E3.08049
G1 X110.845 Y117.686 E3.10442
G1 X110.973 Y118.598 E3.11667
G1 X112.306 Y119.308 E3.13676
G1 X112.462 Y119.786 E3.14345
G1 X112.301 Y120.279 E3.15035
G1 X111.897 Y120.573 E3.157
G1 X110.271 Y120.269 E3.17901
G1 X109.588 Y120.766 E3.19025
G1 X110.157 Y121.288 E3.20052
G1 X110.386 Y121.195 E3.20381
G1 X110.293 Y121.597 E3.2093
;;retract;;
G1 F6000 E-4.7907
G0 F5400 X109.121 Y122.193
G0 X108.17 Y122.495
G0 X107.317 Y122.659
G1 F6000 E3.2093
G1 F2250 X107.149 Y123.175 E3.21652
G1 X106.718 Y123.489 E3.22361
G1 X106.19 Y123.489 E3.23064
G1 X105.769 Y123.182 E3.23757
G1 X105.625 Y122.509 E3.24672
G1 X105.794 Y121.99 E3.25399
G1 X106.229 Y121.674 E3.26114
G1 X106.763 Y121.674 E3.26824
G1 X107.187 Y121.982 E3.27521
G1 X107.317 Y122.659 E3.28439
;;retract;;
G1 F6000 E-4.71561
G0 F5400 X108.144 Y122.927
G0 X108.806 Y126.224
G0 X109.736 Y126.155
G1 F6000 E3.28439
G1 F2250 X110.179 Y126.394 E3.29108
G1 X110.315 Y126.646 E3.29489
G1 X109.743 Y126.443 E3.30297
G1 X109.828 Y126.339 E3.30475
G1 X109.736 Y126.155 E3.30749
;;retract;;
G1 F6000 E-4.69251
G0 F5400 X110.924 Y125.483
G0 X111.696 Y125.216
G0 X112.348 Y124.388
G0 X112.859 Y123.684
G1 F6000 E3.30749
G1 F2250 X112.53 Y122.032 E3.3299
G1 X112.7 Y121.511 E3.33719
G1 X113.135 Y121.195 E3.34435
G1 X113.669 Y121.195 E3.35145
G1 X114.093 Y121.503 E3.35842
G1 X114.422 Y123.155 E3.38083
G1 X114.252 Y123.676 E3.38812
G1 X113.817 Y123.992 E3.39528
G1 X113.283 Y123.992 E3.40238
G1 X112.859 Y123.684 E3.40935
;;retract;;
G1 F6000 E-4.59065
G0 F5400 X112.006 Y123.853
G0 X111.069 Y122.074
G0 X110.29 Y122.206
;TYPE:SUPPORT-INTERFACE
G1 F6000 E3.40935
G1 F1749.9 X110.161 Y122.335 E3.41178
G0 F5400 X109.353 Y121.446
G1 F1749.9 X109.411 Y121.388 E3.41287
;;retract;;
G1 F6000 E-4.58713
G0 F5400 X108.927 Y122.012
G0 X107.046 Y120.806
G0 X105.946 Y120.806
G0 X105.056 Y121.454
G0 X104.728 Y122.463
G0 X104.99 Y123.687
G0 X108.314 Y126.842
G0 X110.945 Y127.784
G0 X111.537 Y127.093
G0 X111.515 Y126.276
G0 X110.924 Y125.483
G0 X110.221 Y125.669
G1 F6000 E3.41287
G1 F1749.9 X110.088 Y125.802 E3.41537
;;retract;;
G1 F6000 E-4.58463
G0 F5400 X110.924 Y125.483
G0 X111.515 Y126.276
G0 X111.537 Y127.093
G0 X110.945 Y127.784
G0 X108.314 Y126.842
G0 X104.99 Y123.687
G0 X104.728 Y122.463
G0 X103.975 Y102.798
G0 X104.521 Y101.124
G0 X105.947 Y100.085
G0 X108.593 Y98.297
G0 X109.577 Y97.99
G0 X109.767 Y97.273
G1 F6000 E3.41537
G1 F1749.9 X109.899 Y97.14 E3.41787
;;retract;;
G1 F6000 E-4.58213
G0 F5400 X109.297 Y97.73
G0 X105.927 Y98.762
G0 X104.778 Y97.188
G0 X104.998 Y94.756
G0 X107.019 Y94.098
G0 X109.031 Y94.041
G0 X109.759 Y93.887
G1 F6000 E3.41787
G1 F1749.9 X109.891 Y93.755 E3.42035
;MESH:
G0 F5400 X110.65 Y96.056
;TYPE:WALL-INNER
G1 F600 X109.549 Y96.057 E3.43866
G1 X109.35 Y96.057 E3.44197
G1 X109.35 Y95.858 E3.44411
G1 X109.35 Y95.286 E3.45362
G1 X110.451 Y95.285 E3.47193
G1 X110.65 Y95.285 E3.47524
G1 X110.65 Y95.484 E3.47738
G1 X110.65 Y96.056 E3.4869
;;retract;;
G1 F6000 E-4.5131
G0 F5400 X111.05 Y95.085
;TYPE:WALL-OUTER
G1 F6000 E3.4869
G1 F600 X111.05 Y96.456 E3.5097
G1 X109.15 Y96.457 E3.54129
G1 X108.95 Y96.457 E3.54462
G1 X108.95 Y96.257 E3.54677
G1 X108.95 Y94.886 E3.56957
G1 X110.85 Y94.885 E3.60117
G1 X111.05 Y94.885 E3.60449
G1 X111.05 Y95.085 E3.60665
G0 F5400 X111.05 Y95.285
G0 X110.609 Y95.326
G0 X110.409 Y95.815
;TYPE:SKIN
G1 F600 X110.409 Y95.525 E3.61147
G1 X110.384 Y95.525 E3.61189
G1 X110.092 Y95.816 E3.61874
G1 X109.588 Y95.817 E3.62712
G1 X109.588 Y95.754 E3.62817
G1 X109.588 Y95.525 E3.63198
G0 F5400 X109.818 Y95.525
G1 F600 X109.588 Y95.754 E3.63738
G0 F5400 X109.404 Y95.656
;TYPE:SKIN
G1 F600 X109.72 Y95.34 E3.64109
G0 F5400 X110.003 Y95.34
G1 F600 X109.404 Y95.939 E3.64814
G0 F5400 X109.624 Y96.001
G1 F600 X110.286 Y95.34 E3.65592
G0 F5400 X110.568 Y95.34
G1 F600 X109.907 Y96.001 E3.66369
G0 F5400 X110.392 Y95.799
G1 F600 X110.533 Y95.94 E3.66986
G0 F5400 X110.473 Y96.001
G0 X109.437 Y95.34
