;FLAVOR:Marlin
;TIME:2873
;Filament used:0.318404m
;Layer height: 0.1
;MINX:99.33
;MINY:103.33
;MINZ:0.1
;MAXX:120.67
;MAXY:116.67
;MAXZ:6.8
                                 
;Creality Print GCode Generated by CXEngine:NO_MAGE_VERSION_GIT_HEAD_BRANCH
;CXEngine Release Time:2022-09-30 09:53:04
;Gcode Generated Time:2023-04-15 18:36:19
;----------Machine Config--------------
;Machine Name:Ender-3 V2
;Machine Height:250
;Machine Width:220
;Machine Depth:220
;Material name:PLA
;Number of Extruders:1
;ExtruderParams[0] Nozzle Diameter1000
;----------Profile Config---------------
;Engine Version:275f99b
;Engine Release Time:2022-09-30 09:42:18
;Layer Height:0.1
;Wall Thickness:0.8
;Top/Bottom Thickness:0.5
;Out Wall Line Width:0.4
;Inner Wall Line Width:0.4
;Inital Layer Height:100
;Wall Line Count:2
;Infill Line Distance:4
;Infill Pattern:grid
;Infill Sparse Density:20
;Infill Wipe Distance:0
;Print Temperature:200
;Bed Temperature:60
;Support Enable:true
;Support Density:0
;Support Angle:60
;Adhesion Type:none
;machine is belt:false
;machine belt offset:10
;machine belt offset Y:0
;Raft Base Line Spacing:1.6
;Wait Heatup Sync:true
;----------Shell Config----------------
;Outer Wall Wipe Distance:200
;Outer Inset First:false
;Infill Before Walls:false
;Infill Overlap:0.16
;Fill Gaps Between Walls:everywhere
;Minimum Infill Area:1
;Top Surface Skin Layer:0
;Top Layers:4
;Z Seam Alignment:sharpest_corner
;Seam Corner Preference:z_seam_corner_inner
;Z Seam X:110
;Z Seam Y:110
;Horizontal Expansion:0
;Top/Bottom Pattern:zigzag
;Ironing Pattern:zigzag
;Vase Model:false
;----------Support Config----------------
;Support Type:everywhere
;Support Pattern:zigzag
;Support Infill Layer Thickness:0.1
;Minimum Support Area:5
;Enable Support Roof:false
;Support Roof Thickness:0.8
;Support Roof Pattern:lines
;Connect Support Lines:0
;Connect Support ZigZags:1
;Minimum Support X/Y Distance:0.2
;Support Line Distance:0
; ---------PrintSpeed & Travel----------
;Enable Print Cool:true
;Avoid Printed Parts Traveling:true
;Enable Retraction:true
;Retraction Distance:8
;Retraction Speed:100
;Retraction Prime Speed:100
;Maximum Retraction Count:100
;Minimum Extrusion Distance Window:1
;Z Hop When Retracted:false
;Z Hop Height:0.2
;Retract Before Outer Wall:true
;Print Speed:50
;Infill Speed:50

;Prime Tower Speed:50
;Travel Speed:120
;Initial Layer Speed:25
;Skirt/Brim Speed:25
;Combing Mode:infill
; --------SpecialModel&Mesh Fixes--------
;Union Overlapping Volum:true
;Remove All Holes:false
;Maximum Travel Resolution:0.6
;Maximum Deviation:0.05
;Maximum Model Angle:0.872665
;IS Mold Print:false
;Make Overhang Printable:false
;Enable Coasting:false
;Coasting Volumes:0.06
;Coasting Speed:0.9
;Raft AirGap:0.25
;Layer0 ZOverLap:0.13
;---------------------End of Head--------------------------
M140 S60
M105
M104 S200
M105
M109 S200
M105
M190 S60
M82 ;absolute extrusion mode
M220 S100 ;Reset Feedrate
M221 S100 ;Reset Flowrate

G28 ;Home

G92 E0 ;Reset Extruder
G1 Z2.0 F3000 ;Move Z Axis up
G1 X10.1 Y20 Z0.28 F5000.0 ;Move to start position
G1 X10.1 Y145.0 Z0.28 F1500.0 E15 ;Draw the first line
G1 X10.4 Y145.0 Z0.28 F5000.0 ;Move to side a little
G1 X10.4 Y20 Z0.28 F1500.0 E30 ;Draw the second line
G92 E0  ;Reset Extruder
G1 E-1.0000 F1800 ;Retract a bit
G1 Z2.0 F3000 ;Move Z Axis up
G1 E0.0000 F1800 

G92 E0
G92 E0
G1 F6000 E-8

;LAYER_COUNT:68

;LAYER:0
M107
;MESH:
G0 F3600 X118.691 Y104.6 Z0.1
G0 X119.4 Y105.209
;TYPE:WALL-INNER
G1 F6000 E0
G1 F600 X119.129 Y104.768 E0.00947
G1 X119.065 Y104.664 E0.0117
G1 X118.691 Y104.6 E0.01864
G1 X119.065 Y104.6 E0.01918
G1 X119.4 Y104.6 E0.02334
G1 X119.4 Y104.664
G1 X119.4 Y105.209 E0.02736
;;retract;;
G1 F6000 E-7.97264
G0 F3600 X120.67 Y105.209
G0 X120.67 Y114.209
G0 X119.4 Y114.209
G1 F6000 E0.02736
G1 F1500 X119.065 Y113.664 E0.03906
G1 X119.029 Y113.658 E0.03973
G1 X118.247 Y113.524 E0.05424
G1 X117.599 Y114.045 E0.06945
G1 X117.564 Y114.877 E0.08469
G1 X117.745 Y115.05 E0.08927
G1 X118.101 Y115.391 E0.09828
G1 X117.609 Y115.392 E0.10311
G1 X117.608 Y115.393 E0.10313
G1 X116.457 Y115.399 E0.12419
G1 X116.456 Y115.4 E0.12422
G1 X116.164 Y115.4 E0.12956
G1 X116.27 Y115.127 E0.1327
G1 X116.33 Y114.975 E0.13569
G1 X116.346 Y114.517 E0.14408
G1 X116.208 Y114.078 E0.15249
G1 X116.105 Y113.942 E0.15562
G1 X116.151 Y113.925
G1 X116.817 Y113.677 E0.16862
G1 X117.378 Y113.342 E0.18057
G1 X117.88 Y112.921 E0.19255
G1 X118.307 Y112.426 E0.20451
G1 X118.649 Y111.87 E0.21645
G1 X118.902 Y111.266 E0.22843
G1 X119.002 Y110.845 E0.23635
G1 X119.053 Y110.629 E0.24041
G1 X119.101 Y109.978 E0.25235
G1 X119.046 Y109.326 E0.26432
G1 X119.002 Y109.15 E0.26764
G1 X118.887 Y108.691 E0.27629
G1 X118.628 Y108.089 E0.28828
G1 X118.279 Y107.537 E0.30023
G1 X117.846 Y107.048 E0.31218
G1 X117.341 Y106.633 E0.32413
G1 X116.776 Y106.303 E0.3361
G1 X116.296 Y106.125 E0.34547
G1 X116.14 Y106.067 E0.34851
G1 X116.115 Y106.057 E0.34901
G1 X116.164 Y106.001 E0.34964
G1 X116.224 Y105.846 E0.35179
G1 X116.33 Y105.575 E0.35711
G1 X116.346 Y105.117 E0.36549
G1 X116.273 Y104.886 E0.36992
G1 X116.208 Y104.678 E0.37391
G1 X116.149 Y104.6 E0.3757
G1 X116.208 Y104.6
G1 X116.426 Y104.6 E0.3784
G1 X117.586 Y104.6 E0.39962
G1 X117.587 Y104.6 E0.39963
G1 X118.152 Y104.6 E0.40997
G1 X117.712 Y104.954 E0.41542
G1 X117.711 Y104.955 E0.41545
G1 X117.599 Y105.045 E0.41808
G1 X117.564 Y105.877 E0.43331
G1 X118.101 Y106.391 E0.44691
G1 X118.581 Y106.472 E0.45581
G1 X119.077 Y106.248 E0.46577
G1 X119.258 Y106.166 E0.46941
G1 X119.4 Y105.7 E0.47832
G1 X119.4 Y106.166 E0.47976
G1 X119.4 Y106.365 E0.48242
G1 X119.4 Y109.144 E0.53325
G1 X119.4 Y109.326 E0.5364
G1 X119.4 Y109.978 E0.54615
G1 X119.4 Y110.629 E0.55579
G1 X119.4 Y110.851 E0.55959
G1 X119.4 Y113.627 E0.61037
G1 X119.4 Y113.664 E0.61101
G1 X119.4 Y114.209 E0.61493
;;retract;;
G1 F6000 E-7.38507
G0 F3600 X120.67 Y114.209
G0 X120.666 Y103.841
G0 X120.159 Y103.334
G0 X117.991 Y103.33
G0 X117.991 Y105.243
;TYPE:WALL-OUTER
G1 F6000 E0.61493
G1 F600 X117.971 Y105.713 E0.62354
G1 X118.289 Y106.017 E0.63158
G1 X118.527 Y106.057 E0.636
G1 X118.928 Y105.876 E0.64405
G1 X119.065 Y105.428 E0.65262
G1 X118.819 Y105.028 E0.66121
G1 X118.357 Y104.949 E0.66978
G1 X117.991 Y105.243 E0.67837
G0 F3600 X117.983 Y105.443
G0 X117.543 Y105.425
;;retract;;
G1 F6000 E-7.32163
G0 F3600 X117.543 Y103.33
G0 X114.948 Y105.251
G0 X113.854 Y104.6
;;retract;;
G0 X114.937 Y105.266
G0 X112.269 Y109.263
G0 X110.988 Y109.207
;TYPE:WALL-INNER
G1 F6000 E0.67837
G1 F1500 X110.963 Y109.2 E0.67884
G1 X110.398 Y109.038 E0.6896
G1 X109.85 Y108.992 E0.69966
G1 X109.303 Y109.037 E0.7097
G1 X108.771 Y109.177 E0.71976
G1 X108.271 Y109.406 E0.72982
G1 X107.969 Y109.614 E0.73653
G1 X107.819 Y109.716 E0.73984
G1 X107.78 Y109.753 E0.74083
G1 X107.688 Y109.843 E0.74318
G1 X107.683 Y109.723 E0.74356
G1 X107.679 Y109.65 E0.74377
G1 X107.641 Y109.472 E0.7471
G1 X107.582 Y109.202 E0.75215
G1 X107.409 Y108.777 E0.76055
G1 X107.211 Y108.459 E0.7674
G1 X107.167 Y108.387 E0.76894
G1 X106.865 Y108.046 E0.77728
G1 X106.507 Y107.758 E0.78568
G1 X106.421 Y107.71 E0.78748
G1 X106.3 Y107.643 E0.79001
G1 X106.107 Y107.535 E0.79406
G1 X105.662 Y107.38 E0.80268
G1 X104.996 Y107.295 E0.81496
G1 X104.329 Y107.382 E0.82727
G1 X103.884 Y107.538 E0.83589
G1 X103.484 Y107.764 E0.8443
G1 X103.128 Y108.051 E0.85266
G1 X102.826 Y108.396 E0.86105
G1 X102.62 Y108.732 E0.86826
G1 X102.587 Y108.786 E0.86942
G1 X102.487 Y109.034 E0.87431
G1 X102.473 Y109.068 E0.87498
G1 X102.431 Y109.012
G1 X102.378 Y108.977 E0.87614
G1 X102.04 Y108.752 E0.88357
G1 X101.494 Y108.636 E0.89378
G1 X100.978 Y108.75 E0.90345
G1 X100.948 Y108.756 E0.90401
G1 X100.6 Y108.995 E0.91173
G1 X100.6 Y108.756 E0.91305
G1 X100.6 Y108.725 E0.91359
G1 X100.6 Y106.378 E0.95653
G1 X100.6 Y106.377 E0.95655
G1 X100.6 Y105.911 E0.96507
G1 X100.937 Y106.234 E0.96968
G1 X101.101 Y106.391 E0.97384
G1 X101.581 Y106.472 E0.98274
G1 X102.258 Y106.166 E0.99633
G1 X102.5 Y105.372 E1.01152
G1 X102.221 Y104.919 E1.02125
G1 X102.065 Y104.664 E1.02672
G1 X101.691 Y104.6 E1.03366
G1 X102.065 Y104.6 E1.03419
G1 X102.364 Y104.6 E1.03766
G1 X113.581 Y104.6 E1.24285
G1 X113.782 Y104.6 E1.24653
G1 X113.854 Y104.6 E1.24785
G1 X113.782 Y104.698 E1.24867
G1 X113.726 Y104.891 E1.25123
G1 X113.652 Y105.139 E1.25597
G1 X113.675 Y105.596 E1.26434
G1 X113.869 Y106.021 E1.27288
G1 X113.89 Y106.066 E1.27379
G1 X113.591 Y106.149 E1.27765
G1 X112.998 Y106.421 E1.28958
G1 X112.454 Y106.785 E1.30156
G1 X111.976 Y107.23 E1.31351
G1 X111.574 Y107.745 E1.32546
G1 X111.259 Y108.319 E1.33743
G1 X111.038 Y108.935 E1.34941
G1 X110.988 Y109.207 E1.35278
;;retract;;
G1 F6000 E-6.64722
G0 F3600 X112.269 Y109.263
G0 X114.999 Y105.234
G0 X114.996 Y104.345
;TYPE:WALL-OUTER
G1 F6000 E1.35278
G1 F600 X114.61 Y104.43 E1.36001
G1 X114.384 Y104.585 E1.36503
G1 X114.336 Y104.618 E1.36609
G1 X114.146 Y104.878 E1.37198
G1 X114.055 Y105.187 E1.37788
G1 X114.071 Y105.508 E1.38375
G1 X114.193 Y105.805 E1.38963
G1 X114.376 Y106.011 E1.39467
G1 X114.408 Y106.047 E1.39555
G1 X114.458 Y106.074 E1.39659
G1 X114.69 Y106.201 E1.40143
G1 X114.895 Y106.235 E1.40523
G1 X115.001 Y106.253 E1.4072
G1 X115.325 Y106.195 E1.41322
G1 X115.38 Y106.164 E1.41437
G1 X115.605 Y106.037 E1.4191
G1 X115.652 Y105.983 E1.42041
G1 X115.816 Y105.792 E1.42501
G1 X115.933 Y105.493 E1.43089
G1 X115.944 Y105.172 E1.43676
G1 X115.847 Y104.864 E1.44267
G1 X115.653 Y104.607 E1.44856
G1 X115.62 Y104.585 E1.44929
G1 X115.382 Y104.427 E1.45451
G1 X114.996 Y104.345 E1.46173
G0 F3600 X114.801 Y104.388
;;retract;;
G1 F6000 E-6.53827
G0 F3600 X114.961 Y105.242
G0 X106.497 Y110.006
G0 X104.304 Y111.247
G0 X99.33 Y114.044
G0 X100.6 Y114.044
G0 X101.101 Y115.391
;TYPE:WALL-INNER
G1 F6000 E1.46173
G1 F600 X100.6 Y115.4 E1.4709
G1 X100.6 Y114.911 E1.47984
G1 X100.844 Y115.145 E1.48212
G1 X101.101 Y115.391 E1.48456
;;retract;;
G1 F6000 E-6.51544
G0 F3600 X101.101 Y116.67
G0 X113.841 Y116.67
G0 X113.841 Y115.4
G1 F6000 E1.48456
G1 F1500 X113.544 Y115.4 E1.49
G1 X111.377 Y115.4 E1.52964
G1 X111.289 Y115.4 E1.53125
G1 X110.779 Y115.4 E1.54058
G1 X110.241 Y115.4 E1.55042
G1 X109.691 Y115.4 E1.56048
G1 X109.147 Y115.4 E1.57043
G1 X108.623 Y115.4 E1.58002
G1 X108.316 Y115.4 E1.58563
G1 X102.369 Y115.4 E1.69442
G1 X102.258 Y115.4 E1.69645
G1 X101.74 Y115.4 E1.70593
G1 X102.258 Y115.166 E1.70946
G1 X102.29 Y115.06 E1.71114
G1 X102.5 Y114.372 E1.7243
G1 X102.065 Y113.664 E1.7395
G1 X101.247 Y113.524 E1.75468
G1 X100.924 Y113.784 E1.76227
G1 X100.6 Y114.044 E1.76987
G1 X100.6 Y113.629 E1.77404
G1 X100.6 Y113.628 E1.77406
G1 X100.6 Y111.354 E1.81566
G1 X100.6 Y111.065 E1.82094
G1 X100.6 Y111.003 E1.82208
G1 X100.655 Y111.065 E1.82243
G1 X100.909 Y111.203 E1.82576
G1 X101.057 Y111.284 E1.82885
G1 X101.503 Y111.359 E1.83712
G1 X101.962 Y111.277 E1.84565
G1 X102.246 Y111.116 E1.85162
G1 X102.362 Y111.051 E1.85406
G1 X102.469 Y110.927 E1.85705
G1 X102.497 Y110.987
G1 X102.554 Y111.108 E1.85894
G1 X102.702 Y111.42 E1.86525
G1 X102.974 Y111.788 E1.87363
G1 X103.305 Y112.104 E1.882
G1 X103.684 Y112.36 E1.89036
G1 X104.102 Y112.549 E1.89876
G1 X104.546 Y112.664 E1.90715
G1 X105.003 Y112.702 E1.91553
G1 X105.463 Y112.663 E1.92398
G1 X105.908 Y112.545 E1.9324
G1 X106.283 Y112.373 E1.93995
G1 X106.323 Y112.355 E1.94075
G1 X106.647 Y112.135 E1.94791
G1 X106.659 Y112.333 E1.94878
G1 X106.661 Y112.378 E1.94955
G1 X106.68 Y112.663 E1.95478
G1 X106.807 Y113.196 E1.9648
G1 X107.024 Y113.702 E1.97487
G1 X107.323 Y114.162 E1.98491
G1 X107.696 Y114.565 E1.99495
G1 X108.136 Y114.899 E2.00506
G1 X108.35 Y115.01 E2.00947
G1 X108.623 Y115.15 E2.01406
G1 X109.147 Y115.317 E2.01845
G1 X109.691 Y115.39 E2.01967
G1 X110.241 Y115.371 E2.02017
G1 X110.779 Y115.255 E2.02249
G1 X111.289 Y115.051 E2.02891
G1 X111.364 Y115.005 E2.03042
G1 X111.757 Y114.763 E2.03887
G1 X112.169 Y114.397 E2.04895
G1 X112.511 Y113.968 E2.05898
G1 X112.779 Y113.463 E2.06944
G1 X112.792 Y113.44 E2.06993
G1 X113.038 Y113.6 E2.07358
G1 X113.635 Y113.867 E2.08554
G1 X113.829 Y113.918 E2.08921
G1 X113.899 Y113.937 E2.09054
G1 X113.842 Y114.016 E2.09095
G1 X113.782 Y114.098 E2.09156
G1 X113.652 Y114.539 E2.09997
G1 X113.675 Y114.996 E2.10834
G1 X113.728 Y115.125 E2.11089
G1 X113.841 Y115.4 E2.11407
;;retract;;
G1 F6000 E-5.88593
G0 F3600 X113.841 Y116.67
G0 X99.841 Y116.666
G0 X99.334 Y116.159
G0 X99.33 Y114.243
G0 X100.991 Y114.243
;TYPE:WALL-OUTER
G1 F6000 E2.11407
G1 F600 X100.971 Y114.713 E2.12268
G1 X101.289 Y115.017 E2.13072
G1 X101.527 Y115.057 E2.13514
G1 X101.928 Y114.876 E2.14319
G1 X102.065 Y114.428 E2.15176
G1 X101.819 Y114.028 E2.16035
G1 X101.357 Y113.949 E2.16892
G1 X100.991 Y114.243 E2.17751
G0 F3600 X100.983 Y114.443
;;retract;;
G1 F6000 E-5.82249
G0 F3600 X99.33 Y114.443
G0 X99.33 Y104.869
G0 X100.817 Y104.869
;TYPE:WALL-INNER
G1 F6000 E2.17751
G1 F600 X100.6 Y105.044 E2.18261
G1 X100.6 Y104.6 E2.18733
G1 X101.152 Y104.6 E2.19743
G1 X100.817 Y104.869 E2.20047
G0 F3600 X100.991 Y105.243
;TYPE:WALL-OUTER
G1 F600 X100.971 Y105.713 E2.20908
G1 X101.289 Y106.017 E2.21713
G1 X101.527 Y106.057 E2.22154
G1 X101.928 Y105.876 E2.22959
G1 X102.065 Y105.428 E2.23816
G1 X101.819 Y105.028 E2.24675
G1 X101.357 Y104.949 E2.25532
G1 X100.991 Y105.243 E2.26391
G0 F3600 X100.983 Y105.443
;;retract;;
G1 F6000 E-5.73609
G0 F3600 X99.33 Y105.443
G0 X101.499 Y109.934
G0 X101.496 Y109.045
G1 F6000 E2.26391
G1 F600 X101.11 Y109.13 E2.27114
G1 X100.836 Y109.318 E2.27722
G1 X100.646 Y109.578 E2.28311
G1 X100.599 Y109.738 E2.28616
G1 X100.555 Y109.887 E2.289
G1 X100.571 Y110.208 E2.29488
G1 X100.598 Y110.275 E2.2962
G1 X100.693 Y110.505 E2.30076
G1 X100.908 Y110.747 E2.30668
G1 X101.19 Y110.901 E2.31255
G1 X101.501 Y110.953 E2.31832
G1 X101.825 Y110.895 E2.32434
G1 X102.105 Y110.737 E2.33023
G1 X102.316 Y110.492 E2.33614
G1 X102.347 Y110.414 E2.33768
G1 X102.433 Y110.193 E2.34201
G1 X102.436 Y110.092 E2.34386
G1 X102.444 Y109.872 E2.34789
G1 X102.423 Y109.805 E2.34917
G1 X102.347 Y109.564 E2.3538
G1 X102.343 Y109.559 E2.35391
G1 X102.153 Y109.307 E2.35969
G1 X101.882 Y109.127 E2.36564
G1 X101.496 Y109.045 E2.37286
G0 F3600 X101.301 Y109.088
G0 X101.208 Y108.658
;;retract;;
G1 F6000 E-5.62714
G0 F3600 X101.499 Y109.934
G0 X105 Y108.574
G0 X104.997 Y107.698
G1 F6000 E2.37286
G1 F600 X104.422 Y107.773 E2.38346
G1 X104.05 Y107.904 E2.39068
G1 X103.709 Y108.096 E2.39784
G1 X103.406 Y108.341 E2.40497
G1 X103.149 Y108.634 E2.4121
G1 X102.945 Y108.967 E2.41924
G1 X102.799 Y109.329 E2.42638
G1 X102.733 Y109.639 E2.43218
G1 X102.732 Y109.645
G1 X102.718 Y109.711 E2.43306
G1 X102.711 Y109.883 E2.4356
G1 X102.701 Y110.101 E2.43824
G1 X102.708 Y110.156 E2.4387
G1 X102.739 Y110.392 E2.4424
G1 X102.752 Y110.487 E2.44416
G1 X102.866 Y110.86 E2.45129
G1 X103.043 Y111.209 E2.45845
G1 X103.275 Y111.522 E2.46558
G1 X103.557 Y111.791 E2.47271
G1 X103.88 Y112.009 E2.47984
G1 X104.236 Y112.17 E2.48698
G1 X104.614 Y112.268 E2.49413
G1 X105.003 Y112.301 E2.50127
G1 X105.394 Y112.267 E2.50845
G1 X105.773 Y112.167 E2.51562
G1 X106.126 Y112.005 E2.52272
G1 X106.449 Y111.786 E2.52986
G1 X106.724 Y111.521 E2.53685
G1 X106.73 Y111.515 E2.537
G1 X106.797 Y111.423 E2.53909
G1 X106.961 Y111.201 E2.54413
G1 X107.023 Y111.078 E2.54665
G1 X107.137 Y110.853 E2.55127
G1 X107.19 Y110.675 E2.55467
G1 X107.25 Y110.479 E2.55842
G1 X107.27 Y110.321 E2.56133
G1 X107.299 Y110.092 E2.56555
G1 X107.281 Y109.702 E2.57269
G1 X107.198 Y109.321 E2.57983
G1 X107.051 Y108.959 E2.58697
G1 X106.845 Y108.627 E2.59412
G1 X106.588 Y108.336 E2.60122
G1 X106.283 Y108.091 E2.60838
G1 X105.942 Y107.901 E2.61552
G1 X105.57 Y107.771 E2.62273
G1 X104.997 Y107.698 E2.6333
G0 F3600 X104.799 Y107.723
G0 X104.744 Y107.287
G0 X108.718 Y107.669
;TYPE:WALL-INNER
G1 F600 X108.897 Y107.082 E2.64452
G1 X108.768 Y106.48 E2.65578
G1 X108.362 Y106.018 E2.66704
G1 X107.782 Y105.814 E2.67828
G1 X107.177 Y105.918 E2.68951
G1 X106.698 Y106.304 E2.70077
G1 X106.469 Y106.874 E2.712
G1 X106.529 Y107.346 E2.72071
G1 X106.546 Y107.484 E2.72285
G1 X106.663 Y107.642 E2.7253
G1 X106.912 Y107.978 E2.72774
G1 X107.277 Y108.143 E2.73075
G1 X107.425 Y108.211 E2.73333
