;FLAVOR:Marlin
;TIME:1310
;Filament used:0.191168m
;Layer height: 0.1
;MINX:103.33
;MINY:105.93
;MINZ:0.1
;MAXX:116.67
;MAXY:114.07
;MAXZ:10.4
                               
;Creality Print GCode Generated by CXEngine:NO_MAGE_VERSION_GIT_HEAD_BRANCH
;CXEngine Release Time:2022-09-30 09:53:04
;Gcode Generated Time:2023-04-14 20:55:14
;----------Machine Config--------------
;Machine Name:Ender-3 V2
;Machine Height:250
;Machine Width:220
;Machine Depth:220
;Material name:PLA
;Number of Extruders:1
;ExtruderParams[0] Nozzle Diameter1000
;----------Profile Config---------------
;Engine Version:275f99b
;Engine Release Time:2022-09-30 09:42:18
;Layer Height:0.1
;Wall Thickness:0.8
;Top/Bottom Thickness:0.5
;Out Wall Line Width:0.4
;Inner Wall Line Width:0.4
;Inital Layer Height:100
;Wall Line Count:2
;Infill Line Distance:4
;Infill Pattern:grid
;Infill Sparse Density:20
;Infill Wipe Distance:0
;Print Temperature:200
;Bed Temperature:60
;Support Enable:true
;Support Density:0
;Support Angle:60
;Adhesion Type:none
;machine is belt:false
;machine belt offset:10
;machine belt offset Y:0
;Raft Base Line Spacing:1.6
;Wait Heatup Sync:true
;----------Shell Config----------------
;Outer Wall Wipe Distance:200
;Outer Inset First:false
;Infill Before Walls:false
;Infill Overlap:0.16
;Fill Gaps Between Walls:everywhere
;Minimum Infill Area:1
;Top Surface Skin Layer:0
;Top Layers:4
;Z Seam Alignment:sharpest_corner
;Seam Corner Preference:z_seam_corner_inner
;Z Seam X:110
;Z Seam Y:110
;Horizontal Expansion:0
;Top/Bottom Pattern:zigzag
;Ironing Pattern:zigzag
;Vase Model:false
;----------Support Config----------------
;Support Type:everywhere
;Support Pattern:zigzag
;Support Infill Layer Thickness:0.1
;Minimum Support Area:5
;Enable Support Roof:false
;Support Roof Thickness:0.8
;Support Roof Pattern:lines
;Connect Support Lines:0
;Connect Support ZigZags:1
;Minimum Support X/Y Distance:0.2
;Support Line Distance:0
; ---------PrintSpeed & Travel----------
;Enable Print Cool:true
;Avoid Printed Parts Traveling:true
;Enable Retraction:true
;Retraction Distance:8
;Retraction Speed:100
;Retraction Prime Speed:100
;Maximum Retraction Count:100
;Minimum Extrusion Distance Window:1
;Z Hop When Retracted:false
;Z Hop Height:0.2
;Retract Before Outer Wall:true
;Print Speed:50
;Infill Speed:50

;Prime Tower Speed:50
;Travel Speed:120
;Initial Layer Speed:25
;Skirt/Brim Speed:25
;Combing Mode:infill
; --------SpecialModel&Mesh Fixes--------
;Union Overlapping Volum:true
;Remove All Holes:false
;Maximum Travel Resolution:0.6
;Maximum Deviation:0.05
;Maximum Model Angle:0.872665
;IS Mold Print:false
;Make Overhang Printable:false
;Enable Coasting:false
;Coasting Volumes:0.06
;Coasting Speed:0.9
;Raft AirGap:0.25
;Layer0 ZOverLap:0.13
;---------------------End of Head--------------------------
M140 S60
M105
M104 S200
M105
M109 S200
M105
M190 S60
M82 ;absolute extrusion mode
M220 S100 ;Reset Feedrate
M221 S100 ;Reset Flowrate

G28 ;Home

G92 E0 ;Reset Extruder
G1 Z2.0 F3000 ;Move Z Axis up
G1 X10.1 Y20 Z0.28 F5000.0 ;Move to start position
G1 X10.1 Y145.0 Z0.28 F1500.0 E15 ;Draw the first line
G1 X10.4 Y145.0 Z0.28 F5000.0 ;Move to side a little
G1 X10.4 Y20 Z0.28 F1500.0 E30 ;Draw the second line
G92 E0  ;Reset Extruder
G1 E-1.0000 F1800 ;Retract a bit
G1 Z2.0 F3000 ;Move Z Axis up
G1 E0.0000 F1800 

G92 E0
G92 E0
G1 F6000 E-8

;LAYER_COUNT:104

;LAYER:0
M107
;MESH:
G0 F3600 X106.3 Y107.8 Z0.1
;TYPE:WALL-INNER
G1 F6000 E0
G1 F600 X106.3 Y110.5 E0.04939
G1 X109.5 Y110.5 E0.10793
G1 X109.5 Y107.8 E0.15732
G1 X106.3 Y107.8 E0.21586
G0 F3600 X106.7 Y108.2
;TYPE:WALL-OUTER
G1 F600 X106.7 Y110.1 E0.25062
G1 X109.1 Y110.1 E0.29452
G1 X109.1 Y108.2 E0.32928
G1 X106.7 Y108.2 E0.37318
G0 F3600 X106.7 Y108.4
G0 X106.26 Y108.4
;;retract;;
G1 F6000 E-7.62682
G0 F3600 X107.558 Y109.058
G0 X111.758 Y109.058
G0 X110.5 Y107.8
;TYPE:WALL-INNER
G1 F6000 E0.37318
G1 F600 X110.5 Y110.5 E0.42257
G1 X113.7 Y110.5 E0.48111
G1 X113.7 Y107.8 E0.5305
G1 X110.5 Y107.8 E0.58904
G0 F3600 X110.9 Y108.2
;TYPE:WALL-OUTER
G1 F600 X110.9 Y110.1 E0.62379
G1 X113.3 Y110.1 E0.6677
G1 X113.3 Y108.2 E0.70245
G1 X110.9 Y108.2 E0.74636
G0 F3600 X110.9 Y108.4
G0 X110.46 Y108.4
;;retract;;
G1 F6000 E-7.25364
G0 F3600 X111.758 Y109.058
G0 X115.401 Y105.941
G0 X115.4 Y107.212
;TYPE:WALL-INNER
G1 F6000 E0.74636
G1 F1500 X115.4 Y112.601 E0.84494
G1 X115.4 Y112.8 E0.84858
G1 X115.201 Y112.8 E0.85093
G1 X104.8 Y112.788 E1.0412
G1 X104.601 Y112.788 E1.04484
G1 X104.601 Y112.589 E1.0472
G1 X104.612 Y107.2 E1.14578
G1 X115.4 Y107.212 E1.34312
G0 F3600 X115.8 Y106.812
;TYPE:WALL-OUTER
G1 F1500 X115.8 Y113 E1.45632
G1 X115.8 Y113.2 E1.45998
G1 X115.6 Y113.2 E1.46235
G1 X104.4 Y113.188 E1.66723
G1 X104.2 Y113.188 E1.67089
G1 X104.2 Y112.988 E1.67326
G1 X104.213 Y106.8 E1.78646
G1 X115.8 Y106.812 E1.99842
G0 F3600 X115.8 Y107.012
G0 X115.36 Y107.251
G0 X115.159 Y107.451
;TYPE:SKIN
G1 F600 X114.805 Y107.451 E2.00489
G1 X114.239 Y107.451 E2.01525
G1 X115.159 Y108.371 E2.03905
G1 X115.159 Y108.936 E2.04938
G1 X113.938 Y107.716 E2.08096
G1 X113.938 Y108.282 E2.09131
G1 X115.159 Y109.502 E2.12289
G1 X115.159 Y110.068 E2.13324
G1 X113.938 Y108.847 E2.16483
G1 X113.938 Y109.413 E2.17518
G1 X115.159 Y110.633 E2.20676
G1 X115.159 Y111.199 E2.21711
G1 X113.938 Y109.979 E2.24869
G1 X113.938 Y110.544 E2.25902
G1 X115.159 Y111.765 E2.29061
G1 X115.159 Y112.33 E2.30095
G1 X113.568 Y110.739 E2.34211
G1 X113.002 Y110.739 E2.35246
G1 X114.822 Y112.559 E2.39954
G1 X114.255 Y112.558 E2.40992
G1 X112.437 Y110.739 E2.45696
G1 X111.871 Y110.739 E2.46731
G1 X113.689 Y112.557 E2.51435
G1 X113.122 Y112.557 E2.52472
G1 X111.305 Y110.739 E2.57174
G1 X110.739 Y110.739 E2.58209
G1 X112.556 Y112.556 E2.6291
G1 X111.99 Y112.555 E2.63945
G1 X109.739 Y110.305 E2.69767
G1 X109.739 Y110.739 E2.70561
G1 X109.607 Y110.739 E2.70803
G1 X111.423 Y112.555 E2.75501
G1 X110.857 Y112.554 E2.76536
G1 X109.042 Y110.739 E2.81232
G1 X108.476 Y110.739 E2.82267
G1 X110.29 Y112.553 E2.8696
G1 X109.724 Y112.553 E2.87995
G1 X107.91 Y110.739 E2.92688
G1 X107.345 Y110.739 E2.93722
G1 X109.158 Y112.552 E2.98412
G1 X108.591 Y112.551 E2.99449
G1 X106.779 Y110.739 E3.04137
G1 X106.213 Y110.739 E3.05172
G1 X108.025 Y112.55 E3.09859
G1 X107.459 Y112.55 E3.10894
G1 X104.846 Y109.938 E3.17653
G1 X104.845 Y110.502 E3.18684
G1 X106.892 Y112.549 E3.2398
G1 X106.326 Y112.548 E3.25016
G1 X104.844 Y111.066 E3.28849
G1 X104.842 Y111.63 E3.29881
G1 X105.759 Y112.548 E3.32255
G1 X105.193 Y112.547 E3.3329
G1 X104.841 Y112.547 E3.33934
G0 F3600 X104.842 Y112.195
G1 F600 X105.193 Y112.547 E3.34843
G0 F3600 X106.059 Y110.739
G1 F600 X106.06 Y110.585 E3.35125
G1 X104.847 Y109.373 E3.38262
G1 X104.849 Y108.808 E3.39296
G1 X106.06 Y110.02 E3.4243
G1 X106.06 Y109.454 E3.43465
G1 X104.85 Y108.244 E3.46595
G1 X104.851 Y107.68 E3.47627
G1 X106.06 Y108.888 E3.50754
G1 X106.06 Y108.323 E3.51787
G1 X105.177 Y107.439 E3.54073
G1 X105.743 Y107.44 E3.55108
G1 X106.06 Y107.757 E3.55928
G1 X106.06 Y107.559 E3.5629
G1 X106.428 Y107.559 E3.56964
G1 X106.309 Y107.441 E3.5727
G1 X106.876 Y107.442 E3.58307
G1 X106.993 Y107.559 E3.5861
G1 X107.559 Y107.559 E3.59646
G1 X107.442 Y107.442 E3.59948
G1 X108.009 Y107.443 E3.60985
G1 X108.125 Y107.559 E3.61286
G1 X108.69 Y107.559 E3.62319
G1 X108.575 Y107.444 E3.62617
G1 X109.141 Y107.444 E3.63652
G1 X109.256 Y107.559 E3.63949
G0 F3600 X109.739 Y108.042
G1 F600 X109.739 Y108.608 E3.64985
G1 X110.259 Y109.128 E3.6633
G1 X110.259 Y109.694 E3.67365
G1 X109.739 Y109.173 E3.68712
G1 X109.739 Y109.739 E3.69747
G1 X110.259 Y110.259 E3.71093
G1 X110.259 Y110.739 E3.71971
G0 F3600 X109.739 Y108.042
G1 F600 X109.739 Y107.56 E3.72852
G0 F3600 X109.739 Y108.042
G1 F600 X110.259 Y108.562 E3.74198
G1 X110.259 Y107.997 E3.75231
G1 X109.708 Y107.445 E3.76658
G1 X110.274 Y107.446 E3.77693
G1 X110.387 Y107.559 E3.77986
G1 X110.953 Y107.559 E3.79021
G1 X110.841 Y107.446 E3.79312
G1 X111.407 Y107.447 E3.80348
G1 X111.519 Y107.559 E3.80637
G1 X112.084 Y107.559 E3.81671
G1 X111.973 Y107.448 E3.81958
G1 X112.54 Y107.449 E3.82995
G1 X112.65 Y107.559 E3.8328
G1 X113.216 Y107.559 E3.84315
G1 X113.106 Y107.449 E3.846
G1 X113.673 Y107.45 E3.85637
G1 X113.781 Y107.559 E3.85918
G0 F3600 X113.938 Y107.716
G1 F600 X113.939 Y107.56 E3.86203
G0 F3600 X115.159 Y107.805
G1 F600 X114.805 Y107.451 E3.87119
G0 F3600 X114.059 Y107.554
;TYPE:SKIN
G1 F600 X113.771 Y107.265 E3.87492
G0 F3600 X113.727 Y107.504
G1 F600 X113.444 Y107.504 E3.88053
G1 X110.614 Y107.502 E3.93658
G1 X110.214 Y107.668 E3.94516
G1 X109.69 Y107.428 E3.95658
G1 X109.832 Y107.287 E3.96054
G0 F3600 X109.482 Y107.502
G1 F600 X109.199 Y107.502 E3.96781
G1 X106.368 Y107.5 E4.0405
G1 X106.135 Y107.549 E4.04661
G0 F3600 X105.94 Y107.637
G1 F600 X106.047 Y107.744 E4.048
;;retract;;
G1 F6000 E-3.952
;MESH:NONMESH
G0 F600 X106.047 Y107.744 Z0.2
G0 F3600 X107.558 Y109.058
G0 X111.758 Y109.058
G0 X110.5 Y107.8
;TIME_ELAPSED:26.694052

;LAYER:1
M140 S60
M106 S127.5
;TYPE:WALL-INNER
;MESH:
G1 F6000 E4.048
G1 F600 X110.5 Y110.5 E4.0929
G1 X113.7 Y110.5 E4.14611
G1 X113.7 Y107.8 E4.19101
G1 X110.5 Y107.8 E4.24423
G0 F5400 X110.9 Y108.2
;TYPE:WALL-OUTER
G1 F600 X110.9 Y110.1 E4.27583
G1 X113.3 Y110.1 E4.31574
G1 X113.3 Y108.2 E4.34734
G1 X110.9 Y108.2 E4.38725
G0 F5400 X110.9 Y108.4
G0 X110.46 Y108.4
;;retract;;
G1 F6000 E-3.61275
G0 F5400 X111.758 Y109.058
G0 X107.558 Y109.058
G0 X106.3 Y107.8
;TYPE:WALL-INNER
G1 F6000 E4.38725
G1 F600 X106.3 Y110.5 E4.43215
G1 X109.5 Y110.5 E4.48537
G1 X109.5 Y107.8 E4.53027
G1 X106.3 Y107.8 E4.58348
G0 F5400 X106.7 Y108.2
;TYPE:WALL-OUTER
G1 F600 X106.7 Y110.1 E4.61508
G1 X109.1 Y110.1 E4.65499
G1 X109.1 Y108.2 E4.68659
G1 X106.7 Y108.2 E4.7265
G0 F5400 X106.7 Y108.4
G0 X106.26 Y108.4
;;retract;;
G1 F6000 E-3.2735
G0 F5400 X107.558 Y109.058
G0 X115.401 Y105.947
G0 X115.4 Y107.218
;TYPE:WALL-INNER
G1 F6000 E4.7265
G1 F1500 X115.4 Y112.6 E4.81601
G1 X115.4 Y112.799 E4.81932
G1 X115.201 Y112.799 E4.82146
G1 X104.6 Y112.781 E4.99775
G1 X104.6 Y107.4 E5.08724
G1 X104.6 Y107.201 E5.09055
G1 X104.799 Y107.201 E5.09269
G1 X115.4 Y107.218 E5.26898
;;retract;;
G1 F6000 E-2.73102
G0 F5400 X115.401 Y105.947
G0 X104.401 Y105.93
G0 X104.4 Y106.8
;TYPE:WALL-OUTER
G1 F6000 E5.26898
G1 F1500 X115.8 Y106.819 E5.45857
G1 X115.8 Y113 E5.56136
G1 X115.8 Y113.2 E5.56468
G1 X115.6 Y113.2 E5.56684
G1 X104.2 Y113.18 E5.75642
G1 X104.2 Y107 E5.85919
G1 X104.2 Y106.8 E5.86252
G1 X104.4 Y106.8 E5.86467
G0 F5400 X104.6 Y106.8
G0 X104.64 Y107.24
G0 X106.06 Y107.559
;TYPE:SKIN
G1 F600 X106.268 Y107.56 E5.86813
G1 X106.386 Y107.442 E5.87091
G1 X106.951 Y107.443 E5.8803
G1 X106.834 Y107.56 E5.88306
G1 X107.4 Y107.56 E5.89247
G1 X107.515 Y107.444 E5.89518
G1 X108.08 Y107.445 E5.90458
G1 X107.966 Y107.56 E5.90727
G1 X108.531 Y107.56 E5.91667
G1 X108.645 Y107.446 E5.91935
G1 X109.209 Y107.447 E5.92873
G1 X109.097 Y107.56 E5.93138
G1 X109.663 Y107.56 E5.94079
G1 X109.774 Y107.448 E5.94341
G1 X110.339 Y107.449 E5.95281
G1 X109.739 Y108.049 E5.96692
G1 X109.739 Y108.615 E5.97633
G1 X110.259 Y108.095 E5.98856
G1 X110.259 Y108.661 E5.99797
G1 X109.739 Y109.18 E6.01019
G1 X109.739 Y109.746 E6.0196
G1 X110.259 Y109.226 E6.03183
G1 X110.259 Y109.792 E6.04125
G1 X109.739 Y110.312 E6.05348
G0 F5400 X109.739 Y110.739
G1 F600 X109.312 Y110.739 E6.06058
G1 X108.746 Y110.739 E6.06999
G1 X106.941 Y112.544 E6.11244
G1 X106.377 Y112.543 E6.12182
G1 X108.18 Y110.739 E6.16423
G1 X107.615 Y110.739 E6.17363
G1 X105.812 Y112.542 E6.21603
G1 X105.247 Y112.541 E6.22543
G1 X107.049 Y110.739 E6.26781
G1 X106.483 Y110.739 E6.27722
G1 X104.839 Y112.383 E6.31589
G1 X104.839 Y111.817 E6.3253
G1 X106.059 Y110.597 E6.35399
G1 X106.059 Y110.032 E6.36339
G1 X104.839 Y111.251 E6.39207
G1 X104.839 Y110.686 E6.40147
G1 X106.059 Y109.466 E6.43016
G1 X106.059 Y108.9 E6.43957
G1 X104.839 Y110.12 E6.46826
G1 X104.839 Y109.554 E6.47768
G1 X106.059 Y108.335 E6.50636
G1 X106.059 Y107.769 E6.51577
G1 X104.839 Y108.989 E6.54446
G1 X104.839 Y108.423 E6.55387
G1 X105.821 Y107.442 E6.57696
G1 X105.257 Y107.44 E6.58634
G1 X104.839 Y107.857 E6.59616
G1 X104.839 Y107.44 E6.60309
;;retract;;
G1 F6000 E-1.39691
G0 F5400 X104.841 Y105.931
G0 X110.261 Y105.939
G0 X110.259 Y107.559
G1 F6000 E6.60309
G1 F600 X110.794 Y107.56 E6.61199
G1 X110.904 Y107.45 E6.61458
G1 X111.469 Y107.451 E6.62397
G1 X111.36 Y107.56 E6.62653
G1 X111.925 Y107.56 E6.63593
G1 X112.033 Y107.451 E6.63848
G1 X112.598 Y107.453 E6.64788
G1 X112.491 Y107.56 E6.6504
G1 X113.057 Y107.56 E6.65981
G1 X113.163 Y107.454 E6.6623
G1 X113.728 Y107.454 E6.6717
G1 X113.622 Y107.56 E6.67419
G1 X113.939 Y107.56 E6.67946
G1 X113.939 Y107.809 E6.6836
G1 X114.293 Y107.455 E6.69193
G1 X114.857 Y107.456 E6.70131
G1 X113.939 Y108.374 E6.7229
G1 X113.939 Y108.94 E6.73231
G1 X115.159 Y107.72 E6.761
G1 X115.159 Y108.286 E6.77041
G1 X113.939 Y109.506 E6.79911
G1 X113.939 Y110.071 E6.8085
G1 X115.159 Y108.852 E6.83718
G1 X115.159 Y109.417 E6.84658
G1 X113.939 Y110.637 E6.87527
G0 F5400 X113.938 Y110.739
G1 F600 X113.837 Y110.739 E6.87695
G1 X113.272 Y110.739 E6.88635
G1 X111.459 Y112.552 E6.92899
G1 X110.894 Y112.551 E6.93838
G1 X112.706 Y110.739 E6.981
G1 X112.14 Y110.739 E6.99041
G1 X110.329 Y112.55 E7.033
G1 X109.764 Y112.549 E7.0424
G1 X111.575 Y110.739 E7.08498
G1 X111.009 Y110.739 E7.09439
G1 X109.2 Y112.548 E7.13694
G1 X108.635 Y112.547 E7.14633
G1 X110.443 Y110.739 E7.18885
G1 X110.259 Y110.739 E7.19191
G1 X110.259 Y110.358 E7.19825
G1 X108.07 Y112.546 E7.24972
G1 X107.506 Y112.545 E7.2591
G1 X109.312 Y110.739 E7.30157
;;retract;;
G1 F6000 E-0.69843
G0 F5400 X108.242 Y109.242
G0 X112.442 Y109.242
G0 X113.837 Y110.739
G1 F6000 E7.30157
G1 F600 X112.023 Y112.553 E7.34424
G1 X112.588 Y112.554 E7.35363
G1 X115.159 Y109.983 E7.4141
G1 X115.159 Y110.549 E7.42351
G1 X113.153 Y112.555 E7.47069
G1 X113.717 Y112.556 E7.48007
G1 X115.159 Y111.114 E7.51398
G1 X115.159 Y111.68 E7.5234
G1 X114.282 Y112.557 E7.54402
G1 X114.846 Y112.558 E7.5534
G1 X115.159 Y112.246 E7.56075
G1 X115.159 Y112.558 E7.56594
;;retract;;
G1 F6000 E-0.43406
G0 F5400 X116.67 Y112.558
G0 X112.442 Y109.058
G0 X114.031 Y107.716
;TYPE:SKIN
G1 F6000 E7.56594
G1 F600 X113.89 Y107.575 E7.56944
G1 X113.109 Y107.506 E7.58321
G1 X110.566 Y107.504 E7.62788
G1 X110.189 Y107.316 E7.63528
G1 X109.668 Y107.554 E7.64534
G1 X109.809 Y107.695 E7.64884
G0 F5400 X109.436 Y107.503
G1 F600 X109.153 Y107.503 E7.65543
G1 X106.327 Y107.5 E7.72117
G1 X106.114 Y107.431 E7.72638
G0 F5400 X105.94 Y107.323
G1 F600 X106.006 Y107.256 E7.72716
;MESH:NONMESH
G0 X106.006 Y107.256 Z0.3
G0 F5400 X106.3 Y107.8
;TIME_ELAPSED:51.086355

;LAYER:2
M106 S255
;TYPE:WALL-INNER
;MESH:
G1 F600 X106.3 Y110.5 E7.77206
G1 X109.5 Y110.5 E7.82528
G1 X109.5 Y107.8 E7.87018
G1 X106.3 Y107.8 E7.9234
G0 F7200 X106.7 Y108.2
;TYPE:WALL-OUTER
G1 F600 X106.7 Y110.1 E7.95499
G1 X109.1 Y110.1 E7.99491
G1 X109.1 Y108.2 E8.0265
G1 X106.7 Y108.2 E8.06641
G0 F7200 X106.7 Y108.4
G0 X106.26 Y108.4
;;retract;;
G1 F6000 E0.06641
G0 F7200 X107.558 Y109.058
G0 X111.758 Y109.058
G0 X110.5 Y107.8
;TYPE:WALL-INNER
G1 F6000 E8.06641
G1 F600 X110.5 Y110.5 E8.11132
G1 X113.7 Y110.5 E8.16453
G1 X113.7 Y107.8 E8.20943
G1 X110.5 Y107.8 E8.26265
G0 F7200 X110.9 Y108.2
;TYPE:WALL-OUTER
G1 F600 X110.9 Y110.1 E8.29425
G1 X113.3 Y110.1 E8.33416
G1 X113.3 Y108.2 E8.36576
G1 X110.9 Y108.2 E8.40567
G0 F7200 X110.9 Y108.4
G0 X110.46 Y108.4
;;retract;;
G1 F6000 E0.40567
G0 F7200 X111.758 Y109.058
G0 X115.4 Y105.93
G0 X115.4 Y107.2
;TYPE:WALL-INNER
G1 F6000 E8.40567
G1 F1500 X115.4 Y112.8 E8.4988
G1 X104.6 Y112.8 E8.6784
G1 X104.6 Y107.2 E8.77153
G1 X115.4 Y107.2 E8.95113
G0 F7200 X115.8 Y106.8
;TYPE:WALL-OUTER
G1 F1500 X115.8 Y113.2 E9.05757
G1 X104.2 Y113.2 E9.25048
G1 X104.2 Y106.8 E9.35691
G1 X115.8 Y106.8 E9.54982
G0 F7200 X115.8 Y107
G0 X115.36 Y107.24
G0 X115.159 Y107.805
;TYPE:SKIN
G1 F600 X114.793 Y107.439 E9.55842
G1 X114.228 Y107.439 E9.56782
G1 X115.159 Y108.371 E9.58973
G1 X115.159 Y108.936 E9.59912
G1 X113.938 Y107.716 E9.62783
G1 X113.938 Y108.282 E9.63724
G1 X115.159 Y109.502 E9.66595
G1 X115.159 Y110.068 E9.67536
