;FLAVOR:Marlin
;TIME:1732
;Filament used:0.323136m
;Layer height: 0.1
;MINX:99.33
;MINY:103.33
;MINZ:0.1
;MAXX:120.67
;MAXY:116.67
;MAXZ:5.5
                                 
;Creality Print GCode Generated by CXEngine:NO_MAGE_VERSION_GIT_HEAD_BRANCH
;CXEngine Release Time:2022-09-30 09:53:04
;Gcode Generated Time:2023-04-15 18:38:16
;----------Machine Config--------------
;Machine Name:Ender-3 V2
;Machine Height:250
;Machine Width:220
;Machine Depth:220
;Material name:PLA
;Number of Extruders:1
;ExtruderParams[0] Nozzle Diameter1000
;----------Profile Config---------------
;Engine Version:275f99b
;Engine Release Time:2022-09-30 09:42:18
;Layer Height:0.1
;Wall Thickness:0.8
;Top/Bottom Thickness:0.5
;Out Wall Line Width:0.4
;Inner Wall Line Width:0.4
;Inital Layer Height:100
;Wall Line Count:2
;Infill Line Distance:4
;Infill Pattern:grid
;Infill Sparse Density:20
;Infill Wipe Distance:0
;Print Temperature:200
;Bed Temperature:60
;Support Enable:true
;Support Density:0
;Support Angle:60
;Adhesion Type:none
;machine is belt:false
;machine belt offset:10
;machine belt offset Y:0
;Raft Base Line Spacing:1.6
;Wait Heatup Sync:true
;----------Shell Config----------------
;Outer Wall Wipe Distance:200
;Outer Inset First:false
;Infill Before Walls:false
;Infill Overlap:0.16
;Fill Gaps Between Walls:everywhere
;Minimum Infill Area:1
;Top Surface Skin Layer:0
;Top Layers:4
;Z Seam Alignment:sharpest_corner
;Seam Corner Preference:z_seam_corner_inner
;Z Seam X:110
;Z Seam Y:110
;Horizontal Expansion:0
;Top/Bottom Pattern:zigzag
;Ironing Pattern:zigzag
;Vase Model:false
;----------Support Config----------------
;Support Type:everywhere
;Support Pattern:zigzag
;Support Infill Layer Thickness:0.1
;Minimum Support Area:5
;Enable Support Roof:false
;Support Roof Thickness:0.8
;Support Roof Pattern:lines
;Connect Support Lines:0
;Connect Support ZigZags:1
;Minimum Support X/Y Distance:0.2
;Support Line Distance:0
; ---------PrintSpeed & Travel----------
;Enable Print Cool:true
;Avoid Printed Parts Traveling:true
;Enable Retraction:true
;Retraction Distance:8
;Retraction Speed:100
;Retraction Prime Speed:100
;Maximum Retraction Count:100
;Minimum Extrusion Distance Window:1
;Z Hop When Retracted:false
;Z Hop Height:0.2
;Retract Before Outer Wall:true
;Print Speed:50
;Infill Speed:50

;Prime Tower Speed:50
;Travel Speed:120
;Initial Layer Speed:25
;Skirt/Brim Speed:25
;Combing Mode:infill
; --------SpecialModel&Mesh Fixes--------
;Union Overlapping Volum:true
;Remove All Holes:false
;Maximum Travel Resolution:0.6
;Maximum Deviation:0.05
;Maximum Model Angle:0.872665
;IS Mold Print:false
;Make Overhang Printable:false
;Enable Coasting:false
;Coasting Volumes:0.06
;Coasting Speed:0.9
;Raft AirGap:0.25
;Layer0 ZOverLap:0.13
;---------------------End of Head--------------------------
M140 S60
M105
M104 S200
M105
M109 S200
M105
M190 S60
M82 ;absolute extrusion mode
M220 S100 ;Reset Feedrate
M221 S100 ;Reset Flowrate

G28 ;Home

G92 E0 ;Reset Extruder
G1 Z2.0 F3000 ;Move Z Axis up
G1 X10.1 Y20 Z0.28 F5000.0 ;Move to start position
G1 X10.1 Y145.0 Z0.28 F1500.0 E15 ;Draw the first line
G1 X10.4 Y145.0 Z0.28 F5000.0 ;Move to side a little
G1 X10.4 Y20 Z0.28 F1500.0 E30 ;Draw the second line
G92 E0  ;Reset Extruder
G1 E-1.0000 F1800 ;Retract a bit
G1 Z2.0 F3000 ;Move Z Axis up
G1 E0.0000 F1800 

G92 E0
G92 E0
G1 F6000 E-8

;LAYER_COUNT:55

;LAYER:0
M107
;MESH:
G0 F3600 X100.603 Y113.165 Z0.1
;;retract;;
G0 X101.416 Y114.19
G0 X106.617 Y111.651
G0 X111.719 Y109.218
G0 X118.608 Y105.802
G0 X119.4 Y106.813
;TYPE:WALL-INNER
G1 F6000 E0
G1 F1500 X119.4 Y107.016 E0.00371
G1 X119.4 Y107.038 E0.00412
G1 X119.4 Y112.932 E0.11194
G1 X119.4 Y113.033 E0.11378
G1 X119.4 Y113.195 E0.11675
G1 X119.159 Y113.033 E0.11948
G1 X119.062 Y113.008 E0.12103
G1 X118.634 Y112.898 E0.12911
G1 X118.093 Y112.944 E0.13904
G1 X117.597 Y113.168 E0.149
G1 X117.204 Y113.547 E0.15899
G1 X116.962 Y114.032 E0.1689
G1 X116.892 Y114.571 E0.17884
G1 X116.996 Y115.042 E0.18767
G1 X117.009 Y115.103 E0.18881
G1 X117.192 Y115.4 E0.19519
G1 X117.009 Y115.4 E0.19583
G1 X116.946 Y115.4 E0.19687
G1 X103.122 Y115.4 E0.44976
G1 X102.872 Y115.4 E0.45433
G1 X102.819 Y115.4 E0.4553
G1 X102.872 Y115.34 E0.45574
G1 X102.964 Y115.108 E0.4587
G1 X103.073 Y114.836 E0.46406
G1 X103.096 Y114.293 E0.474
G1 X102.935 Y113.773 E0.48396
G1 X102.611 Y113.336 E0.49391
G1 X102.159 Y113.033 E0.50386
G1 X101.634 Y112.898 E0.51378
G1 X101.093 Y112.944 E0.52371
G1 X100.884 Y113.038 E0.5279
G1 X100.603 Y113.165 E0.53354
G1 X100.603 Y112.857 E0.53681
G1 X100.603 Y112.856 E0.53683
G1 X100.609 Y107.11 E0.64194
G1 X100.609 Y106.906 E0.64568
G1 X100.61 Y106.819 E0.64727
G1 X100.718 Y106.906 E0.64819
G1 X100.91 Y106.973 E0.6508
G1 X101.207 Y107.077 E0.65656
G1 X101.527 Y107.104 E0.66243
G1 X102.039 Y107.016 E0.67193
G1 X102.512 Y106.75 E0.68186
G1 X102.872 Y106.34 E0.69184
G1 X103.073 Y105.836 E0.70177
G1 X103.096 Y105.293 E0.71171
G1 X102.98 Y104.919 E0.71887
G1 X102.935 Y104.773 E0.72167
G1 X102.807 Y104.6 E0.7256
G1 X102.935 Y104.6 E0.72574
G1 X103.088 Y104.6 E0.7279
G1 X116.854 Y104.603 E0.97972
G1 X116.855 Y104.603 E0.97974
G1 X117.176 Y104.603 E0.98561
G1 X117.033 Y104.891 E0.989
G1 X116.962 Y105.032 E0.99188
G1 X116.892 Y105.571 E1.00183
G1 X117.009 Y106.103 E1.01179
G1 X117.294 Y106.565 E1.02172
G1 X117.718 Y106.906 E1.03167
G1 X118.207 Y107.077 E1.04115
G1 X118.527 Y107.104 E1.04703
G1 X119.018 Y107.019 E1.05614
G1 X119.039 Y107.016 E1.05651
G1 X119.4 Y106.813 E1.06137
;;retract;;
G1 F6000 E-6.93863
G0 F3600 X118.608 Y105.802
G0 X111.794 Y109.208
G0 X106.81 Y111.789
G0 X101.178 Y114.517
G0 X100.298 Y114.553
;TYPE:WALL-OUTER
G1 F6000 E1.06137
G1 F600 X100.385 Y114.951 E1.06882
G1 X100.598 Y115.296 E1.07624
G1 X100.915 Y115.551 E1.08368
G1 X101.291 Y115.683 E1.09097
G1 X101.509 Y115.701 E1.09497
G1 X101.903 Y115.633 E1.10229
G1 X102.257 Y115.435 E1.10971
G1 X102.282 Y115.407 E1.11039
G1 X102.526 Y115.128 E1.11717
G1 X102.676 Y114.751 E1.1246
G1 X102.693 Y114.345 E1.13203
G1 X102.573 Y113.956 E1.13948
G1 X102.331 Y113.63 E1.1469
G1 X101.993 Y113.403 E1.15435
G1 X101.6 Y113.302 E1.16177
G1 X101.195 Y113.337 E1.16921
G1 X100.825 Y113.504 E1.17664
G1 X100.59 Y113.73 E1.1826
G1 X100.531 Y113.787 E1.1841
G1 X100.35 Y114.15 E1.19152
G1 X100.298 Y114.553 E1.19895
G0 F3600 X100.34 Y114.748
;;retract;;
G1 F6000 E-6.80105
G0 F3600 X101.178 Y114.517
G0 X101.202 Y105.62
G0 X100.298 Y105.553
G1 F6000 E1.19895
G1 F600 X100.385 Y105.951 E1.20641
G1 X100.598 Y106.296 E1.21382
G1 X100.605 Y106.302 E1.21399
G1 X100.915 Y106.551 E1.22127
G1 X101.291 Y106.683 E1.22856
G1 X101.509 Y106.701 E1.23256
G1 X101.903 Y106.633 E1.23987
G1 X102.257 Y106.435 E1.24729
G1 X102.526 Y106.128 E1.25476
G1 X102.676 Y105.751 E1.26218
G1 X102.693 Y105.345 E1.26961
G1 X102.573 Y104.956 E1.27706
G1 X102.331 Y104.63 E1.28449
G1 X102.261 Y104.583 E1.28603
G1 X101.993 Y104.403 E1.29194
G1 X101.6 Y104.302 E1.29936
G1 X101.195 Y104.337 E1.3068
G1 X100.825 Y104.504 E1.31422
G1 X100.74 Y104.586 E1.31638
G1 X100.599 Y104.721 E1.31995
G1 X100.531 Y104.787 E1.32169
G1 X100.35 Y105.15 E1.32911
G1 X100.298 Y105.553 E1.33654
G0 F3600 X100.34 Y105.748
;;retract;;
G1 F6000 E-6.66346
G0 F3600 X101.202 Y105.62
G0 X99.337 Y109.213
G0 X101.866 Y109.215
;TYPE:WALL-INNER
G1 F6000 E1.33654
G1 F600 X101.493 Y109.957 E1.35173
G1 X101.797 Y110.715 E1.36667
G1 X102.5 Y110.996 E1.38052
G1 X103.203 Y110.715 E1.39437
G1 X103.507 Y109.957 E1.40931
G1 X103.16 Y109.268 E1.42342
G1 X102.612 Y109.021 E1.43442
G1 X101.866 Y109.215 E1.44852
G0 F3600 X102.142 Y109.557
;TYPE:WALL-OUTER
G1 F600 X101.931 Y109.976 E1.4571
G1 X102.104 Y110.407 E1.4656
G1 X102.5 Y110.565 E1.4734
G1 X102.896 Y110.407 E1.48119
G1 X103.069 Y109.976 E1.48969
G1 X102.867 Y109.575 E1.4979
G1 X102.576 Y109.444 E1.50374
G1 X102.142 Y109.557 E1.51195
G0 F3600 X102.053 Y109.735
G0 X101.66 Y109.537
;;retract;;
G1 F6000 E-6.48805
G0 F3600 X99.336 Y109.535
G0 X106.476 Y111.422
G0 X110.117 Y112.6
G0 X118.178 Y114.517
G0 X117.298 Y114.553
G1 F6000 E1.51195
G1 F600 X117.385 Y114.951 E1.5194
G1 X117.598 Y115.296 E1.52682
G1 X117.748 Y115.417 E1.53034
G1 X117.915 Y115.551 E1.53426
G1 X118.291 Y115.683 E1.54155
G1 X118.509 Y115.701 E1.54555
G1 X118.903 Y115.633 E1.55286
G1 X119.257 Y115.435 E1.56028
G1 X119.282 Y115.407 E1.56097
G1 X119.416 Y115.253 E1.5647
G1 X119.526 Y115.128 E1.56775
G1 X119.676 Y114.751 E1.57517
G1 X119.693 Y114.345 E1.58261
G1 X119.573 Y113.956 E1.59005
G1 X119.418 Y113.747 E1.59481
G1 X119.331 Y113.63 E1.59748
G1 X118.993 Y113.403 E1.60493
G1 X118.6 Y113.302 E1.61235
G1 X118.195 Y113.337 E1.61979
G1 X117.825 Y113.504 E1.62721
G1 X117.531 Y113.787 E1.63468
G1 X117.35 Y114.15 E1.6421
G1 X117.298 Y114.553 E1.64953
G0 F3600 X117.34 Y114.748
G0 X116.91 Y114.841
G0 X114.866 Y112.215
;TYPE:WALL-INNER
G1 F600 X114.493 Y112.957 E1.66472
G1 X114.797 Y113.715 E1.67966
G1 X115.5 Y113.996 E1.69351
G1 X116.203 Y113.715 E1.70736
G1 X116.507 Y112.957 E1.7223
G1 X116.16 Y112.268 E1.73641
G1 X115.612 Y112.021 E1.74741
G1 X114.866 Y112.215 E1.76151
G0 F3600 X115.142 Y112.557
;TYPE:WALL-OUTER
G1 F600 X114.931 Y112.976 E1.77009
G1 X115.104 Y113.407 E1.77859
G1 X115.5 Y113.565 E1.78639
G1 X115.896 Y113.407 E1.79419
G1 X116.069 Y112.976 E1.80268
G1 X115.867 Y112.575 E1.8109
G1 X115.576 Y112.444 E1.81673
G1 X115.142 Y112.557 E1.82494
G0 F3600 X115.053 Y112.735
G0 X114.66 Y112.537
G0 X112.942 Y108.863
;TYPE:WALL-INNER
G1 F1500 X112.702 Y108.237 E1.8372
G1 X112.372 Y107.666 E1.84927
G1 X111.954 Y107.155 E1.86134
G1 X111.46 Y106.717 E1.87342
G1 X110.901 Y106.365 E1.8855
G1 X110.292 Y106.108 E1.8976
G1 X109.652 Y105.951 E1.90965
G1 X108.995 Y105.898 E1.92171
G1 X108.336 Y105.952 E1.9338
G1 X107.695 Y106.112 E1.94589
G1 X107.089 Y106.371 E1.95794
G1 X106.531 Y106.724 E1.97002
G1 X106.038 Y107.163 E1.9821
G1 X105.621 Y107.675 E1.99418
G1 X105.292 Y108.247 E2.00625
G1 X105.058 Y108.865 E2.01834
G1 X104.929 Y109.512 E2.03041
G1 X104.903 Y110.17 E2.04245
G1 X104.982 Y110.825 E2.05452
G1 X105.166 Y111.461 E2.06663
G1 X105.451 Y112.057 E2.07872
G1 X105.828 Y112.599 E2.0908
G1 X106.284 Y113.074 E2.10284
G1 X106.813 Y113.469 E2.11492
G1 X107.398 Y113.776 E2.127
G1 X108.023 Y113.984 E2.13905
G1 X108.67 Y114.089 E2.15104
G1 X109.337 Y114.088 E2.16325
G1 X109.987 Y113.981 E2.1753
G1 X110.614 Y113.772 E2.18739
G1 X111.198 Y113.463 E2.19947
G1 X111.724 Y113.066 E2.21153
G1 X112.181 Y112.59 E2.2236
G1 X112.555 Y112.045 E2.23569
G1 X112.837 Y111.449 E2.24775
G1 X113.02 Y110.812 E2.25988
G1 X113.098 Y110.158 E2.27192
G1 X113.071 Y109.503 E2.28392
G1 X112.942 Y108.863 E2.29586
G0 F3600 X112.557 Y108.975
;TYPE:WALL-OUTER
G1 F1500 X112.34 Y108.41 E2.30693
G1 X112.042 Y107.894 E2.31783
G1 X111.665 Y107.433 E2.32873
G1 X111.219 Y107.038 E2.33962
G1 X110.715 Y106.721 E2.35052
G1 X110.166 Y106.489 E2.36142
G1 X109.588 Y106.347 E2.37231
G1 X108.995 Y106.299 E2.38319
G1 X108.401 Y106.348 E2.39409
G1 X107.823 Y106.492 E2.40499
G1 X107.276 Y106.726 E2.41587
G1 X106.772 Y107.045 E2.42678
G1 X106.328 Y107.44 E2.43765
G1 X105.952 Y107.902 E2.44855
G1 X105.655 Y108.419 E2.45946
G1 X105.444 Y108.976 E2.47035
G1 X105.327 Y109.559 E2.48123
G1 X105.304 Y110.154 E2.49212
G1 X105.375 Y110.745 E2.50301
G1 X105.541 Y111.318 E2.51393
G1 X105.798 Y111.855 E2.52482
G1 X106.138 Y112.345 E2.53573
G1 X106.55 Y112.773 E2.54659
G1 X107.027 Y113.13 E2.55749
G1 X107.555 Y113.407 E2.5684
G1 X108.119 Y113.594 E2.57927
G1 X108.702 Y113.689 E2.59008
G1 X109.304 Y113.688 E2.60109
G1 X109.891 Y113.591 E2.61197
G1 X110.456 Y113.403 E2.62286
G1 X110.983 Y113.124 E2.63377
G1 X111.458 Y112.766 E2.64465
G1 X111.87 Y112.337 E2.65553
G1 X112.207 Y111.845 E2.66644
G1 X112.462 Y111.307 E2.67733
G1 X112.627 Y110.733 E2.68826
G1 X112.697 Y110.142 E2.69915
G1 X112.673 Y109.551 E2.70997
G1 X112.557 Y108.975 E2.72071
G0 F3600 X112.486 Y108.789
G0 X112.896 Y108.633
G0 X114.866 Y106.215
;TYPE:WALL-INNER
G1 F600 X114.493 Y106.957 E2.73591
G1 X114.797 Y107.715 E2.75085
G1 X115.5 Y107.996 E2.7647
G1 X116.203 Y107.715 E2.77855
G1 X116.507 Y106.957 E2.79348
G1 X116.16 Y106.268 E2.8076
G1 X115.612 Y106.021 E2.81859
G1 X114.866 Y106.215 E2.83269
G0 F3600 X115.142 Y106.557
;TYPE:WALL-OUTER
G1 F600 X114.931 Y106.976 E2.84128
G1 X115.104 Y107.407 E2.84977
G1 X115.5 Y107.565 E2.85757
G1 X115.896 Y107.407 E2.86537
G1 X116.069 Y106.976 E2.87387
G1 X115.867 Y106.575 E2.88208
G1 X115.576 Y106.444 E2.88792
G1 X115.142 Y106.557 E2.89612
G0 F3600 X115.053 Y106.735
G0 X114.66 Y106.537
;;retract;;
G1 F6000 E-5.10388
G0 F3600 X117.825 Y104.504
G1 F6000 E2.89612
G1 F600 X117.739 Y104.587 E2.89831
G1 X117.531 Y104.787 E2.90359
G1 X117.35 Y105.15 E2.91101
G1 X117.298 Y105.553 E2.91844
G1 X117.385 Y105.951 E2.92589
G1 X117.598 Y106.296 E2.93331
G1 X117.915 Y106.551 E2.94075
G1 X118.291 Y106.683 E2.94804
G1 X118.509 Y106.701 E2.95204
G1 X118.903 Y106.633 E2.95936
G1 X119.257 Y106.435 E2.96678
G1 X119.416 Y106.253 E2.9712
G1 X119.526 Y106.128 E2.97424
G1 X119.676 Y105.751 E2.98167
G1 X119.693 Y105.345 E2.9891
G1 X119.573 Y104.956 E2.99655
G1 X119.418 Y104.747 E3.00131
G1 X119.331 Y104.63 E3.00397
G1 X119.264 Y104.585 E3.00545
G1 X118.993 Y104.403 E3.01142
G1 X118.6 Y104.302 E3.01884
G1 X118.195 Y104.337 E3.02628
G1 X117.825 Y104.504 E3.03371
G0 F3600 X117.739 Y104.587
G0 X117.681 Y104.643
;;retract;;
G1 F6000 E-4.96629
G0 F3600 X119.8 Y104.203
G1 F6000 E3.03371
G1 F1500 X119.8 Y104.695 E3.04271
G1 X119.8 Y104.956 E3.0465
G1 X119.8 Y105.345 E3.04943
G1 X119.8 Y105.751 E3.05157
G1 X119.8 Y106.128 E3.05494
G1 X119.8 Y106.295 E3.05754
G1 X119.8 Y113.695 E3.19291
G1 X119.8 Y113.956 E3.19671
G1 X119.8 Y114.345 E3.19963
G1 X119.8 Y114.751 E3.20178
G1 X119.8 Y115.128 E3.20514
G1 X119.8 Y115.295 E3.20775
G1 X119.8 Y115.8 E3.21699
G1 X119.295 Y115.8 E3.22622
G1 X119.257 Y115.8 E3.22672
G1 X118.903 Y115.8 E3.23094
G1 X118.509 Y115.8 E3.23332
G1 X118.291 Y115.8 E3.2344
G1 X117.915 Y115.8 E3.23749
G1 X117.701 Y115.8 E3.24071
G1 X102.295 Y115.8 E3.52254
G1 X102.257 Y115.8 E3.52303
G1 X101.903 Y115.8 E3.52725
G1 X101.509 Y115.8 E3.52963
G1 X101.291 Y115.8 E3.53071
G1 X100.915 Y115.8 E3.5338
G1 X100.2 Y115.8 E3.54688
G1 X100.2 Y115.296 E3.55605
G1 X100.2 Y114.951 E3.56057
G1 X100.2 Y114.553 E3.56312
G1 X100.201 Y114.15 E3.56551
G1 X100.202 Y113.787 E3.56986
G1 X100.202 Y113.704 E3.57126
G1 X100.208 Y106.306 E3.70659
G1 X100.208 Y106.296 E3.70667
G1 X100.209 Y105.951 E3.71105
G1 X100.21 Y105.553 E3.71343
G1 X100.211 Y105.15 E3.71562
G1 X100.212 Y104.787 E3.71982
G1 X100.212 Y104.692 E3.7214
G1 X100.213 Y104.2 E3.7304
G1 X100.706 Y104.2 E3.73942
G1 X100.825 Y104.2 E3.74112
G1 X101.195 Y104.2 E3.74478
G1 X101.6 Y104.2 E3.74699
G1 X101.993 Y104.2 E3.7497
G1 X102.316 Y104.2 E3.75422
G1 X117.705 Y104.201 E4.03573
G1 X117.825 Y104.201 E4.03745
G1 X118.195 Y104.202 E4.04108
G1 X118.6 Y104.202 E4.04325
G1 X118.993 Y104.202 E4.04592
G1 X119.32 Y104.202 E4.05048
G1 X119.8 Y104.203 E4.05927
G0 F3600 X119.8 Y104.403
;;retract;;
G1 F6000 E-3.94073
G0 F3600 X118.723 Y105.268
G0 X116.787 Y104.842
;TYPE:SKIN
G1 F6000 E4.05927
G1 F600 X116.722 Y104.842 E4.06045
G1 X116.156 Y104.842 E4.07081
G1 X116.676 Y105.362 E4.08426
G1 X116.647 Y105.582 E4.08832
G1 X116.736 Y105.988 E4.09592
G1 X116.782 Y106.194 E4.09978
G1 X117.111 Y106.725 E4.11121
G1 X117.598 Y107.117 E4.12265
G0 F3600 X118.01 Y107.262
G1 F600 X119.158 Y108.41 E4.15235
G1 X119.158 Y107.845 E4.16268
G1 X118.641 Y107.327 E4.17607
G1 X119.119 Y107.244 E4.18495
G0 F3600 X119.122 Y107.243
G1 F600 X119.158 Y107.222 E4.18571
G0 F3600 X116.736 Y105.988
G1 F600 X115.59 Y104.842 E4.21536
G1 X115.025 Y104.842 E4.22569
G1 X116.208 Y106.026 E4.25631
G1 X115.633 Y105.767 E4.26784
G1 X115.435 Y105.818 E4.27158
G1 X114.459 Y104.842 E4.29683
G1 X113.892 Y104.842 E4.30721
G1 X114.986 Y105.935 E4.3355
G1 X114.699 Y106.01 E4.34092
G1 X114.631 Y106.145 E4.34369
G1 X113.327 Y104.842 E4.37741
G1 X112.761 Y104.842 E4.38776
G1 X114.442 Y106.522 E4.43124
G1 X114.253 Y106.899 E4.43895
G1 X112.195 Y104.842 E4.49218
G1 X111.63 Y104.842 E4.50252
G1 X114.56 Y107.772 E4.57832
G1 X114.611 Y107.899 E4.58082
