;FLAVOR:Marlin
;TIME:2648
;Filament used:0.507563m
;Layer height: 0.1
;MINX:98.182
;MINY:99.33
;MINZ:0.1
;MAXX:122.601
;MAXY:120.67
;MAXZ:15
                                 
;Creality Print GCode Generated by CXEngine:NO_MAGE_VERSION_GIT_HEAD_BRANCH
;CXEngine Release Time:2022-09-30 09:53:04
;Gcode Generated Time:2023-04-14 20:59:22
;----------Machine Config--------------
;Machine Name:Ender-3 V2
;Machine Height:250
;Machine Width:220
;Machine Depth:220
;Material name:PLA
;Number of Extruders:1
;ExtruderParams[0] Nozzle Diameter1000
;----------Profile Config---------------
;Engine Version:275f99b
;Engine Release Time:2022-09-30 09:42:18
;Layer Height:0.1
;Wall Thickness:0.8
;Top/Bottom Thickness:0.5
;Out Wall Line Width:0.4
;Inner Wall Line Width:0.4
;Inital Layer Height:100
;Wall Line Count:2
;Infill Line Distance:4
;Infill Pattern:grid
;Infill Sparse Density:20
;Infill Wipe Distance:0
;Print Temperature:200
;Bed Temperature:60
;Support Enable:true
;Support Density:0
;Support Angle:60
;Adhesion Type:none
;machine is belt:false
;machine belt offset:10
;machine belt offset Y:0
;Raft Base Line Spacing:1.6
;Wait Heatup Sync:true
;----------Shell Config----------------
;Outer Wall Wipe Distance:200
;Outer Inset First:false
;Infill Before Walls:false
;Infill Overlap:0.16
;Fill Gaps Between Walls:everywhere
;Minimum Infill Area:1
;Top Surface Skin Layer:0
;Top Layers:4
;Z Seam Alignment:sharpest_corner
;Seam Corner Preference:z_seam_corner_inner
;Z Seam X:110
;Z Seam Y:110
;Horizontal Expansion:0
;Top/Bottom Pattern:zigzag
;Ironing Pattern:zigzag
;Vase Model:false
;----------Support Config----------------
;Support Type:everywhere
;Support Pattern:zigzag
;Support Infill Layer Thickness:0.1
;Minimum Support Area:5
;Enable Support Roof:false
;Support Roof Thickness:0.8
;Support Roof Pattern:lines
;Connect Support Lines:0
;Connect Support ZigZags:1
;Minimum Support X/Y Distance:0.2
;Support Line Distance:0
; ---------PrintSpeed & Travel----------
;Enable Print Cool:true
;Avoid Printed Parts Traveling:true
;Enable Retraction:true
;Retraction Distance:8
;Retraction Speed:100
;Retraction Prime Speed:100
;Maximum Retraction Count:100
;Minimum Extrusion Distance Window:1
;Z Hop When Retracted:false
;Z Hop Height:0.2
;Retract Before Outer Wall:true
;Print Speed:50
;Infill Speed:50

;Prime Tower Speed:50
;Travel Speed:120
;Initial Layer Speed:25
;Skirt/Brim Speed:25
;Combing Mode:infill
; --------SpecialModel&Mesh Fixes--------
;Union Overlapping Volum:true
;Remove All Holes:false
;Maximum Travel Resolution:0.6
;Maximum Deviation:0.05
;Maximum Model Angle:0.872665
;IS Mold Print:false
;Make Overhang Printable:false
;Enable Coasting:false
;Coasting Volumes:0.06
;Coasting Speed:0.9
;Raft AirGap:0.25
;Layer0 ZOverLap:0.13
;---------------------End of Head--------------------------
M140 S60
M105
M104 S200
M105
M109 S200
M105
M190 S60
M82 ;absolute extrusion mode
M220 S100 ;Reset Feedrate
M221 S100 ;Reset Flowrate

G28 ;Home

G92 E0 ;Reset Extruder
G1 Z2.0 F3000 ;Move Z Axis up
G1 X10.1 Y20 Z0.28 F5000.0 ;Move to start position
G1 X10.1 Y145.0 Z0.28 F1500.0 E15 ;Draw the first line
G1 X10.4 Y145.0 Z0.28 F5000.0 ;Move to side a little
G1 X10.4 Y20 Z0.28 F1500.0 E30 ;Draw the second line
G92 E0  ;Reset Extruder
G1 E-1.0000 F1800 ;Retract a bit
G1 Z2.0 F3000 ;Move Z Axis up
G1 E0.0000 F1800 

G92 E0
G92 E0
G1 F6000 E-8

;LAYER_COUNT:150

;LAYER:0
M107
G0 F3600 X98.694 Y113.926 Z0.1
;TYPE:SUPPORT
G1 F6000 E0
G1 F1500 X99.626 Y113.248 E0.01687
G1 X100.774 Y113.248 E0.03367
G1 X101.706 Y113.926 E0.05053
G1 X102.062 Y115.018 E0.06734
G1 X101.706 Y116.11 E0.08415
G1 X100.774 Y116.788 E0.10102
G1 X99.626 Y116.788 E0.11782
G1 X98.694 Y116.11 E0.13468
G1 X98.338 Y115.018 E0.15149
G1 X98.694 Y113.926 E0.1683
;;retract;;
G1 F6000 E-7.8317
G0 F3600 X98.182 Y113.223
G0 X99.343 Y112.38
G0 X101.057 Y112.38
G0 X102.192 Y113.224
G0 X107.551 Y113.227
G0 X108.219 Y113.898
G1 F6000 E0.1683
G1 F1500 X108.222 Y113.844 E0.16909
G1 X108.28 Y113.815 E0.17004
G1 X108.219 Y113.898 E0.17155
G0 F3600 X110.272 Y112.9
G1 F1500 X110.937 Y112.9 E0.18128
G1 X110.881 Y113.002 E0.18298
G1 X110.272 Y112.9 E0.19202
;;retract;;
G1 F6000 E-7.80798
G0 F3600 X111.544 Y113.601
G0 X117.258 Y114.756
G0 X118.086 Y115.025
G1 F6000 E0.19202
G1 F1500 X118.452 Y113.903 E0.20929
G1 X119.41 Y113.205 E0.22664
G1 X120.59 Y113.205 E0.24391
G1 X121.548 Y113.903 E0.26125
G1 X121.914 Y115.025 E0.27852
G1 X121.548 Y116.147 E0.2958
G1 X120.59 Y116.845 E0.31314
G1 X119.41 Y116.845 E0.33041
G1 X118.452 Y116.147 E0.34776
G1 X118.086 Y115.025 E0.36503
;;retract;;
G1 F6000 E-7.63497
;MESH:
G0 F3600 X117.258 Y114.756
G0 X105.658 Y106.858
G0 X104.4 Y105.6
;TYPE:WALL-INNER
G1 F6000 E0.36503
G1 F1500 X104.4 Y110.6 E0.45649
G1 X115.055 Y110.6 E0.65141
G1 X115.53 Y110.373 E0.66104
G1 X115.6 Y110.34 E0.66245
G1 X115.6 Y105.6 E0.74916
G1 X104.4 Y105.6 E0.95405
G0 F3600 X104.8 Y106
;TYPE:WALL-OUTER
G1 F1500 X104.8 Y110.2 E1.03088
G1 X114.965 Y110.2 E1.21683
G1 X115.2 Y110.088 E1.22159
G1 X115.2 Y106 E1.29637
G1 X104.8 Y106 E1.48662
G0 F3600 X104.8 Y106.2
G0 X104.36 Y106.2
;;retract;;
G1 F6000 E-6.51338
G0 F3600 X105.658 Y106.858
G0 X106.3 Y109.33
G0 X106.3 Y111.3
;TYPE:WALL-INNER
G1 F6000 E1.48662
G1 F1500 X106.3 Y118.7 E1.62199
G1 X113.7 Y118.7 E1.75735
G1 X113.7 Y111.772 E1.88409
G1 X113.329 Y111.3 E1.89507
G1 X106.3 Y111.3 E2.02365
G0 F3600 X106.7 Y111.7
;TYPE:WALL-OUTER
G1 F1500 X106.7 Y118.3 E2.14439
G1 X113.3 Y118.3 E2.26512
G1 X113.3 Y111.91 E2.38201
G1 X113.135 Y111.7 E2.3869
G1 X106.7 Y111.7 E2.50462
G0 F3600 X106.7 Y111.9
G0 X106.26 Y111.9
;;retract;;
G1 F6000 E-5.49538
G0 F3600 X107.558 Y112.558
G0 X111.354 Y116.249
G0 X111.776 Y115.743
G0 X112.442 Y112.558
G0 X112.498 Y117.361
G0 X115.9 Y120.67
G0 X115.9 Y119.4
;TYPE:WALL-INNER
G1 F6000 E2.50462
G1 F1500 X104.1 Y119.4 E2.72047
G1 X104.1 Y110.6 E2.88145
G1 X104.1 Y105.6 E2.95022
G1 X104.1 Y100.6 E3.04169
G1 X115.9 Y100.6 E3.25755
G1 X115.9 Y105.6 E3.34901
G1 X115.9 Y110.34 E3.41421
G1 X115.9 Y110.418 E3.41549
G1 X115.9 Y119.4 E3.5798
G0 F3600 X116.3 Y119.8
;TYPE:WALL-OUTER
G1 F1500 X103.7 Y119.8 E3.81029
G1 X103.7 Y100.2 E4.16883
G1 X116.3 Y100.2 E4.39933
G1 X116.3 Y119.8 E4.75787
G0 F3600 X116.1 Y119.8
G0 X115.86 Y119.36
;;retract;;
G1 F6000 E-3.24213
G0 F3600 X115.86 Y120.67
G0 X106.06 Y120.67
G0 X106.06 Y118.939
;TYPE:SKIN
G1 F6000 E4.75787
G1 F1500 X106.06 Y118.505 E4.76581
G1 X104.339 Y116.785 E4.81032
G1 X104.339 Y116.219 E4.82067
G1 X106.06 Y117.939 E4.86518
G1 X106.06 Y117.374 E4.87552
G1 X104.339 Y115.653 E4.92004
G1 X104.339 Y115.087 E4.93039
G1 X106.06 Y116.808 E4.97492
G1 X106.06 Y116.242 E4.98527
G1 X104.339 Y114.522 E5.02978
G1 X104.339 Y113.956 E5.04013
G1 X106.06 Y115.677 E5.08466
G1 X106.06 Y115.111 E5.09501
G1 X104.339 Y113.39 E5.13953
G1 X104.339 Y112.825 E5.14987
G1 X106.06 Y114.545 E5.19438
G1 X106.06 Y113.979 E5.20473
G1 X104.339 Y112.259 E5.24924
G1 X104.339 Y111.693 E5.2596
G1 X106.06 Y113.414 E5.30412
G1 X106.06 Y112.848 E5.31447
G1 X104.339 Y111.128 E5.35898
G1 X104.339 Y110.839 E5.36427
G1 X104.617 Y110.84 E5.36936
G1 X106.06 Y112.282 E5.40667
G1 X106.06 Y111.717 E5.41701
G1 X105.183 Y110.84 E5.4397
G1 X105.749 Y110.84 E5.45005
G1 X106.06 Y111.151 E5.4581
G1 X106.06 Y111.059 E5.45978
G1 X106.534 Y111.059 E5.46845
G1 X106.314 Y110.84 E5.47413
G1 X106.88 Y110.84 E5.48448
G1 X107.099 Y111.059 E5.49015
G1 X107.665 Y111.059 E5.5005
G1 X107.446 Y110.84 E5.50617
G1 X108.011 Y110.84 E5.5165
G1 X108.231 Y111.059 E5.52218
G1 X108.796 Y111.059 E5.53252
G1 X108.577 Y110.84 E5.53818
G1 X109.143 Y110.84 E5.54854
G1 X109.362 Y111.059 E5.5542
G1 X109.928 Y111.059 E5.56456
G1 X109.709 Y110.84 E5.57022
G1 X110.274 Y110.84 E5.58056
G1 X110.493 Y111.059 E5.58622
G1 X111.059 Y111.059 E5.59658
G1 X110.84 Y110.84 E5.60224
G1 X111.406 Y110.84 E5.6126
G1 X111.625 Y111.059 E5.61826
G1 X112.19 Y111.059 E5.6286
G1 X111.971 Y110.84 E5.63426
G1 X112.537 Y110.84 E5.64462
G1 X112.756 Y111.059 E5.65028
G1 X113.322 Y111.059 E5.66064
G1 X113.103 Y110.84 E5.6663
G1 X113.668 Y110.84 E5.67664
G1 X115.66 Y112.831 E5.72816
G1 X115.66 Y112.265 E5.73851
G1 X114.234 Y110.84 E5.77539
G1 X114.8 Y110.84 E5.78575
G1 X115.66 Y111.7 E5.80799
G1 X115.66 Y111.134 E5.81835
G1 X115.283 Y110.757 E5.8281
G1 X115.659 Y110.576 E5.83573
;;retract;;
G1 F6000 E-2.16427
G0 F3600 X117.17 Y110.576
G0 X117.166 Y120.159
G0 X116.659 Y120.666
G0 X104.339 Y120.67
G0 X104.339 Y119.159
G1 F6000 E5.83573
G1 F1500 X104.45 Y119.158 E5.83777
G1 X104.339 Y119.047 E5.84064
G1 X104.339 Y118.482 E5.85097
G1 X105.016 Y119.158 E5.86847
G1 X105.582 Y119.158 E5.87883
G1 X104.339 Y117.916 E5.91097
G1 X104.339 Y117.35 E5.92133
G1 X106.148 Y119.158 E5.96811
G1 X106.713 Y119.158 E5.97845
G1 X106.494 Y118.939 E5.98411
G1 X107.06 Y118.939 E5.99447
G1 X107.279 Y119.158 E6.00013
G1 X107.845 Y119.158 E6.01049
G1 X107.625 Y118.939 E6.01617
G1 X108.191 Y118.939 E6.02652
G1 X108.41 Y119.158 E6.03218
G1 X108.976 Y119.158 E6.04254
G1 X108.757 Y118.939 E6.0482
G1 X109.322 Y118.939 E6.05854
G1 X109.542 Y119.158 E6.06422
G1 X110.107 Y119.158 E6.07455
G1 X109.888 Y118.939 E6.08022
G1 X110.454 Y118.939 E6.09057
G1 X110.673 Y119.158 E6.09624
G1 X111.239 Y119.158 E6.10659
G1 X111.02 Y118.939 E6.11226
G1 X111.585 Y118.939 E6.12259
G1 X111.804 Y119.158 E6.12826
G1 X112.37 Y119.158 E6.13861
G1 X112.151 Y118.939 E6.14428
G1 X112.717 Y118.939 E6.15463
G1 X112.936 Y119.158 E6.1603
G1 X113.501 Y119.158 E6.17063
G1 X113.282 Y118.939 E6.1763
G1 X113.848 Y118.939 E6.18665
G1 X114.067 Y119.158 E6.19232
G1 X114.633 Y119.158 E6.20267
G1 X113.939 Y118.465 E6.22061
G1 X113.939 Y117.899 E6.23097
G1 X115.199 Y119.158 E6.26355
G1 X115.66 Y119.158 E6.27198
G1 X115.66 Y119.054 E6.27389
G1 X113.939 Y117.333 E6.31841
G1 X113.939 Y116.768 E6.32875
G1 X115.66 Y118.488 E6.37326
G1 X115.66 Y117.922 E6.38361
G1 X113.939 Y116.202 E6.42812
G1 X113.939 Y115.636 E6.43847
G1 X115.66 Y117.357 E6.483
G1 X115.66 Y116.791 E6.49335
G1 X113.938 Y115.07 E6.53789
G1 X113.938 Y114.504 E6.54824
G1 X115.66 Y116.225 E6.59278
G1 X115.66 Y115.66 E6.60311
G1 X113.938 Y113.938 E6.64766
G1 X113.938 Y113.373 E6.658
G1 X115.66 Y115.094 E6.70253
G1 X115.66 Y114.528 E6.71288
G1 X113.938 Y112.807 E6.75742
G1 X113.938 Y112.241 E6.76777
G1 X115.66 Y113.962 E6.81231
G1 X115.66 Y113.397 E6.82265
G1 X113.891 Y111.628 E6.86841
G1 X113.444 Y111.06 E6.88163
;;retract;;
G1 F6000 E-1.11837
G0 F3600 X113.444 Y109.33
G0 X105.658 Y106.858
G0 X104.793 Y105.359
G1 F6000 E6.88163
G1 F1500 X105.359 Y105.359 E6.89199
G1 X104.339 Y104.339 E6.91837
G1 X104.339 Y103.773 E6.92873
G1 X105.925 Y105.359 E6.96976
G1 X106.49 Y105.359 E6.98009
G1 X104.339 Y103.207 E7.03575
G1 X104.339 Y102.642 E7.04609
G1 X107.056 Y105.359 E7.11638
G1 X107.622 Y105.359 E7.12673
G1 X104.339 Y102.076 E7.21167
G1 X104.339 Y101.51 E7.22202
G1 X108.188 Y105.359 E7.32159
G1 X108.753 Y105.359 E7.33193
G1 X104.339 Y100.945 E7.44612
G1 X104.339 Y100.84 E7.44804
G1 X104.8 Y100.84 E7.45647
G1 X109.319 Y105.359 E7.57338
G1 X109.885 Y105.359 E7.58374
G1 X105.365 Y100.84 E7.70066
G1 X105.931 Y100.84 E7.71101
G1 X110.45 Y105.359 E7.82792
G1 X111.016 Y105.359 E7.83827
G1 X106.497 Y100.84 E7.95518
G1 X107.063 Y100.84 E7.96554
G1 X111.582 Y105.359 E8.08244
G1 X112.147 Y105.359 E8.09278
G1 X107.628 Y100.84 E8.20969
G1 X108.194 Y100.84 E8.22004
G1 X112.713 Y105.359 E8.33695
G1 X113.279 Y105.359 E8.3473
G1 X108.76 Y100.84 E8.46421
G1 X109.325 Y100.84 E8.47455
G1 X113.844 Y105.359 E8.59145
G1 X114.41 Y105.359 E8.60181
G1 X109.891 Y100.84 E8.71872
G1 X110.457 Y100.84 E8.72907
G1 X114.976 Y105.359 E8.84598
G1 X115.541 Y105.359 E8.85631
G1 X111.022 Y100.84 E8.97322
G1 X111.588 Y100.84 E8.98358
G1 X115.659 Y104.911 E9.08889
G1 X115.659 Y104.345 E9.09925
G1 X112.154 Y100.84 E9.18992
G1 X112.719 Y100.84 E9.20026
G1 X115.659 Y103.779 E9.2763
G1 X115.659 Y103.214 E9.28664
G1 X113.285 Y100.84 E9.34806
G1 X113.851 Y100.84 E9.35841
G1 X115.659 Y102.648 E9.40518
G1 X115.659 Y102.082 E9.41554
G1 X114.416 Y100.84 E9.44768
G1 X114.982 Y100.84 E9.45803
G1 X115.659 Y101.517 E9.47555
G1 X115.659 Y100.951 E9.4859
G1 X115.548 Y100.84 E9.48877
G1 X115.659 Y100.839 E9.4908
;;retract;;
G1 F6000 E1.4908
G0 F3600 X115.659 Y99.33
G0 X103.341 Y99.334
G0 X102.834 Y99.841
G0 X102.83 Y104.904
G0 X104.339 Y104.904
G1 F6000 E9.4908
G1 F1500 X104.793 Y105.359 E9.50256
G1 X104.339 Y105.359 E9.51087
;;retract;;
G1 F6000 E1.51087
G0 F3600 X102.83 Y105.359
G0 X106.129 Y109.33
G0 X106.129 Y110.655
;TYPE:SKIN
G1 F6000 E9.51087
G1 F1500 X106.718 Y111.244 E9.51849
G0 F3600 X106.435 Y111.244
G1 F1500 X105.939 Y110.747 E9.52491
G0 F3600 X105.939 Y111.03
G1 F1500 X106.152 Y111.244 E9.52767
G0 F3600 X106.706 Y110.949
G1 F1500 X106.989 Y110.949 E9.5358
G1 X113.211 Y110.949 E9.71445
G1 X113.564 Y110.736 E9.72629
;;retract;;
G1 F6000 E1.72629
G0 F3600 X113.483 Y109.33
G0 X112.442 Y117.442
G0 X113.38 Y118.754
G1 F6000 E9.72629
G1 F1500 X113.97 Y119.344 E9.73392
G0 F3600 X113.861 Y118.952
G1 F1500 X114.003 Y118.811 E9.74053
G0 F3600 X113.392 Y119.049
G1 F1500 X113.109 Y119.049 E9.74866
G1 X106.321 Y119.049 E9.9436
G1 X105.995 Y119.288 E9.9552
;;retract;;
G1 F6000 E1.9552
G0 F3600 X106.05 Y120.67
G0 X108.525 Y117.5
G0 X107.558 Y117.442
G0 X109.037 Y116.666
G0 X111.442 Y113.768
G0 X110.152 Y114.374
;TYPE:WALL-INNER
G1 F6000 E9.9552
G1 F600 X110.358 Y114.467 E9.95934
G1 X110.514 Y114.617 E9.9633
G1 X110.614 Y114.814 E9.96734
G1 X110.641 Y115.025 E9.97123
G1 X110.594 Y115.242 E9.97529
G1 X110.483 Y115.422 E9.97916
G1 X110.314 Y115.558 E9.98313
G1 X110.106 Y115.632 E9.98717
G1 X109.894 Y115.632 E9.99105
G1 X109.686 Y115.558 E9.99508
G1 X109.517 Y115.422 E9.99905
G1 X109.406 Y115.242 E10.00292
G1 X109.359 Y115.025 E10.00698
G1 X109.386 Y114.814 E10.01087
G1 X109.486 Y114.617 E10.01492
G1 X109.642 Y114.467 E10.01887
G1 X109.848 Y114.374 E10.02301
G1 X110.152 Y114.374 E10.02857
G0 F3600 X110.26 Y113.984
;TYPE:WALL-OUTER
G1 F600 X110.585 Y114.131 E10.0351
G1 X110.841 Y114.377 E10.04159
G1 X111.002 Y114.695 E10.04811
G1 X111.046 Y115.042 E10.05451
G1 X110.971 Y115.392 E10.06106
G1 X110.787 Y115.69 E10.06746
G1 X110.511 Y115.913 E10.07395
G1 X110.175 Y116.032 E10.08048
G1 X109.825 Y116.032 E10.08688
G1 X109.489 Y115.913 E10.0934
G1 X109.213 Y115.69 E10.09989
G1 X109.029 Y115.392 E10.1063
G1 X108.954 Y115.042 E10.11284
G1 X108.998 Y114.695 E10.11924
G1 X109.159 Y114.377 E10.12576
G1 X109.415 Y114.131 E10.13226
G1 X109.74 Y113.984 E10.13878
G1 X110 Y113.951 E10.14358
G1 X110.26 Y113.984 E10.14837
G0 F3600 X110.442 Y114.066
G0 X110.261 Y114.467
G0 X110.382 Y114.886
;TYPE:SKIN
G1 F600 X110.317 Y114.761 E10.15095
G1 X110.218 Y114.665 E10.15347
G1 X110.102 Y114.612 E10.1558
G1 X110.088 Y114.613 E10.15606
G1 X110.385 Y114.911 E10.16376
G1 X110.397 Y115.015 E10.16567
G1 X110.368 Y115.149 E10.16818
G1 X110.3 Y115.261 E10.17058
G1 X110.227 Y115.318 E10.17227
G1 X110.194 Y115.345 E10.17305
G1 X110.065 Y115.391 E10.17556
G1 X109.933 Y115.391 E10.17797
G1 X109.804 Y115.345 E10.18048
G1 X109.7 Y115.261 E10.18292
G1 X109.631 Y115.148 E10.18534
G1 X109.601 Y115.015 E10.18784
G1 X109.618 Y114.886 E10.19022
G0 F3600 X109.677 Y114.768
G1 F600 X110.227 Y115.318 E10.20445
;;retract;;
G1 F6000 E2.20445
;MESH:NONMESH
G0 F600 X110.227 Y115.318 Z0.2
G0 F3600 X109.65 Y116.893
G0 X102.889 Y115.289
G0 X102.053 Y115.018
;TIME_ELAPSED:45.561596

;LAYER:1
M140 S60
M106 S127.5
;TYPE:SUPPORT
G1 F6000 E10.20445
G1 F2250 X101.699 Y116.105 E10.21966
G1 X100.771 Y116.78 E10.23492
G1 X99.629 Y116.78 E10.25012
G1 X98.701 Y116.105 E10.26538
G1 X98.347 Y115.018 E10.28059
G1 X98.701 Y113.931 E10.2958
G1 X99.629 Y113.256 E10.31107
G1 X100.771 Y113.256 E10.32626
G1 X101.699 Y113.931 E10.34153
G1 X102.053 Y115.018 E10.35674
;;retract;;
G1 F6000 E2.35674
G0 F5400 X102.88 Y114.748
G0 X107.552 Y113.132
G0 X108.283 Y113.746
G1 F6000 E10.35674
G1 F2250 X108.101 Y113.951 E10.36038
G1 X108.149 Y113.803 E10.36245
G1 X108.283 Y113.746 E10.36439
G0 F5400 X110.279 Y112.9
G1 F2250 X110.927 Y112.9 E10.37301
G1 X110.872 Y112.998 E10.37451
G1 X110.279 Y112.9 E10.3825
;;retract;;
G1 F6000 E2.3825
G0 F5400 X111.534 Y113.597
