;FLAVOR:Marlin
;TIME:1066
;Filament used:0.133283m
;Layer height: 0.1
;MINX:99.33
;MINY:103.33
;MINZ:0.1
;MAXX:120.67
;MAXY:116.67
;MAXZ:2
                                   
;Creality Print GCode Generated by CXEngine:NO_MAGE_VERSION_GIT_HEAD_BRANCH
;CXEngine Release Time:2022-09-30 09:53:04
;Gcode Generated Time:2023-04-15 18:31:00
;----------Machine Config--------------
;Machine Name:Ender-3 V2
;Machine Height:250
;Machine Width:220
;Machine Depth:220
;Material name:PLA
;Number of Extruders:1
;ExtruderParams[0] Nozzle Diameter1000
;----------Profile Config---------------
;Engine Version:275f99b
;Engine Release Time:2022-09-30 09:42:18
;Layer Height:0.1
;Wall Thickness:0.8
;Top/Bottom Thickness:0.5
;Out Wall Line Width:0.4
;Inner Wall Line Width:0.4
;Inital Layer Height:100
;Wall Line Count:2
;Infill Line Distance:4
;Infill Pattern:grid
;Infill Sparse Density:20
;Infill Wipe Distance:0
;Print Temperature:200
;Bed Temperature:60
;Support Enable:true
;Support Density:0
;Support Angle:60
;Adhesion Type:none
;machine is belt:false
;machine belt offset:10
;machine belt offset Y:0
;Raft Base Line Spacing:1.6
;Wait Heatup Sync:true
;----------Shell Config----------------
;Outer Wall Wipe Distance:200
;Outer Inset First:false
;Infill Before Walls:false
;Infill Overlap:0.16
;Fill Gaps Between Walls:everywhere
;Minimum Infill Area:1
;Top Surface Skin Layer:0
;Top Layers:4
;Z Seam Alignment:sharpest_corner
;Seam Corner Preference:z_seam_corner_inner
;Z Seam X:110
;Z Seam Y:110
;Horizontal Expansion:0
;Top/Bottom Pattern:zigzag
;Ironing Pattern:zigzag
;Vase Model:false
;----------Support Config----------------
;Support Type:everywhere
;Support Pattern:zigzag
;Support Infill Layer Thickness:0.1
;Minimum Support Area:5
;Enable Support Roof:false
;Support Roof Thickness:0.8
;Support Roof Pattern:lines
;Connect Support Lines:0
;Connect Support ZigZags:1
;Minimum Support X/Y Distance:0.2
;Support Line Distance:0
; ---------PrintSpeed & Travel----------
;Enable Print Cool:true
;Avoid Printed Parts Traveling:true
;Enable Retraction:true
;Retraction Distance:8
;Retraction Speed:100
;Retraction Prime Speed:100
;Maximum Retraction Count:100
;Minimum Extrusion Distance Window:1
;Z Hop When Retracted:false
;Z Hop Height:0.2
;Retract Before Outer Wall:true
;Print Speed:50
;Infill Speed:50

;Prime Tower Speed:50
;Travel Speed:120
;Initial Layer Speed:25
;Skirt/Brim Speed:25
;Combing Mode:infill
; --------SpecialModel&Mesh Fixes--------
;Union Overlapping Volum:true
;Remove All Holes:false
;Maximum Travel Resolution:0.6
;Maximum Deviation:0.05
;Maximum Model Angle:0.872665
;IS Mold Print:false
;Make Overhang Printable:false
;Enable Coasting:false
;Coasting Volumes:0.06
;Coasting Speed:0.9
;Raft AirGap:0.25
;Layer0 ZOverLap:0.13
;---------------------End of Head--------------------------
M140 S60
M105
M104 S200
M105
M109 S200
M105
M190 S60
M82 ;absolute extrusion mode
M220 S100 ;Reset Feedrate
M221 S100 ;Reset Flowrate

G28 ;Home

G92 E0 ;Reset Extruder
G1 Z2.0 F3000 ;Move Z Axis up
G1 X10.1 Y20 Z0.28 F5000.0 ;Move to start position
G1 X10.1 Y145.0 Z0.28 F1500.0 E15 ;Draw the first line
G1 X10.4 Y145.0 Z0.28 F5000.0 ;Move to side a little
G1 X10.4 Y20 Z0.28 F1500.0 E30 ;Draw the second line
G92 E0  ;Reset Extruder
G1 E-1.0000 F1800 ;Retract a bit
G1 Z2.0 F3000 ;Move Z Axis up
G1 E0.0000 F1800 

G92 E0
G92 E0
G1 F6000 E-8

;LAYER_COUNT:20

;LAYER:0
M107
;MESH:
G0 F3600 X117.576 Y115.4 Z0.1
;;retract;;
G0 X119.4 Y113.589
;TYPE:WALL-INNER
G1 F6000 E0
G1 F1500 X119.239 Y113.406 E0.00446
G1 X119.081 Y113.351 E0.00752
G1 X118.611 Y113.185 E0.01664
G1 X118.063 Y113.279 E0.02681
G1 X117.957 Y113.297 E0.02878
G1 X117.628 Y113.562 E0.0365
G1 X117.439 Y113.715 E0.04095
G1 X117.413 Y113.78 E0.04223
G1 X117.191 Y114.332 E0.05312
G1 X117.274 Y114.992 E0.06528
G1 X117.341 Y115.083 E0.06735
G1 X117.576 Y115.4 E0.07457
G1 X117.182 Y115.4 E0.07856
G1 X117.181 Y115.4 E0.07858
G1 X116.073 Y115.4 E0.09885
G1 X116.072 Y115.4 E0.09886
G1 X115.716 Y115.4 E0.10538
G1 X115.903 Y115.096 E0.10905
G1 X116.013 Y114.918 E0.11288
G1 X115.925 Y114.233 E0.12551
G1 X115.716 Y114.034 E0.13079
G1 X115.867 Y113.998 E0.13111
G1 X116.283 Y113.896 E0.13895
G1 X116.877 Y113.647 E0.15073
G1 X117.193 Y113.451 E0.15753
G1 X117.252 Y113.415 E0.15873
G1 X117.423 Y113.309 E0.1618
G1 X117.735 Y113.04 E0.16805
G1 X117.817 Y112.97 E0.16988
G1 X117.911 Y112.889 E0.17215
G1 X118.328 Y112.396 E0.18396
G1 X118.661 Y111.847 E0.19571
G1 X118.905 Y111.253 E0.20745
G1 X119.002 Y110.84 E0.21521
G1 X119.052 Y110.626 E0.21923
G1 X119.101 Y109.984 E0.23101
G1 X119.048 Y109.343 E0.24278
G1 X119.002 Y109.153 E0.24635
G1 X118.896 Y108.717 E0.25456
G1 X118.647 Y108.123 E0.26634
G1 X118.309 Y107.577 E0.27809
G1 X117.889 Y107.089 E0.28987
G1 X117.79 Y107.005 E0.29224
G1 X117.486 Y106.748 E0.29953
G1 X117.396 Y106.672 E0.30168
G1 X117.195 Y106.55 E0.30598
G1 X116.847 Y106.339 E0.31343
G1 X116.253 Y106.095 E0.32517
G1 X116.001 Y106.036 E0.32991
G1 X115.733 Y105.973 E0.33494
G1 X115.877 Y105.738 E0.33794
G1 X116.013 Y105.518 E0.34267
G1 X115.936 Y104.926 E0.35359
G1 X115.925 Y104.833 E0.35531
G1 X115.681 Y104.6 E0.36148
G1 X115.925 Y104.6 E0.36245
G1 X116.019 Y104.6 E0.3639
G1 X117.229 Y104.6 E0.38603
G1 X117.439 Y104.6 E0.38988
G1 X117.582 Y104.6 E0.39249
G1 X117.439 Y104.715 E0.39343
G1 X117.361 Y104.91 E0.39614
G1 X117.191 Y105.332 E0.40447
G1 X117.274 Y105.992 E0.41663
G1 X117.502 Y106.3 E0.42364
G1 X117.642 Y106.489 E0.42745
G1 X117.671 Y106.528 E0.42795
G1 X118.034 Y106.691 E0.43422
G1 X118.229 Y106.779 E0.43813
G1 X118.551 Y106.806 E0.44404
G1 X119.055 Y106.675 E0.45357
G1 X119.144 Y106.652 E0.45525
G1 X119.4 Y106.407 E0.46173
G1 X119.4 Y106.652 E0.46278
G1 X119.4 Y106.744 E0.46423
G1 X119.4 Y109.147 E0.50819
G1 X119.4 Y109.343 E0.51156
G1 X119.4 Y109.984 E0.52113
G1 X119.4 Y110.626 E0.53065
G1 X119.4 Y110.846 E0.53442
G1 X119.4 Y113.238 E0.57818
G1 X119.4 Y113.406 E0.57998
G1 X119.4 Y113.589 E0.58042
;;retract;;
G1 F6000 E-7.41958
G0 F3600 X117.93 Y115.206
;TYPE:WALL-OUTER
G1 F6000 E0.58042
G1 F600 X118.331 Y115.386 E0.58846
G1 X118.494 Y115.401 E0.59145
G1 X118.517 Y115.402 E0.59188
G1 X118.523 Y115.401 E0.59199
G1 X118.942 Y115.291 E0.59991
G1 X119.272 Y114.975 E0.60827
G1 X119.401 Y114.554 E0.61632
G1 X119.405 Y114.539 E0.61661
G1 X119.401 Y114.517 E0.61702
G1 X119.31 Y114.092 E0.62497
G1 X119.008 Y113.749 E0.63333
G1 X118.576 Y113.597 E0.64171
G1 X118.127 Y113.674 E0.65004
G1 X117.771 Y113.961 E0.6584
G1 X117.601 Y114.385 E0.66676
G1 X117.658 Y114.838 E0.67511
G1 X117.93 Y115.206 E0.68348
G0 F3600 X118.112 Y115.288
;;retract;;
G1 F6000 E-7.31652
G0 F3600 X118.493 Y114.508
G0 X114.574 Y112.796
G0 X114.254 Y114.024
G0 X114.25 Y115.4
;TYPE:WALL-INNER
G1 F6000 E0.68348
G1 F1500 X113.947 Y115.4 E0.68903
G1 X113.946 Y115.4 E0.68904
G1 X112.753 Y115.4 E0.71087
G1 X112.624 Y115.4 E0.71323
G1 X112.407 Y115.4 E0.7172
G1 X112.624 Y115.192 E0.71944
G1 X112.661 Y115.069 E0.72133
G1 X112.818 Y114.557 E0.73113
G1 X112.679 Y113.906 E0.74331
G1 X112.52 Y113.725 E0.74772
G1 X112.36 Y113.544 E0.75213
G1 X112.239 Y113.406 E0.75549
G1 X111.973 Y113.313 E0.76065
G1 X111.611 Y113.185 E0.76767
G1 X110.957 Y113.297 E0.77981
G1 X110.439 Y113.715 E0.79198
G1 X110.191 Y114.332 E0.80415
G1 X110.274 Y114.992 E0.81632
G1 X110.341 Y115.083 E0.81838
G1 X110.576 Y115.4 E0.8256
G1 X110.182 Y115.4 E0.82959
G1 X110.181 Y115.4 E0.82961
G1 X103.198 Y115.4 E0.95735
G1 X102.814 Y115.4 E0.96437
G1 X102.328 Y115.4 E0.97326
G1 X102.033 Y115.4 E0.97866
G1 X101.574 Y115.4 E0.98706
G1 X101.421 Y115.4 E0.98986
G1 X100.6 Y115.4 E1.00488
G1 X100.6 Y114.522 E1.02094
G1 X100.6 Y114.36 E1.0239
G1 X100.6 Y113.864 E1.03297
G1 X100.6 Y113.356 E1.04227
G1 X100.6 Y113.046 E1.04794
G1 X100.6 Y110.92 E1.08683
G1 X100.6 Y110.685 E1.09113
G1 X100.6 Y110.381 E1.09669
G1 X100.723 Y110.685 E1.09788
G1 X100.928 Y110.799 E1.10089
G1 X101.251 Y110.98 E1.10766
G1 X101.577 Y111.009 E1.11365
G1 X102.09 Y110.827 E1.1236
G1 X102.151 Y110.806 E1.12478
G1 X102.349 Y110.484 E1.1317
G1 X102.417 Y110.732 E1.13291
G1 X102.434 Y110.794 E1.13395
G1 X102.497 Y111.018 E1.13821
G1 X102.706 Y111.426 E1.14659
G1 X102.979 Y111.792 E1.15495
G1 X103.311 Y112.109 E1.16334
G1 X103.693 Y112.365 E1.17176
G1 X104.111 Y112.55 E1.18012
G1 X104.552 Y112.665 E1.18845
G1 X105.001 Y112.702 E1.1967
G1 X105.469 Y112.661 E1.20529
G1 X105.912 Y112.543 E1.21368
G1 X106.327 Y112.353 E1.22203
G1 X106.706 Y112.095 E1.23041
G1 X107.035 Y111.776 E1.2388
G1 X107.305 Y111.408 E1.24715
G1 X107.512 Y110.996 E1.25558
G1 X107.643 Y110.557 E1.26396
G1 X107.7 Y110.104 E1.27231
G1 X107.678 Y109.645 E1.28072
G1 X107.58 Y109.198 E1.28909
G1 X107.406 Y108.773 E1.29749
G1 X107.165 Y108.384 E1.30586
G1 X106.861 Y108.041 E1.31425
G1 X106.503 Y107.755 E1.32263
G1 X106.103 Y107.534 E1.33099
G1 X105.658 Y107.378 E1.33961
G1 X104.993 Y107.295 E1.35187
G1 X104.322 Y107.385 E1.36426
G1 X103.878 Y107.542 E1.37287
G1 X103.477 Y107.769 E1.3813
G1 X103.122 Y108.058 E1.38968
G1 X102.821 Y108.403 E1.39805
G1 X102.583 Y108.794 E1.40643
G1 X102.463 Y109.097 E1.41239
G1 X102.414 Y109.22 E1.41481
G1 X102.361 Y109.472 E1.41952
G1 X102.263 Y109.379 E1.41969
G1 X102.167 Y109.287 E1.42166
G1 X101.927 Y109.057 E1.42774
G1 X101.24 Y108.997 E1.44036
G1 X100.925 Y109.209 E1.4473
G1 X100.666 Y109.383 E1.45301
G1 X100.6 Y109.599 E1.45714
G1 X100.6 Y109.383 E1.45743
G1 X100.6 Y109.071 E1.46104
G1 X100.6 Y104.6 E1.54282
G1 X106.813 Y104.6 E1.65648
G1 X106.845 Y104.6 E1.65706
G1 X107.307 Y104.6 E1.66552
G1 X107.82 Y104.6 E1.6749
G1 X108.31 Y104.6 E1.68386
G1 X108.582 Y104.6 E1.68884
G1 X110.229 Y104.6 E1.71897
G1 X110.439 Y104.6 E1.72281
G1 X110.582 Y104.6 E1.72543
G1 X110.439 Y104.715 E1.72636
G1 X110.361 Y104.91 E1.72908
G1 X110.191 Y105.332 E1.7374
G1 X110.274 Y105.992 E1.74957
G1 X110.671 Y106.528 E1.76177
G1 X111.229 Y106.779 E1.77296
G1 X111.551 Y106.806 E1.77887
G1 X111.961 Y106.699 E1.78663
G1 X112.144 Y106.652 E1.79008
G1 X112.35 Y106.455 E1.7953
G1 X112.595 Y106.22 E1.80151
G1 X112.624 Y106.192 E1.80224
G1 X112.818 Y105.557 E1.81439
G1 X112.69 Y104.961 E1.82554
G1 X112.679 Y104.906 E1.82657
G1 X112.41 Y104.6 E1.83402
G1 X112.679 Y104.6 E1.83546
G1 X112.736 Y104.6 E1.83641
G1 X113.953 Y104.6 E1.85867
G1 X114.166 Y104.6 E1.86256
G1 X114.289 Y104.6 E1.86481
G1 X114.166 Y104.683 E1.8654
G1 X114.104 Y104.886 E1.86805
G1 X113.964 Y105.345 E1.87683
G1 X114.136 Y105.767 E1.88516
G1 X114.222 Y105.981 E1.88938
G1 X113.998 Y106.035 E1.892
G1 X113.717 Y106.104 E1.89729
G1 X113.123 Y106.353 E1.90908
G1 X112.866 Y106.512 E1.91461
G1 X112.577 Y106.691 E1.92027
G1 X112.348 Y106.888 E1.92472
G1 X112.205 Y107.011 E1.9278
G1 X112.089 Y107.111 E1.9306
G1 X111.672 Y107.604 E1.94241
G1 X111.339 Y108.153 E1.95415
G1 X111.095 Y108.747 E1.9659
G1 X110.948 Y109.374 E1.97768
G1 X110.899 Y110.016 E1.98946
G1 X110.952 Y110.657 E2.00123
G1 X111.104 Y111.283 E2.01301
G1 X111.353 Y111.877 E2.02479
G1 X111.691 Y112.423 E2.03654
G1 X112.111 Y112.911 E2.04832
G1 X112.214 Y112.998 E2.05078
G1 X112.429 Y113.18 E2.05528
G1 X112.604 Y113.328 E2.05863
G1 X112.81 Y113.453 E2.06263
G1 X113.153 Y113.661 E2.06997
G1 X113.747 Y113.905 E2.08172
G1 X114.016 Y113.968 E2.08677
G1 X114.183 Y114.007 E2.08991
G1 X114.254 Y114.024 E2.09124
G1 X114.166 Y114.083 E2.09181
G1 X114.116 Y114.247 E2.09402
G1 X113.964 Y114.745 E2.10355
G1 X114.129 Y115.122 E2.11108
G1 X114.25 Y115.4 E2.1143
;;retract;;
G1 F6000 E-5.8857
G0 F3600 X115 Y113.701
;TYPE:WALL-OUTER
G1 F6000 E2.1143
G1 F1500 X115.593 Y113.652 E2.12519
G1 X116.158 Y113.515 E2.13582
G1 X116.693 Y113.29 E2.14644
G1 X117.186 Y112.985 E2.15705
G1 X117.626 Y112.606 E2.16767
G1 X118.002 Y112.162 E2.17831
G1 X118.303 Y111.666 E2.18893
G1 X118.523 Y111.13 E2.19952
G1 X118.656 Y110.565 E2.21014
G1 X118.7 Y109.985 E2.22078
G1 X118.652 Y109.407 E2.23139
G1 X118.515 Y108.842 E2.24203
G1 X118.29 Y108.307 E2.25264
G1 X117.985 Y107.814 E2.26325
G1 X117.606 Y107.374 E2.27387
G1 X117.162 Y106.998 E2.28452
G1 X116.666 Y106.697 E2.29513
G1 X116.13 Y106.477 E2.30573
G1 X115.565 Y106.344 E2.31635
G1 X114.997 Y106.301 E2.32677
G1 X114.996 Y106.301 E2.32678
G1 X114.985 Y106.3 E2.32699
G1 X114.981 Y106.3 E2.32706
G1 X114.407 Y106.348 E2.3376
G1 X113.842 Y106.485 E2.34823
G1 X113.307 Y106.71 E2.35885
G1 X112.814 Y107.015 E2.36945
G1 X112.374 Y107.394 E2.38008
G1 X111.998 Y107.838 E2.39072
G1 X111.697 Y108.334 E2.40133
G1 X111.477 Y108.87 E2.41193
G1 X111.344 Y109.435 E2.42255
G1 X111.3 Y110.015 E2.43319
G1 X111.348 Y110.593 E2.4438
G1 X111.485 Y111.158 E2.45444
G1 X111.71 Y111.693 E2.46505
G1 X112.015 Y112.186 E2.47566
G1 X112.394 Y112.626 E2.48628
G1 X112.838 Y113.002 E2.49692
G1 X113.334 Y113.303 E2.50754
G1 X113.87 Y113.523 E2.51814
G1 X114.435 Y113.656 E2.52875
G1 X115 Y113.701 E2.53912
G0 F3600 X115.199 Y113.685
;;retract;;
G1 F6000 E-5.46088
G0 F3600 X114.507 Y114.336
G1 F6000 E2.53912
G1 F600 X114.388 Y114.726 E2.54658
G1 X114.541 Y115.104 E2.55404
G1 X114.872 Y115.289 E2.56098
G1 X115.026 Y115.303 E2.56381
G1 X115.384 Y115.176 E2.57076
G1 X115.598 Y114.829 E2.57821
G1 X115.546 Y114.424 E2.58568
G1 X115.252 Y114.143 E2.59312
G1 X114.846 Y114.108 E2.60058
G1 X114.507 Y114.336 E2.60805
G0 F3600 X114.449 Y114.527
G0 X114.028 Y114.398
;;retract;;
G1 F6000 E-5.39195
G0 F3600 X112.31 Y114.092
G1 F6000 E2.60805
G1 F600 X112.008 Y113.749 E2.61641
G1 X111.576 Y113.597 E2.62479
G1 X111.127 Y113.674 E2.63312
G1 X110.771 Y113.961 E2.64149
G1 X110.601 Y114.385 E2.64984
G1 X110.658 Y114.838 E2.6582
G1 X110.93 Y115.206 E2.66657
G1 X111.331 Y115.386 E2.67461
G1 X111.494 Y115.401 E2.6776
G1 X111.517 Y115.402 E2.67802
G1 X111.523 Y115.401 E2.67813
G1 X111.942 Y115.291 E2.68606
G1 X112.272 Y114.975 E2.69442
G1 X112.405 Y114.539 E2.70276
G1 X112.31 Y114.092 E2.71111
G0 F3600 X112.178 Y113.942
G0 X112.509 Y113.653
;;retract;;
G1 F6000 E-5.28889
G0 F3600 X111.507 Y114.492
G0 X102.088 Y113.721
G0 X100.853 Y113.356
;TYPE:WALL-INNER
G1 F6000 E2.71111
G1 F600 X100.794 Y113.864 E2.71638
G1 X100.905 Y114.36 E2.72225
G1 X100.991 Y114.497 E2.72487
G1 X101.177 Y114.79 E2.73122
G1 X101.455 Y115.014 E2.73775
G1 X101.574 Y115.109 E2.74018
G1 X102.033 Y115.266 E2.74507
G1 X102.328 Y115.29 E2.74673
G1 X102.814 Y115.204 E2.75025
G1 X103.148 Y115.015 E2.75554
G1 X103.258 Y114.952 E2.75786
G1 X103.59 Y114.566 E2.76718
G1 X103.778 Y114.09 E2.77654
G1 X103.794 Y113.582 E2.78584
G1 X103.642 Y113.096 E2.79515
G1 X103.334 Y112.687 E2.80452
G1 X102.91 Y112.407 E2.81381
G1 X102.42 Y112.282 E2.82306
G1 X101.908 Y112.33 E2.83247
G1 X101.445 Y112.544 E2.8418
G1 X101.08 Y112.9 E2.85113
G1 X100.991 Y113.079 E2.85479
G1 X100.853 Y113.356 E2.85944
G0 F3600 X101.242 Y113.472
;TYPE:WALL-OUTER
G1 F600 X101.199 Y113.843 E2.86627
G1 X101.28 Y114.205 E2.87305
G1 X101.479 Y114.52 E2.87987
G1 X101.77 Y114.753 E2.88669
G1 X102.115 Y114.871 E2.89336
G1 X102.309 Y114.887 E2.89692
G1 X102.676 Y114.822 E2.90374
G1 X103 Y114.638 E2.91055
G1 X103.243 Y114.356 E2.91736
G1 X103.38 Y114.008 E2.92421
G1 X103.392 Y113.637 E2.931
G1 X103.281 Y113.281 E2.93782
G1 X103.056 Y112.983 E2.94465
G1 X102.746 Y112.778 E2.95145
G1 X102.388 Y112.687 E2.9582
G1 X102.013 Y112.722 E2.96509
G1 X101.675 Y112.878 E2.9719
G1 X101.408 Y113.139 E2.97873
G1 X101.242 Y113.472 E2.98554
G0 F3600 X101.219 Y113.67
G0 X100.783 Y113.619
;;retract;;
G1 F6000 E-5.01446
G0 F3600 X102.088 Y113.721
G0 X99.33 Y109.636
G0 X101.007 Y109.636
G1 F6000 E2.98554
G1 F600 X100.888 Y110.026 E2.993
G1 X101.041 Y110.404 E3.00046
G1 X101.372 Y110.589 E3.0074
G1 X101.526 Y110.603 E3.01022
G1 X101.884 Y110.476 E3.01717
G1 X102.098 Y110.129 E3.02463
G1 X102.046 Y109.724 E3.0321
G1 X101.752 Y109.443 E3.03954
G1 X101.346 Y109.408 E3.04699
G1 X101.007 Y109.636 E3.05447
G0 F3600 X100.949 Y109.827
;;retract;;
G1 F6000 E-4.94553
G0 F3600 X99.33 Y109.827
G0 X104.998 Y108.574
G0 X104.995 Y107.698
G1 F6000 E3.05447
G1 F600 X104.416 Y107.776 E3.06516
G1 X104.044 Y107.907 E3.07237
G1 X103.704 Y108.1 E3.07952
G1 X103.401 Y108.347 E3.08667
G1 X103.145 Y108.64 E3.09379
G1 X102.942 Y108.973 E3.10092
G1 X102.798 Y109.336 E3.10807
G1 X102.718 Y109.717 E3.11519
