;FLAVOR:Marlin
;TIME:122
;Filament used:0.0194753m
;Layer height: 0.1
;MINX:105.83
;MINY:105.83
;MINZ:0.1
;MAXX:114.17
;MAXY:113.3
;MAXZ:1
                                   
;Creality Print GCode Generated by CXEngine:NO_MAGE_VERSION_GIT_HEAD_BRANCH
;CXEngine Release Time:2022-09-30 09:53:04
;Gcode Generated Time:2023-04-14 21:00:38
;----------Machine Config--------------
;Machine Name:Ender-3 V2
;Machine Height:250
;Machine Width:220
;Machine Depth:220
;Material name:PLA
;Number of Extruders:1
;ExtruderParams[0] Nozzle Diameter1000
;----------Profile Config---------------
;Engine Version:275f99b
;Engine Release Time:2022-09-30 09:42:18
;Layer Height:0.1
;Wall Thickness:0.8
;Top/Bottom Thickness:0.5
;Out Wall Line Width:0.4
;Inner Wall Line Width:0.4
;Inital Layer Height:100
;Wall Line Count:2
;Infill Line Distance:4
;Infill Pattern:grid
;Infill Sparse Density:20
;Infill Wipe Distance:0
;Print Temperature:200
;Bed Temperature:60
;Support Enable:true
;Support Density:0
;Support Angle:60
;Adhesion Type:none
;machine is belt:false
;machine belt offset:10
;machine belt offset Y:0
;Raft Base Line Spacing:1.6
;Wait Heatup Sync:true
;----------Shell Config----------------
;Outer Wall Wipe Distance:200
;Outer Inset First:false
;Infill Before Walls:false
;Infill Overlap:0.16
;Fill Gaps Between Walls:everywhere
;Minimum Infill Area:1
;Top Surface Skin Layer:0
;Top Layers:4
;Z Seam Alignment:sharpest_corner
;Seam Corner Preference:z_seam_corner_inner
;Z Seam X:110
;Z Seam Y:110
;Horizontal Expansion:0
;Top/Bottom Pattern:zigzag
;Ironing Pattern:zigzag
;Vase Model:false
;----------Support Config----------------
;Support Type:everywhere
;Support Pattern:zigzag
;Support Infill Layer Thickness:0.1
;Minimum Support Area:5
;Enable Support Roof:false
;Support Roof Thickness:0.8
;Support Roof Pattern:lines
;Connect Support Lines:0
;Connect Support ZigZags:1
;Minimum Support X/Y Distance:0.2
;Support Line Distance:0
; ---------PrintSpeed & Travel----------
;Enable Print Cool:true
;Avoid Printed Parts Traveling:true
;Enable Retraction:true
;Retraction Distance:8
;Retraction Speed:100
;Retraction Prime Speed:100
;Maximum Retraction Count:100
;Minimum Extrusion Distance Window:1
;Z Hop When Retracted:false
;Z Hop Height:0.2
;Retract Before Outer Wall:true
;Print Speed:50
;Infill Speed:50

;Prime Tower Speed:50
;Travel Speed:120
;Initial Layer Speed:25
;Skirt/Brim Speed:25
;Combing Mode:infill
; --------SpecialModel&Mesh Fixes--------
;Union Overlapping Volum:true
;Remove All Holes:false
;Maximum Travel Resolution:0.6
;Maximum Deviation:0.05
;Maximum Model Angle:0.872665
;IS Mold Print:false
;Make Overhang Printable:false
;Enable Coasting:false
;Coasting Volumes:0.06
;Coasting Speed:0.9
;Raft AirGap:0.25
;Layer0 ZOverLap:0.13
;---------------------End of Head--------------------------
M140 S60
M105
M104 S200
M105
M109 S200
M105
M190 S60
M82 ;absolute extrusion mode
M220 S100 ;Reset Feedrate
M221 S100 ;Reset Flowrate

G28 ;Home

G92 E0 ;Reset Extruder
G1 Z2.0 F3000 ;Move Z Axis up
G1 X10.1 Y20 Z0.28 F5000.0 ;Move to start position
G1 X10.1 Y145.0 Z0.28 F1500.0 E15 ;Draw the first line
G1 X10.4 Y145.0 Z0.28 F5000.0 ;Move to side a little
G1 X10.4 Y20 Z0.28 F1500.0 E30 ;Draw the second line
G92 E0  ;Reset Extruder
G1 E-1.0000 F1800 ;Retract a bit
G1 Z2.0 F3000 ;Move Z Axis up
G1 E0.0000 F1800 

G92 E0
G92 E0
G1 F6000 E-8

;LAYER_COUNT:10

;LAYER:0
M107
;MESH:
G0 F3600 X111.453 Y111.853 Z0.1
;TYPE:WALL-INNER
G1 F6000 E0
G1 F600 X111.917 Y111.37 E0.01225
G1 X112.23 Y110.761 E0.02478
G1 X112.355 Y110.086 E0.03734
G1 X112.28 Y109.404 E0.04989
G1 X112.012 Y108.772 E0.06244
G1 X111.573 Y108.245 E0.07499
G1 X111 Y107.866 E0.08756
G1 X110.343 Y107.669 E0.10011
G1 X109.657 Y107.669 E0.11266
G1 X109 Y107.866 E0.1252
G1 X108.427 Y108.245 E0.13777
G1 X107.988 Y108.772 E0.15032
G1 X107.72 Y109.404 E0.16287
G1 X107.645 Y110.086 E0.17543
G1 X107.77 Y110.761 E0.18798
G1 X108.084 Y111.371 E0.20053
G1 X108.56 Y111.866 E0.2131
G1 X109.173 Y112.206 E0.22592
G1 X109.816 Y112.345 E0.23795
G1 X110.21 Y112.343 E0.24516
G1 X110.858 Y112.195 E0.25732
G1 X111.453 Y111.853 E0.26987
G0 F3600 X111.204 Y111.535
;TYPE:WALL-OUTER
G1 F600 X111.588 Y111.135 E0.28002
G1 X111.847 Y110.63 E0.2904
G1 X111.951 Y110.071 E0.3008
G1 X111.889 Y109.506 E0.3112
G1 X111.667 Y108.983 E0.32159
G1 X111.303 Y108.546 E0.332
G1 X110.829 Y108.232 E0.3424
G1 X110.284 Y108.069 E0.3528
G1 X109.716 Y108.069 E0.36319
G1 X109.171 Y108.232 E0.3736
G1 X108.697 Y108.546 E0.384
G1 X108.333 Y108.983 E0.3944
G1 X108.111 Y109.506 E0.4048
G1 X108.049 Y110.071 E0.4152
G1 X108.153 Y110.63 E0.4256
G1 X108.413 Y111.136 E0.436
G1 X108.807 Y111.545 E0.44639
G1 X109.316 Y111.828 E0.45705
G1 X109.857 Y111.945 E0.46717
G1 X110.164 Y111.943 E0.47279
G1 X110.711 Y111.818 E0.48305
G1 X111.204 Y111.535 E0.49345
G0 F3600 X111.342 Y111.391
G0 X111.658 Y111.696
G0 X112.9 Y112.9
;TYPE:WALL-INNER
G1 F1500 X107.1 Y112.9 E0.59955
G1 X107.1 Y107.1 E0.70565
G1 X112.9 Y107.1 E0.81175
G1 X112.9 Y112.9 E0.91785
G0 F3600 X113.3 Y113.3
;TYPE:WALL-OUTER
G1 F1500 X106.7 Y113.3 E1.03858
G1 X106.7 Y106.7 E1.15932
G1 X113.3 Y106.7 E1.28005
G1 X113.3 Y113.3 E1.40079
G0 F3600 X113.1 Y113.3
G0 X112.86 Y112.86
;;retract;;
G1 F6000 E-6.59921
G0 F3600 X114.17 Y112.86
G0 X114.17 Y107.568
G0 X112.659 Y107.568
;TYPE:SKIN
G1 F6000 E1.40079
G1 F600 X112.431 Y107.34 E1.40669
G1 X111.865 Y107.34 E1.41704
G1 X112.659 Y108.134 E1.43758
G1 X112.659 Y108.699 E1.44792
G1 X111.3 Y107.34 E1.48307
G1 X110.734 Y107.34 E1.49343
G1 X111.012 Y107.618 E1.50062
G1 X110.377 Y107.428 E1.51274
G1 X110.257 Y107.428 E1.51494
G1 X110.168 Y107.34 E1.51723
G1 X109.602 Y107.34 E1.52758
G1 X109.691 Y107.428 E1.52987
G1 X109.621 Y107.429 E1.53115
G1 X109.24 Y107.543 E1.53843
G1 X109.037 Y107.34 E1.54368
G1 X108.471 Y107.34 E1.55403
G1 X108.824 Y107.693 E1.56317
G1 X108.483 Y107.917 E1.57063
G1 X107.905 Y107.34 E1.58557
G1 X107.339 Y107.339 E1.59592
G1 X108.173 Y108.173 E1.6175
G1 X107.916 Y108.482 E1.62485
G1 X107.339 Y107.905 E1.63978
G1 X107.339 Y108.47 E1.65011
G1 X107.701 Y108.832 E1.65948
G1 X107.533 Y109.23 E1.66738
G1 X107.339 Y109.036 E1.6724
G1 X107.339 Y109.602 E1.68275
G1 X107.445 Y109.708 E1.6855
G1 X107.403 Y110.094 E1.6926
G1 X107.434 Y110.262 E1.69572
G1 X107.339 Y110.167 E1.69818
G1 X107.339 Y110.733 E1.70854
G1 X107.642 Y111.036 E1.71638
G1 X107.887 Y111.512 E1.72617
G1 X108.411 Y112.057 E1.74
G0 F3600 X107.567 Y112.659
G1 F600 X108.133 Y112.659 E1.75035
G1 X107.339 Y111.864 E1.77091
G1 X107.339 Y111.299 E1.78124
G1 X108.699 Y112.659 E1.81643
G1 X109.264 Y112.659 E1.82676
G1 X108.977 Y112.371 E1.8342
G1 X109.088 Y112.432 E1.83652
G1 X109.746 Y112.574 E1.84883
G1 X109.83 Y112.659 E1.85102
G1 X110.396 Y112.659 E1.86137
G1 X110.305 Y112.567 E1.86374
G1 X110.765 Y112.462 E1.87237
G1 X110.962 Y112.659 E1.87746
G1 X111.527 Y112.659 E1.8878
G1 X111.164 Y112.295 E1.8972
G1 X111.523 Y112.089 E1.90478
G1 X112.093 Y112.659 E1.91952
G1 X112.659 Y112.659 E1.92988
G1 X111.817 Y111.817 E1.95166
G1 X112.094 Y111.529 E1.95897
G1 X112.659 Y112.094 E1.97359
G1 X112.659 Y111.528 E1.98394
G1 X112.292 Y111.16 E1.99345
G1 X112.458 Y110.838 E2.00007
G1 X112.47 Y110.773 E2.00128
G1 X112.659 Y110.962 E2.00617
G1 X112.659 Y110.397 E2.01651
G1 X112.558 Y110.295 E2.01913
G1 X112.596 Y110.095 E2.02286
G1 X112.555 Y109.727 E2.02963
G1 X112.659 Y109.831 E2.03232
G1 X112.659 Y109.265 E2.04268
G1 X112.35 Y108.955 E2.05068
G1 X112.219 Y108.645 E2.05684
G1 X111.734 Y108.064 E2.07068
G1 X111.102 Y107.645 E2.08455
G0 F3600 X112.431 Y107.34
G1 F600 X112.659 Y107.34 E2.08873
;;retract;;
G1 F6000 E-5.91127
G0 F3600 X112.659 Y105.83
G0 X106.341 Y105.834
G0 X105.834 Y106.341
G0 X105.83 Y112.43
G0 X107.339 Y112.43
G1 F6000 E2.08873
G1 F600 X107.567 Y112.659 E2.09464
G1 X107.34 Y112.659 E2.09879
G0 F3600 X108.843 Y112.803
G0 X108.863 Y112.823
;TYPE:SKIN
G1 F600 X109.033 Y112.71 E2.10276
G0 F3600 X109.45 Y112.844
G1 F600 X108.958 Y112.352 E2.10913
G0 F3600 X109.438 Y112.549
G1 F600 X109.76 Y112.588 E2.11848
G1 X110.622 Y112.601 E2.14336
G1 X110.963 Y112.377 E2.15513
G0 F3600 X111.088 Y112.502
G0 X112.478 Y111.063
G1 F600 X112.251 Y110.836 E2.15806
G0 F3600 X112.578 Y110.881
G1 F600 X112.6 Y110.62 E2.16521
G1 X112.595 Y109.766 E2.18852
G1 X112.525 Y109.414 E2.19831
G0 F3600 X112.361 Y108.967
G1 F600 X112.844 Y109.45 E2.20456
G0 F3600 X112.844 Y109.167
G1 F600 X112.596 Y108.919 E2.20776
G0 F3600 X111.164 Y107.77
G1 F600 X110.549 Y107.154 E2.21573
G0 F3600 X110.985 Y107.308
G1 F600 X111.16 Y107.2 E2.22092
G0 F3600 X110.575 Y107.463
G1 F600 X110.231 Y107.403 E2.23152
G1 X109.369 Y107.389 E2.2577
G0 F3600 X108.852 Y107.154
G1 F600 X109.388 Y107.69 E2.26464
G0 F3600 X109.009 Y107.595
G1 F600 X108.863 Y107.732 E2.27109
G0 F3600 X108.953 Y107.821
G0 X107.759 Y109.173
G1 F600 X107.529 Y108.943 E2.27407
G0 F3600 X107.423 Y109.12
G1 F600 X107.397 Y109.377 E2.28197
G1 X107.409 Y110.237 E2.3083
G1 X107.462 Y110.574 E2.31875
G0 F3600 X107.154 Y110.549
G1 F600 X107.639 Y111.033 E2.32502
G0 F3600 X107.41 Y111.087
G1 F600 X107.154 Y110.831 E2.32833
G0 F3600 X107.154 Y111.114
G1 F600 X107.183 Y111.143 E2.3287
;;retract;;
G1 F6000 E-5.6713
;MESH:NONMESH
G0 F600 X107.183 Y111.143 Z0.2
G0 F3600 X105.83 Y111.143
G0 X110.663 Y110.844
G0 X111.442 Y111.865
;TIME_ELAPSED:19.181839

;LAYER:1
M140 S60
M106 S127.5
;TYPE:WALL-INNER
;MESH:
G1 F6000 E2.3287
G1 F600 X111.916 Y111.371 E2.34009
G1 X112.23 Y110.761 E2.3515
G1 X112.355 Y110.086 E2.36291
G1 X112.28 Y109.404 E2.37432
G1 X112.012 Y108.772 E2.38574
G1 X111.573 Y108.245 E2.39715
G1 X111 Y107.866 E2.40857
G1 X110.343 Y107.669 E2.41998
G1 X109.657 Y107.669 E2.43139
G1 X109 Y107.866 E2.44279
G1 X108.427 Y108.245 E2.45422
G1 X107.988 Y108.772 E2.46562
G1 X107.72 Y109.404 E2.47704
G1 X107.645 Y110.086 E2.48845
G1 X107.77 Y110.761 E2.49987
G1 X108.084 Y111.371 E2.51127
G1 X108.559 Y111.865 E2.52267
G1 X109.159 Y112.202 E2.53412
G1 X109.812 Y112.346 E2.54524
G1 X110.238 Y112.338 E2.55232
G1 X110.843 Y112.201 E2.56264
G1 X111.442 Y111.865 E2.57406
G0 F5400 X111.194 Y111.545
;TYPE:WALL-OUTER
G1 F600 X111.587 Y111.136 E2.58349
G1 X111.847 Y110.63 E2.59295
G1 X111.951 Y110.071 E2.60241
G1 X111.889 Y109.506 E2.61186
G1 X111.667 Y108.983 E2.62131
G1 X111.303 Y108.546 E2.63077
G1 X110.829 Y108.232 E2.64022
G1 X110.284 Y108.069 E2.64968
G1 X109.716 Y108.069 E2.65913
G1 X109.171 Y108.232 E2.66859
G1 X108.697 Y108.546 E2.67804
G1 X108.333 Y108.983 E2.6875
G1 X108.111 Y109.506 E2.69695
G1 X108.049 Y110.071 E2.7064
G1 X108.153 Y110.63 E2.71586
G1 X108.413 Y111.136 E2.72532
G1 X108.806 Y111.545 E2.73475
G1 X109.303 Y111.824 E2.74423
G1 X109.852 Y111.945 E2.75358
G1 X110.19 Y111.939 E2.7592
G1 X110.698 Y111.824 E2.76786
G1 X111.194 Y111.545 E2.77733
G0 F5400 X111.332 Y111.401
G0 X111.648 Y111.706
G0 X112.9 Y112.9
;TYPE:WALL-INNER
G1 F1500 X107.1 Y112.9 E2.87378
G1 X107.1 Y107.1 E2.97024
G1 X112.9 Y107.1 E3.06669
G1 X112.9 Y112.9 E3.16315
G0 F5400 X113.3 Y113.3
;TYPE:WALL-OUTER
G1 F1500 X106.7 Y113.3 E3.2729
G1 X106.7 Y106.7 E3.38266
G1 X113.3 Y106.7 E3.49242
G1 X113.3 Y113.3 E3.60218
G0 F5400 X113.1 Y113.3
G0 X112.86 Y112.86
G0 X112.659 Y112.659
;TYPE:SKIN
G1 F600 X112.659 Y112.483 E3.60511
G1 X112.483 Y112.659 E3.60925
G1 X111.917 Y112.659 E3.61866
G1 X112.659 Y111.918 E3.6361
G1 X112.659 Y111.352 E3.64551
G1 X111.351 Y112.659 E3.67626
G1 X110.785 Y112.659 E3.68567
G1 X111.131 Y112.314 E3.6938
G1 X110.93 Y112.427 E3.69763
G1 X110.312 Y112.567 E3.70817
G1 X110.22 Y112.659 E3.71033
G1 X109.654 Y112.659 E3.71975
G1 X109.74 Y112.574 E3.72176
G1 X109.276 Y112.472 E3.72966
G1 X109.088 Y112.659 E3.73407
G1 X108.523 Y112.659 E3.74346
G1 X108.868 Y112.314 E3.75158
G1 X108.506 Y112.11 E3.75849
G1 X107.957 Y112.659 E3.7714
G1 X107.391 Y112.659 E3.78081
G1 X108.206 Y111.845 E3.79997
G1 X107.929 Y111.556 E3.80663
G1 X107.34 Y112.145 E3.82048
G1 X107.34 Y111.58 E3.82987
G1 X107.724 Y111.196 E3.83891
G1 X107.54 Y110.838 E3.8456
G1 X107.536 Y110.818 E3.84594
G1 X107.34 Y111.014 E3.85055
G1 X107.34 Y110.448 E3.85996
G1 X107.448 Y110.34 E3.8625
G1 X107.403 Y110.094 E3.86666
G1 X107.436 Y109.786 E3.87181
G1 X107.34 Y109.882 E3.87407
G1 X107.34 Y109.317 E3.88346
G1 X107.609 Y109.047 E3.8898
G0 F5400 X107.78 Y108.645
G1 F600 X108.264 Y108.063 E3.90239
G1 X108.896 Y107.646 E3.91498
G1 X109.059 Y107.597 E3.91781
G1 X109.621 Y107.429 E3.92757
G1 X109.793 Y107.429 E3.93043
G1 X109.883 Y107.339 E3.93255
G1 X110.449 Y107.339 E3.94196
G1 X110.359 Y107.429 E3.94407
G1 X110.377 Y107.428 E3.94437
G1 X110.799 Y107.555 E3.9517
G1 X111.015 Y107.339 E3.95678
G1 X111.58 Y107.339 E3.96618
G1 X111.205 Y107.714 E3.975
G1 X111.546 Y107.939 E3.98179
G1 X112.146 Y107.339 E3.9959
G1 X112.659 Y107.34 E4.00443
G1 X112.659 Y107.392 E4.0053
G1 X111.849 Y108.202 E4.02435
G1 X112.106 Y108.51 E4.03102
G1 X112.659 Y107.958 E4.04401
G1 X112.659 Y108.523 E4.05341
G1 X112.314 Y108.868 E4.06152
G1 X112.482 Y109.266 E4.06871
G1 X112.659 Y109.089 E4.07287
G1 X112.659 Y109.655 E4.08228
G1 X112.56 Y109.754 E4.08461
G1 X112.596 Y110.095 E4.09031
G1 X112.554 Y110.325 E4.0942
G1 X112.659 Y110.22 E4.09667
G1 X112.659 Y110.786 E4.10608
G1 X112.301 Y111.144 E4.1145
G0 F5400 X112.112 Y111.511
G1 F600 X111.591 Y112.056 E4.12704
G1 X111.131 Y112.314 E4.13581
;;retract;;
G1 F6000 E-3.86419
G0 F5400 X110.392 Y111
G0 X109.543 Y109.028
G0 X109.059 Y107.597
G1 F6000 E4.13581
G1 F600 X109.318 Y107.339 E4.14189
G1 X108.752 Y107.339 E4.15131
G1 X107.34 Y108.751 E4.18451
G1 X107.34 Y108.185 E4.19393
G1 X108.186 Y107.339 E4.21382
G1 X107.62 Y107.339 E4.22324
G1 X107.34 Y107.62 E4.22983
G1 X107.339 Y107.339 E4.23451
G0 F5400 X108.761 Y107.613
;TYPE:SKIN
G1 F600 X108.826 Y107.548 E4.23527
G0 F5400 X108.871 Y107.503
G1 F600 X109.219 Y107.154 E4.23937
G0 F5400 X109.176 Y107.48
G1 F600 X109.486 Y107.452 E4.24693
G1 X110.404 Y107.383 E4.26929
G1 X110.674 Y107.396 E4.27586
G0 F5400 X111.199 Y107.154
G1 F600 X110.65 Y107.703 E4.28231
G0 F5400 X110.996 Y107.64
G1 F600 X111.13 Y107.788 E4.28643
G0 F5400 X111.085 Y107.834
G0 X112.256 Y109.209
G1 F600 X112.535 Y108.93 E4.28971
G0 F5400 X112.589 Y109.158
G1 F600 X112.603 Y109.427 E4.29708
G1 X112.584 Y110.295 E4.32086
G1 X112.51 Y110.652 E4.33085
G0 F5400 X112.844 Y110.601
G1 F600 X112.4 Y111.045 E4.33607
G0 F5400 X112.628 Y111.099
G1 F600 X112.844 Y110.884 E4.3386
G0 F5400 X111.058 Y112.387
G1 F600 X110.601 Y112.844 E4.34398
G0 F5400 X110.884 Y112.844
G1 F600 X111.117 Y112.61 E4.34672
G0 F5400 X110.621 Y112.541
G1 F600 X110.297 Y112.582 E4.35551
G1 X109.425 Y112.606 E4.37898
G1 X109.047 Y112.418 E4.39034
G0 F5400 X108.895 Y112.57
G0 X107.591 Y111.045
G0 X107.678 Y110.958
G1 F600 X107.457 Y110.897 E4.39502
G1 X107.382 Y110.123 E4.4109
G1 X107.418 Y109.238 E4.42899
G1 X107.183 Y108.907 E4.43728
G0 F5400 X107.154 Y108.936
G0 X108.805 Y107.286
G1 F600 X108.936 Y107.154 E4.43883
;;retract;;
G1 F6000 E-3.56117
;MESH:NONMESH
G0 F600 X108.936 Y107.154 Z0.3
G0 F5400 X108.936 Y105.83
G0 X110.655 Y110.852
G0 X111.441 Y111.865
;TIME_ELAPSED:32.076820

;LAYER:2
M106 S255
;TYPE:WALL-INNER
;MESH:
G1 F6000 E4.43883
G1 F600 X111.916 Y111.371 E4.45022
G1 X112.23 Y110.761 E4.46163
G1 X112.355 Y110.086 E4.47305
G1 X112.28 Y109.404 E4.48446
G1 X112.012 Y108.772 E4.49588
G1 X111.573 Y108.245 E4.50728
G1 X111 Y107.866 E4.51871
G1 X110.343 Y107.669 E4.53011
G1 X109.657 Y107.669 E4.54152
G1 X109 Y107.866 E4.55293
G1 X108.427 Y108.245 E4.56435
G1 X107.988 Y108.772 E4.57576
G1 X107.72 Y109.404 E4.58718
G1 X107.645 Y110.086 E4.59859
G1 X107.77 Y110.761 E4.61
G1 X108.084 Y111.371 E4.62141
G1 X108.559 Y111.865 E4.63281
G1 X109.159 Y112.202 E4.64425
G1 X109.815 Y112.347 E4.65542
G1 X110.269 Y112.334 E4.66298
G1 X110.844 Y112.2 E4.6728
G1 X111.441 Y111.865 E4.68418
G0 F7200 X111.194 Y111.545
;TYPE:WALL-OUTER
G1 F600 X111.587 Y111.136 E4.69361
G1 X111.847 Y110.63 E4.70307
G1 X111.951 Y110.071 E4.71253
G1 X111.889 Y109.506 E4.72198
G1 X111.667 Y108.983 E4.73143
G1 X111.303 Y108.546 E4.74089
G1 X110.829 Y108.232 E4.75034
G1 X110.284 Y108.069 E4.7598
G1 X109.716 Y108.069 E4.76925
G1 X109.171 Y108.232 E4.77871
G1 X108.697 Y108.546 E4.78817
