;FLAVOR:Marlin
;TIME:5055
;Filament used:0.935044m
;Layer height: 0.1
;MINX:100.889
;MINY:89.333
;MINZ:0.1
;MAXX:119.111
;MAXY:130.666
;MAXZ:17.9
                            
;Creality Print GCode Generated by CXEngine:NO_MAGE_VERSION_GIT_HEAD_BRANCH
;CXEngine Release Time:2022-09-30 09:53:04
;Gcode Generated Time:2023-04-14 20:53:33
;----------Machine Config--------------
;Machine Name:Ender-3 V2
;Machine Height:250
;Machine Width:220
;Machine Depth:220
;Material name:PLA
;Number of Extruders:1
;ExtruderParams[0] Nozzle Diameter1000
;----------Profile Config---------------
;Engine Version:275f99b
;Engine Release Time:2022-09-30 09:42:18
;Layer Height:0.1
;Wall Thickness:0.8
;Top/Bottom Thickness:0.5
;Out Wall Line Width:0.4
;Inner Wall Line Width:0.4
;Inital Layer Height:100
;Wall Line Count:2
;Infill Line Distance:4
;Infill Pattern:grid
;Infill Sparse Density:20
;Infill Wipe Distance:0
;Print Temperature:200
;Bed Temperature:60
;Support Enable:true
;Support Density:0
;Support Angle:60
;Adhesion Type:none
;machine is belt:false
;machine belt offset:10
;machine belt offset Y:0
;Raft Base Line Spacing:1.6
;Wait Heatup Sync:true
;----------Shell Config----------------
;Outer Wall Wipe Distance:200
;Outer Inset First:false
;Infill Before Walls:false
;Infill Overlap:0.16
;Fill Gaps Between Walls:everywhere
;Minimum Infill Area:1
;Top Surface Skin Layer:0
;Top Layers:4
;Z Seam Alignment:sharpest_corner
;Seam Corner Preference:z_seam_corner_inner
;Z Seam X:110
;Z Seam Y:110
;Horizontal Expansion:0
;Top/Bottom Pattern:zigzag
;Ironing Pattern:zigzag
;Vase Model:false
;----------Support Config----------------
;Support Type:everywhere
;Support Pattern:zigzag
;Support Infill Layer Thickness:0.1
;Minimum Support Area:5
;Enable Support Roof:false
;Support Roof Thickness:0.8
;Support Roof Pattern:lines
;Connect Support Lines:0
;Connect Support ZigZags:1
;Minimum Support X/Y Distance:0.2
;Support Line Distance:0
; ---------PrintSpeed & Travel----------
;Enable Print Cool:true
;Avoid Printed Parts Traveling:true
;Enable Retraction:true
;Retraction Distance:8
;Retraction Speed:100
;Retraction Prime Speed:100
;Maximum Retraction Count:100
;Minimum Extrusion Distance Window:1
;Z Hop When Retracted:false
;Z Hop Height:0.2
;Retract Before Outer Wall:true
;Print Speed:50
;Infill Speed:50

;Prime Tower Speed:50
;Travel Speed:120
;Initial Layer Speed:25
;Skirt/Brim Speed:25
;Combing Mode:infill
; --------SpecialModel&Mesh Fixes--------
;Union Overlapping Volum:true
;Remove All Holes:false
;Maximum Travel Resolution:0.6
;Maximum Deviation:0.05
;Maximum Model Angle:0.872665
;IS Mold Print:false
;Make Overhang Printable:false
;Enable Coasting:false
;Coasting Volumes:0.06
;Coasting Speed:0.9
;Raft AirGap:0.25
;Layer0 ZOverLap:0.13
;---------------------End of Head--------------------------
M140 S60
M105
M104 S200
M105
M109 S200
M105
M190 S60
M82 ;absolute extrusion mode
M220 S100 ;Reset Feedrate
M221 S100 ;Reset Flowrate

G28 ;Home

G92 E0 ;Reset Extruder
G1 Z2.0 F3000 ;Move Z Axis up
G1 X10.1 Y20 Z0.28 F5000.0 ;Move to start position
G1 X10.1 Y145.0 Z0.28 F1500.0 E15 ;Draw the first line
G1 X10.4 Y145.0 Z0.28 F5000.0 ;Move to side a little
G1 X10.4 Y20 Z0.28 F1500.0 E30 ;Draw the second line
G92 E0  ;Reset Extruder
G1 E-1.0000 F1800 ;Retract a bit
G1 Z2.0 F3000 ;Move Z Axis up
G1 E0.0000 F1800 

G92 E0
G92 E0
G1 F6000 E-8

;LAYER_COUNT:179

;LAYER:0
M107
G0 F3600 X103.247 Y95.374 Z0.1
;TYPE:SUPPORT
G1 F6000 E0
G1 F1500 X104.493 Y95.521 E0.01836
G1 X104.34 Y95.632 E0.02113
G1 X103.602 Y95.632 E0.03193
G1 X103.247 Y95.374 E0.03835
;;retract;;
G1 F6000 E-7.96165
G0 F3600 X102.736 Y96.077
G0 X102.2 Y95.682
G0 X101.982 Y93.546
G0 X103.341 Y92.75
G0 X107.631 Y92.202
G0 X108.502 Y92.214
G1 F6000 E0.03835
G1 F1500 X108.51 Y91.725 E0.04551
G1 X108.737 Y91.824 E0.04913
G1 X109.457 Y91.295 E0.06221
G1 X108.884 Y92.082 E0.07645
G1 X109.107 Y92.416 E0.08233
G1 X108.502 Y92.214 E0.09166
G0 F3600 X110.511 Y92.199
G1 F1500 X110.719 Y91.566 E0.10142
G1 X111.391 Y91.247 E0.1123
G1 X111.407 Y91.3 E0.11311
G1 X110.918 Y91.905 E0.1245
G1 X111.268 Y92.328 E0.13253
G1 X110.511 Y92.199 E0.14377
G0 F3600 X110.005 Y93.788
G1 F1500 X110 Y96.606 E0.18501
G1 X110 Y93.79 E0.22622
G1 X110.005 Y93.788 E0.2263
;;retract;;
G1 F6000 E-7.7737
G0 F3600 X112.429 Y92.767
G0 X116.659 Y92.749
G0 X118.349 Y94.104
G0 X118.752 Y95.343
G0 X118.349 Y96.582
G0 X117.293 Y97.351
G0 X115.989 Y97.351
G0 X114.933 Y96.582
G0 X114.682 Y95.817
G0 X115.509 Y95.548
G1 F6000 E0.2263
G1 F1500 X117.096 Y95.33 E0.24974
G1 X117.398 Y94.485 E0.26287
G1 X117.611 Y94.64 E0.26673
G1 X117.84 Y95.343 E0.27755
G1 X117.611 Y96.046 E0.28837
G1 X117.01 Y96.483 E0.29924
G1 X116.272 Y96.483 E0.31004
G1 X115.671 Y96.046 E0.32092
G1 X115.509 Y95.548 E0.32858
;;retract;;
G1 F6000 E-7.67142
G0 F3600 X114.682 Y95.817
G0 X114.933 Y96.582
G0 X115.989 Y97.351
G0 X117.293 Y97.351
G0 X118.349 Y96.582
G0 X118.752 Y95.343
G0 X118.349 Y94.104
G0 X116.659 Y92.749
G0 X111.915 Y90.05
G0 X109.915 Y89.897
G0 X107.677 Y90.433
G0 X103.341 Y92.75
G0 X101.982 Y93.546
G0 X102.2 Y95.682
G0 X105.85 Y103.743
G0 X105.5 Y104.786
G1 F6000 E0.32858
G1 F1500 X105.5 Y108.314 E0.38021
G1 X104.713 Y107.753 E0.39436
G1 X104.321 Y106.55 E0.41287
G1 X104.713 Y105.347 E0.43139
G1 X105.5 Y104.786 E0.44553
;;retract;;
G1 F6000 E-7.55447
G0 F3600 X104.995 Y104.078
G0 X103.976 Y104.806
G0 X103.409 Y106.55
G0 X104.824 Y123.177
G0 X104.729 Y124.042
G1 F6000 E0.44553
G1 F1500 X105.5 Y124.127 E0.45688
G1 X105.5 Y126.221 E0.48753
G1 X104.729 Y126.306 E0.49888
G1 X104.139 Y125.877 E0.50956
G1 X103.91 Y125.174 E0.52038
G1 X104.139 Y124.471 E0.5312
G1 X104.729 Y124.042 E0.54187
;;retract;;
G1 F6000 E-7.45813
G0 F3600 X104.824 Y123.177
G0 X109.3 Y127.085
G0 X108.919 Y127.864
G1 F6000 E0.54187
G1 F1500 X109.217 Y127.973 E0.54652
G1 X109.526 Y127.894 E0.55118
G1 X109.354 Y128.409 E0.55913
G1 X108.678 Y128.628 E0.56953
G1 X108.919 Y127.864 E0.58125
G0 F3600 X110.722 Y128.647
G1 F1500 X111.137 Y127.901 E0.59374
G1 X111.246 Y127.952 E0.59551
G1 X111.632 Y127.853 E0.60134
G1 X111.569 Y128.235 E0.607
G1 X111.422 Y128.137 E0.60959
G1 X110.722 Y128.647 E0.62226
;;retract;;
G1 F6000 E-7.37774
G0 F3600 X111.443 Y129.188
G0 X112.195 Y129.677
G0 X114.416 Y127.148
G0 X114.5 Y126.282
G1 F6000 E0.62226
G1 F1500 X114.5 Y124.047 E0.65497
G1 X114.908 Y124.047 E0.66094
G1 X115.677 Y124.598 E0.67479
G1 X116.593 Y124.598 E0.68819
G1 X117.233 Y125.064 E0.69978
G1 X117.478 Y125.813 E0.71131
G1 X117.233 Y126.562 E0.72284
G1 X116.593 Y127.028 E0.73443
G1 X115.816 Y127.028 E0.7458
G1 X115.029 Y126.334 E0.76116
G1 X114.5 Y126.282 E0.76893
;;retract;;
G1 F6000 E-7.23107
;MESH:
G0 F3600 X114.416 Y127.148
G0 X115.489 Y127.895
G0 X116.876 Y127.896
G0 X117.971 Y127.098
G0 X118.391 Y125.813
G0 X118.752 Y95.343
G0 X118.349 Y94.104
G0 X116.659 Y92.749
G0 X112.899 Y92.746
G0 X112.9 Y94.016
;TYPE:WALL-INNER
G1 F6000 E0.76893
G1 F1500 X112.9 Y125.98 E1.35365
G1 X111.6 Y125.98 E1.37744
G1 X111.6 Y94.016 E1.96216
G1 X112.9 Y94.016 E1.98594
G0 F3600 X113.3 Y94.383
;TYPE:WALL-OUTER
G1 F1500 X113.3 Y126.38 E2.57126
G1 X111.2 Y126.38 E2.60968
G1 X111.2 Y93.616 E3.20903
G1 X116.1 Y93.615 E3.29867
G1 X116.3 Y93.615 E3.30232
G1 X116.3 Y93.815 E3.30469
G1 X116.3 Y94.382 E3.31507
G1 X113.3 Y94.383 E3.36995
G0 F3600 X113.3 Y94.583
G0 X112.86 Y94.583
;;retract;;
G1 F6000 E-4.63005
G0 F3600 X114.158 Y95.241
G0 X110.33 Y125.739
G0 X111.84 Y125.739
;TYPE:SKIN
G1 F6000 E3.36995
G1 F1500 X112.162 Y125.739 E3.37584
G1 X111.839 Y125.415 E3.3842
G1 X111.839 Y124.85 E3.39454
G1 X112.66 Y125.671 E3.41578
G1 X112.66 Y125.105 E3.42613
G1 X111.839 Y124.284 E3.44737
G1 X111.839 Y123.718 E3.45773
G1 X112.66 Y124.539 E3.47897
G1 X112.66 Y123.974 E3.4893
G1 X111.839 Y123.153 E3.51054
G1 X111.839 Y122.587 E3.5209
G1 X112.66 Y123.408 E3.54213
G1 X112.66 Y122.842 E3.55249
G1 X111.839 Y122.021 E3.57373
G1 X111.839 Y121.456 E3.58406
G1 X112.66 Y122.277 E3.6053
G1 X112.66 Y121.711 E3.61566
G1 X111.839 Y120.89 E3.6369
G1 X111.839 Y120.324 E3.64725
G1 X112.66 Y121.145 E3.66849
G1 X112.66 Y120.58 E3.67883
G1 X111.839 Y119.759 E3.70007
G1 X111.839 Y119.193 E3.71042
G1 X112.66 Y120.014 E3.73166
G1 X112.66 Y119.448 E3.74201
G1 X111.839 Y118.627 E3.76325
G1 X111.839 Y118.062 E3.77359
G1 X112.66 Y118.883 E3.79483
G1 X112.66 Y118.317 E3.80518
G1 X111.839 Y117.496 E3.82642
G1 X111.839 Y116.93 E3.83677
G1 X112.66 Y117.751 E3.85801
G1 X112.66 Y117.185 E3.86837
G1 X111.839 Y116.365 E3.88959
G1 X111.839 Y115.799 E3.89995
G1 X112.66 Y116.62 E3.92119
G1 X112.66 Y116.054 E3.93154
G1 X111.839 Y115.233 E3.95278
G1 X111.839 Y114.667 E3.96314
G1 X112.66 Y115.488 E3.98437
G1 X112.66 Y114.923 E3.99471
G1 X111.839 Y114.102 E4.01595
G1 X111.839 Y113.536 E4.0263
G1 X112.66 Y114.357 E4.04754
G1 X112.66 Y113.791 E4.0579
G1 X111.839 Y112.97 E4.07914
G1 X111.839 Y112.405 E4.08947
G1 X112.66 Y113.226 E4.11071
G1 X112.66 Y112.66 E4.12107
G1 X111.839 Y111.839 E4.14231
G1 X111.839 Y111.273 E4.15266
G1 X112.66 Y112.094 E4.1739
G1 X112.66 Y111.529 E4.18423
G1 X111.839 Y110.708 E4.20547
G1 X111.839 Y110.142 E4.21583
G1 X112.66 Y110.963 E4.23707
G1 X112.66 Y110.397 E4.24742
G1 X111.838 Y109.576 E4.26867
G1 X111.838 Y109.01 E4.27903
G1 X112.659 Y109.831 E4.30027
G1 X112.659 Y109.265 E4.31062
G1 X111.838 Y108.444 E4.33186
G1 X111.838 Y107.879 E4.3422
G1 X112.659 Y108.699 E4.36342
G1 X112.659 Y108.134 E4.37376
G1 X111.838 Y107.313 E4.395
G1 X111.838 Y106.747 E4.40535
G1 X112.659 Y107.568 E4.42659
G1 X112.659 Y107.002 E4.43695
G1 X111.838 Y106.181 E4.45818
G1 X111.838 Y105.616 E4.46852
G1 X112.659 Y106.437 E4.48976
G1 X112.659 Y105.871 E4.50011
G1 X111.838 Y105.05 E4.52135
G1 X111.838 Y104.484 E4.53171
G1 X112.659 Y105.305 E4.55295
G1 X112.659 Y104.74 E4.56328
G1 X111.838 Y103.919 E4.58452
G1 X111.838 Y103.353 E4.59488
G1 X112.659 Y104.174 E4.61612
G1 X112.659 Y103.608 E4.62647
G1 X111.838 Y102.787 E4.64771
G1 X111.838 Y102.222 E4.65804
G1 X112.659 Y103.043 E4.67928
G1 X112.659 Y102.477 E4.68964
G1 X111.838 Y101.656 E4.71088
G1 X111.838 Y101.09 E4.72123
G1 X112.659 Y101.911 E4.74247
G1 X112.659 Y101.346 E4.75281
G1 X111.838 Y100.525 E4.77405
G1 X111.838 Y99.959 E4.7844
G1 X112.659 Y100.78 E4.80564
G1 X112.659 Y100.214 E4.81599
G1 X111.838 Y99.393 E4.83723
G1 X111.838 Y98.828 E4.84757
G1 X112.659 Y99.649 E4.86881
G1 X112.659 Y99.083 E4.87916
G1 X111.838 Y98.262 E4.9004
G1 X111.838 Y97.696 E4.91075
G1 X112.659 Y98.517 E4.93199
G1 X112.659 Y97.951 E4.94235
G1 X111.838 Y97.131 E4.96357
G1 X111.838 Y96.565 E4.97393
G1 X112.659 Y97.386 E4.99517
G1 X112.659 Y96.82 E5.00552
G1 X111.838 Y95.999 E5.02676
G1 X111.838 Y95.433 E5.03712
G1 X112.659 Y96.254 E5.05835
G1 X112.659 Y95.689 E5.06869
G1 X111.838 Y94.868 E5.08993
G1 X111.838 Y94.302 E5.10028
G1 X112.659 Y95.123 E5.12152
G1 X112.659 Y94.557 E5.13188
G1 X112.357 Y94.255 E5.13969
G1 X112.659 Y94.255 E5.14521
G0 F3600 X112.966 Y94.299
;TYPE:SKIN
G1 F1500 X113.108 Y94.157 E5.15032
G0 F3600 X112.939 Y93.705
G1 F1500 X113.56 Y94.327 E5.15836
G0 F3600 X113.843 Y94.327
G1 F1500 X113.187 Y93.671 E5.16685
G0 F3600 X113.47 Y93.671
G1 F1500 X114.126 Y94.327 E5.17533
G0 F3600 X114.409 Y94.327
G1 F1500 X113.752 Y93.671 E5.18382
G0 F3600 X114.035 Y93.671
G1 F1500 X114.691 Y94.326 E5.1923
G0 F3600 X114.974 Y94.326
G1 F1500 X114.318 Y93.671 E5.20078
G0 F3600 X114.601 Y93.671
G1 F1500 X115.256 Y94.326 E5.20925
G0 F3600 X115.539 Y94.326
G1 F1500 X114.884 Y93.671 E5.21773
G0 F3600 X115.167 Y93.671
G1 F1500 X115.822 Y94.326 E5.2262
G0 F3600 X116.105 Y94.326
G1 F1500 X115.45 Y93.671 E5.23467
G0 F3600 X115.732 Y93.671
G1 F1500 X116.244 Y94.182 E5.24129
G0 F3600 X116.244 Y93.899
G1 F1500 X116.015 Y93.671 E5.24424
;;retract;;
G1 F6000 E-2.75576
G0 F3600 X116.014 Y92.746
G0 X111.915 Y90.05
G0 X109.915 Y89.897
G0 X107.677 Y90.433
G0 X107.635 Y92.757
G0 X107.1 Y94.015
;TYPE:WALL-INNER
G1 F6000 E5.24424
G1 F1500 X108.4 Y94.015 E5.26802
G1 X108.4 Y125.98 E5.85276
G1 X107.1 Y125.98 E5.87654
G1 X107.1 Y94.015 E6.46128
G0 F3600 X106.7 Y94.382
;TYPE:WALL-OUTER
G1 F1500 X106.5 Y94.382 E6.46494
G1 X103.9 Y94.383 E6.5125
G1 X103.7 Y94.383 E6.51616
G1 X103.7 Y94.183 E6.51853
G1 X103.7 Y93.616 E6.5289
G1 X108.6 Y93.615 E6.61854
G1 X108.8 Y93.615 E6.6222
G1 X108.8 Y93.815 E6.62457
G1 X108.8 Y126.38 E7.22028
G1 X106.7 Y126.38 E7.25869
G1 X106.7 Y94.582 E7.84038
G1 X106.7 Y94.382 E7.84275
G0 F3600 X106.5 Y94.382
;;retract;;
G1 F6000 E-0.15725
G0 F3600 X105.842 Y95.24
G0 X103.409 Y106.55
G0 X102.998 Y125.174
G0 X103.401 Y126.413
G0 X104.491 Y127.205
G0 X107.34 Y127.25
G0 X107.34 Y125.739
;TYPE:SKIN
G1 F6000 E7.84275
G1 F1500 X107.637 Y125.739 E7.84818
G1 X107.339 Y125.441 E7.85589
G1 X107.339 Y124.875 E7.86624
G1 X108.16 Y125.696 E7.88748
G1 X108.16 Y125.131 E7.89782
G1 X107.339 Y124.31 E7.91906
G1 X107.339 Y123.744 E7.92941
G1 X108.16 Y124.565 E7.95065
G1 X108.16 Y123.999 E7.96101
G1 X107.339 Y123.178 E7.98224
G1 X107.339 Y122.613 E7.99258
G1 X108.16 Y123.433 E8.01381
G1 X108.16 Y122.868 E8.02414
G1 X107.339 Y122.047 E8.04538
G1 X107.339 Y121.481 E8.05574
G1 X108.16 Y122.302 E8.07698
G1 X108.16 Y121.736 E8.08733
G1 X107.339 Y120.915 E8.10857
G1 X107.339 Y120.35 E8.1189
G1 X108.16 Y121.171 E8.14014
G1 X108.16 Y120.605 E8.1505
G1 X107.339 Y119.784 E8.17174
G1 X107.339 Y119.218 E8.18209
G1 X108.16 Y120.039 E8.20333
G1 X108.16 Y119.474 E8.21367
G1 X107.339 Y118.653 E8.23491
G1 X107.339 Y118.087 E8.24526
G1 X108.16 Y118.908 E8.2665
G1 X108.16 Y118.342 E8.27685
G1 X107.339 Y117.521 E8.29809
G1 X107.339 Y116.956 E8.30843
G1 X108.16 Y117.777 E8.32967
G1 X108.16 Y117.211 E8.34002
G1 X107.339 Y116.39 E8.36126
G1 X107.339 Y115.824 E8.37162
G1 X108.16 Y116.645 E8.39285
G1 X108.16 Y116.08 E8.40319
G1 X107.339 Y115.259 E8.42443
G1 X107.339 Y114.693 E8.43478
G1 X108.16 Y115.514 E8.45602
G1 X108.16 Y114.948 E8.46638
G1 X107.339 Y114.127 E8.48762
G1 X107.339 Y113.562 E8.49795
G1 X108.16 Y114.383 E8.51919
G1 X108.16 Y113.817 E8.52955
G1 X107.339 Y112.996 E8.55079
G1 X107.339 Y112.43 E8.56114
G1 X108.16 Y113.251 E8.58238
G1 X108.16 Y112.685 E8.59273
G1 X107.339 Y111.864 E8.61397
G1 X107.339 Y111.299 E8.62431
G1 X108.16 Y112.12 E8.64555
G1 X108.16 Y111.554 E8.6559
G1 X107.339 Y110.733 E8.67714
G1 X107.339 Y110.167 E8.68749
G1 X108.16 Y110.988 E8.70873
G1 X108.16 Y110.423 E8.71907
G1 X107.339 Y109.602 E8.74031
G1 X107.339 Y109.036 E8.75066
G1 X108.16 Y109.857 E8.7719
G1 X108.16 Y109.291 E8.78226
G1 X107.339 Y108.47 E8.8035
G1 X107.339 Y107.905 E8.81383
G1 X108.16 Y108.726 E8.83507
G1 X108.16 Y108.16 E8.84542
G1 X107.339 Y107.339 E8.86666
G1 X107.339 Y106.773 E8.87702
G1 X108.16 Y107.594 E8.89826
G1 X108.16 Y107.029 E8.90859
G1 X107.339 Y106.208 E8.92983
G1 X107.339 Y105.642 E8.94019
G1 X108.16 Y106.463 E8.96143
G1 X108.16 Y105.897 E8.97178
G1 X107.339 Y105.076 E8.99302
G1 X107.339 Y104.511 E9.00336
G1 X108.16 Y105.332 E9.02459
G1 X108.16 Y104.766 E9.03495
G1 X107.339 Y103.945 E9.05619
G1 X107.339 Y103.379 E9.06654
G1 X108.16 Y104.2 E9.08778
G1 X108.16 Y103.634 E9.09814
G1 X107.339 Y102.814 E9.11936
G1 X107.339 Y102.248 E9.12972
G1 X108.16 Y103.069 E9.15096
G1 X108.16 Y102.503 E9.16131
G1 X107.339 Y101.682 E9.18255
G1 X107.339 Y101.116 E9.1929
G1 X108.16 Y101.937 E9.21414
G1 X108.16 Y101.372 E9.22448
G1 X107.339 Y100.551 E9.24572
G1 X107.339 Y99.985 E9.25607
G1 X108.16 Y100.806 E9.27731
G1 X108.16 Y100.24 E9.28766
G1 X107.339 Y99.419 E9.3089
G1 X107.339 Y98.854 E9.31924
G1 X108.16 Y99.675 E9.34048
G1 X108.16 Y99.109 E9.35083
G1 X107.339 Y98.288 E9.37207
G1 X107.339 Y97.722 E9.38243
G1 X108.16 Y98.543 E9.40367
G1 X108.16 Y97.978 E9.414
G1 X107.339 Y97.157 E9.43524
G1 X107.339 Y96.591 E9.4456
G1 X108.16 Y97.412 E9.46683
G1 X108.16 Y96.846 E9.47719
G1 X107.339 Y96.025 E9.49843
G1 X107.339 Y95.46 E9.50876
G1 X108.16 Y96.281 E9.53
G1 X108.16 Y95.715 E9.54036
G1 X107.339 Y94.894 E9.5616
G1 X107.339 Y94.328 E9.57195
G1 X108.16 Y95.149 E9.59319
G1 X108.16 Y94.584 E9.60353
G1 X107.831 Y94.255 E9.61204
G1 X108.159 Y94.255 E9.61804
G0 F3600 X107.055 Y94.327
;TYPE:SKIN
G1 F1500 X106.398 Y93.67 E9.62654
G0 F3600 X106.115 Y93.67
G1 F1500 X106.772 Y94.327 E9.63503
