;FLAVOR:Marlin
;TIME:1254
;Filament used:0.182477m
;Layer height: 0.1
;MINX:101.33
;MINY:103.33
;MINZ:0.1
;MAXX:118.67
;MAXY:116.67
;MAXZ:5.2
                                
;Creality Print GCode Generated by CXEngine:NO_MAGE_VERSION_GIT_HEAD_BRANCH
;CXEngine Release Time:2022-09-30 09:53:04
;Gcode Generated Time:2023-04-15 18:38:45
;----------Machine Config--------------
;Machine Name:Ender-3 V2
;Machine Height:250
;Machine Width:220
;Machine Depth:220
;Material name:PLA
;Number of Extruders:1
;ExtruderParams[0] Nozzle Diameter1000
;----------Profile Config---------------
;Engine Version:275f99b
;Engine Release Time:2022-09-30 09:42:18
;Layer Height:0.1
;Wall Thickness:0.8
;Top/Bottom Thickness:0.5
;Out Wall Line Width:0.4
;Inner Wall Line Width:0.4
;Inital Layer Height:100
;Wall Line Count:2
;Infill Line Distance:4
;Infill Pattern:grid
;Infill Sparse Density:20
;Infill Wipe Distance:0
;Print Temperature:200
;Bed Temperature:60
;Support Enable:true
;Support Density:0
;Support Angle:60
;Adhesion Type:none
;machine is belt:false
;machine belt offset:10
;machine belt offset Y:0
;Raft Base Line Spacing:1.6
;Wait Heatup Sync:true
;----------Shell Config----------------
;Outer Wall Wipe Distance:200
;Outer Inset First:false
;Infill Before Walls:false
;Infill Overlap:0.16
;Fill Gaps Between Walls:everywhere
;Minimum Infill Area:1
;Top Surface Skin Layer:0
;Top Layers:4
;Z Seam Alignment:sharpest_corner
;Seam Corner Preference:z_seam_corner_inner
;Z Seam X:110
;Z Seam Y:110
;Horizontal Expansion:0
;Top/Bottom Pattern:zigzag
;Ironing Pattern:zigzag
;Vase Model:false
;----------Support Config----------------
;Support Type:everywhere
;Support Pattern:zigzag
;Support Infill Layer Thickness:0.1
;Minimum Support Area:5
;Enable Support Roof:false
;Support Roof Thickness:0.8
;Support Roof Pattern:lines
;Connect Support Lines:0
;Connect Support ZigZags:1
;Minimum Support X/Y Distance:0.2
;Support Line Distance:0
; ---------PrintSpeed & Travel----------
;Enable Print Cool:true
;Avoid Printed Parts Traveling:true
;Enable Retraction:true
;Retraction Distance:8
;Retraction Speed:100
;Retraction Prime Speed:100
;Maximum Retraction Count:100
;Minimum Extrusion Distance Window:1
;Z Hop When Retracted:false
;Z Hop Height:0.2
;Retract Before Outer Wall:true
;Print Speed:50
;Infill Speed:50

;Prime Tower Speed:50
;Travel Speed:120
;Initial Layer Speed:25
;Skirt/Brim Speed:25
;Combing Mode:infill
; --------SpecialModel&Mesh Fixes--------
;Union Overlapping Volum:true
;Remove All Holes:false
;Maximum Travel Resolution:0.6
;Maximum Deviation:0.05
;Maximum Model Angle:0.872665
;IS Mold Print:false
;Make Overhang Printable:false
;Enable Coasting:false
;Coasting Volumes:0.06
;Coasting Speed:0.9
;Raft AirGap:0.25
;Layer0 ZOverLap:0.13
;---------------------End of Head--------------------------
M140 S60
M105
M104 S200
M105
M109 S200
M105
M190 S60
M82 ;absolute extrusion mode
M220 S100 ;Reset Feedrate
M221 S100 ;Reset Flowrate

G28 ;Home

G92 E0 ;Reset Extruder
G1 Z2.0 F3000 ;Move Z Axis up
G1 X10.1 Y20 Z0.28 F5000.0 ;Move to start position
G1 X10.1 Y145.0 Z0.28 F1500.0 E15 ;Draw the first line
G1 X10.4 Y145.0 Z0.28 F5000.0 ;Move to side a little
G1 X10.4 Y20 Z0.28 F1500.0 E30 ;Draw the second line
G92 E0  ;Reset Extruder
G1 E-1.0000 F1800 ;Retract a bit
G1 Z2.0 F3000 ;Move Z Axis up
G1 E0.0000 F1800 

G92 E0
G92 E0
G1 F6000 E-8

;LAYER_COUNT:52

;LAYER:0
M107
;MESH:
G0 F3600 X110.535 Y114.276 Z0.1
;TYPE:WALL-INNER
G1 F6000 E0
G1 F1500 X110.462 Y114.158 E0.00254
G1 X110.026 Y114.195 E0.01054
G1 X109.423 Y114.248 E0.02162
G1 X109.395 Y114.251 E0.02213
G1 X109.35 Y114.363 E0.02434
G1 X109.019 Y115.175 E0.04038
G1 X109.186 Y115.4 E0.04551
G1 X109.019 Y115.4 E0.04592
G1 X102.6 Y115.4 E0.16334
G1 X102.6 Y114.298 E0.1835
G1 X102.6 Y114.192 E0.18544
G1 X102.6 Y113.994 E0.18906
G1 X102.847 Y114.192 E0.19191
G1 X102.947 Y114.226 E0.19354
G1 X103.256 Y114.332 E0.19951
G1 X103.529 Y114.354 E0.20452
G1 X103.962 Y114.277 E0.21257
G1 X104.362 Y114.051 E0.22097
G1 X104.664 Y113.701 E0.22943
G1 X104.83 Y113.275 E0.23779
G1 X104.846 Y112.817 E0.24618
G1 X104.708 Y112.378 E0.25459
G1 X104.431 Y112.012 E0.26299
G1 X104.049 Y111.758 E0.27138
G1 X103.606 Y111.647 E0.27974
G1 X103.146 Y111.688 E0.28819
G1 X102.921 Y111.793 E0.29273
G1 X102.73 Y111.882 E0.29658
G1 X102.6 Y112.008 E0.29989
G1 X102.6 Y111.882 E0.30003
G1 X102.6 Y111.671 E0.3028
G1 X102.6 Y108.298 E0.3645
G1 X102.6 Y108.192 E0.36644
G1 X102.6 Y107.994 E0.37006
G1 X102.847 Y108.192 E0.3729
G1 X102.947 Y108.226 E0.37453
G1 X103.256 Y108.332 E0.38051
G1 X103.529 Y108.354 E0.38552
G1 X103.962 Y108.277 E0.39357
G1 X104.362 Y108.051 E0.40197
G1 X104.664 Y107.701 E0.41043
G1 X104.83 Y107.275 E0.41879
G1 X104.846 Y106.817 E0.42717
G1 X104.708 Y106.378 E0.43559
G1 X104.431 Y106.012 E0.44399
G1 X104.049 Y105.758 E0.45238
G1 X103.606 Y105.647 E0.46073
G1 X103.146 Y105.688 E0.46918
G1 X102.921 Y105.793 E0.47372
G1 X102.73 Y105.882 E0.47758
G1 X102.6 Y106.008 E0.48089
G1 X102.6 Y105.882 E0.48103
G1 X102.6 Y105.671 E0.48379
G1 X102.6 Y104.6 E0.50339
G1 X105.674 Y104.6 E0.55962
G1 X105.895 Y104.6 E0.56366
G1 X106.962 Y104.6 E0.58318
G1 X107.312 Y104.6 E0.58958
G1 X112.674 Y104.6 E0.68767
G1 X112.895 Y104.6 E0.69171
G1 X113.962 Y104.6 E0.71123
G1 X114.312 Y104.6 E0.71763
G1 X117.4 Y104.6 E0.77412
G1 X117.4 Y108.728 E0.84964
G1 X117.4 Y108.758 E0.85019
G1 X117.4 Y108.991 E0.85445
G1 X117.049 Y108.758 E0.85917
G1 X117.02 Y108.751 E0.85969
G1 X116.606 Y108.647 E0.86749
G1 X116.146 Y108.688 E0.87594
G1 X115.73 Y108.882 E0.88434
G1 X115.402 Y109.201 E0.89271
G1 X115.198 Y109.612 E0.9011
G1 X115.144 Y110.068 E0.9095
G1 X115.244 Y110.518 E0.91794
G1 X115.489 Y110.905 E0.92631
G1 X115.847 Y111.192 E0.93471
G1 X116.256 Y111.332 E0.94262
G1 X116.529 Y111.354 E0.94763
G1 X116.962 Y111.277 E0.95567
G1 X117.096 Y111.194 E0.95855
G1 X117.4 Y111.007 E0.96508
G1 X117.4 Y111.363 E0.96875
G1 X117.4 Y111.364 E0.96877
G1 X117.4 Y115.4 E1.0426
G1 X110.987 Y115.4 E1.15991
G1 X110.789 Y115.4 E1.16354
G1 X110.987 Y115.007 E1.169
G1 X110.535 Y114.276 E1.18472
G0 F3600 X110.251 Y114.578
;TYPE:WALL-OUTER
G1 F600 X109.673 Y114.628 E1.19533
G1 X109.474 Y115.117 E1.20499
G1 X109.704 Y115.427 E1.21205
G1 X109.781 Y115.531 E1.21442
G1 X110.296 Y115.489 E1.22387
G1 X110.328 Y115.425 E1.22518
G1 X110.529 Y115.027 E1.23334
G1 X110.251 Y114.578 E1.243
G0 F3600 X110.052 Y114.595
G0 X110.016 Y114.157
;;retract;;
G1 F6000 E-6.757
G0 F3600 X110.01 Y112.828
G0 X103.524 Y113.067
G0 X103.042 Y113.836
G1 F6000 E1.243
G1 F600 X103.338 Y113.937 E1.24872
G1 X103.51 Y113.951 E1.25188
G1 X103.825 Y113.895 E1.25773
G1 X104.105 Y113.737 E1.26361
G1 X104.316 Y113.492 E1.26953
G1 X104.433 Y113.193 E1.2754
G1 X104.444 Y112.872 E1.28127
G1 X104.347 Y112.564 E1.28718
G1 X104.153 Y112.307 E1.29307
G1 X103.885 Y112.129 E1.29896
G1 X103.574 Y112.051 E1.30482
G1 X103.252 Y112.08 E1.31074
G1 X102.96 Y112.216 E1.31663
G1 X102.73 Y112.44 E1.3225
G1 X102.599 Y112.704 E1.32789
G1 X102.587 Y112.728 E1.32839
G1 X102.549 Y113.048 E1.33428
G1 X102.599 Y113.274 E1.33851
G1 X102.619 Y113.363 E1.34018
G1 X102.791 Y113.635 E1.34607
G1 X103.042 Y113.836 E1.35195
G0 F3600 X103.231 Y113.9
G0 X103.089 Y114.317
;;retract;;
G1 F6000 E-6.64805
G0 F3600 X103.445 Y113.047
G0 X103.445 Y107.047
G0 X103.042 Y107.836
G1 F6000 E1.35195
G1 F600 X103.338 Y107.937 E1.35767
G1 X103.51 Y107.951 E1.36083
G1 X103.825 Y107.895 E1.36668
G1 X104.105 Y107.737 E1.37256
G1 X104.316 Y107.492 E1.37848
G1 X104.433 Y107.193 E1.38435
G1 X104.444 Y106.872 E1.39023
G1 X104.347 Y106.564 E1.39614
G1 X104.153 Y106.307 E1.40203
G1 X103.885 Y106.129 E1.40791
G1 X103.574 Y106.051 E1.41378
G1 X103.252 Y106.08 E1.41969
G1 X102.96 Y106.216 E1.42558
G1 X102.73 Y106.44 E1.43146
G1 X102.599 Y106.704 E1.43685
G1 X102.587 Y106.728 E1.43734
G1 X102.549 Y107.048 E1.44323
G1 X102.599 Y107.274 E1.44747
G1 X102.619 Y107.363 E1.44914
G1 X102.791 Y107.635 E1.45502
G1 X103.042 Y107.836 E1.46091
G0 F3600 X103.231 Y107.9
G0 X103.089 Y108.317
;;retract;;
G1 F6000 E-6.53909
G0 F3600 X103.524 Y107.067
G0 X107.146 Y103.33
G0 X107.146 Y104.905
;TYPE:WALL-INNER
G1 F6000 E1.46091
G1 F600 X106.962 Y104.608 E1.46456
G1 X105.895 Y104.701 E1.46728
G1 X105.812 Y104.905 E1.47006
G1 X105.519 Y105.625 E1.48428
G1 X106.092 Y106.398 E1.50188
G1 X107.052 Y106.319 E1.5195
G1 X107.487 Y105.457 E1.53716
G1 X107.146 Y104.905 E1.54903
G0 F3600 X106.751 Y105.028
;TYPE:WALL-OUTER
G1 F600 X106.173 Y105.078 E1.55964
G1 X105.974 Y105.567 E1.5693
G1 X106.281 Y105.981 E1.57873
G1 X106.796 Y105.939 E1.58818
G1 X107.029 Y105.477 E1.59765
G1 X106.751 Y105.028 E1.60731
G0 F3600 X106.552 Y105.045
G0 X106.516 Y104.607
;;retract;;
G1 F6000 E-6.39269
G0 F3600 X106.516 Y103.33
G0 X110.829 Y107.294
G0 X111.202 Y106.077
;TYPE:WALL-INNER
G1 F6000 E1.60731
G1 F1500 X110.594 Y105.943 E1.6187
G1 X109.983 Y105.899 E1.6299
G1 X109.376 Y105.947 E1.64104
G1 X108.774 Y106.087 E1.65235
G1 X108.204 Y106.314 E1.66357
G1 X107.675 Y106.622 E1.67477
G1 X107.198 Y107.006 E1.68597
G1 X106.783 Y107.458 E1.6972
G1 X106.44 Y107.965 E1.70839
G1 X106.177 Y108.517 E1.71958
G1 X105.999 Y109.104 E1.7308
G1 X105.91 Y109.711 E1.74202
G1 X105.912 Y110.323 E1.75322
G1 X106.002 Y110.916 E1.76419
G1 X106.19 Y111.515 E1.77567
G1 X106.458 Y112.066 E1.78688
G1 X106.805 Y112.57 E1.79808
G1 X107.223 Y113.018 E1.80929
G1 X107.705 Y113.398 E1.82051
G1 X108.237 Y113.702 E1.83172
G1 X108.809 Y113.924 E1.84295
G1 X109.288 Y114.031 E1.85192
G1 X109.406 Y114.057 E1.85413
G1 X110.017 Y114.101 E1.85836
G1 X110.454 Y114.067 E1.86024
G1 X110.63 Y114.052 E1.86244
G1 X110.765 Y114.021 E1.86445
G1 X111.226 Y113.913 E1.87312
G1 X111.796 Y113.686 E1.88434
G1 X112.325 Y113.378 E1.89554
G1 X112.802 Y112.994 E1.90674
G1 X113.217 Y112.542 E1.91796
G1 X113.56 Y112.035 E1.92916
G1 X113.823 Y111.483 E1.94035
G1 X114.001 Y110.896 E1.95157
G1 X114.09 Y110.289 E1.96279
G1 X114.088 Y109.677 E1.97399
G1 X113.998 Y109.084 E1.98496
G1 X113.81 Y108.485 E1.99644
G1 X113.542 Y107.934 E2.00765
G1 X113.195 Y107.43 E2.01884
G1 X112.777 Y106.982 E2.03005
G1 X112.296 Y106.602 E2.04127
G1 X111.765 Y106.298 E2.05246
G1 X111.202 Y106.077 E2.06352
G0 F3600 X111.085 Y106.461
;TYPE:WALL-OUTER
G1 F1500 X110.536 Y106.34 E2.07381
G1 X109.984 Y106.3 E2.08393
G1 X109.438 Y106.343 E2.09395
G1 X108.894 Y106.47 E2.10417
G1 X108.38 Y106.675 E2.11429
G1 X107.902 Y106.953 E2.12441
G1 X107.472 Y107.299 E2.1345
G1 X107.098 Y107.707 E2.14463
G1 X106.788 Y108.164 E2.15473
G1 X106.551 Y108.662 E2.16482
G1 X106.39 Y109.192 E2.17495
G1 X106.31 Y109.739 E2.18507
G1 X106.312 Y110.292 E2.19518
G1 X106.393 Y110.826 E2.20506
G1 X106.563 Y111.367 E2.21544
G1 X106.805 Y111.864 E2.22555
G1 X107.118 Y112.319 E2.23565
G1 X107.495 Y112.723 E2.24576
G1 X107.929 Y113.066 E2.25588
G1 X108.409 Y113.34 E2.26599
G1 X108.925 Y113.54 E2.27611
G1 X109.464 Y113.66 E2.28621
G1 X110.016 Y113.7 E2.29634
G1 X110.568 Y113.656 E2.30647
G1 X111.106 Y113.53 E2.31658
G1 X111.62 Y113.325 E2.3267
G1 X112.098 Y113.047 E2.33681
G1 X112.528 Y112.701 E2.34691
G1 X112.902 Y112.293 E2.35704
G1 X113.212 Y111.836 E2.36714
G1 X113.449 Y111.338 E2.37723
G1 X113.61 Y110.808 E2.38736
G1 X113.69 Y110.261 E2.39747
G1 X113.688 Y109.708 E2.40759
G1 X113.607 Y109.174 E2.41747
G1 X113.437 Y108.633 E2.42784
G1 X113.195 Y108.136 E2.43795
G1 X112.882 Y107.681 E2.44806
G1 X112.505 Y107.277 E2.45816
G1 X112.071 Y106.934 E2.46828
G1 X111.592 Y106.66 E2.47838
G1 X111.085 Y106.461 E2.48834
G0 F3600 X110.89 Y106.418
G0 X110.985 Y105.99
;;retract;;
G1 F6000 E-5.51166
G0 F3600 X110.829 Y107.294
G0 X114.146 Y103.33
G0 X114.146 Y104.905
;TYPE:WALL-INNER
G1 F6000 E2.48834
G1 F600 X113.962 Y104.608 E2.49199
G1 X112.895 Y104.701 E2.49472
G1 X112.812 Y104.905 E2.49749
G1 X112.519 Y105.625 E2.51171
G1 X113.092 Y106.398 E2.52931
G1 X114.052 Y106.319 E2.54694
G1 X114.487 Y105.457 E2.5646
G1 X114.146 Y104.905 E2.57647
G0 F3600 X113.751 Y105.028
;TYPE:WALL-OUTER
G1 F600 X113.173 Y105.078 E2.58708
G1 X112.974 Y105.567 E2.59674
G1 X113.281 Y105.981 E2.60617
G1 X113.796 Y105.939 E2.61562
G1 X114.029 Y105.477 E2.62508
G1 X113.751 Y105.028 E2.63474
G0 F3600 X113.552 Y105.045
G0 X113.516 Y104.607
;;retract;;
G1 F6000 E-5.36526
G0 F3600 X113.516 Y103.33
G0 X116.448 Y110.048
G0 X116.042 Y110.836
G1 F6000 E2.63474
G1 F600 X116.338 Y110.937 E2.64047
G1 X116.51 Y110.951 E2.64362
G1 X116.825 Y110.895 E2.64948
G1 X117.105 Y110.737 E2.65536
G1 X117.316 Y110.492 E2.66127
G1 X117.402 Y110.274 E2.66556
G1 X117.433 Y110.193 E2.66714
G1 X117.444 Y109.872 E2.67302
G1 X117.401 Y109.736 E2.67563
G1 X117.347 Y109.564 E2.67893
G1 X117.153 Y109.307 E2.68482
G1 X116.885 Y109.129 E2.6907
G1 X116.574 Y109.051 E2.69657
G1 X116.252 Y109.08 E2.70248
G1 X115.96 Y109.216 E2.70838
G1 X115.73 Y109.44 E2.71425
G1 X115.587 Y109.728 E2.72013
G1 X115.549 Y110.048 E2.72603
G1 X115.619 Y110.363 E2.73193
G1 X115.791 Y110.635 E2.73782
G1 X116.042 Y110.836 E2.7437
G0 F3600 X116.231 Y110.9
G0 X116.089 Y111.317
;;retract;;
G1 F6000 E-5.2563
G0 F3600 X117.8 Y109.729
G1 F6000 E2.7437
G1 F1500 X117.8 Y109.872 E2.74617
G1 X117.8 Y110.193 E2.75148
G1 X117.8 Y110.28 E2.75301
G1 X117.8 Y115.8 E2.85398
G1 X110.368 Y115.8 E2.98994
G1 X110.296 Y115.8 E2.99113
G1 X109.781 Y115.8 E2.99796
G1 X109.651 Y115.8 E2.99999
G1 X102.2 Y115.8 E3.13629
G1 X102.2 Y113.28 E3.18239
G1 X102.2 Y113.048 E3.18637
G1 X102.2 Y112.728 E3.19175
G1 X102.2 Y112.701 E3.19224
G1 X102.2 Y107.28 E3.29141
G1 X102.2 Y107.048 E3.29538
G1 X102.2 Y106.728 E3.30077
G1 X102.2 Y106.701 E3.30125
G1 X102.2 Y104.2 E3.347
G1 X117.8 Y104.2 E3.63238
G1 X117.8 Y109.729 E3.73352
G0 F3600 X117.8 Y109.872
G0 X117.8 Y109.929
;;retract;;
G1 F6000 E-4.26648
G0 F3600 X118.67 Y109.929
G0 X118.67 Y104.839
G0 X117.159 Y104.839
;TYPE:SKIN
G1 F6000 E3.73352
G1 F600 X116.719 Y104.839 E3.74157
G1 X116.153 Y104.839 E3.75192
G1 X117.159 Y105.845 E3.77795
G1 X117.159 Y106.411 E3.7883
G1 X115.587 Y104.839 E3.82897
G1 X115.022 Y104.839 E3.83931
G1 X117.159 Y106.976 E3.89459
G1 X117.159 Y107.542 E3.90494
G1 X114.456 Y104.839 E3.97487
G1 X114.387 Y104.839 E3.97613
G1 X114.761 Y105.444 E3.98914
G1 X114.671 Y105.62 E3.99276
G1 X117.159 Y108.108 E4.05713
G1 X117.159 Y108.543 E4.06508
G1 X117.146 Y108.535 E4.06536
G1 X116.978 Y108.492 E4.06854
G1 X114.482 Y105.996 E4.13311
G1 X114.292 Y106.372 E4.14081
G1 X116.348 Y108.429 E4.19402
G1 X116.081 Y108.453 E4.19892
G1 X115.894 Y108.54 E4.20269
G1 X113.924 Y106.57 E4.25366
G1 X113.401 Y106.613 E4.26326
G1 X115.529 Y108.741 E4.31831
G1 X115.242 Y109.019 E4.32562
G1 X111.062 Y104.839 E4.43376
G1 X110.496 Y104.839 E4.44411
G1 X111.653 Y105.996 E4.47404
G1 X111.271 Y105.846 E4.48155
G1 X110.843 Y105.752 E4.48957
G1 X109.931 Y104.839 E4.51317
G1 X109.365 Y104.839 E4.52353
G1 X110.199 Y105.673 E4.5451
G1 X109.981 Y105.658 E4.5491
G1 X109.643 Y105.684 E4.5553
G1 X108.799 Y104.839 E4.57715
G1 X108.234 Y104.839 E4.58748
G1 X109.146 Y105.752 E4.61109
G1 X108.701 Y105.857 E4.61945
G1 X108.69 Y105.861 E4.61967
G1 X107.668 Y104.839 E4.64611
G1 X107.386 Y104.839 E4.65127
G1 X107.761 Y105.445 E4.6643
G1 X107.743 Y105.48 E4.66502
G1 X108.285 Y106.022 E4.67904
G1 X108.097 Y106.097 E4.68275
G1 X107.905 Y106.208 E4.6868
G1 X107.553 Y105.856 E4.69591
G1 X107.363 Y106.232 E4.70362
G1 X107.548 Y106.416 E4.70839
G1 X107.536 Y106.423 E4.70864
G1 X107.234 Y106.668 E4.71576
G1 X107.12 Y106.554 E4.71871
G1 X106.597 Y106.597 E4.72831
G1 X106.936 Y106.936 E4.73708
G1 X106.665 Y107.231 E4.74441
G1 X106.074 Y106.64 E4.75969
G0 F3600 X105.978 Y106.647
G1 F600 X105.681 Y106.247 E4.76881
G1 X105.245 Y105.659 E4.7822
G1 X105.365 Y105.365 E4.78801
G1 X104.839 Y104.839 E4.80162
G1 X105.405 Y104.839 E4.81197
G1 X105.579 Y104.839 E4.81515
G0 F3600 X105.529 Y104.963
G1 F600 X105.405 Y104.839 E4.81836
G0 F3600 X105.681 Y106.247
G1 F600 X104.274 Y104.839 E4.85477
G1 X103.708 Y104.839 E4.86513
G1 X106.425 Y107.557 E4.93543
G1 X106.23 Y107.844 E4.94178
G1 X106.204 Y107.901 E4.94292
G1 X105.087 Y106.784 E4.97182
G1 X105.068 Y107.323 E4.98169
G1 X105.066 Y107.328 E4.98178
G1 X106.022 Y108.284 E5.00652
G1 X105.952 Y108.43 E5.00948
