;FLAVOR:Marlin
;TIME:2486
;Filament used:0.681216m
;Layer height: 0.1
;MINX:100.601
;MINY:101.33
;MINZ:0.1
;MAXX:119.526
;MAXY:118.667
;MAXZ:23.6
                            
;Creality Print GCode Generated by CXEngine:NO_MAGE_VERSION_GIT_HEAD_BRANCH
;CXEngine Release Time:2022-09-30 09:53:04
;Gcode Generated Time:2023-04-14 20:57:06
;----------Machine Config--------------
;Machine Name:Ender-3 V2
;Machine Height:250
;Machine Width:220
;Machine Depth:220
;Material name:PLA
;Number of Extruders:1
;ExtruderParams[0] Nozzle Diameter1000
;----------Profile Config---------------
;Engine Version:275f99b
;Engine Release Time:2022-09-30 09:42:18
;Layer Height:0.1
;Wall Thickness:0.8
;Top/Bottom Thickness:0.5
;Out Wall Line Width:0.4
;Inner Wall Line Width:0.4
;Inital Layer Height:100
;Wall Line Count:2
;Infill Line Distance:4
;Infill Pattern:grid
;Infill Sparse Density:20
;Infill Wipe Distance:0
;Print Temperature:200
;Bed Temperature:60
;Support Enable:true
;Support Density:0
;Support Angle:60
;Adhesion Type:none
;machine is belt:false
;machine belt offset:10
;machine belt offset Y:0
;Raft Base Line Spacing:1.6
;Wait Heatup Sync:true
;----------Shell Config----------------
;Outer Wall Wipe Distance:200
;Outer Inset First:false
;Infill Before Walls:false
;Infill Overlap:0.16
;Fill Gaps Between Walls:everywhere
;Minimum Infill Area:1
;Top Surface Skin Layer:0
;Top Layers:4
;Z Seam Alignment:sharpest_corner
;Seam Corner Preference:z_seam_corner_inner
;Z Seam X:110
;Z Seam Y:110
;Horizontal Expansion:0
;Top/Bottom Pattern:zigzag
;Ironing Pattern:zigzag
;Vase Model:false
;----------Support Config----------------
;Support Type:everywhere
;Support Pattern:zigzag
;Support Infill Layer Thickness:0.1
;Minimum Support Area:5
;Enable Support Roof:false
;Support Roof Thickness:0.8
;Support Roof Pattern:lines
;Connect Support Lines:0
;Connect Support ZigZags:1
;Minimum Support X/Y Distance:0.2
;Support Line Distance:0
; ---------PrintSpeed & Travel----------
;Enable Print Cool:true
;Avoid Printed Parts Traveling:true
;Enable Retraction:true
;Retraction Distance:8
;Retraction Speed:100
;Retraction Prime Speed:100
;Maximum Retraction Count:100
;Minimum Extrusion Distance Window:1
;Z Hop When Retracted:false
;Z Hop Height:0.2
;Retract Before Outer Wall:true
;Print Speed:50
;Infill Speed:50

;Prime Tower Speed:50
;Travel Speed:120
;Initial Layer Speed:25
;Skirt/Brim Speed:25
;Combing Mode:infill
; --------SpecialModel&Mesh Fixes--------
;Union Overlapping Volum:true
;Remove All Holes:false
;Maximum Travel Resolution:0.6
;Maximum Deviation:0.05
;Maximum Model Angle:0.872665
;IS Mold Print:false
;Make Overhang Printable:false
;Enable Coasting:false
;Coasting Volumes:0.06
;Coasting Speed:0.9
;Raft AirGap:0.25
;Layer0 ZOverLap:0.13
;---------------------End of Head--------------------------
M140 S60
M105
M104 S200
M105
M109 S200
M105
M190 S60
M82 ;absolute extrusion mode
M220 S100 ;Reset Feedrate
M221 S100 ;Reset Flowrate

G28 ;Home

G92 E0 ;Reset Extruder
G1 Z2.0 F3000 ;Move Z Axis up
G1 X10.1 Y20 Z0.28 F5000.0 ;Move to start position
G1 X10.1 Y145.0 Z0.28 F1500.0 E15 ;Draw the first line
G1 X10.4 Y145.0 Z0.28 F5000.0 ;Move to side a little
G1 X10.4 Y20 Z0.28 F1500.0 E30 ;Draw the second line
G92 E0  ;Reset Extruder
G1 E-1.0000 F1800 ;Retract a bit
G1 Z2.0 F3000 ;Move Z Axis up
G1 E0.0000 F1800 

G92 E0
G92 E0
G1 F6000 E-8

;LAYER_COUNT:236

;LAYER:0
M107
G0 F3600 X101.613 Y110.452 Z0.1
;TYPE:SUPPORT
G1 F6000 E0
G1 F1500 X103.176 Y109.307 E0.02835
G1 X103.823 Y109.307 E0.03782
G1 X104.329 Y109.675 E0.04698
G1 X104.424 Y110.748 E0.06274
G1 X104.172 Y112.33 E0.08619
G1 X103.39 Y112.899 E0.10034
G1 X102.41 Y112.899 E0.11468
G1 X101.613 Y112.319 E0.12911
G1 X101.309 Y111.386 E0.14347
G1 X101.613 Y110.452 E0.15784
;;retract;;
G1 F6000 E-7.84216
G0 F3600 X101.099 Y109.751
G0 X102.893 Y108.439
G0 X104.106 Y108.439
G0 X105.156 Y109.206
G0 X105.33 Y110.032
G0 X105.334 Y118.144
G0 X105.841 Y118.65
G0 X114.158 Y118.667
G0 X114.666 Y118.159
G0 X114.635 Y110.651
G0 X115.458 Y110.497
G1 F6000 E0.15784
G1 F1500 X115.807 Y109.608 E0.17182
G1 X116.61 Y109.024 E0.18635
G1 X117.59 Y109.024 E0.20069
G1 X118.375 Y109.595 E0.2149
G1 X118.652 Y111.07 E0.23686
G1 X118.352 Y111.99 E0.25102
G1 X117.577 Y112.554 E0.26505
G1 X116.623 Y112.554 E0.27901
G1 X115.853 Y111.993 E0.29295
G1 X115.458 Y110.497 E0.3156
;;retract;;
G1 F6000 E-7.6844
;MESH:
G0 F3600 X114.648 Y110.179
G0 X114.658 Y107.658
G0 X113.4 Y106.1
;TYPE:WALL-INNER
G1 F6000 E0.3156
G1 F1500 X115.9 Y106.1 E0.36133
G1 X115.9 Y106.4 E0.36682
G1 X113.4 Y106.4 E0.4012
G1 X113.4 Y117.2 E0.59877
G1 X113.4 Y117.399 E0.60241
G1 X113.201 Y117.399 E0.60476
G1 X106.6 Y117.386 E0.72552
G1 X106.6 Y106.4 E0.92648
G1 X104.1 Y106.4 E0.97222
G1 X104.1 Y106.097 E0.97776
G1 X106.6 Y106.087 E1.013
G1 X106.6 Y102.801 E1.07311
G1 X106.6 Y102.602 E1.07676
G1 X106.799 Y102.602 E1.07911
G1 X113.4 Y102.619 E1.19986
G1 X113.4 Y106.1 E1.26354
G0 F3600 X113.8 Y105.7
;TYPE:WALL-OUTER
G1 F1500 X116.3 Y105.7 E1.30927
G1 X116.3 Y106.8 E1.3294
G1 X113.8 Y106.8 E1.37513
G1 X113.8 Y117.6 E1.57269
G1 X113.8 Y117.8 E1.57635
G1 X113.6 Y117.8 E1.57872
G1 X106.2 Y117.785 E1.71409
G1 X106.2 Y106.8 E1.91504
G1 X103.7 Y106.8 E1.96077
G1 X103.7 Y105.699 E1.98091
G1 X106.2 Y105.689 E2.02665
G1 X106.2 Y102.401 E2.08679
G1 X106.2 Y102.201 E2.09045
G1 X106.4 Y102.201 E2.09282
G1 X113.8 Y102.22 E2.22819
G1 X113.8 Y105.7 E2.29185
G0 F3600 X114 Y105.7
G0 X114 Y106.14
;;retract;;
G1 F6000 E-5.70815
G0 F3600 X114.658 Y104.842
G0 X114.67 Y102.859
G0 X113.159 Y102.859
;TYPE:SKIN
G1 F6000 E2.29185
G1 F1500 X113.041 Y102.859 E2.29401
G1 X113.159 Y102.977 E2.29706
G1 X113.159 Y103.543 E2.30742
G1 X112.474 Y102.857 E2.32515
G1 X111.907 Y102.856 E2.33552
G1 X113.159 Y104.108 E2.36791
G1 X113.159 Y104.674 E2.37827
G1 X111.34 Y102.855 E2.42532
G1 X110.773 Y102.853 E2.4357
G1 X113.159 Y105.24 E2.49744
G1 X113.159 Y105.805 E2.50777
G1 X110.206 Y102.852 E2.58417
G1 X109.639 Y102.85 E2.59454
G1 X113.159 Y106.371 E2.68562
G1 X113.159 Y106.937 E2.69597
G1 X109.071 Y102.849 E2.80173
G1 X108.504 Y102.847 E2.8121
G1 X113.159 Y107.502 E2.93253
G1 X113.159 Y108.068 E2.94288
G1 X107.937 Y102.845 E3.07799
G1 X107.369 Y102.844 E3.08838
G1 X113.159 Y108.634 E3.23817
G1 X113.159 Y109.199 E3.2485
G1 X106.839 Y102.879 E3.412
G1 X106.839 Y103.445 E3.42236
G1 X113.159 Y109.765 E3.58586
G1 X113.16 Y110.331 E3.59621
G1 X106.839 Y104.011 E3.75972
G1 X106.839 Y104.576 E3.77006
G1 X113.16 Y110.897 E3.93359
G1 X113.16 Y111.463 E3.94394
G1 X106.839 Y105.142 E4.10747
G1 X106.839 Y105.708 E4.11782
G1 X113.16 Y112.029 E4.28135
G1 X113.16 Y112.594 E4.29168
G1 X106.839 Y106.273 E4.45521
G1 X106.839 Y106.839 E4.46556
G1 X113.16 Y113.16 E4.62909
G1 X113.16 Y113.726 E4.63944
G1 X106.839 Y107.405 E4.80297
G1 X106.839 Y107.97 E4.8133
G1 X113.16 Y114.291 E4.97683
G1 X113.16 Y114.857 E4.98718
G1 X106.839 Y108.536 E5.15071
G1 X106.839 Y109.102 E5.16106
G1 X113.16 Y115.423 E5.32459
G1 X113.16 Y115.988 E5.33493
G1 X106.839 Y109.668 E5.49844
G1 X106.839 Y110.233 E5.50878
G1 X113.16 Y116.554 E5.6723
G1 X113.16 Y117.12 E5.68266
G1 X106.839 Y110.799 E5.84618
G1 X106.839 Y111.365 E5.85654
G1 X112.631 Y117.156 E6.00636
G1 X112.064 Y117.155 E6.01674
G1 X106.839 Y111.93 E6.15191
G1 X106.839 Y112.496 E6.16226
G1 X111.498 Y117.154 E6.28278
G1 X110.93 Y117.153 E6.29317
G1 X106.839 Y113.062 E6.399
G1 X106.839 Y113.627 E6.40934
G1 X110.364 Y117.152 E6.50053
G1 X109.797 Y117.151 E6.51091
G1 X106.839 Y114.193 E6.58743
G1 X106.839 Y114.759 E6.59778
G1 X109.23 Y117.149 E6.65963
G1 X108.663 Y117.149 E6.67
G1 X106.839 Y115.324 E6.7172
G1 X106.839 Y115.89 E6.72755
G1 X108.096 Y117.147 E6.76007
G1 X107.529 Y117.146 E6.77044
G1 X106.839 Y116.456 E6.78829
G1 X106.839 Y117.021 E6.79863
G1 X106.963 Y117.145 E6.80184
G1 X106.84 Y117.145 E6.80409
;;retract;;
G1 F6000 E-1.19591
;MESH:NONMESH
G0 F600 X106.84 Y117.145 Z0.2
G0 F3600 X105.33 Y117.145
G0 X105.302 Y111.417
G0 X105.195 Y109.608
G0 X104.33 Y109.684
;TIME_ELAPSED:26.126894

;LAYER:1
M140 S60
M106 S127.5
;TYPE:SUPPORT
G1 F6000 E6.80409
G1 F2250 X104.484 Y110.538 E6.81563
G1 X104.167 Y112.366 E6.84032
G1 X103.388 Y112.934 E6.85314
G1 X102.412 Y112.934 E6.86613
G1 X101.62 Y112.357 E6.87916
G1 X101.317 Y111.429 E6.89215
G1 X101.621 Y110.498 E6.90518
G1 X103.18 Y109.313 E6.93123
G1 X103.821 Y109.313 E6.93976
G1 X104.33 Y109.684 E6.94814
;;retract;;
G1 F6000 E-1.05186
G0 F5400 X105.186 Y109.529
G0 X105.342 Y107.658
G0 X103.341 Y107.666
G0 X102.834 Y107.159
G0 X102.834 Y105.341
G0 X105.334 Y101.841
G0 X105.841 Y101.334
G0 X114.159 Y101.334
G0 X114.666 Y101.841
G0 X117.166 Y105.341
G0 X117.166 Y107.159
G0 X116.1 Y108.286
G0 X116.612 Y108.989
G1 F6000 E6.94814
G1 F2250 X117.588 Y108.989 E6.96113
G1 X118.367 Y109.557 E6.97395
G1 X118.643 Y111.13 E6.9952
G1 X118.345 Y112.046 E7.00801
G1 X117.574 Y112.607 E7.0207
G1 X116.626 Y112.607 E7.03331
G1 X115.861 Y112.05 E7.0459
G1 X115.465 Y110.496 E7.06724
G1 X115.816 Y109.569 E7.08042
G1 X116.612 Y108.989 E7.09353
;;retract;;
G1 F6000 E-0.90647
;MESH:
G0 F5400 X116.1 Y108.286
G0 X114.658 Y107.658
G0 X113.4 Y106.1
;TYPE:WALL-INNER
G1 F6000 E7.09353
G1 F1500 X115.9 Y106.1 E7.1351
G1 X115.9 Y106.4 E7.14009
G1 X113.4 Y106.4 E7.17135
G1 X113.4 Y117.4 E7.35428
G1 X106.6 Y117.4 E7.46737
G1 X106.6 Y106.4 E7.6503
G1 X104.1 Y106.4 E7.69187
G1 X104.1 Y106.1 E7.69686
G1 X106.6 Y106.1 E7.72812
G1 X106.6 Y102.6 E7.78633
G1 X113.4 Y102.6 E7.89941
G1 X113.4 Y106.1 E7.95762
G0 F5400 X113.8 Y105.7
;TYPE:WALL-OUTER
G1 F1500 X116.3 Y105.7 E7.99919
G1 X116.3 Y106.8 E8.01748
G1 X113.8 Y106.8 E8.05906
G1 X113.8 Y117.8 E8.24199
G1 X106.2 Y117.8 E8.36838
G1 X106.2 Y106.8 E8.55131
G1 X103.7 Y106.8 E8.59288
G1 X103.7 Y105.7 E8.61118
G1 X106.2 Y105.7 E8.65275
G1 X106.2 Y102.2 E8.71096
G1 X113.8 Y102.2 E8.83735
G1 X113.8 Y105.7 E8.89555
G0 F5400 X114 Y105.7
G0 X114 Y106.14
;;retract;;
G1 F6000 E0.89555
G0 F5400 X114.658 Y104.842
G0 X114.666 Y101.841
G0 X114.159 Y101.334
G0 X106.839 Y101.33
G0 X106.839 Y102.84
;TYPE:SKIN
G1 F6000 E8.89555
G1 F1500 X106.839 Y103.029 E8.89869
G1 X106.839 Y103.595 E8.90811
G1 X107.594 Y102.84 E8.92586
G1 X108.16 Y102.84 E8.93528
G1 X106.839 Y104.161 E8.96634
G1 X106.839 Y104.726 E8.97574
G1 X108.726 Y102.84 E9.02011
G1 X109.291 Y102.84 E9.0295
G1 X106.839 Y105.292 E9.08717
G1 X106.839 Y105.858 E9.09658
G1 X109.857 Y102.84 E9.16756
G1 X110.423 Y102.84 E9.17698
G1 X106.839 Y106.423 E9.26125
G1 X106.839 Y106.989 E9.27067
G1 X110.988 Y102.84 E9.36824
G1 X111.554 Y102.84 E9.37766
G1 X106.839 Y107.555 E9.48855
G1 X106.839 Y108.12 E9.49794
G1 X112.12 Y102.84 E9.62213
G1 X112.685 Y102.84 E9.63153
G1 X106.839 Y108.686 E9.76902
G1 X106.839 Y109.252 E9.77843
G1 X113.159 Y102.932 E9.92707
G1 X113.159 Y103.497 E9.93646
G1 X106.839 Y109.817 E10.0851
G1 X106.839 Y110.383 E10.09451
G1 X113.159 Y104.063 E10.24315
G1 X113.159 Y104.629 E10.25256
G1 X106.839 Y110.949 E10.4012
G1 X106.839 Y111.514 E10.41059
G1 X113.159 Y105.194 E10.55923
G1 X113.159 Y105.76 E10.56864
G1 X106.839 Y112.08 E10.71728
G1 X106.839 Y112.646 E10.72669
G1 X113.159 Y106.326 E10.87533
G1 X113.159 Y106.891 E10.88472
G1 X106.839 Y113.212 E11.03337
G1 X106.839 Y113.777 E11.04277
G1 X113.159 Y107.457 E11.19141
G1 X113.159 Y108.023 E11.20082
G1 X106.839 Y114.343 E11.34946
G1 X106.839 Y114.909 E11.35887
G1 X113.159 Y108.588 E11.50752
G1 X113.159 Y109.154 E11.51693
G1 X106.839 Y115.474 E11.66557
G1 X106.839 Y116.04 E11.67498
G1 X113.159 Y109.72 E11.82362
G1 X113.159 Y110.286 E11.83303
G1 X106.839 Y116.606 E11.98166
G1 X106.839 Y117.159 E11.99086
G1 X106.852 Y117.159 E11.99108
G1 X113.159 Y110.851 E12.13942
G1 X113.159 Y111.417 E12.14883
G1 X107.418 Y117.159 E12.28386
G1 X107.983 Y117.159 E12.29326
G1 X113.159 Y111.983 E12.41499
G1 X113.159 Y112.548 E12.42439
G1 X108.549 Y117.159 E12.53282
G1 X109.115 Y117.159 E12.54223
G1 X113.159 Y113.114 E12.63735
G1 X113.159 Y113.68 E12.64676
G1 X109.68 Y117.159 E12.72859
G1 X110.246 Y117.159 E12.738
G1 X113.159 Y114.245 E12.80652
G1 X113.159 Y114.811 E12.81593
G1 X110.812 Y117.159 E12.87114
G1 X111.377 Y117.159 E12.88054
G1 X113.159 Y115.377 E12.92245
G1 X113.159 Y115.942 E12.93184
G1 X111.943 Y117.159 E12.96045
G1 X112.509 Y117.159 E12.96987
G1 X113.159 Y116.508 E12.98517
G1 X113.159 Y117.074 E12.99458
G1 X113.159 Y117.159 E12.99599
G0 F5400 X113.074 Y117.159
G1 F1500 X113.159 Y117.074 E12.99799
;;retract;;
G1 F6000 E4.99799
G0 F5400 X114.67 Y117.074
G0 X114.666 Y118.159
G0 X114.159 Y118.666
G0 X105.841 Y118.666
G0 X105.334 Y118.159
G0 X105.342 Y107.658
G0 X103.341 Y107.666
G0 X102.834 Y107.159
G0 X102.834 Y105.341
G0 X105.334 Y101.841
G0 X105.841 Y101.334
G0 X107.029 Y101.33
G0 X107.029 Y102.84
G1 F6000 E12.99799
G1 F1500 X106.839 Y103.029 E13.00245
;;retract;;
G1 F6000 E5.00245
;MESH:NONMESH
G0 F600 X106.839 Y103.029 Z0.3
G0 F5400 X105.33 Y103.029
G0 X102.834 Y105.341
G0 X102.834 Y107.159
G0 X104.851 Y108.988
G0 X104.336 Y109.696
;TIME_ELAPSED:49.502888

;LAYER:2
M106 S255
;TYPE:SUPPORT
G1 F6000 E13.00245
G1 F3000 X104.538 Y110.315 E13.01111
G1 X104.16 Y112.376 E13.03899
G1 X103.385 Y112.94 E13.05174
G1 X102.415 Y112.94 E13.06464
G1 X101.627 Y112.367 E13.07761
G1 X101.326 Y111.444 E13.09052
G1 X101.628 Y110.517 E13.10349
G1 X103.183 Y109.319 E13.12961
G1 X103.818 Y109.319 E13.13806
G1 X104.336 Y109.696 E13.14658
;;retract;;
G1 F6000 E5.14658
G0 F7200 X105.163 Y109.426
G0 X105.342 Y107.658
G0 X103.341 Y107.666
G0 X102.834 Y107.159
G0 X102.834 Y105.341
G0 X105.334 Y101.841
G0 X105.841 Y101.334
G0 X114.159 Y101.334
G0 X114.666 Y101.841
G0 X117.166 Y105.341
G0 X117.166 Y107.159
G0 X116.103 Y108.286
G0 X116.615 Y108.989
G1 F6000 E13.14658
G1 F3000 X117.585 Y108.989 E13.15948
G1 X118.36 Y109.552 E13.17223
G1 X118.635 Y111.199 E13.19444
G1 X118.338 Y112.112 E13.20722
G1 X117.571 Y112.67 E13.21984
G1 X116.629 Y112.67 E13.23237
G1 X115.868 Y112.116 E13.24489
G1 X115.474 Y110.497 E13.26706
G1 X115.822 Y109.565 E13.28029
G1 X116.615 Y108.989 E13.29333
;;retract;;
G1 F6000 E5.29333
;MESH:
G0 F7200 X116.103 Y108.286
G0 X114.658 Y107.658
G0 X113.4 Y106.1
;TYPE:WALL-INNER
G1 F6000 E13.29333
G1 F1500 X115.9 Y106.1 E13.33491
G1 X115.9 Y106.4 E13.3399
G1 X113.4 Y106.4 E13.37116
G1 X113.4 Y117.4 E13.55409
G1 X106.6 Y117.4 E13.66717
G1 X106.6 Y106.4 E13.8501
G1 X104.1 Y106.4 E13.89168
G1 X104.1 Y106.1 E13.89667
G1 X106.6 Y106.1 E13.92793
G1 X106.6 Y102.6 E13.98613
G1 X113.4 Y102.6 E14.09922
G1 X113.4 Y106.1 E14.15742
G0 F7200 X113.8 Y105.7
;TYPE:WALL-OUTER
G1 F1500 X116.3 Y105.7 E14.199
G1 X116.3 Y106.8 E14.21729
G1 X113.8 Y106.8 E14.25887
G1 X113.8 Y117.8 E14.4418
G1 X106.2 Y117.8 E14.56819
G1 X106.2 Y106.8 E14.75112
G1 X103.7 Y106.8 E14.79269
G1 X103.7 Y105.7 E14.81098
G1 X106.2 Y105.7 E14.85256
G1 X106.2 Y102.2 E14.91076
G1 X113.8 Y102.2 E15.03715
G1 X113.8 Y105.7 E15.09536
G0 F7200 X114 Y105.7
G0 X114 Y106.14
;;retract;;
G1 F6000 E7.09536
G0 F7200 X114.658 Y107.658
G0 X117.868 Y108.121
G0 X119.156 Y109.059
G0 X119.526 Y111.265
G0 X119.076 Y112.648
G0 X114.666 Y118.159
G0 X114.159 Y118.666
G0 X105.841 Y118.666
G0 X105.334 Y118.159
G0 X105.33 Y117.159
G0 X106.839 Y117.159
;TYPE:SKIN
G1 F6000 E15.09536
G1 F1500 X106.976 Y117.159 E15.09764
G1 X106.839 Y117.021 E15.10087
G1 X106.839 Y116.456 E15.11027
G1 X107.542 Y117.159 E15.1268
G1 X108.108 Y117.159 E15.13621
G1 X106.839 Y115.89 E15.16606
G1 X106.839 Y115.324 E15.17547
G1 X108.673 Y117.159 E15.21861
G1 X109.239 Y117.159 E15.22803
G1 X106.839 Y114.759 E15.28447
G1 X106.839 Y114.193 E15.29388
G1 X109.805 Y117.159 E15.36364
G1 X110.37 Y117.159 E15.37304
G1 X106.839 Y113.627 E15.45609
G1 X106.839 Y113.062 E15.46549
G1 X110.936 Y117.159 E15.56184
G1 X111.502 Y117.159 E15.57126
G1 X106.839 Y112.496 E15.68092
G1 X106.839 Y111.93 E15.69033
G1 X112.067 Y117.159 E15.8133
G1 X112.633 Y117.159 E15.82271
G1 X106.839 Y111.365 E15.95898
G1 X106.839 Y110.799 E15.96839
G1 X113.159 Y117.119 E16.11703
G1 X113.159 Y116.553 E16.12644
G1 X106.839 Y110.233 E16.27508
G1 X106.839 Y109.668 E16.28447
G1 X113.159 Y115.988 E16.43311
G1 X113.159 Y115.422 E16.44252
G1 X106.839 Y109.102 E16.59116
G1 X106.839 Y108.536 E16.60057
