;FLAVOR:Marlin
;TIME:5890
;Filament used:1.30431m
;Layer height: 0.1
;MINX:96.892
;MINY:78.332
;MINZ:0.1
;MAXX:121.393
;MAXY:141.215
;MAXZ:23.2
                              
;Creality Print GCode Generated by CXEngine:NO_MAGE_VERSION_GIT_HEAD_BRANCH
;CXEngine Release Time:2022-09-30 09:53:04
;Gcode Generated Time:2023-04-14 20:51:26
;----------Machine Config--------------
;Machine Name:Ender-3 V2
;Machine Height:250
;Machine Width:220
;Machine Depth:220
;Material name:PLA
;Number of Extruders:1
;ExtruderParams[0] Nozzle Diameter1000
;----------Profile Config---------------
;Engine Version:275f99b
;Engine Release Time:2022-09-30 09:42:18
;Layer Height:0.1
;Wall Thickness:0.8
;Top/Bottom Thickness:0.5
;Out Wall Line Width:0.4
;Inner Wall Line Width:0.4
;Inital Layer Height:100
;Wall Line Count:2
;Infill Line Distance:4
;Infill Pattern:grid
;Infill Sparse Density:20
;Infill Wipe Distance:0
;Print Temperature:200
;Bed Temperature:60
;Support Enable:true
;Support Density:0
;Support Angle:60
;Adhesion Type:none
;machine is belt:false
;machine belt offset:10
;machine belt offset Y:0
;Raft Base Line Spacing:1.6
;Wait Heatup Sync:true
;----------Shell Config----------------
;Outer Wall Wipe Distance:200
;Outer Inset First:false
;Infill Before Walls:false
;Infill Overlap:0.16
;Fill Gaps Between Walls:everywhere
;Minimum Infill Area:1
;Top Surface Skin Layer:0
;Top Layers:4
;Z Seam Alignment:sharpest_corner
;Seam Corner Preference:z_seam_corner_inner
;Z Seam X:110
;Z Seam Y:110
;Horizontal Expansion:0
;Top/Bottom Pattern:zigzag
;Ironing Pattern:zigzag
;Vase Model:false
;----------Support Config----------------
;Support Type:everywhere
;Support Pattern:zigzag
;Support Infill Layer Thickness:0.1
;Minimum Support Area:5
;Enable Support Roof:false
;Support Roof Thickness:0.8
;Support Roof Pattern:lines
;Connect Support Lines:0
;Connect Support ZigZags:1
;Minimum Support X/Y Distance:0.2
;Support Line Distance:0
; ---------PrintSpeed & Travel----------
;Enable Print Cool:true
;Avoid Printed Parts Traveling:true
;Enable Retraction:true
;Retraction Distance:8
;Retraction Speed:100
;Retraction Prime Speed:100
;Maximum Retraction Count:100
;Minimum Extrusion Distance Window:1
;Z Hop When Retracted:false
;Z Hop Height:0.2
;Retract Before Outer Wall:true
;Print Speed:50
;Infill Speed:50

;Prime Tower Speed:50
;Travel Speed:120
;Initial Layer Speed:25
;Skirt/Brim Speed:25
;Combing Mode:infill
; --------SpecialModel&Mesh Fixes--------
;Union Overlapping Volum:true
;Remove All Holes:false
;Maximum Travel Resolution:0.6
;Maximum Deviation:0.05
;Maximum Model Angle:0.872665
;IS Mold Print:false
;Make Overhang Printable:false
;Enable Coasting:false
;Coasting Volumes:0.06
;Coasting Speed:0.9
;Raft AirGap:0.25
;Layer0 ZOverLap:0.13
;---------------------End of Head--------------------------
M140 S60
M105
M104 S200
M105
M109 S200
M105
M190 S60
M82 ;absolute extrusion mode
M220 S100 ;Reset Feedrate
M221 S100 ;Reset Flowrate

G28 ;Home

G92 E0 ;Reset Extruder
G1 Z2.0 F3000 ;Move Z Axis up
G1 X10.1 Y20 Z0.28 F5000.0 ;Move to start position
G1 X10.1 Y145.0 Z0.28 F1500.0 E15 ;Draw the first line
G1 X10.4 Y145.0 Z0.28 F5000.0 ;Move to side a little
G1 X10.4 Y20 Z0.28 F1500.0 E30 ;Draw the second line
G92 E0  ;Reset Extruder
G1 E-1.0000 F1800 ;Retract a bit
G1 Z2.0 F3000 ;Move Z Axis up
G1 E0.0000 F1800 

G92 E0
G92 E0
G1 F6000 E-8

;LAYER_COUNT:232

;LAYER:0
M107
G0 F3600 X102.094 Y93.312 Z0.1
;TYPE:SUPPORT
G1 F6000 E0
G1 F1500 X102.094 Y93.351 E0.00057
G1 X102.085 Y93.332 E0.00088
G1 X102.094 Y93.312 E0.0012
;;retract;;
G1 F6000 E-7.9988
G0 F3600 X101.293 Y93.691
G0 X105.724 Y94.664
G0 X105.925 Y95.506
G1 F6000 E0.0012
G1 F1500 X105.793 Y95.992 E0.00857
G1 X105.08 Y96.232 E0.01958
G1 X105.364 Y95.461 E0.0316
G1 X105.574 Y95.596 E0.03526
G1 X105.925 Y95.506 E0.04056
G0 F3600 X106.214 Y98.053
G1 F1500 X106.461 Y98.81 E0.05221
G1 X105.747 Y101.248 E0.08939
G1 X105.521 Y103.089 E0.11653
G1 X105.663 Y105.102 E0.14607
G1 X105.626 Y106.911 E0.17255
G1 X105.532 Y108.779 E0.19992
G1 X105.508 Y112.781 E0.25849
G1 X105.542 Y114.638 E0.28567
G1 X105.64 Y116.594 E0.31433
G1 X105.679 Y120.455 E0.37083
G1 X105.76 Y122.337 E0.3984
G1 X105.517 Y124.237 E0.42643
G1 X105.53 Y126.272 E0.45622
G1 X105.626 Y128.372 E0.48698
G1 X105.593 Y130.309 E0.51533
G1 X106.144 Y132.49 E0.54825
G1 X107.173 Y133.798 E0.57261
G1 X109.409 Y133.917 E0.60538
G1 X111.746 Y134.73 E0.64159
G1 X113.736 Y134.401 E0.6711
G1 X114.377 Y132.876 E0.69531
G1 X114.464 Y130.884 E0.72449
G1 X114.462 Y128.938 E0.75297
G1 X114.39 Y127.012 E0.78118
G1 X114.565 Y125.206 E0.80773
G1 X114.434 Y123.108 E0.83849
G1 X114.588 Y121.208 E0.86639
G1 X114.572 Y119.334 E0.89382
G1 X114.439 Y117.419 E0.92191
G1 X114.377 Y115.581 E0.94882
G1 X114.415 Y113.704 E0.9763
G1 X114.388 Y111.809 E1.00403
G1 X114.523 Y109.706 E1.03487
G1 X114.52 Y107.678 E1.06455
G1 X114.444 Y105.715 E1.0933
G1 X114.751 Y104.277 E1.11482
G1 X115.399 Y103.805 E1.12655
G1 X116.207 Y103.805 E1.13838
G1 X116.853 Y104.275 E1.15007
G1 X117.184 Y106.042 E1.17638
G1 X117.049 Y107.744 E1.20136
G1 X117.273 Y109.14 E1.22205
G1 X116.927 Y111.097 E1.25114
G1 X116.983 Y112.998 E1.27897
G1 X116.909 Y116.903 E1.33613
G1 X117.139 Y120.685 E1.39158
G1 X117.078 Y122.524 E1.4185
G1 X117.158 Y124.385 E1.44576
G1 X117.008 Y126.383 E1.47509
G1 X117.033 Y128.47 E1.50563
G1 X117.113 Y130.519 E1.53564
G1 X116.991 Y132.337 E1.5623
G1 X116.446 Y134.871 E1.60024
G1 X115.639 Y136.122 E1.62202
G1 X114.12 Y136.959 E1.6474
G1 X109.911 Y137.776 E1.71015
G1 X108.146 Y137.341 E1.73675
G1 X106.785 Y136.634 E1.7592
G1 X106.509 Y136.286 E1.7657
G1 X104.924 Y135.28 E1.79317
G1 X103.947 Y133.714 E1.82018
G1 X103.254 Y131.776 E1.8503
G1 X102.85 Y129.494 E1.88422
G1 X102.995 Y127.642 E1.9114
G1 X102.915 Y125.579 E1.94162
G1 X103.064 Y123.589 E1.97082
G1 X103.077 Y121.722 E1.99814
G1 X102.951 Y117.827 E2.05518
G1 X102.966 Y115.892 E2.08349
G1 X102.858 Y113.91 E2.11254
G1 X102.995 Y110.163 E2.16741
G1 X102.888 Y108.038 E2.19855
G1 X103.06 Y106.231 E2.22512
G1 X102.981 Y104.164 E2.25539
G1 X102.952 Y102.19 E2.28428
G1 X103.442 Y100.171 E2.31468
G1 X104.134 Y98.053 E2.34729
G1 X104.778 Y97.584 E2.35895
G1 X105.57 Y97.584 E2.37054
G1 X106.214 Y98.053 E2.3822
;;retract;;
G1 F6000 E-5.6178
G0 F3600 X107.067 Y97.917
G0 X107.937 Y97.929
G0 X113.271 Y96.391
G0 X114.101 Y96.133
G1 F6000 E2.3822
G1 F1500 X114.527 Y95.362 E2.39509
G1 X114.646 Y95.424 E2.39705
G1 X115.013 Y95.334 E2.40258
G1 X114.956 Y95.695 E2.40793
G1 X114.822 Y95.605 E2.4103
G1 X114.101 Y96.133 E2.42337
;;retract;;
G1 F6000 E-5.57663
G0 F3600 X113.51 Y95.393
G0 X113.153 Y96.002
G0 X113.641 Y97.525
G0 X115.592 Y97.142
G0 X117.666 Y94.14
G0 X117.666 Y92.421
G0 X115.944 Y89.176
G0 X113.94 Y88.684
G0 X113.041 Y89.212
G0 X113.114 Y91.135
G0 X112.482 Y91.725
G1 F6000 E2.42337
G1 F1500 X112.922 Y92.045 E2.43134
G1 X113.095 Y92.575 E2.43949
G1 X112.817 Y94.501 E2.46797
G1 X112.184 Y94.963 E2.47944
G1 X111.2 Y95.066 E2.49392
G1 X110.189 Y95.727 E2.5116
G1 X109.492 Y95.719 E2.5218
G1 X107.739 Y97.064 E2.55413
G1 X107.198 Y97.064 E2.56205
G1 X106.754 Y96.741 E2.57009
G1 X106.585 Y96.222 E2.57807
G1 X106.752 Y95.709 E2.58597
G1 X107.93 Y94.954 E2.60645
G1 X107.269 Y94.471 E2.61843
G1 X107.02 Y93.71 E2.63014
G1 X107.233 Y92.575 E2.64704
G1 X106.737 Y90.769 E2.67445
G1 X106.906 Y90.252 E2.68241
G1 X107.346 Y89.932 E2.69037
G1 X107.884 Y89.932 E2.69825
G1 X108.319 Y90.248 E2.70612
G1 X108.8 Y92.043 E2.73331
G1 X108.919 Y92.632 E2.74211
G1 X109.708 Y93.977 E2.76493
G1 X110.547 Y93.604 E2.77836
G1 X111.484 Y92.059 E2.80481
G1 X111.944 Y91.725 E2.81313
G1 X112.482 Y91.725 E2.821
;;retract;;
G1 F6000 E-5.179
G0 F3600 X112.992 Y91.02
G0 X113.041 Y89.212
G0 X113.94 Y88.684
G0 X115.258 Y89.001
G0 X115.054 Y89.845
G1 F6000 E2.821
G1 F1500 X115.004 Y90.965 E2.83741
G1 X114.332 Y91.165 E2.84767
G1 X114.549 Y91.451 E2.85292
G1 X113.967 Y91.307 E2.86169
G1 X113.919 Y89.699 E2.88524
G1 X114.075 Y89.608 E2.88788
G1 X115.054 Y89.845 E2.90262
;;retract;;
G1 F6000 E-5.09738
G0 F3600 X115.258 Y89.001
G0 X113.384 Y84.028
G0 X112.578 Y83.704
G1 F6000 E2.90262
G1 F1500 X111.788 Y85.659 E2.93348
G1 X110.185 Y86.65 E2.96106
G1 X108.393 Y87.637 E2.991
G1 X107.652 Y87.637 E3.00184
G1 X105.331 Y88.944 E3.04082
G1 X106.296 Y90.012 E3.06189
G1 X105.919 Y91.012 E3.07753
G1 X105.63 Y90.991 E3.08177
G1 X105.504 Y91.206 E3.08542
G1 X105.593 Y91.34 E3.08777
G1 X105.004 Y91.02 E3.09758
G1 X105.058 Y89.764 E3.11598
G1 X104.813 Y88.833 E3.13007
G1 X104.002 Y88.833 E3.14194
G1 X103.34 Y89.314 E3.15391
G1 X102.1 Y89.314 E3.17206
G1 X101.749 Y90.392 E3.18865
G1 X100.734 Y91.13 E3.20701
G1 X99.484 Y91.13 E3.22531
G1 X98.469 Y90.392 E3.24367
G1 X98.082 Y89.203 E3.26197
G1 X98.469 Y88.014 E3.28027
G1 X99.488 Y87.273 E3.29871
G1 X100.159 Y87.24 E3.30854
G1 X100.676 Y85.648 E3.33304
G1 X101.87 Y84.78 E3.35464
G1 X103.388 Y84.78 E3.37685
G1 X105.673 Y83.462 E3.41546
G1 X106.796 Y82.65 E3.43574
G1 X108.142 Y82.159 E3.45671
G1 X108.852 Y81.643 E3.46955
G1 X110.484 Y81.643 E3.49343
G1 X112.195 Y82.528 E3.52163
G1 X112.578 Y83.704 E3.53972
;;retract;;
G1 F6000 E-4.46028
;MESH:
G0 F3600 X113.384 Y84.028
G0 X115.944 Y89.176
G0 X116.399 Y91.911
G0 X116.4 Y93.18
;TYPE:WALL-INNER
G1 F6000 E3.53972
G1 F600 X116.4 Y93.381 E3.5434
G1 X115.1 Y93.382 E3.56718
G1 X115.1 Y93.181 E3.57086
G1 X116.4 Y93.18 E3.58282
G0 F3600 X116.8 Y92.98
;TYPE:WALL-OUTER
G1 F600 X116.8 Y93.781 E3.59747
G1 X114.9 Y93.782 E3.63223
G1 X114.7 Y93.782 E3.63589
G1 X114.7 Y93.582 E3.63826
G1 X114.7 Y92.781 E3.65291
G1 X116.6 Y92.78 E3.68767
G1 X116.8 Y92.78 E3.69132
G1 X116.8 Y92.98 E3.69369
G0 F3600 X116.8 Y93.18
G0 X116.359 Y93.221
;;retract;;
G1 F6000 E-4.30631
G0 F3600 X116.358 Y91.911
G0 X115.944 Y89.176
G0 X113.94 Y88.684
G0 X113.041 Y89.212
G0 X110.832 Y91.458
G0 X110.091 Y92.691
G0 X106.17 Y93.18
G0 X104.9 Y93.18
;TYPE:WALL-INNER
G1 F6000 E3.69369
G1 F600 X104.9 Y93.381 E3.69737
G1 X103.6 Y93.382 E3.72115
G1 X103.6 Y93.181 E3.72483
G1 X104.9 Y93.18 E3.73679
G0 F3600 X105.3 Y92.98
;TYPE:WALL-OUTER
G1 F600 X105.3 Y93.781 E3.75144
G1 X103.4 Y93.782 E3.7862
G1 X103.2 Y93.782 E3.78986
G1 X103.2 Y93.582 E3.79222
G1 X103.2 Y92.781 E3.80688
G1 X105.1 Y92.78 E3.84163
G1 X105.3 Y92.78 E3.84529
G1 X105.3 Y92.98 E3.84766
G0 F3600 X105.3 Y93.18
G0 X104.859 Y93.221
;;retract;;
G1 F6000 E-4.15234
;MESH:NONMESH
G0 F600 X104.859 Y93.221 Z0.2
G0 F3600 X104.858 Y91.911
G0 X102.487 Y90.928
G0 X101.017 Y91.998
G0 X99.201 Y91.998
G0 X97.731 Y90.928
G0 X97.17 Y89.203
G0 X97.618 Y87.816
G0 X98.414 Y88.074
;TIME_ELAPSED:24.914162

;LAYER:1
M140 S60
M106 S127.5
;TYPE:SUPPORT
G1 F6000 E3.84766
G1 F2250 X99.446 Y87.323 E3.86464
G1 X100.193 Y87.134 E3.87489
G1 X100.701 Y85.573 E3.89673
G1 X101.89 Y84.708 E3.91629
G1 X103.395 Y84.708 E3.93632
G1 X104.06 Y84.225 E3.94725
G1 X104.659 Y84.225 E3.95522
G1 X106.881 Y82.683 E3.9912
G1 X108.917 Y81.656 E4.02154
G1 X111.233 Y81.734 E4.05237
G1 X112.255 Y82.478 E4.06919
G1 X112.642 Y83.666 E4.08581
G1 X111.865 Y85.654 E4.11421
G1 X110.127 Y86.648 E4.14085
G1 X108.464 Y87.658 E4.16673
G1 X107.636 Y87.658 E4.17775
G1 X105.501 Y88.765 E4.20974
G1 X105.076 Y88.945 E4.21588
G1 X106.122 Y89.921 E4.23492
G1 X105.656 Y90.514 E4.24495
G1 X105.799 Y90.801 E4.24922
G1 X105.156 Y90.558 E4.25836
G1 X104.987 Y88.743 E4.28261
G1 X104.021 Y88.743 E4.29546
G1 X103.356 Y89.226 E4.3064
G1 X102.075 Y89.226 E4.32344
G1 X101.68 Y90.442 E4.34045
G1 X100.669 Y91.177 E4.35708
G1 X99.425 Y91.177 E4.37363
G1 X98.414 Y90.442 E4.39026
G1 X98.029 Y89.258 E4.40682
G1 X98.414 Y88.074 E4.42339
;;retract;;
G1 F6000 E-3.57661
G0 F5400 X97.902 Y87.371
G0 X97.117 Y89.258
G0 X97.676 Y90.978
G0 X99.142 Y92.045
G0 X100.952 Y92.045
G0 X102.418 Y90.978
G0 X106.104 Y93.547
G0 X106.969 Y93.643
G1 F6000 E4.42339
G1 F2250 X107.163 Y91.897 E4.44676
G1 X106.828 Y90.764 E4.46248
G1 X106.995 Y90.253 E4.46963
G1 X107.43 Y89.937 E4.47678
G1 X107.964 Y89.937 E4.48389
G1 X108.393 Y90.249 E4.49094
G1 X108.85 Y92.067 E4.51588
G1 X108.791 Y92.57 E4.52262
G1 X109.276 Y92.923 E4.5306
G1 X109.75 Y94.133 E4.54789
G1 X110.559 Y93.614 E4.56068
G1 X110.779 Y92.938 E4.57014
G1 X111.95 Y91.77 E4.59214
G1 X112.467 Y91.77 E4.59902
G1 X112.883 Y92.073 E4.60587
G1 X113.075 Y93.679 E4.62738
G1 X112.826 Y94.442 E4.63806
G1 X112.179 Y94.913 E4.64871
G1 X111.366 Y95.02 E4.65962
G1 X110.257 Y95.705 E4.67696
G1 X109.565 Y95.777 E4.68622
G1 X108.451 Y96.198 E4.70206
G1 X107.748 Y97.126 E4.71755
G1 X107.243 Y97.126 E4.72427
G1 X106.803 Y96.806 E4.73151
G1 X106.635 Y96.293 E4.73869
G1 X106.804 Y95.775 E4.74594
G1 X107.906 Y94.909 E4.76458
G1 X107.218 Y94.407 E4.77591
G1 X106.969 Y93.643 E4.7866
;;retract;;
G1 F6000 E-3.2134
G0 F5400 X106.142 Y93.913
G0 X106.166 Y94.683
G0 X105.567 Y96.805
G0 X105.567 Y97.675
G1 F6000 E4.7866
G1 F2250 X106.207 Y98.141 E4.79714
G1 X106.451 Y98.888 E4.80759
G1 X105.861 Y100.61 E4.83181
G1 X105.522 Y102.617 E4.85889
G1 X105.645 Y104.633 E4.88576
G1 X105.647 Y106.529 E4.91098
G1 X105.545 Y108.467 E4.9368
G1 X105.632 Y110.569 E4.96479
G1 X105.506 Y112.379 E4.98893
G1 X105.512 Y114.27 E5.01409
G1 X105.624 Y116.243 E5.04038
G1 X105.615 Y118.204 E5.06647
G1 X105.721 Y121.958 E5.11643
G1 X105.543 Y123.9 E5.14238
G1 X105.486 Y129.747 E5.22017
G1 X105.926 Y131.813 E5.24827
G1 X106.845 Y133.59 E5.27489
G1 X108.864 Y133.8 E5.30189
G1 X111.098 Y134.208 E5.33211
G1 X112.231 Y134.777 E5.34897
G1 X114.049 Y134.115 E5.37471
G1 X114.501 Y132.045 E5.4029
G1 X114.42 Y128.145 E5.4548
G1 X114.488 Y126.318 E5.47912
G1 X114.462 Y124.338 E5.50547
G1 X114.644 Y120.523 E5.55628
G1 X114.455 Y118.561 E5.5825
G1 X114.343 Y114.78 E5.63283
G1 X114.438 Y112.884 E5.65808
G1 X114.309 Y110.805 E5.6858
G1 X114.666 Y108.812 E5.71273
G1 X114.422 Y106.747 E5.7404
G1 X114.698 Y104.229 E5.7741
G1 X115.394 Y103.713 E5.78562
G1 X116.196 Y103.713 E5.79629
G1 X116.834 Y104.177 E5.80679
G1 X117.074 Y105.946 E5.83054
G1 X117.159 Y107.928 E5.85693
G1 X116.973 Y110.214 E5.88745
G1 X116.988 Y117.841 E5.98892
G1 X117.251 Y119.828 E6.01558
G1 X117.097 Y121.85 E6.04256
G1 X117.139 Y123.975 E6.07084
G1 X117.037 Y126.067 E6.0987
G1 X117.086 Y130.098 E6.15233
G1 X117.004 Y132.043 E6.17823
G1 X116.691 Y134.055 E6.20532
G1 X115.915 Y135.794 E6.23066
G1 X114.537 Y136.823 E6.25354
G1 X112.786 Y137.322 E6.27776
G1 X111.649 Y137.312 E6.29289
G1 X110.546 Y137.7 E6.30845
G1 X108.774 Y137.519 E6.33214
G1 X107.733 Y137.258 E6.34642
G1 X104.682 Y135.046 E6.39656
G1 X103.679 Y133.048 E6.4263
G1 X103.194 Y131.283 E6.45065
G1 X102.937 Y129.47 E6.47501
G1 X102.977 Y123.717 E6.55155
G1 X103.122 Y122.094 E6.57323
G1 X102.996 Y118.173 E6.62542
G1 X102.996 Y116.226 E6.65133
G1 X102.884 Y114.253 E6.67762
G1 X102.878 Y112.4 E6.70227
G1 X103.005 Y110.578 E6.72657
G1 X102.917 Y108.471 E6.75463
G1 X103.019 Y106.545 E6.78029
G1 X103.017 Y104.616 E6.80595
G1 X102.931 Y102.745 E6.83087
G1 X103.301 Y100.796 E6.85726
G1 X104.142 Y98.14 E6.89432
G1 X104.781 Y97.675 E6.90484
G1 X105.567 Y97.675 E6.9153
;;retract;;
G1 F6000 E-1.0847
G0 F5400 X105.951 Y96.912
G0 X105.187 Y96.249
G0 X102.841 Y95.191
G0 X97.676 Y90.978
G0 X97.117 Y89.258
G0 X97.676 Y87.538
G0 X99.963 Y85.037
G0 X101.607 Y83.84
G0 X108.724 Y80.78
G0 X111.53 Y80.876
G0 X112.993 Y81.942
G0 X113.562 Y83.692
G0 X112.75 Y90.902
G0 X114.045 Y90.682
G1 F6000 E6.9153
G1 F2250 X113.982 Y90.536 E6.91741
G1 X114.179 Y89.583 E6.93036
G1 X114.998 Y89.761 E6.94151
G1 X114.875 Y90.966 E6.95762
G1 X114.045 Y90.682 E6.96929
G0 F5400 X114.331 Y91.012
;TYPE:SUPPORT-INTERFACE
G1 F1749.9 X114.203 Y91.14 E6.9717
;;retract;;
G1 F6000 E-1.0283
G0 F5400 X113.848 Y92.068
G0 X113.846 Y94.004
G0 X114.023 Y94.714
G1 F6000 E6.9717
G1 F1749.9 X113.965 Y94.772 E6.97279
G0 F5400 X114.774 Y95.66
G1 F1749.9 X114.902 Y95.532 E6.9752
;;retract;;
G1 F6000 E-1.0248
G0 F5400 X114.296 Y96.12
G0 X106.211 Y95.149
G0 X106.01 Y95.938
G1 F6000 E6.9752
G1 F1749.9 X105.943 Y96.006 E6.97647
G0 F5400 X105.069 Y95.182
G1 F1749.9 X105.195 Y95.057 E6.97883
;;retract;;
G1 F6000 E-1.02117
G0 F5400 X105.955 Y94.882
G0 X104.537 Y91.359
G0 X105.456 Y91.402
G1 F6000 E6.97883
G1 F1749.9 X105.592 Y91.265 E6.9814
