;FLAVOR:Marlin
;TIME:6905
;Filament used:1.94802m
;Layer height: 0.1
;MINX:103.33
;MINY:104.33
;MINZ:0.1
;MAXX:116.67
;MAXY:115.67
;MAXZ:57.4
                                
;Creality Print GCode Generated by CXEngine:NO_MAGE_VERSION_GIT_HEAD_BRANCH
;CXEngine Release Time:2022-09-30 09:53:04
;Gcode Generated Time:2023-04-14 21:02:07
;----------Machine Config--------------
;Machine Name:Ender-3 V2
;Machine Height:250
;Machine Width:220
;Machine Depth:220
;Material name:PLA
;Number of Extruders:1
;ExtruderParams[0] Nozzle Diameter1000
;----------Profile Config---------------
;Engine Version:275f99b
;Engine Release Time:2022-09-30 09:42:18
;Layer Height:0.1
;Wall Thickness:0.8
;Top/Bottom Thickness:0.5
;Out Wall Line Width:0.4
;Inner Wall Line Width:0.4
;Inital Layer Height:100
;Wall Line Count:2
;Infill Line Distance:4
;Infill Pattern:grid
;Infill Sparse Density:20
;Infill Wipe Distance:0
;Print Temperature:200
;Bed Temperature:60
;Support Enable:true
;Support Density:0
;Support Angle:60
;Adhesion Type:none
;machine is belt:false
;machine belt offset:10
;machine belt offset Y:0
;Raft Base Line Spacing:1.6
;Wait Heatup Sync:true
;----------Shell Config----------------
;Outer Wall Wipe Distance:200
;Outer Inset First:false
;Infill Before Walls:false
;Infill Overlap:0.16
;Fill Gaps Between Walls:everywhere
;Minimum Infill Area:1
;Top Surface Skin Layer:0
;Top Layers:4
;Z Seam Alignment:sharpest_corner
;Seam Corner Preference:z_seam_corner_inner
;Z Seam X:110
;Z Seam Y:110
;Horizontal Expansion:0
;Top/Bottom Pattern:zigzag
;Ironing Pattern:zigzag
;Vase Model:false
;----------Support Config----------------
;Support Type:everywhere
;Support Pattern:zigzag
;Support Infill Layer Thickness:0.1
;Minimum Support Area:5
;Enable Support Roof:false
;Support Roof Thickness:0.8
;Support Roof Pattern:lines
;Connect Support Lines:0
;Connect Support ZigZags:1
;Minimum Support X/Y Distance:0.2
;Support Line Distance:0
; ---------PrintSpeed & Travel----------
;Enable Print Cool:true
;Avoid Printed Parts Traveling:true
;Enable Retraction:true
;Retraction Distance:8
;Retraction Speed:100
;Retraction Prime Speed:100
;Maximum Retraction Count:100
;Minimum Extrusion Distance Window:1
;Z Hop When Retracted:false
;Z Hop Height:0.2
;Retract Before Outer Wall:true
;Print Speed:50
;Infill Speed:50

;Prime Tower Speed:50
;Travel Speed:120
;Initial Layer Speed:25
;Skirt/Brim Speed:25
;Combing Mode:infill
; --------SpecialModel&Mesh Fixes--------
;Union Overlapping Volum:true
;Remove All Holes:false
;Maximum Travel Resolution:0.6
;Maximum Deviation:0.05
;Maximum Model Angle:0.872665
;IS Mold Print:false
;Make Overhang Printable:false
;Enable Coasting:false
;Coasting Volumes:0.06
;Coasting Speed:0.9
;Raft AirGap:0.25
;Layer0 ZOverLap:0.13
;---------------------End of Head--------------------------
M140 S60
M105
M104 S200
M105
M109 S200
M105
M190 S60
M82 ;absolute extrusion mode
M220 S100 ;Reset Feedrate
M221 S100 ;Reset Flowrate

G28 ;Home

G92 E0 ;Reset Extruder
G1 Z2.0 F3000 ;Move Z Axis up
G1 X10.1 Y20 Z0.28 F5000.0 ;Move to start position
G1 X10.1 Y145.0 Z0.28 F1500.0 E15 ;Draw the first line
G1 X10.4 Y145.0 Z0.28 F5000.0 ;Move to side a little
G1 X10.4 Y20 Z0.28 F1500.0 E30 ;Draw the second line
G92 E0  ;Reset Extruder
G1 E-1.0000 F1800 ;Retract a bit
G1 Z2.0 F3000 ;Move Z Axis up
G1 E0.0000 F1800 

G92 E0
G92 E0
G1 F6000 E-8

;LAYER_COUNT:574

;LAYER:0
M107
;MESH:
G0 F3600 X106.7 Y106.7 Z0.1
;TYPE:WALL-INNER
G1 F6000 E0
G1 F1500 X106.7 Y113.3 E0.12073
G1 X113.3 Y113.3 E0.24147
G1 X113.3 Y106.7 E0.3622
G1 X106.7 Y106.7 E0.48294
G0 F3600 X107.1 Y107.1
;TYPE:WALL-OUTER
G1 F1500 X107.1 Y112.9 E0.58904
G1 X112.9 Y112.9 E0.69514
G1 X112.9 Y107.1 E0.80124
G1 X107.1 Y107.1 E0.90734
G0 F3600 X107.1 Y107.3
G0 X106.66 Y107.3
;;retract;;
G1 F6000 E-7.09266
G0 F3600 X107.958 Y107.958
G0 X115.402 Y115.657
G0 X115.4 Y114.387
;TYPE:WALL-INNER
G1 F6000 E0.90734
G1 F1500 X104.799 Y114.4 E1.10126
G1 X104.6 Y114.4 E1.1049
G1 X104.6 Y114.201 E1.10726
G1 X104.6 Y105.6 E1.2646
G1 X115.4 Y105.6 E1.46216
G1 X115.4 Y114.387 E1.6229
G0 F3600 X115.8 Y114.787
;TYPE:WALL-OUTER
G1 F1500 X104.4 Y114.8 E1.83144
G1 X104.2 Y114.8 E1.8351
G1 X104.2 Y114.6 E1.83747
G1 X104.2 Y105.2 E2.00943
G1 X115.8 Y105.2 E2.22163
G1 X115.8 Y114.787 E2.397
G0 F3600 X115.6 Y114.787
G0 X115.36 Y114.347
G0 X113.539 Y113.539
;TYPE:SKIN
G1 F1500 X113.539 Y112.973 E2.40736
G1 X114.712 Y114.146 E2.4377
G1 X115.159 Y114.146 E2.44588
G1 X115.159 Y114.028 E2.44804
G1 X113.539 Y112.408 E2.48995
G1 X113.539 Y111.842 E2.5003
G1 X115.159 Y113.462 E2.54221
G1 X115.159 Y112.896 E2.55256
G1 X113.539 Y111.276 E2.59447
G1 X113.539 Y110.711 E2.60481
G1 X115.159 Y112.33 E2.64671
G1 X115.159 Y111.765 E2.65704
G1 X113.539 Y110.145 E2.69895
G1 X113.539 Y109.579 E2.70931
G1 X115.159 Y111.199 E2.75122
G1 X115.159 Y110.633 E2.76157
G1 X113.539 Y109.013 E2.80348
G1 X113.539 Y108.448 E2.81382
G1 X115.159 Y110.068 E2.85573
G1 X115.159 Y109.502 E2.86608
G1 X113.539 Y107.882 E2.90799
G1 X113.539 Y107.316 E2.91834
G1 X115.159 Y108.936 E2.96025
G1 X115.159 Y108.371 E2.97059
G1 X113.539 Y106.751 E3.0125
G1 X113.539 Y106.459 E3.01784
;;retract;;
G1 F6000 E-4.98216
G0 F3600 X112.042 Y107.958
G0 X112.042 Y112.042
G0 X113.539 Y113.539
G1 F6000 E3.01784
G1 F1500 X114.147 Y114.147 E3.03357
G1 X113.582 Y114.148 E3.0439
G1 X112.973 Y113.539 E3.05966
G1 X112.408 Y113.539 E3.07
G1 X113.017 Y114.148 E3.08575
G1 X112.452 Y114.149 E3.09609
G1 X111.842 Y113.539 E3.11187
G1 X111.276 Y113.539 E3.12222
G1 X111.887 Y114.15 E3.13803
G1 X111.322 Y114.151 E3.14836
G1 X110.711 Y113.539 E3.16418
G1 X110.145 Y113.539 E3.17454
G1 X110.757 Y114.151 E3.19037
G1 X110.192 Y114.152 E3.20071
G1 X109.579 Y113.539 E3.21656
G1 X109.013 Y113.539 E3.22692
G1 X109.627 Y114.153 E3.2428
G1 X109.062 Y114.153 E3.25314
G1 X108.448 Y113.539 E3.26902
G1 X107.882 Y113.539 E3.27938
G1 X108.497 Y114.154 E3.29529
G1 X107.932 Y114.155 E3.30562
G1 X107.316 Y113.539 E3.32156
G1 X106.751 Y113.539 E3.33189
G1 X107.367 Y114.156 E3.34784
G1 X106.802 Y114.156 E3.35818
G1 X104.839 Y112.193 E3.40896
G1 X104.839 Y112.759 E3.41932
G1 X106.237 Y114.157 E3.45548
G1 X105.672 Y114.158 E3.46582
G1 X104.839 Y113.325 E3.48737
G1 X104.839 Y113.89 E3.4977
G1 X105.107 Y114.158 E3.50464
G1 X104.839 Y114.159 E3.50954
G0 F3600 X106.459 Y113.539
G1 F1500 X106.459 Y113.248 E3.51486
G1 X104.839 Y111.628 E3.55677
G1 X104.839 Y111.062 E3.56713
G1 X106.459 Y112.682 E3.60904
G1 X106.459 Y112.116 E3.61939
G1 X104.839 Y110.496 E3.6613
G1 X104.839 Y109.931 E3.67164
G1 X106.459 Y111.551 E3.71355
G1 X106.459 Y110.985 E3.7239
G1 X104.839 Y109.365 E3.76581
G1 X104.839 Y108.799 E3.77616
G1 X106.459 Y110.419 E3.81807
G1 X106.459 Y109.853 E3.82843
G1 X104.839 Y108.234 E3.87032
G1 X104.839 Y107.668 E3.88068
G1 X106.459 Y109.288 E3.92259
G1 X106.459 Y108.722 E3.93294
G1 X104.839 Y107.102 E3.97485
G1 X104.839 Y106.536 E3.98521
G1 X106.459 Y108.156 E4.02711
G1 X106.459 Y107.591 E4.03745
G1 X104.839 Y105.971 E4.07936
G1 X104.839 Y105.839 E4.08178
G1 X105.274 Y105.839 E4.08973
G1 X106.459 Y107.025 E4.1204
G1 X106.459 Y106.459 E4.13076
G1 X105.839 Y105.839 E4.1468
G1 X106.405 Y105.839 E4.15715
G1 X107.025 Y106.459 E4.17319
G1 X107.591 Y106.459 E4.18354
G1 X106.971 Y105.839 E4.19958
G1 X107.536 Y105.839 E4.20992
G1 X108.156 Y106.459 E4.22596
G1 X108.722 Y106.459 E4.23631
G1 X108.102 Y105.839 E4.25235
G1 X108.668 Y105.839 E4.2627
G1 X109.288 Y106.459 E4.27874
G1 X109.853 Y106.459 E4.28908
G1 X109.233 Y105.839 E4.30512
G1 X109.799 Y105.839 E4.31547
G1 X110.419 Y106.459 E4.33151
G1 X110.985 Y106.459 E4.34187
G1 X110.365 Y105.839 E4.35791
G1 X110.93 Y105.839 E4.36824
G1 X111.551 Y106.459 E4.38429
G1 X112.116 Y106.459 E4.39463
G1 X111.496 Y105.839 E4.41067
G1 X112.062 Y105.839 E4.42102
G1 X112.682 Y106.459 E4.43706
G1 X113.248 Y106.459 E4.44742
G1 X112.627 Y105.839 E4.46347
G1 X113.193 Y105.839 E4.47382
G1 X115.159 Y107.805 E4.52468
G1 X115.159 Y107.239 E4.53504
G1 X113.759 Y105.839 E4.57126
G1 X114.325 Y105.839 E4.58161
G1 X115.159 Y106.674 E4.6032
G1 X115.159 Y106.108 E4.61355
G1 X114.89 Y105.839 E4.62051
G1 X115.159 Y105.839 E4.62543
;;retract;;
G1 F6000 E-3.37457
;MESH:NONMESH
G0 F600 X115.159 Y105.839 Z0.2
G0 F3600 X115.159 Y104.33
G0 X107.958 Y107.958
G0 X106.7 Y106.7
;TIME_ELAPSED:20.652608

;LAYER:1
M140 S60
M106 S127.5
;TYPE:WALL-INNER
;MESH:
G1 F6000 E4.62543
G1 F1500 X106.7 Y113.3 E4.73519
G1 X113.3 Y113.3 E4.84495
G1 X113.3 Y106.7 E4.95471
G1 X106.7 Y106.7 E5.06447
G0 F5400 X107.1 Y107.1
;TYPE:WALL-OUTER
G1 F1500 X107.1 Y112.9 E5.16092
G1 X112.9 Y112.9 E5.25738
G1 X112.9 Y107.1 E5.35383
G1 X107.1 Y107.1 E5.45028
G0 F5400 X107.1 Y107.3
G0 X106.66 Y107.3
;;retract;;
G1 F6000 E-2.54972
G0 F5400 X107.958 Y107.958
G0 X115.389 Y115.67
G0 X115.389 Y114.4
;TYPE:WALL-INNER
G1 F6000 E5.45028
G1 F1500 X104.6 Y114.4 E5.62971
G1 X104.6 Y105.6 E5.77605
G1 X115.201 Y105.6 E5.95235
G1 X115.4 Y105.6 E5.95566
G1 X115.4 Y105.799 E5.9578
G1 X115.389 Y114.4 E6.10083
;;retract;;
G1 F6000 E-1.89917
G0 F5400 X116.66 Y114.401
G0 X116.67 Y105.4
G0 X115.8 Y105.4
;TYPE:WALL-OUTER
G1 F6000 E6.10083
G1 F1500 X115.789 Y114.8 E6.25716
G1 X104.2 Y114.8 E6.44988
G1 X104.2 Y105.2 E6.60953
G1 X115.6 Y105.2 E6.79911
G1 X115.8 Y105.2 E6.80244
G1 X115.8 Y105.4 E6.80459
G0 F5400 X115.8 Y105.6
G0 X115.36 Y105.64
;;retract;;
G1 F6000 E-1.19541
G0 F5400 X116.67 Y105.641
G0 X116.661 Y114.16
G0 X115.148 Y114.159
;TYPE:SKIN
G1 F6000 E6.80459
G1 F1500 X115.148 Y113.954 E6.808
G1 X115.148 Y113.388 E6.81741
G1 X114.377 Y114.159 E6.83555
G1 X113.811 Y114.159 E6.84496
G1 X115.149 Y112.821 E6.87643
G1 X115.15 Y112.255 E6.88584
G1 X113.245 Y114.159 E6.93063
G1 X112.68 Y114.159 E6.94003
G1 X113.3 Y113.539 E6.95461
G1 X112.734 Y113.539 E6.96402
G1 X112.114 Y114.159 E6.9786
G1 X111.548 Y114.159 E6.98801
G1 X112.169 Y113.539 E7.00261
G1 X111.603 Y113.539 E7.01202
G1 X110.983 Y114.159 E7.0266
G1 X110.417 Y114.159 E7.03601
G1 X111.037 Y113.539 E7.0506
G1 X110.471 Y113.539 E7.06001
G1 X109.851 Y114.159 E7.07459
G1 X109.286 Y114.159 E7.08399
G1 X109.906 Y113.539 E7.09857
G1 X109.34 Y113.539 E7.10798
G1 X108.72 Y114.159 E7.12256
G1 X108.154 Y114.159 E7.13197
G1 X108.774 Y113.539 E7.14656
G1 X108.209 Y113.539 E7.15595
G1 X107.589 Y114.159 E7.17053
G1 X107.023 Y114.159 E7.17995
G1 X107.643 Y113.539 E7.19453
G1 X107.077 Y113.539 E7.20394
G1 X106.457 Y114.159 E7.21852
G1 X105.892 Y114.159 E7.22792
G1 X106.512 Y113.539 E7.2425
G1 X106.459 Y113.539 E7.24338
G1 X106.459 Y113.026 E7.25191
G1 X105.326 Y114.159 E7.27856
G1 X104.839 Y114.159 E7.28666
G1 X104.839 Y114.08 E7.28797
G1 X106.459 Y112.46 E7.32607
G1 X106.459 Y111.894 E7.33548
G1 X104.839 Y113.514 E7.37358
G1 X104.839 Y112.948 E7.383
G1 X106.459 Y111.329 E7.42108
G1 X106.459 Y110.763 E7.4305
G1 X104.839 Y112.383 E7.4686
G1 X104.839 Y111.817 E7.47801
G1 X106.459 Y110.197 E7.51611
G1 X106.459 Y109.631 E7.52552
G1 X104.839 Y111.251 E7.56362
G1 X104.839 Y110.686 E7.57302
G1 X106.459 Y109.066 E7.61112
G1 X106.459 Y108.5 E7.62053
G1 X104.839 Y110.12 E7.65863
G1 X104.839 Y109.554 E7.66804
G1 X106.459 Y107.934 E7.70614
G1 X106.459 Y107.369 E7.71554
G1 X104.839 Y108.989 E7.75364
G1 X104.839 Y108.423 E7.76305
G1 X106.459 Y106.803 E7.80115
G0 F5400 X106.459 Y106.459
G1 F1500 X106.803 Y106.459 E7.80687
G1 X107.369 Y106.459 E7.81628
G1 X107.989 Y105.839 E7.83087
G1 X108.555 Y105.839 E7.84028
G1 X107.934 Y106.459 E7.85487
G1 X108.5 Y106.459 E7.86428
G1 X109.12 Y105.839 E7.87887
G1 X109.686 Y105.839 E7.88828
G1 X109.066 Y106.459 E7.90286
G1 X109.631 Y106.459 E7.91226
G1 X110.252 Y105.839 E7.92685
G1 X110.817 Y105.839 E7.93624
G1 X110.197 Y106.459 E7.95083
G1 X110.763 Y106.459 E7.96024
G1 X111.383 Y105.839 E7.97482
G1 X111.949 Y105.839 E7.98423
G1 X111.329 Y106.459 E7.99881
G1 X111.894 Y106.459 E8.00821
G1 X112.514 Y105.839 E8.02279
G1 X113.08 Y105.839 E8.0322
G1 X112.46 Y106.459 E8.04679
G1 X113.026 Y106.459 E8.0562
G1 X113.646 Y105.839 E8.07078
G1 X114.211 Y105.839 E8.08018
G1 X113.539 Y106.512 E8.09599
G1 X113.539 Y107.077 E8.10539
G1 X114.777 Y105.839 E8.1345
G1 X115.159 Y105.839 E8.14086
G1 X115.158 Y106.024 E8.14393
G1 X113.539 Y107.643 E8.18201
G1 X113.539 Y108.209 E8.19142
G1 X115.157 Y106.59 E8.22949
G1 X115.157 Y107.157 E8.23892
G1 X113.539 Y108.774 E8.27696
G1 X113.539 Y109.34 E8.28637
G1 X115.156 Y107.723 E8.3244
G1 X115.155 Y108.289 E8.33381
G1 X113.539 Y109.906 E8.37183
G1 X113.539 Y110.471 E8.38123
G1 X115.155 Y108.856 E8.41922
G1 X115.154 Y109.422 E8.42863
G1 X113.539 Y111.037 E8.46661
G1 X113.539 Y111.603 E8.47603
G1 X115.153 Y109.989 E8.51399
G1 X115.152 Y110.556 E8.52342
G1 X113.539 Y112.169 E8.56135
G1 X113.539 Y112.734 E8.57075
G1 X115.151 Y111.122 E8.60866
G1 X115.15 Y111.688 E8.61807
G1 X113.539 Y113.3 E8.65597
G0 F5400 X113.539 Y113.539
G1 F1500 X113.3 Y113.539 E8.65995
G0 F5400 X114.943 Y114.159
G1 F1500 X115.148 Y113.954 E8.66477
;;retract;;
G1 F6000 E0.66477
G0 F5400 X116.661 Y113.955
G0 X107.958 Y107.958
G0 X106.803 Y106.459
G1 F6000 E8.66477
G1 F1500 X107.423 Y105.839 E8.67935
G1 X106.857 Y105.839 E8.68876
G1 X104.839 Y107.857 E8.73622
G1 X104.839 Y107.292 E8.74562
G1 X106.292 Y105.839 E8.77979
G1 X105.726 Y105.839 E8.7892
G1 X104.839 Y106.726 E8.81006
G1 X104.839 Y106.16 E8.81948
G1 X104.839 Y105.839 E8.82481
G0 F5400 X105.16 Y105.839
G1 F1500 X104.839 Y106.16 E8.83236
;MESH:NONMESH
G0 F600 X104.839 Y106.16 Z0.3
G0 F5400 X106.7 Y106.7
;TIME_ELAPSED:37.794071

;LAYER:2
M106 S255
;TYPE:WALL-INNER
;MESH:
G1 F1500 X106.7 Y113.3 E8.94212
G1 X113.3 Y113.3 E9.05188
G1 X113.3 Y106.7 E9.16164
G1 X106.7 Y106.7 E9.2714
G0 F7200 X107.1 Y107.1
;TYPE:WALL-OUTER
G1 F1500 X107.1 Y112.9 E9.36785
G1 X112.9 Y112.9 E9.46431
G1 X112.9 Y107.1 E9.56076
G1 X107.1 Y107.1 E9.65721
G0 F7200 X107.1 Y107.3
G0 X106.66 Y107.3
;;retract;;
G1 F6000 E1.65721
G0 F7200 X107.958 Y107.958
G0 X115.383 Y115.67
G0 X115.383 Y114.4
;TYPE:WALL-INNER
G1 F6000 E9.65721
G1 F1500 X104.6 Y114.4 E9.83654
G1 X104.6 Y105.6 E9.98288
G1 X115.2 Y105.6 E10.15916
G1 X115.399 Y105.6 E10.16247
G1 X115.399 Y105.799 E10.16461
G1 X115.383 Y114.4 E10.30765
;;retract;;
G1 F6000 E2.30765
G0 F7200 X116.654 Y114.402
G0 X116.67 Y105.401
G0 X115.8 Y105.4
;TYPE:WALL-OUTER
G1 F6000 E10.30765
G1 F1500 X115.782 Y114.8 E10.46397
G1 X104.2 Y114.8 E10.65658
G1 X104.2 Y105.2 E10.81623
G1 X115.6 Y105.2 E11.00581
G1 X115.8 Y105.2 E11.00914
G1 X115.8 Y105.4 E11.01129
G0 F7200 X115.8 Y105.6
G0 X115.36 Y105.64
;;retract;;
G1 F6000 E3.01129
G0 F7200 X116.669 Y105.642
G0 X112.042 Y112.042
G0 X113.539 Y113.539
;TYPE:SKIN
G1 F6000 E11.01129
G1 F1500 X113.539 Y112.973 E11.0207
G1 X114.725 Y114.159 E11.04859
G1 X115.142 Y114.159 E11.05553
G1 X115.143 Y114.011 E11.05799
G1 X113.539 Y112.408 E11.0957
G1 X113.539 Y111.842 E11.10512
G1 X115.143 Y113.446 E11.14284
G1 X115.145 Y112.882 E11.15222
G1 X113.539 Y111.276 E11.18999
G1 X113.539 Y110.711 E11.19939
G1 X115.145 Y112.317 E11.23716
G1 X115.147 Y111.753 E11.24654
G1 X113.539 Y110.145 E11.28435
G1 X113.539 Y109.579 E11.29377
G1 X115.148 Y111.188 E11.33161
G1 X115.149 Y110.624 E11.34099
G1 X113.539 Y109.013 E11.37886
G1 X113.539 Y108.448 E11.38826
G1 X115.15 Y110.059 E11.42615
G1 X115.151 Y109.494 E11.43554
G1 X113.539 Y107.882 E11.47345
G1 X113.539 Y107.316 E11.48287
G1 X115.152 Y108.929 E11.5208
G1 X115.153 Y108.365 E11.53018
G1 X113.539 Y106.751 E11.56814
G1 X113.539 Y106.459 E11.573
;;retract;;
G1 F6000 E3.573
G0 F7200 X112.042 Y107.958
G0 X112.042 Y112.042
G0 X113.539 Y113.539
G1 F6000 E11.573
G1 F1500 X114.159 Y114.159 E11.58758
G1 X113.593 Y114.159 E11.59699
G1 X112.973 Y113.539 E11.61157
G1 X112.408 Y113.539 E11.62097
G1 X113.028 Y114.159 E11.63555
G1 X112.462 Y114.159 E11.64496
G1 X111.842 Y113.539 E11.65954
G1 X111.276 Y113.539 E11.66896
G1 X111.896 Y114.159 E11.68354
G1 X111.331 Y114.159 E11.69293
G1 X110.711 Y113.539 E11.70752
G1 X110.145 Y113.539 E11.71693
G1 X110.765 Y114.159 E11.73151
G1 X110.199 Y114.159 E11.74092
G1 X109.579 Y113.539 E11.7555
G1 X109.013 Y113.539 E11.76492
G1 X109.634 Y114.159 E11.77951
G1 X109.068 Y114.159 E11.78892
G1 X108.448 Y113.539 E11.8035
G1 X107.882 Y113.539 E11.81292
