;FLAVOR:Marlin
;TIME:352
;Filament used:0.041812m
;Layer height: 0.1
;MINX:104.432
;MINY:106.17
;MINZ:0.1
;MAXX:113.666
;MAXY:113.753
;MAXZ:7
                                
;Creality Print GCode Generated by CXEngine:NO_MAGE_VERSION_GIT_HEAD_BRANCH
;CXEngine Release Time:2022-09-30 09:53:04
;Gcode Generated Time:2023-04-15 18:29:25
;----------Machine Config--------------
;Machine Name:Ender-3 V2
;Machine Height:250
;Machine Width:220
;Machine Depth:220
;Material name:PLA
;Number of Extruders:1
;ExtruderParams[0] Nozzle Diameter1000
;----------Profile Config---------------
;Engine Version:275f99b
;Engine Release Time:2022-09-30 09:42:18
;Layer Height:0.1
;Wall Thickness:0.8
;Top/Bottom Thickness:0.5
;Out Wall Line Width:0.4
;Inner Wall Line Width:0.4
;Inital Layer Height:100
;Wall Line Count:2
;Infill Line Distance:4
;Infill Pattern:grid
;Infill Sparse Density:20
;Infill Wipe Distance:0
;Print Temperature:200
;Bed Temperature:60
;Support Enable:true
;Support Density:0
;Support Angle:60
;Adhesion Type:none
;machine is belt:false
;machine belt offset:10
;machine belt offset Y:0
;Raft Base Line Spacing:1.6
;Wait Heatup Sync:true
;----------Shell Config----------------
;Outer Wall Wipe Distance:200
;Outer Inset First:false
;Infill Before Walls:false
;Infill Overlap:0.16
;Fill Gaps Between Walls:everywhere
;Minimum Infill Area:1
;Top Surface Skin Layer:0
;Top Layers:4
;Z Seam Alignment:sharpest_corner
;Seam Corner Preference:z_seam_corner_inner
;Z Seam X:110
;Z Seam Y:110
;Horizontal Expansion:0
;Top/Bottom Pattern:zigzag
;Ironing Pattern:zigzag
;Vase Model:false
;----------Support Config----------------
;Support Type:everywhere
;Support Pattern:zigzag
;Support Infill Layer Thickness:0.1
;Minimum Support Area:5
;Enable Support Roof:false
;Support Roof Thickness:0.8
;Support Roof Pattern:lines
;Connect Support Lines:0
;Connect Support ZigZags:1
;Minimum Support X/Y Distance:0.2
;Support Line Distance:0
; ---------PrintSpeed & Travel----------
;Enable Print Cool:true
;Avoid Printed Parts Traveling:true
;Enable Retraction:true
;Retraction Distance:8
;Retraction Speed:100
;Retraction Prime Speed:100
;Maximum Retraction Count:100
;Minimum Extrusion Distance Window:1
;Z Hop When Retracted:false
;Z Hop Height:0.2
;Retract Before Outer Wall:true
;Print Speed:50
;Infill Speed:50

;Prime Tower Speed:50
;Travel Speed:120
;Initial Layer Speed:25
;Skirt/Brim Speed:25
;Combing Mode:infill
; --------SpecialModel&Mesh Fixes--------
;Union Overlapping Volum:true
;Remove All Holes:false
;Maximum Travel Resolution:0.6
;Maximum Deviation:0.05
;Maximum Model Angle:0.872665
;IS Mold Print:false
;Make Overhang Printable:false
;Enable Coasting:false
;Coasting Volumes:0.06
;Coasting Speed:0.9
;Raft AirGap:0.25
;Layer0 ZOverLap:0.13
;---------------------End of Head--------------------------
M140 S60
M105
M104 S200
M105
M109 S200
M105
M190 S60
M82 ;absolute extrusion mode
M220 S100 ;Reset Feedrate
M221 S100 ;Reset Flowrate

G28 ;Home

G92 E0 ;Reset Extruder
G1 Z2.0 F3000 ;Move Z Axis up
G1 X10.1 Y20 Z0.28 F5000.0 ;Move to start position
G1 X10.1 Y145.0 Z0.28 F1500.0 E15 ;Draw the first line
G1 X10.4 Y145.0 Z0.28 F5000.0 ;Move to side a little
G1 X10.4 Y20 Z0.28 F1500.0 E30 ;Draw the second line
G92 E0  ;Reset Extruder
G1 E-1.0000 F1800 ;Retract a bit
G1 Z2.0 F3000 ;Move Z Axis up
G1 E0.0000 F1800 

G92 E0
G92 E0
G1 F6000 E-8

;LAYER_COUNT:70

;LAYER:0
M107
G0 F3600 X105.498 Y107.938 Z0.1
;TYPE:SUPPORT
G1 F6000 E0
G1 F1500 X106.525 Y107.564 E0.016
G1 X107.202 Y106.698 E0.03208
G1 X108.23 Y106.591 E0.04721
G1 X109.888 Y106.568 E0.07147
G1 X110.895 Y106.631 E0.08624
G1 X112.235 Y106.601 E0.10585
G1 X112.66 Y106.91 E0.11354
G1 X112.823 Y107.408 E0.12121
G1 X112.66 Y107.906 E0.12888
G1 X112.235 Y108.216 E0.13658
G1 X110.991 Y108.192 E0.15479
G1 X110.044 Y108.092 E0.16872
G1 X109.061 Y108.059 E0.18312
G1 X108.194 Y108.21 E0.196
G1 X107.112 Y108.337 E0.21194
G1 X106.426 Y109.214 E0.22823
G1 X105.935 Y109.214 E0.23542
G1 X105.508 Y108.903 E0.24315
G1 X105.345 Y108.405 E0.25082
G1 X105.498 Y107.938 E0.25801
;;retract;;
G1 F6000 E-7.74199
G0 F3600 X104.67 Y107.669
G0 X104.432 Y108.405
G0 X104.77 Y109.439
G0 X105.654 Y110.35
G0 X106.166 Y111.053
G1 F6000 E0.25801
G1 F1500 X106.666 Y111.053 E0.26533
G1 X107.294 Y111.747 E0.27903
G1 X109.498 Y111.84 E0.31131
G1 X111.041 Y111.856 E0.33389
G1 X111.469 Y112.168 E0.34164
G1 X111.632 Y112.666 E0.34931
G1 X111.469 Y113.164 E0.35698
G1 X111.043 Y113.474 E0.36469
G1 X109.514 Y113.458 E0.38707
G1 X107.463 Y113.371 E0.41711
G1 X106.829 Y112.671 E0.43093
G1 X106.166 Y112.671 E0.44063
G1 X105.739 Y112.36 E0.44836
G1 X105.576 Y111.862 E0.45603
G1 X105.739 Y111.364 E0.4637
G1 X106.166 Y111.053 E0.47143
;;retract;;
G1 F6000 E-7.52857
;MESH:
G0 F3600 X106.166 Y110.183
G0 X107.049 Y110.187
G0 X107.841 Y110.966
G0 X108.891 Y110.958
G0 X111.8 Y110.97
G0 X111.8 Y110.1
;TYPE:WALL-OUTER
G1 F6000 E0.47143
G1 F600 X108.2 Y110.1 E0.53729
G1 X108.2 Y109.9 E0.54094
G1 X111.8 Y109.9 E0.57387
G1 X111.8 Y110.1 E0.57753
G0 F3600 X111.6 Y110.1
;;retract;;
G1 F6000 E-7.42247
;MESH:NONMESH
G0 F600 X111.6 Y110.1 Z0.2
G0 F3600 X112.315 Y108.215
;TIME_ELAPSED:9.333203

;LAYER:1
M140 S60
M106 S127.5
;TYPE:SUPPORT
G1 F6000 E0.57753
G1 F2250 X108.895 Y108.2 E0.62303
G1 X107.774 Y108.307 E0.63801
G1 X107.129 Y108.307 E0.64659
G1 X106.443 Y109.181 E0.66137
G1 X105.956 Y109.181 E0.66785
G1 X105.534 Y108.874 E0.6748
G1 X105.373 Y108.381 E0.6817
G1 X105.523 Y107.92 E0.68815
G1 X106.568 Y107.55 E0.70289
G1 X107.237 Y106.698 E0.71731
G1 X108.265 Y106.6 E0.73105
G1 X110.905 Y106.555 E0.76617
G1 X112.311 Y106.613 E0.78489
G1 X112.736 Y106.923 E0.79189
G1 X112.897 Y107.416 E0.79879
G1 X112.736 Y107.909 E0.80569
G1 X112.315 Y108.215 E0.81262
;;retract;;
G1 F6000 E-7.18738
G0 F5400 X112.312 Y109.086
G0 X112.666 Y110.459
G0 X112.21 Y110.915
G0 X111.631 Y111.163
G0 X111.12 Y111.866
G1 F6000 E0.81262
G1 F2250 X111.545 Y112.176 E0.81962
G1 X111.706 Y112.669 E0.82651
G1 X111.545 Y113.162 E0.83341
G1 X111.127 Y113.466 E0.84029
G1 X109.179 Y113.42 E0.86621
G1 X108.245 Y113.223 E0.87891
G1 X107.477 Y113.348 E0.88927
G1 X106.863 Y112.686 E0.90128
G1 X106.192 Y112.686 E0.91021
G1 X105.77 Y112.379 E0.91715
G1 X105.609 Y111.886 E0.92405
G1 X105.77 Y111.393 E0.93095
G1 X106.192 Y111.086 E0.93789
G1 X106.688 Y111.086 E0.94449
G1 X107.3 Y111.745 E0.95645
G1 X108.314 Y111.959 E0.97024
G1 X109.169 Y111.82 E0.98177
G1 X111.12 Y111.866 E1.00773
;;retract;;
G1 F6000 E-6.99227
;MESH:
G0 F5400 X111.8 Y110.1
;TYPE:WALL-OUTER
G1 F6000 E1.00773
G1 F600 X108.2 Y110.1 E1.0676
G1 X108.2 Y109.9 E1.07092
G1 X111.8 Y109.9 E1.10086
G1 X111.8 Y110.1 E1.10418
G0 F5400 X111.6 Y110.1
;;retract;;
G1 F6000 E-6.89582
;MESH:NONMESH
G0 F600 X111.6 Y110.1 Z0.3
G0 F5400 X112.361 Y108.212
;TIME_ELAPSED:13.466204

;LAYER:2
M106 S255
;TYPE:SUPPORT
G1 F6000 E1.10418
G1 F3000 X111.149 Y108.161 E1.12032
G1 X110.192 Y108.041 E1.13315
G1 X109.213 Y108.008 E1.14619
G1 X108.304 Y108.194 E1.15853
G1 X107.131 Y108.298 E1.1742
G1 X106.486 Y109.116 E1.18806
G1 X105.591 Y108.824 E1.20058
G1 X105.591 Y107.887 E1.21305
G1 X106.61 Y107.535 E1.22739
G1 X107.271 Y106.698 E1.24158
G1 X109.411 Y106.551 E1.27012
G1 X112.355 Y106.628 E1.3093
G1 X112.933 Y107.424 E1.32238
G1 X112.361 Y108.212 E1.33534
;;retract;;
G1 F6000 E-6.66466
G0 F7200 X112.326 Y109.08
G0 X112.666 Y110.459
G0 X112.159 Y110.966
G0 X111.175 Y111.006
G0 X111.166 Y111.876
G1 F6000 E1.33534
G1 F3000 X111.742 Y112.669 E1.34838
G1 X111.167 Y113.46 E1.36139
G1 X109.259 Y113.393 E1.38679
G1 X108.309 Y113.181 E1.39974
G1 X107.496 Y113.339 E1.41076
G1 X106.907 Y112.728 E1.42205
G1 X105.832 Y112.378 E1.43709
G1 X105.832 Y111.444 E1.44951
G1 X106.741 Y111.148 E1.46223
G1 X107.325 Y111.754 E1.47343
G1 X108.352 Y111.983 E1.48743
G1 X109.245 Y111.809 E1.49953
G1 X110.302 Y111.866 E1.51361
G1 X111.166 Y111.876 E1.52511
;;retract;;
G1 F6000 E-6.47489
;MESH:
G0 F7200 X111.8 Y110.1
;TYPE:WALL-OUTER
G1 F6000 E1.52511
G1 F600 X108.2 Y110.1 E1.58498
G1 X108.2 Y109.9 E1.5883
G1 X111.8 Y109.9 E1.61824
G1 X111.8 Y110.1 E1.62156
G0 F7200 X111.6 Y110.1
;;retract;;
G1 F6000 E-6.37844
;MESH:NONMESH
G0 F600 X111.6 Y110.1 Z0.4
G0 F7200 X112.441 Y108.213
;TIME_ELAPSED:17.654625

;LAYER:3
;TYPE:SUPPORT
G1 F6000 E1.62156
G1 F3000 X111.244 Y108.181 E1.6375
G1 X110.282 Y108.001 E1.65052
G1 X109.472 Y108.114 E1.6614
G1 X108.34 Y108.164 E1.67647
G1 X107.141 Y108.281 E1.6925
G1 X106.505 Y109.084 E1.70613
G1 X105.619 Y108.795 E1.71853
G1 X105.619 Y107.869 E1.73085
G1 X106.654 Y107.52 E1.74538
G1 X107.308 Y106.695 E1.75938
G1 X108.363 Y106.596 E1.77348
G1 X109.497 Y106.546 E1.78858
G1 X111.042 Y106.531 E1.80914
G1 X112.433 Y106.64 E1.8277
G1 X113.008 Y107.432 E1.84072
G1 X112.441 Y108.213 E1.85356
;;retract;;
G1 F6000 E-6.14644
G0 F7200 X112.418 Y109.083
G0 X112.666 Y110.459
G0 X112.159 Y110.966
G0 X111.254 Y111.014
G0 X111.246 Y111.885
G1 F6000 E1.85356
G1 F3000 X111.816 Y112.67 E1.86647
G1 X111.248 Y113.452 E1.87933
G1 X109.272 Y113.432 E1.90562
G1 X108.301 Y113.198 E1.9189
G1 X107.521 Y113.336 E1.92944
G1 X106.927 Y112.744 E1.9406
G1 X105.864 Y112.397 E1.95548
G1 X105.864 Y111.473 E1.96777
G1 X106.765 Y111.179 E1.98038
G1 X107.351 Y111.764 E1.99139
G1 X108.401 Y112.017 E2.00576
G1 X109.266 Y111.864 E2.01745
G1 X111.246 Y111.885 E2.04379
;;retract;;
G1 F6000 E-5.95621
;MESH:
G0 F7200 X111.8 Y110.1
;TYPE:WALL-OUTER
G1 F6000 E2.04379
G1 F600 X108.2 Y110.1 E2.10366
G1 X108.2 Y109.9 E2.10699
G1 X111.8 Y109.9 E2.13692
G1 X111.8 Y110.1 E2.14025
G0 F7200 X111.6 Y110.1
;;retract;;
G1 F6000 E-5.85975
;MESH:NONMESH
G0 F600 X111.6 Y110.1 Z0.5
G0 F7200 X111.6 Y109.03
G0 X108.407 Y109.031
G0 X107.591 Y109.108
G0 X106.807 Y110.09
G0 X104.757 Y109.42
G0 X104.757 Y107.251
G0 X105.371 Y107.037
G0 X105.646 Y107.851
;TIME_ELAPSED:22.321774

;LAYER:4
;TYPE:SUPPORT
G1 F6000 E2.14025
G1 F3000 X106.694 Y107.504 E2.15494
G1 X107.339 Y106.695 E2.1687
G1 X109.557 Y106.498 E2.19832
G1 X110.17 Y106.498 E2.20648
G1 X111.997 Y106.663 E2.23089
G1 X112.934 Y106.982 E2.24405
G1 X112.934 Y107.898 E2.25624
G1 X111.964 Y108.213 E2.26981
G1 X109.548 Y108.047 E2.30203
G1 X107.151 Y108.262 E2.33405
G1 X106.523 Y109.05 E2.34745
G1 X105.646 Y108.765 E2.35972
G1 X105.646 Y107.851 E2.37188
;;retract;;
G1 F6000 E-5.62812
G0 F7200 X105.373 Y107.026
G0 X104.784 Y107.228
G0 X104.784 Y109.391
G0 X106.824 Y110.055
G0 X107.841 Y110.966
G0 X111.298 Y111.027
G0 X111.33 Y111.896
G1 F6000 E2.37188
G1 F3000 X111.891 Y112.667 E2.38456
G1 X111.325 Y113.446 E2.39737
G1 X110.476 Y113.477 E2.40868
G1 X109.517 Y113.249 E2.42179
G1 X108.727 Y113.386 E2.43246
G1 X108.398 Y113.148 E2.43786
G1 X107.533 Y113.326 E2.44961
G1 X106.952 Y112.758 E2.46042
G1 X105.899 Y112.416 E2.47515
G1 X105.899 Y111.502 E2.48731
G1 X106.793 Y111.212 E2.49981
G1 X107.368 Y111.774 E2.51051
G1 X108.424 Y112.034 E2.52498
G1 X109.323 Y111.85 E2.53719
G1 X110.452 Y111.928 E2.55224
G1 X111.33 Y111.896 E2.56393
;;retract;;
G1 F6000 E-5.43607
;MESH:
G0 F7200 X111.8 Y110.1
;TYPE:WALL-OUTER
G1 F6000 E2.56393
G1 F600 X108.2 Y110.1 E2.6238
G1 X108.2 Y109.9 E2.62713
G1 X111.8 Y109.9 E2.65706
G1 X111.8 Y110.1 E2.66039
G0 F7200 X111.6 Y110.1
;;retract;;
G1 F6000 E-5.33961
;MESH:NONMESH
G0 F600 X111.6 Y110.1 Z0.6
G0 F7200 X111.6 Y109.03
G0 X109.55 Y108.919
G0 X107.598 Y109.092
G0 X106.824 Y110.055
G0 X104.784 Y109.391
G0 X104.784 Y107.228
G0 X105.404 Y107.016
G0 X105.674 Y107.831
;TIME_ELAPSED:27.268476

;LAYER:5
;TYPE:SUPPORT
G1 F6000 E2.66039
G1 F3000 X106.729 Y107.488 E2.67515
G1 X107.374 Y106.691 E2.68879
G1 X108.503 Y106.534 E2.70395
G1 X110.242 Y106.478 E2.7271
G1 X111.34 Y106.643 E2.74187
G1 X112.594 Y106.688 E2.75856
G1 X113.154 Y107.458 E2.77123
G1 X112.6 Y108.22 E2.78377
G1 X111.403 Y108.165 E2.79971
G1 X110.392 Y107.921 E2.81354
G1 X109.613 Y108.012 E2.82398
G1 X108.469 Y108.069 E2.83922
G1 X107.159 Y108.248 E2.85681
G1 X106.542 Y109.017 E2.86992
G1 X105.674 Y108.735 E2.88207
G1 X105.674 Y107.831 E2.89409
;;retract;;
G1 F6000 E-5.10591
G0 F7200 X105.405 Y107.004
G0 X104.812 Y107.205
G0 X104.812 Y109.361
G0 X106.841 Y110.022
G0 X107.841 Y110.966
G0 X111.336 Y111.037
G0 X111.413 Y111.902
G1 F6000 E2.89409
G1 F3000 X111.964 Y112.66 E2.90656
G1 X111.4 Y113.436 E2.91932
G1 X110.536 Y113.512 E2.93086
G1 X109.584 Y113.282 E2.94389
G1 X108.691 Y113.468 E2.95603
G1 X107.572 Y113.344 E2.97101
G1 X106.972 Y112.769 E2.98206
G1 X105.93 Y112.43 E2.99664
G1 X105.93 Y111.526 E3.00867
G1 X106.816 Y111.238 E3.02106
G1 X107.382 Y111.781 E3.0315
G1 X108.489 Y112.088 E3.04678
G1 X109.281 Y111.948 E3.05748
G1 X109.596 Y112.177 E3.06266
G1 X110.555 Y111.978 E3.07569
G1 X111.413 Y111.902 E3.08715
;;retract;;
G1 F6000 E-4.91285
;MESH:
G0 F7200 X111.8 Y110.1
;TYPE:WALL-OUTER
G1 F6000 E3.08715
G1 F600 X108.2 Y110.1 E3.14702
G1 X108.2 Y109.9 E3.15034
G1 X111.8 Y109.9 E3.18028
G1 X111.8 Y110.1 E3.18361
G0 F7200 X111.6 Y110.1
;;retract;;
G1 F6000 E-4.81639
;MESH:NONMESH
G0 F600 X111.6 Y110.1 Z0.7
G0 F7200 X111.6 Y109.03
G0 X107.618 Y109.059
G0 X106.841 Y110.022
G0 X104.812 Y109.361
G0 X104.812 Y107.205
G0 X105.437 Y106.994
G0 X105.702 Y107.81
;TIME_ELAPSED:32.251295

;LAYER:6
;TYPE:SUPPORT
G1 F6000 E3.18361
G1 F3000 X106.745 Y107.471 E3.1982
G1 X107.401 Y106.696 E3.2117
G1 X108.528 Y106.623 E3.22673
G1 X109.699 Y106.419 E3.24254
G1 X110.29 Y106.419 E3.25041
G1 X112.153 Y106.718 E3.27551
G1 X113.08 Y107.033 E3.28853
G1 X113.08 Y107.929 E3.30045
G1 X112.141 Y108.235 E3.31359
G1 X110.301 Y107.935 E3.3384
G1 X109.107 Y108.142 E3.35452
G1 X107.919 Y108.22 E3.37036
G1 X107.185 Y108.199 E3.38013
G1 X106.559 Y108.983 E3.39347
G1 X105.702 Y108.704 E3.40546
G1 X105.702 Y107.81 E3.41736
;;retract;;
G1 F6000 E-4.58264
G0 F7200 X105.432 Y106.984
G0 X104.84 Y107.185
G0 X104.84 Y109.329
G0 X106.86 Y109.988
G0 X107.841 Y110.966
G0 X111.352 Y111.049
G0 X111.498 Y111.906
G1 F6000 E3.41736
G1 F3000 X112.036 Y112.647 E3.42954
G1 X111.472 Y113.423 E3.4423
G1 X110.559 Y113.578 E3.45462
G1 X109.531 Y113.281 E3.46886
G1 X108.8 Y113.383 E3.47868
G1 X108.431 Y113.114 E3.48475
G1 X107.55 Y113.311 E3.49676
G1 X106.992 Y112.781 E3.507
G1 X105.96 Y112.445 E3.52144
G1 X105.96 Y111.551 E3.53334
G1 X106.835 Y111.266 E3.54558
G1 X107.388 Y111.791 E3.55572
G1 X108.468 Y112.08 E3.5706
G1 X109.376 Y111.877 E3.58298
G1 X110.549 Y112.068 E3.59879
G1 X111.498 Y111.906 E3.6116
;;retract;;
G1 F6000 E-4.3884
;MESH:
G0 F7200 X111.8 Y110.1
;TYPE:WALL-OUTER
G1 F6000 E3.6116
G1 F600 X108.2 Y110.1 E3.67146
G1 X108.2 Y109.9 E3.67479
G1 X111.8 Y109.9 E3.70472
G1 X111.8 Y110.1 E3.70805
G0 F7200 X111.6 Y110.1
;;retract;;
G1 F6000 E-4.29195
;MESH:NONMESH
G0 F600 X111.6 Y110.1 Z0.8
G0 F7200 X112.186 Y108.436
;TIME_ELAPSED:36.743465

;LAYER:7
;TYPE:SUPPORT
G1 F6000 E3.70805
G1 F3000 X111.264 Y108.044 E3.72138
G1 X110.301 Y107.842 E3.73447
G1 X107.997 Y108.396 E3.766
G1 X107.281 Y108.375 E3.77553
G1 X106.659 Y109.159 E3.78884
G1 X105.811 Y108.883 E3.8007
G1 X105.811 Y107.999 E3.81247
G1 X106.845 Y107.663 E3.82693
G1 X107.512 Y106.873 E3.84068
G1 X109.708 Y106.345 E3.87073
G1 X110.283 Y106.345 E3.87838
G1 X111.26 Y106.528 E3.89161
G1 X113.095 Y107.247 E3.91783
G1 X113.095 Y108.14 E3.92971
G1 X112.186 Y108.436 E3.94243
;;retract;;
G1 F6000 E-4.05757
G0 F7200 X112.372 Y109.269
G0 X112.666 Y110.459
G0 X112.159 Y110.966
G0 X111.37 Y111.061
G0 X111.582 Y111.903
G1 F6000 E3.94243
G1 F3000 X112.108 Y112.627 E3.95433
G1 X111.545 Y113.402 E3.96708
G1 X110.573 Y113.647 E3.98041
G1 X109.524 Y113.328 E3.995
G1 X108.757 Y113.452 E4.00534
G1 X108.203 Y113.136 E4.01382
G1 X107.077 Y112.769 E4.02958
G1 X106.032 Y112.256 E4.04506
G1 X106.032 Y111.351 E4.0571
G1 X106.894 Y111.07 E4.06917
G1 X107.411 Y111.593 E4.07895
G1 X108.593 Y111.983 E4.09551
G1 X109.322 Y111.959 E4.10521
G1 X110.578 Y112.156 E4.12213
G1 X111.582 Y111.903 E4.1359
;;retract;;
G1 F6000 E-3.8641
;MESH:
G0 F7200 X111.8 Y110.1
;TYPE:WALL-OUTER
G1 F6000 E4.1359
G1 F600 X108.2 Y110.1 E4.19577
G1 X108.2 Y109.9 E4.1991
G1 X111.8 Y109.9 E4.22903
G1 X111.8 Y110.1 E4.23236
G0 F7200 X111.6 Y110.1
;MESH:NONMESH
G0 F600 X111.6 Y110.1 Z0.9
G0 F7200 X112.263 Y108.462
;TIME_ELAPSED:40.666398

;LAYER:8
