;FLAVOR:Marlin
;TIME:1769
;Filament used:0.248638m
;Layer height: 0.1
;MINX:99.33
;MINY:103.33
;MINZ:0.1
;MAXX:120.67
;MAXY:116.67
;MAXZ:4.2
                                 
;Creality Print GCode Generated by CXEngine:NO_MAGE_VERSION_GIT_HEAD_BRANCH
;CXEngine Release Time:2022-09-30 09:53:04
;Gcode Generated Time:2023-04-15 18:37:26
;----------Machine Config--------------
;Machine Name:Ender-3 V2
;Machine Height:250
;Machine Width:220
;Machine Depth:220
;Material name:PLA
;Number of Extruders:1
;ExtruderParams[0] Nozzle Diameter1000
;----------Profile Config---------------
;Engine Version:275f99b
;Engine Release Time:2022-09-30 09:42:18
;Layer Height:0.1
;Wall Thickness:0.8
;Top/Bottom Thickness:0.5
;Out Wall Line Width:0.4
;Inner Wall Line Width:0.4
;Inital Layer Height:100
;Wall Line Count:2
;Infill Line Distance:4
;Infill Pattern:grid
;Infill Sparse Density:20
;Infill Wipe Distance:0
;Print Temperature:200
;Bed Temperature:60
;Support Enable:true
;Support Density:0
;Support Angle:60
;Adhesion Type:none
;machine is belt:false
;machine belt offset:10
;machine belt offset Y:0
;Raft Base Line Spacing:1.6
;Wait Heatup Sync:true
;----------Shell Config----------------
;Outer Wall Wipe Distance:200
;Outer Inset First:false
;Infill Before Walls:false
;Infill Overlap:0.16
;Fill Gaps Between Walls:everywhere
;Minimum Infill Area:1
;Top Surface Skin Layer:0
;Top Layers:4
;Z Seam Alignment:sharpest_corner
;Seam Corner Preference:z_seam_corner_inner
;Z Seam X:110
;Z Seam Y:110
;Horizontal Expansion:0
;Top/Bottom Pattern:zigzag
;Ironing Pattern:zigzag
;Vase Model:false
;----------Support Config----------------
;Support Type:everywhere
;Support Pattern:zigzag
;Support Infill Layer Thickness:0.1
;Minimum Support Area:5
;Enable Support Roof:false
;Support Roof Thickness:0.8
;Support Roof Pattern:lines
;Connect Support Lines:0
;Connect Support ZigZags:1
;Minimum Support X/Y Distance:0.2
;Support Line Distance:0
; ---------PrintSpeed & Travel----------
;Enable Print Cool:true
;Avoid Printed Parts Traveling:true
;Enable Retraction:true
;Retraction Distance:8
;Retraction Speed:100
;Retraction Prime Speed:100
;Maximum Retraction Count:100
;Minimum Extrusion Distance Window:1
;Z Hop When Retracted:false
;Z Hop Height:0.2
;Retract Before Outer Wall:true
;Print Speed:50
;Infill Speed:50

;Prime Tower Speed:50
;Travel Speed:120
;Initial Layer Speed:25
;Skirt/Brim Speed:25
;Combing Mode:infill
; --------SpecialModel&Mesh Fixes--------
;Union Overlapping Volum:true
;Remove All Holes:false
;Maximum Travel Resolution:0.6
;Maximum Deviation:0.05
;Maximum Model Angle:0.872665
;IS Mold Print:false
;Make Overhang Printable:false
;Enable Coasting:false
;Coasting Volumes:0.06
;Coasting Speed:0.9
;Raft AirGap:0.25
;Layer0 ZOverLap:0.13
;---------------------End of Head--------------------------
M140 S60
M105
M104 S200
M105
M109 S200
M105
M190 S60
M82 ;absolute extrusion mode
M220 S100 ;Reset Feedrate
M221 S100 ;Reset Flowrate

G28 ;Home

G92 E0 ;Reset Extruder
G1 Z2.0 F3000 ;Move Z Axis up
G1 X10.1 Y20 Z0.28 F5000.0 ;Move to start position
G1 X10.1 Y145.0 Z0.28 F1500.0 E15 ;Draw the first line
G1 X10.4 Y145.0 Z0.28 F5000.0 ;Move to side a little
G1 X10.4 Y20 Z0.28 F1500.0 E30 ;Draw the second line
G92 E0  ;Reset Extruder
G1 E-1.0000 F1800 ;Retract a bit
G1 Z2.0 F3000 ;Move Z Axis up
G1 E0.0000 F1800 

G92 E0
G92 E0
G1 F6000 E-8

;LAYER_COUNT:42

;LAYER:0
M107
;MESH:
G0 F3600 X100.826 Y104.862 Z0.1
;TYPE:WALL-INNER
G1 F6000 E0
G1 F600 X100.613 Y105.034 E0.00501
G1 X100.614 Y104.6 E0.00956
G1 X101.152 Y104.6 E0.0194
G1 X100.826 Y104.862 E0.02228
;;retract;;
G1 F6000 E-7.97772
G0 F3600 X100.826 Y103.33
G0 X108.389 Y108.103
G0 X110.883 Y109.591
G0 X114.068 Y111.687
G0 X113.742 Y112.931
G1 F6000 E0.02228
G1 F1500 X113.59 Y112.944 E0.02507
G1 X113.534 Y112.969 E0.02619
G1 X113.355 Y113.05 E0.02979
G1 X113.096 Y113.169 E0.035
G1 X112.705 Y113.547 E0.04495
G1 X112.461 Y114.033 E0.0549
G1 X112.393 Y114.572 E0.06483
G1 X112.496 Y115.042 E0.07364
G1 X112.509 Y115.103 E0.07478
G1 X112.692 Y115.4 E0.08116
G1 X112.509 Y115.4 E0.0818
G1 X112.446 Y115.4 E0.08284
G1 X102.369 Y115.4 E0.26718
G1 X102.258 Y115.4 E0.26921
G1 X101.74 Y115.4 E0.27869
G1 X102.258 Y115.166 E0.28221
G1 X102.29 Y115.06 E0.2839
G1 X102.5 Y114.372 E0.29706
G1 X102.065 Y113.664 E0.31226
G1 X101.247 Y113.524 E0.32744
G1 X100.926 Y113.782 E0.33498
G1 X100.602 Y114.042 E0.34257
G1 X100.602 Y113.627 E0.34675
G1 X100.602 Y113.626 E0.34676
G1 X100.605 Y111.283 E0.38962
G1 X100.605 Y111.066 E0.39359
G1 X100.606 Y110.76 E0.39919
G1 X100.795 Y111.066 E0.4013
G1 X100.964 Y111.201 E0.40432
G1 X101.219 Y111.406 E0.41031
G1 X101.708 Y111.577 E0.41979
G1 X102.027 Y111.604 E0.42564
G1 X102.539 Y111.515 E0.43515
G1 X103.014 Y111.249 E0.44511
G1 X103.372 Y110.84 E0.45505
G1 X103.574 Y110.334 E0.46502
G1 X103.594 Y109.791 E0.47496
G1 X103.435 Y109.273 E0.48487
G1 X103.11 Y108.835 E0.49485
G1 X102.658 Y108.533 E0.50479
G1 X102.135 Y108.398 E0.51467
G1 X101.59 Y108.444 E0.52468
G1 X101.096 Y108.669 E0.53461
G1 X100.961 Y108.8 E0.53805
G1 X100.705 Y109.047 E0.54456
G1 X100.608 Y109.24 E0.54851
G1 X100.608 Y109.047 E0.54884
G1 X100.608 Y108.691 E0.55308
G1 X100.612 Y106.389 E0.5952
G1 X100.612 Y105.923 E0.60372
G1 X100.949 Y106.245 E0.60833
G1 X101.101 Y106.391 E0.61218
G1 X101.581 Y106.472 E0.62109
G1 X102.258 Y106.166 E0.63468
G1 X102.5 Y105.372 E0.64986
G1 X102.221 Y104.919 E0.65959
G1 X102.065 Y104.664 E0.66506
G1 X101.691 Y104.6 E0.672
G1 X102.065 Y104.6 E0.67254
G1 X102.364 Y104.6 E0.676
G1 X112.355 Y104.6 E0.85877
G1 X112.357 Y104.6 E0.85881
G1 X112.678 Y104.6 E0.86468
G1 X112.534 Y104.888 E0.86806
G1 X112.461 Y105.033 E0.87103
G1 X112.393 Y105.572 E0.88097
G1 X112.509 Y106.103 E0.89092
G1 X112.795 Y106.566 E0.90087
G1 X113.211 Y106.9 E0.91063
G1 X113.219 Y106.906 E0.91081
G1 X113.708 Y107.077 E0.92029
G1 X113.405 Y107.243 E0.92285
G1 X113.396 Y107.248 E0.92303
G1 X113.189 Y107.362 E0.92735
G1 X112.769 Y107.705 E0.93727
G1 X112.414 Y108.115 E0.94719
G1 X112.199 Y108.467 E0.95474
G1 X112.131 Y108.579 E0.95714
G1 X112.002 Y108.91 E0.96364
G1 X111.898 Y108.689 E0.96468
G1 X111.842 Y108.57 E0.96671
G1 X111.721 Y108.312 E0.97192
G1 X111.396 Y107.877 E0.98185
G1 X111.003 Y107.502 E0.99179
G1 X110.551 Y107.198 E1.00175
G1 X110.055 Y106.979 E1.01167
G1 X109.53 Y106.842 E1.0216
G1 X108.989 Y106.799 E1.03152
G1 X108.447 Y106.846 E1.04148
G1 X107.923 Y106.986 E1.0514
G1 X107.43 Y107.21 E1.0613
G1 X106.981 Y107.515 E1.07123
G1 X106.59 Y107.893 E1.08118
G1 X106.269 Y108.33 E1.0911
G1 X106.024 Y108.817 E1.10107
G1 X105.868 Y109.336 E1.11099
G1 X105.8 Y109.875 E1.12093
G1 X105.826 Y110.418 E1.13087
G1 X105.941 Y110.947 E1.14077
G1 X106.146 Y111.452 E1.15074
G1 X106.433 Y111.913 E1.16068
G1 X106.793 Y112.319 E1.1706
G1 X107.216 Y112.658 E1.18052
G1 X107.691 Y112.921 E1.19045
G1 X108.204 Y113.101 E1.2004
G1 X108.74 Y113.191 E1.21034
G1 X109.283 Y113.189 E1.22027
G1 X109.816 Y113.095 E1.23017
G1 X110.329 Y112.913 E1.24013
G1 X110.802 Y112.646 E1.25007
G1 X111.223 Y112.303 E1.26
G1 X111.58 Y111.895 E1.26992
G1 X111.802 Y111.534 E1.27767
G1 X111.864 Y111.432 E1.27985
G1 X111.999 Y111.09 E1.28658
G1 X112.106 Y111.316 E1.2877
G1 X112.157 Y111.424 E1.28957
G1 X112.287 Y111.697 E1.2951
G1 X112.611 Y112.132 E1.30503
G1 X113.007 Y112.504 E1.31496
G1 X113.296 Y112.697 E1.32132
G1 X113.459 Y112.806 E1.32404
G1 X113.619 Y112.876 E1.32551
G1 X113.742 Y112.931 E1.32565
;;retract;;
G1 F6000 E-6.67435
G0 F3600 X114.068 Y111.687
G0 X110.972 Y110.332
G0 X107.547 Y108.733
G0 X99.342 Y105.242
G0 X100.991 Y105.243
;TYPE:WALL-OUTER
G1 F6000 E1.32565
G1 F600 X100.971 Y105.713 E1.33426
G1 X101.289 Y106.017 E1.3423
G1 X101.527 Y106.057 E1.34672
G1 X101.928 Y105.876 E1.35477
G1 X102.065 Y105.428 E1.36334
G1 X101.819 Y105.028 E1.37193
G1 X101.357 Y104.949 E1.3805
G1 X100.991 Y105.243 E1.38909
G0 F3600 X100.983 Y105.443
;;retract;;
G1 F6000 E-6.61091
G0 F3600 X99.342 Y105.442
G0 X99.331 Y114.911
G0 X100.601 Y114.912
G0 X101.101 Y115.391
;TYPE:WALL-INNER
G1 F6000 E1.38909
G1 F600 X100.6 Y115.4 E1.39826
G1 X100.601 Y114.912 E1.40718
G1 X100.844 Y115.145 E1.40945
G1 X101.101 Y115.391 E1.41189
;;retract;;
G1 F6000 E-6.58811
G0 F3600 X100.991 Y114.243
;TYPE:WALL-OUTER
G1 F6000 E1.41189
G1 F600 X100.971 Y114.713 E1.42049
G1 X101.289 Y115.017 E1.42854
G1 X101.527 Y115.057 E1.43296
G1 X101.928 Y114.876 E1.44101
G1 X102.065 Y114.428 E1.44958
G1 X101.819 Y114.028 E1.45817
G1 X101.357 Y113.949 E1.46674
G1 X100.991 Y114.243 E1.47533
G0 F3600 X100.983 Y114.443
;;retract;;
G1 F6000 E-6.52467
G0 F3600 X99.331 Y114.442
G0 X102.273 Y110.169
G0 X103.177 Y110.25
G1 F6000 E1.47533
G1 F600 X103.192 Y109.844 E1.48276
G1 X103.073 Y109.456 E1.49018
G1 X102.83 Y109.129 E1.49764
G1 X102.492 Y108.903 E1.50507
G1 X102.101 Y108.802 E1.51246
G1 X101.693 Y108.837 E1.51995
G1 X101.324 Y109.005 E1.52737
G1 X101.032 Y109.287 E1.5348
G1 X100.849 Y109.651 E1.54225
G1 X100.798 Y110.054 E1.54968
G1 X100.885 Y110.451 E1.55711
G1 X101.099 Y110.797 E1.56456
G1 X101.416 Y111.051 E1.57199
G1 X101.792 Y111.183 E1.57928
G1 X102.009 Y111.201 E1.58326
G1 X102.403 Y111.133 E1.59057
G1 X102.758 Y110.934 E1.59802
G1 X103.026 Y110.628 E1.60546
G1 X103.177 Y110.25 E1.61291
G0 F3600 X103.184 Y110.05
G0 X103.624 Y110.066
;;retract;;
G1 F6000 E-6.38709
G0 F3600 X102.318 Y109.956
G0 X107.209 Y109.287
G0 X106.397 Y108.965
G1 F6000 E1.61291
G1 F698.5 X106.261 Y109.419 E1.62158
G1 X106.201 Y109.891 E1.63028
G1 X106.224 Y110.365 E1.63896
G1 X106.325 Y110.828 E1.64763
G1 X106.504 Y111.27 E1.65635
G1 X106.755 Y111.673 E1.66504
G1 X107.07 Y112.028 E1.67372
G1 X107.44 Y112.325 E1.6824
G1 X107.855 Y112.555 E1.69108
G1 X108.304 Y112.712 E1.69978
G1 X108.773 Y112.791 E1.70848
G1 X109.247 Y112.789 E1.71715
G1 X109.714 Y112.707 E1.72582
G1 X110.162 Y112.548 E1.73452
G1 X110.576 Y112.314 E1.74322
G1 X110.944 Y112.014 E1.75191
G1 X111.257 Y111.657 E1.76059
G1 X111.505 Y111.253 E1.76926
G1 X111.68 Y110.81 E1.77798
G1 X111.778 Y110.346 E1.78665
G1 X111.798 Y109.872 E1.79533
G1 X111.735 Y109.401 E1.80402
G1 X111.595 Y108.948 E1.8127
G1 X111.38 Y108.524 E1.82139
G1 X111.096 Y108.143 E1.83009
G1 X110.752 Y107.815 E1.83878
G1 X110.357 Y107.55 E1.84748
G1 X109.923 Y107.358 E1.85616
G1 X109.463 Y107.238 E1.86486
G1 X108.99 Y107.2 E1.87354
G1 X108.517 Y107.241 E1.88222
G1 X108.058 Y107.364 E1.89092
G1 X107.627 Y107.56 E1.89958
G1 X107.234 Y107.827 E1.90827
G1 X106.892 Y108.157 E1.91696
G1 X106.611 Y108.54 E1.92565
G1 X106.397 Y108.965 E1.93436
G0 F3600 X106.34 Y109.156
G0 X105.918 Y109.03
;;retract;;
G1 F6000 E-6.06564
G0 F3600 X107.209 Y109.287
G0 X113.833 Y105.849
G0 X114.383 Y105.563
G0 X118.691 Y103.33
G0 X118.691 Y104.6
G0 X119.4 Y105.209
;TYPE:WALL-INNER
G1 F6000 E1.93436
G1 F600 X119.129 Y104.768 E1.94383
G1 X119.065 Y104.664 E1.94606
G1 X118.691 Y104.6 E1.953
G1 X119.065 Y104.6 E1.95353
G1 X119.4 Y104.6 E1.9577
G1 X119.4 Y104.664
G1 X119.4 Y105.209 E1.96172
;;retract;;
G1 F6000 E-6.03828
G0 F3600 X120.67 Y105.209
G0 X120.67 Y114.209
G0 X119.4 Y114.209
G1 F6000 E1.96172
G1 F1500 X119.065 Y113.664 E1.97342
G1 X119.029 Y113.658 E1.97409
G1 X118.247 Y113.524 E1.9886
G1 X117.599 Y114.045 E2.00381
G1 X117.564 Y114.877 E2.01904
G1 X117.744 Y115.05 E2.02361
G1 X118.101 Y115.391 E2.03264
G1 X117.608 Y115.391 E2.03748
G1 X117.607 Y115.392 E2.0375
G1 X115.624 Y115.399 E2.07378
G1 X115.373 Y115.399 E2.07837
G1 X115.319 Y115.4 E2.07936
G1 X115.372 Y115.34 E2.07978
G1 X115.465 Y115.107 E2.08274
G1 X115.574 Y114.834 E2.08812
G1 X115.594 Y114.291 E2.09806
G1 X115.435 Y113.773 E2.10797
G1 X115.244 Y113.515 E2.11385
G1 X115.11 Y113.335 E2.11795
G1 X114.899 Y113.194 E2.12259
G1 X115.1 Y113.181 E2.12309
G1 X115.325 Y113.167 E2.1261
G1 X115.563 Y113.151 E2.13047
G1 X116.087 Y113.01 E2.14039
G1 X116.58 Y112.784 E2.15031
G1 X117.027 Y112.476 E2.16024
G1 X117.418 Y112.098 E2.17019
G1 X117.737 Y111.659 E2.18012
G1 X117.979 Y111.172 E2.19007
G1 X118.133 Y110.653 E2.19997
G1 X118.199 Y110.113 E2.20992
G1 X118.172 Y109.571 E2.21985
G1 X118.054 Y109.042 E2.22976
G1 X117.848 Y108.538 E2.23972
G1 X117.56 Y108.079 E2.24964
G1 X117.199 Y107.673 E2.25958
G1 X116.773 Y107.336 E2.26951
G1 X116.298 Y107.075 E2.27943
G1 X115.775 Y106.893 E2.28956
G1 X115.328 Y106.847 E2.29778
G1 X115.008 Y106.815 E2.30366
G1 X114.914 Y106.805 E2.30539
G1 X115.014 Y106.749 E2.30581
G1 X115.226 Y106.507 E2.30951
G1 X115.372 Y106.34 E2.31357
G1 X115.574 Y105.834 E2.32353
G1 X115.594 Y105.291 E2.33347
G1 X115.479 Y104.918 E2.34061
G1 X115.435 Y104.773 E2.34338
G1 X115.307 Y104.6 E2.34732
G1 X115.435 Y104.6 E2.34746
G1 X115.587 Y104.6 E2.34961
G1 X117.586 Y104.6 E2.38618
G1 X117.587 Y104.6 E2.38619
G1 X118.152 Y104.6 E2.39653
G1 X117.712 Y104.954 E2.40198
G1 X117.711 Y104.955 E2.40201
G1 X117.599 Y105.045 E2.40464
G1 X117.564 Y105.877 E2.41987
G1 X118.101 Y106.391 E2.43347
G1 X118.581 Y106.472 E2.44237
G1 X119.077 Y106.248 E2.45233
G1 X119.258 Y106.166 E2.45596
G1 X119.4 Y105.7 E2.46488
G1 X119.4 Y106.166 E2.46632
G1 X119.4 Y106.365 E2.46897
G1 X119.4 Y113.627 E2.60182
G1 X119.4 Y113.664 E2.60245
G1 X119.4 Y114.209 E2.60637
;;retract;;
G1 F6000 E-5.39363
G0 F3600 X120.67 Y114.209
G0 X120.666 Y103.841
G0 X120.159 Y103.334
G0 X117.991 Y103.33
G0 X117.991 Y105.243
;TYPE:WALL-OUTER
G1 F6000 E2.60637
G1 F600 X117.971 Y105.713 E2.61498
G1 X118.289 Y106.017 E2.62303
G1 X118.527 Y106.057 E2.62744
G1 X118.928 Y105.876 E2.63549
G1 X119.065 Y105.428 E2.64406
G1 X118.819 Y105.028 E2.65265
G1 X118.357 Y104.949 E2.66122
G1 X117.991 Y105.243 E2.66981
G0 F3600 X117.983 Y105.443
G0 X117.543 Y105.425
;;retract;;
G1 F6000 E-5.33019
G0 F3600 X114.83 Y104.629
G1 F6000 E2.66981
G1 F600 X114.761 Y104.583 E2.67133
G1 X114.492 Y104.403 E2.67725
G1 X114.101 Y104.302 E2.68464
G1 X113.693 Y104.337 E2.69213
G1 X113.324 Y104.505 E2.69955
G1 X113.24 Y104.586 E2.70168
G1 X113.032 Y104.787 E2.70697
G1 X112.849 Y105.151 E2.71442
G1 X112.798 Y105.554 E2.72186
G1 X112.885 Y105.951 E2.72929
G1 X113.099 Y106.297 E2.73673
G1 X113.416 Y106.551 E2.74416
G1 X113.792 Y106.683 E2.75145
G1 X114.009 Y106.701 E2.75544
G1 X114.403 Y106.633 E2.76275
G1 X114.758 Y106.434 E2.77019
G1 X115.026 Y106.128 E2.77764
G1 X115.177 Y105.75 E2.78508
G1 X115.192 Y105.344 E2.79251
G1 X115.073 Y104.956 E2.79994
G1 X114.83 Y104.629 E2.80739
G0 F3600 X114.761 Y104.583
G0 X114.663 Y104.518
;;retract;;
G1 F6000 E-5.19261
G0 F3600 X114.991 Y107.198
G1 F6000 E2.80739
G1 F698.3 X114.298 Y107.288 E2.82017
G1 X113.829 Y107.458 E2.8293
G1 X113.416 Y107.693 E2.83799
G1 X113.049 Y107.993 E2.84666
G1 X112.738 Y108.352 E2.85535
G1 X112.491 Y108.757 E2.86403
G1 X112.318 Y109.2 E2.87273
G1 X112.221 Y109.664 E2.8814
G1 X112.204 Y110.138 E2.89008
G1 X112.267 Y110.61 E2.89879
G1 X112.409 Y111.061 E2.90744
G1 X112.627 Y111.484 E2.91614
G1 X112.911 Y111.865 E2.92484
G1 X113.257 Y112.19 E2.93352
G1 X113.652 Y112.454 E2.94221
G1 X114.086 Y112.646 E2.95089
G1 X114.546 Y112.763 E2.95958
G1 X115.001 Y112.801 E2.96793
G1 X115.492 Y112.756 E2.97695
G1 X115.951 Y112.632 E2.98564
G1 X116.382 Y112.435 E2.99431
G1 X116.773 Y112.165 E3.00301
G1 X117.115 Y111.835 E3.0117
G1 X117.394 Y111.451 E3.02038
G1 X117.605 Y111.025 E3.02908
G1 X117.74 Y110.571 E3.03774
G1 X117.798 Y110.099 E3.04644
G1 X117.774 Y109.625 E3.05512
G1 X117.671 Y109.162 E3.0638
G1 X117.491 Y108.721 E3.07251
G1 X117.239 Y108.32 E3.08118
G1 X116.923 Y107.965 E3.08987
G1 X116.551 Y107.67 E3.09856
G1 X116.135 Y107.442 E3.10724
G1 X115.683 Y107.285 E3.11599
G1 X114.991 Y107.198 E3.12875
G0 F3600 X114.793 Y107.223
;;retract;;
G1 F6000 E-4.87125
G0 F3600 X114.906 Y108.085
G0 X114.318 Y114.456
G0 X115.177 Y114.75
G1 F6000 E3.12875
G1 F600 X115.192 Y114.344 E3.13618
G1 X115.073 Y113.956 E3.1436
G1 X114.83 Y113.629 E3.15106
G1 X114.492 Y113.403 E3.15849
G1 X114.101 Y113.302 E3.16588
G1 X113.693 Y113.337 E3.17337
G1 X113.324 Y113.505 E3.18079
G1 X113.032 Y113.787 E3.18821
G1 X112.849 Y114.151 E3.19567
G1 X112.798 Y114.554 E3.2031
G1 X112.885 Y114.951 E3.21053
G1 X113.099 Y115.297 E3.21798
G1 X113.249 Y115.418 E3.2215
G1 X113.416 Y115.551 E3.22541
G1 X113.792 Y115.683 E3.2327
