;FLAVOR:Marlin
;TIME:302
;Filament used:0.0376496m
;Layer height: 0.1
;MINX:105.762
;MINY:106.183
;MINZ:0.1
;MAXX:114.149
;MAXY:113.817
;MAXZ:6.3
                            
;Creality Print GCode Generated by CXEngine:NO_MAGE_VERSION_GIT_HEAD_BRANCH
;CXEngine Release Time:2022-09-30 09:53:04
;Gcode Generated Time:2023-04-15 18:29:55
;----------Machine Config--------------
;Machine Name:Ender-3 V2
;Machine Height:250
;Machine Width:220
;Machine Depth:220
;Material name:PLA
;Number of Extruders:1
;ExtruderParams[0] Nozzle Diameter1000
;----------Profile Config---------------
;Engine Version:275f99b
;Engine Release Time:2022-09-30 09:42:18
;Layer Height:0.1
;Wall Thickness:0.8
;Top/Bottom Thickness:0.5
;Out Wall Line Width:0.4
;Inner Wall Line Width:0.4
;Inital Layer Height:100
;Wall Line Count:2
;Infill Line Distance:4
;Infill Pattern:grid
;Infill Sparse Density:20
;Infill Wipe Distance:0
;Print Temperature:200
;Bed Temperature:60
;Support Enable:true
;Support Density:0
;Support Angle:60
;Adhesion Type:none
;machine is belt:false
;machine belt offset:10
;machine belt offset Y:0
;Raft Base Line Spacing:1.6
;Wait Heatup Sync:true
;----------Shell Config----------------
;Outer Wall Wipe Distance:200
;Outer Inset First:false
;Infill Before Walls:false
;Infill Overlap:0.16
;Fill Gaps Between Walls:everywhere
;Minimum Infill Area:1
;Top Surface Skin Layer:0
;Top Layers:4
;Z Seam Alignment:sharpest_corner
;Seam Corner Preference:z_seam_corner_inner
;Z Seam X:110
;Z Seam Y:110
;Horizontal Expansion:0
;Top/Bottom Pattern:zigzag
;Ironing Pattern:zigzag
;Vase Model:false
;----------Support Config----------------
;Support Type:everywhere
;Support Pattern:zigzag
;Support Infill Layer Thickness:0.1
;Minimum Support Area:5
;Enable Support Roof:false
;Support Roof Thickness:0.8
;Support Roof Pattern:lines
;Connect Support Lines:0
;Connect Support ZigZags:1
;Minimum Support X/Y Distance:0.2
;Support Line Distance:0
; ---------PrintSpeed & Travel----------
;Enable Print Cool:true
;Avoid Printed Parts Traveling:true
;Enable Retraction:true
;Retraction Distance:8
;Retraction Speed:100
;Retraction Prime Speed:100
;Maximum Retraction Count:100
;Minimum Extrusion Distance Window:1
;Z Hop When Retracted:false
;Z Hop Height:0.2
;Retract Before Outer Wall:true
;Print Speed:50
;Infill Speed:50

;Prime Tower Speed:50
;Travel Speed:120
;Initial Layer Speed:25
;Skirt/Brim Speed:25
;Combing Mode:infill
; --------SpecialModel&Mesh Fixes--------
;Union Overlapping Volum:true
;Remove All Holes:false
;Maximum Travel Resolution:0.6
;Maximum Deviation:0.05
;Maximum Model Angle:0.872665
;IS Mold Print:false
;Make Overhang Printable:false
;Enable Coasting:false
;Coasting Volumes:0.06
;Coasting Speed:0.9
;Raft AirGap:0.25
;Layer0 ZOverLap:0.13
;---------------------End of Head--------------------------
M140 S60
M105
M104 S200
M105
M109 S200
M105
M190 S60
M82 ;absolute extrusion mode
M220 S100 ;Reset Feedrate
M221 S100 ;Reset Flowrate

G28 ;Home

G92 E0 ;Reset Extruder
G1 Z2.0 F3000 ;Move Z Axis up
G1 X10.1 Y20 Z0.28 F5000.0 ;Move to start position
G1 X10.1 Y145.0 Z0.28 F1500.0 E15 ;Draw the first line
G1 X10.4 Y145.0 Z0.28 F5000.0 ;Move to side a little
G1 X10.4 Y20 Z0.28 F1500.0 E30 ;Draw the second line
G92 E0  ;Reset Extruder
G1 E-1.0000 F1800 ;Retract a bit
G1 Z2.0 F3000 ;Move Z Axis up
G1 E0.0000 F1800 

G92 E0
G92 E0
G1 F6000 E-8

;LAYER_COUNT:63

;LAYER:0
M107
G0 F3600 X107.051 Y107.48 Z0.1
;TYPE:SUPPORT
G1 F6000 E0
G1 F1500 X107.887 Y107.13 E0.01326
G1 X108.514 Y106.366 E0.02773
G1 X109.686 Y106.183 E0.04509
G1 X110.285 Y106.183 E0.05385
G1 X111.421 Y106.333 E0.07062
G1 X112.03 Y107.045 E0.08433
G1 X112.918 Y107.408 E0.09837
G1 X113.473 Y108.301 E0.11376
G1 X113.565 Y109.2 E0.12698
G1 X113.942 Y109.917 E0.13884
G1 X113.832 Y110.723 E0.15074
G1 X113.394 Y111.822 E0.16806
G1 X112.485 Y112.118 E0.18205
G1 X111.933 Y111.358 E0.19579
G1 X112.418 Y110.176 E0.21449
G1 X112.01 Y108.743 E0.2363
G1 X111.404 Y107.895 E0.25155
G1 X110.297 Y107.714 E0.26796
G1 X109.018 Y107.914 E0.28691
G1 X108.563 Y107.914 E0.29357
G1 X107.897 Y108.757 E0.30929
G1 X107.514 Y109.687 E0.32401
G1 X107.878 Y110.803 E0.34119
G1 X108.525 Y111.788 E0.35844
G1 X109.23 Y112.279 E0.37101
G1 X110.425 Y112.283 E0.3885
G1 X110.983 Y113.05 E0.40238
G1 X110.426 Y113.817 E0.41625
G1 X109.301 Y113.813 E0.43271
G1 X108.01 Y113.29 E0.4531
G1 X107.172 Y112.7 E0.4681
G1 X106.608 Y111.841 E0.48313
G1 X106.519 Y110.931 E0.49652
G1 X106.065 Y110.161 E0.5096
G1 X106.26 Y109.043 E0.52621
G1 X106.905 Y108.12 E0.54268
G1 X107.051 Y107.48 E0.55229
;;retract;;
G1 F6000 E-7.44771
;MESH:
G0 F3600 X106.716 Y106.679
G0 X109.876 Y108.593
G0 X110.173 Y110
;TYPE:WALL-INNER
G1 F6000 E0.55229
G1 F600 X110.086 Y110.15 E0.55546
G1 X109.914 Y110.15 E0.55861
G1 X109.827 Y110 E0.56178
G1 X109.914 Y109.85 E0.56416
G1 X110.086 Y109.85 E0.56652
G1 X110.173 Y110 E0.5689
G0 F3600 X110.635 Y110
;TYPE:WALL-OUTER
G1 F600 X110.318 Y110.55 E0.58051
G1 X109.682 Y110.55 E0.59215
G1 X109.365 Y110 E0.60376
G1 X109.682 Y109.45 E0.61537
G1 X110.318 Y109.45 E0.62701
G1 X110.635 Y110 E0.63862
G0 F3600 X110.535 Y110.173
G0 X110.114 Y109.977
;;retract;;
G1 F6000 E-7.36138
;MESH:NONMESH
G0 F600 X110.114 Y109.977 Z0.2
G0 F3600 X109.908 Y108.655
G0 X106.71 Y106.681
G0 X107.051 Y107.495
;TIME_ELAPSED:8.709404

;LAYER:1
M140 S60
M106 S127.5
;TYPE:SUPPORT
G1 F6000 E0.63862
G1 F2250 X107.894 Y107.148 E0.65075
G1 X108.522 Y106.372 E0.66403
G1 X109.698 Y106.191 E0.67986
G1 X110.292 Y106.191 E0.68776
G1 X111.418 Y106.341 E0.70288
G1 X112.029 Y107.067 E0.7155
G1 X112.926 Y107.429 E0.72837
G1 X113.472 Y108.319 E0.74226
G1 X113.557 Y109.233 E0.75447
G1 X113.933 Y109.945 E0.76518
G1 X113.807 Y110.777 E0.77638
G1 X113.347 Y111.888 E0.79238
G1 X112.447 Y112.181 E0.80497
G1 X111.901 Y111.43 E0.81732
G1 X112.387 Y110.254 E0.83425
G1 X112.029 Y108.763 E0.85465
G1 X111.422 Y107.887 E0.86883
G1 X110.304 Y107.707 E0.8839
G1 X109.02 Y107.904 E0.90118
G1 X108.552 Y107.904 E0.9074
G1 X107.893 Y108.754 E0.92171
G1 X107.499 Y109.683 E0.93514
G1 X107.881 Y110.825 E0.95116
G1 X108.513 Y111.788 E0.96648
G1 X109.275 Y112.291 E0.97863
G1 X110.506 Y112.291 E0.99501
G1 X111.057 Y113.05 E1.00749
G1 X110.506 Y113.809 E1.01996
G1 X109.371 Y113.809 E1.03506
G1 X108.055 Y113.299 E1.05384
G1 X107.172 Y112.686 E1.06814
G1 X106.624 Y111.852 E1.08142
G1 X106.537 Y110.945 E1.09354
G1 X106.076 Y110.172 E1.10551
G1 X106.273 Y109.034 E1.12088
G1 X106.906 Y108.125 E1.13562
G1 X107.051 Y107.495 E1.14422
;;retract;;
G1 F6000 E-6.85578
;MESH:
G0 F5400 X106.72 Y106.692
G0 X110.173 Y108.58
G0 X110.173 Y110
;TYPE:WALL-INNER
G1 F6000 E1.14422
G1 F600 X110.086 Y110.15 E1.1471
G1 X109.914 Y110.15 E1.14996
G1 X109.827 Y110 E1.15284
G1 X109.914 Y109.85 E1.15501
G1 X110.086 Y109.85 E1.15716
G1 X110.173 Y110 E1.15932
G0 F5400 X110.635 Y110
;TYPE:WALL-OUTER
G1 F600 X110.318 Y110.55 E1.16987
G1 X109.682 Y110.55 E1.18045
G1 X109.365 Y110 E1.19101
G1 X109.682 Y109.45 E1.20157
G1 X110.318 Y109.45 E1.21214
G1 X110.635 Y110 E1.2227
G0 F5400 X110.535 Y110.173
G0 X110.114 Y109.977
;;retract;;
G1 F6000 E-6.7773
;MESH:NONMESH
G0 F600 X110.114 Y109.977 Z0.3
G0 F5400 X111.857 Y110.872
;TIME_ELAPSED:12.358902

;LAYER:2
M106 S255
;TYPE:SUPPORT
G1 F6000 E1.2227
G1 F3000 X112.143 Y109.957 E1.23545
G1 X111.85 Y108.826 E1.251
G1 X110.931 Y108.069 E1.26684
G1 X109.682 Y107.898 E1.28361
G1 X108.665 Y108.096 E1.29739
G1 X108.091 Y108.982 E1.31144
G1 X107.882 Y110.229 E1.32826
G1 X108.253 Y111.356 E1.34404
G1 X109.096 Y111.938 E1.35767
G1 X110.023 Y112.092 E1.37018
G1 X110.989 Y112.407 E1.38369
G1 X110.989 Y113.291 E1.39545
G1 X110.057 Y113.594 E1.40849
G1 X109.231 Y113.448 E1.41965
G1 X108.143 Y113.104 E1.43483
G1 X107.329 Y112.538 E1.44802
G1 X106.796 Y111.734 E1.46086
G1 X106.478 Y110.767 E1.4744
G1 X106.478 Y109.641 E1.48938
G1 X106.663 Y108.538 E1.50426
G1 X107.188 Y107.631 E1.5182
G1 X108.007 Y107.275 E1.53008
G1 X108.609 Y106.561 E1.54251
G1 X109.703 Y106.399 E1.55722
G1 X110.294 Y106.399 E1.56508
G1 X111.364 Y106.545 E1.57945
G1 X111.957 Y107.234 E1.59154
G1 X112.77 Y107.591 E1.60336
G1 X113.288 Y108.419 E1.61635
G1 X113.38 Y109.3 E1.62814
G1 X113.723 Y109.976 E1.63822
G1 X113.392 Y111.318 E1.65661
G1 X112.708 Y112.147 E1.67091
G1 X111.857 Y111.87 E1.68281
G1 X111.857 Y110.872 E1.69609
;MESH:
G0 F7200 X110.173 Y110
;TYPE:WALL-INNER
G1 F600 X110.086 Y110.15 E1.69898
G1 X109.914 Y110.15 E1.70184
G1 X109.827 Y110 E1.70472
G1 X109.914 Y109.85 E1.70688
G1 X110.086 Y109.85 E1.70903
G1 X110.173 Y110 E1.71119
G0 F7200 X110.635 Y110
;TYPE:WALL-OUTER
G1 F600 X110.318 Y110.55 E1.72175
G1 X109.682 Y110.55 E1.73233
G1 X109.365 Y110 E1.74288
G1 X109.682 Y109.45 E1.75344
G1 X110.318 Y109.45 E1.76402
G1 X110.635 Y110 E1.77457
G0 F7200 X110.535 Y110.173
G0 X110.114 Y109.977
;;retract;;
G1 F6000 E-6.22543
;MESH:NONMESH
G0 F600 X110.114 Y109.977 Z0.4
G0 F7200 X111.017 Y111.018
G0 X106.868 Y106.823
G0 X107.216 Y107.623
;TIME_ELAPSED:15.418726

;LAYER:3
;TYPE:SUPPORT
G1 F6000 E1.77457
G1 F3000 X108.009 Y107.28 E1.78607
G1 X108.614 Y106.558 E1.7986
G1 X109.712 Y106.399 E1.81336
G1 X110.303 Y106.399 E1.82122
G1 X111.363 Y106.545 E1.83546
G1 X111.963 Y107.252 E1.8478
G1 X112.784 Y107.609 E1.85971
G1 X113.289 Y108.421 E1.87243
G1 X113.375 Y109.317 E1.8844
G1 X113.725 Y110.002 E1.89464
G1 X113.553 Y110.82 E1.90576
G1 X113.085 Y111.924 E1.92171
G1 X112.193 Y112.215 E1.93419
G1 X111.653 Y111.472 E1.94641
G1 X112.144 Y110.313 E1.96316
G1 X111.857 Y108.832 E1.98323
G1 X110.932 Y108.069 E1.99918
G1 X109.692 Y107.898 E2.01583
G1 X108.665 Y108.092 E2.02974
G1 X108.094 Y108.975 E2.04373
G1 X107.884 Y110.239 E2.06078
G1 X108.256 Y111.355 E2.07643
G1 X109.125 Y111.947 E2.09042
G1 X110.067 Y112.099 E2.10311
G1 X110.674 Y112.095 E2.11119
G1 X111.219 Y112.845 E2.12352
G1 X110.673 Y113.596 E2.13587
G1 X109.477 Y113.601 E2.15179
G1 X108.66 Y113.469 E2.1628
G1 X107.815 Y112.888 E2.17644
G1 X107.158 Y111.993 E2.19121
G1 X106.613 Y111.161 E2.20444
G1 X106.294 Y110.206 E2.21784
G1 X106.474 Y109.124 E2.23243
G1 X107.071 Y108.246 E2.24656
G1 X107.216 Y107.623 E2.25507
;;retract;;
G1 F6000 E-5.74493
;MESH:
G0 F7200 X106.871 Y106.825
G0 X110.835 Y111.162
G0 X110.173 Y110
;TYPE:WALL-INNER
G1 F6000 E2.25507
G1 F600 X110.086 Y110.15 E2.25795
G1 X109.914 Y110.15 E2.26081
G1 X109.827 Y110 E2.26369
G1 X109.914 Y109.85 E2.26585
G1 X110.086 Y109.85 E2.268
G1 X110.173 Y110 E2.27017
G0 F7200 X110.635 Y110
;TYPE:WALL-OUTER
G1 F600 X110.318 Y110.55 E2.28072
G1 X109.682 Y110.55 E2.2913
G1 X109.365 Y110 E2.30186
G1 X109.682 Y109.45 E2.31241
G1 X110.318 Y109.45 E2.32299
G1 X110.635 Y110 E2.33355
G0 F7200 X110.535 Y110.173
G0 X110.114 Y109.977
;;retract;;
G1 F6000 E-5.66645
;MESH:NONMESH
G0 F600 X110.114 Y109.977 Z0.5
G0 F7200 X110.778 Y111.254
G0 X106.967 Y106.784
G0 X107.371 Y107.72
;TIME_ELAPSED:19.278281

;LAYER:4
;TYPE:SUPPORT
G1 F6000 E2.33355
G1 F3000 X108.2 Y107.087 E2.34742
G1 X109.213 Y106.806 E2.36141
G1 X109.674 Y106.642 E2.36792
G1 X110.57 Y106.916 E2.38038
G1 X111.287 Y106.835 E2.38998
G1 X112.07 Y107.426 E2.40304
G1 X112.753 Y108.333 E2.41814
G1 X113.26 Y109.156 E2.431
G1 X113.48 Y110.043 E2.44316
G1 X113.3 Y110.843 E2.45407
G1 X112.859 Y111.902 E2.46933
G1 X112.042 Y112.129 E2.48061
G1 X111.489 Y111.394 E2.49285
G1 X111.943 Y110.301 E2.50859
G1 X111.959 Y109.491 E2.51937
G1 X111.378 Y108.55 E2.53409
G1 X110.566 Y107.936 E2.54763
G1 X109.232 Y108.219 E2.56577
G1 X108.812 Y108.197 E2.57137
G1 X108.229 Y109.092 E2.58558
G1 X108.029 Y110.266 E2.60142
G1 X108.388 Y111.329 E2.61635
G1 X109.364 Y111.979 E2.63195
G1 X110.687 Y111.943 E2.64956
G1 X111.242 Y112.68 E2.66183
G1 X110.776 Y113.344 E2.67262
G1 X109.617 Y113.337 E2.68804
G1 X108.334 Y112.855 E2.70628
G1 X107.542 Y112.334 E2.71889
G1 X107.047 Y111.578 E2.73091
G1 X106.745 Y110.683 E2.74348
G1 X106.689 Y109.612 E2.75775
G1 X106.863 Y108.59 E2.77154
G1 X107.371 Y107.72 E2.78494
;MESH:
G0 F7200 X110.173 Y110
;TYPE:WALL-INNER
G1 F600 X110.086 Y110.15 E2.78783
G1 X109.914 Y110.15 E2.79069
G1 X109.827 Y110 E2.79357
G1 X109.914 Y109.85 E2.79573
G1 X110.086 Y109.85 E2.79788
G1 X110.173 Y110 E2.80004
G0 F7200 X110.635 Y110
;TYPE:WALL-OUTER
G1 F600 X110.318 Y110.55 E2.8106
G1 X109.682 Y110.55 E2.82118
G1 X109.365 Y110 E2.83173
G1 X109.682 Y109.45 E2.84229
G1 X110.318 Y109.45 E2.85287
G1 X110.635 Y110 E2.86342
G0 F7200 X110.535 Y110.173
G0 X110.114 Y109.977
;MESH:NONMESH
G0 F600 X110.114 Y109.977 Z0.6
G0 F7200 X107.406 Y107.692
;TIME_ELAPSED:21.875022

;LAYER:5
;TYPE:SUPPORT
G1 F3000 X108.213 Y107.077 E2.87692
G1 X109.154 Y106.867 E2.88975
G1 X109.644 Y106.677 E2.89674
G1 X110.489 Y106.975 E2.90866
G1 X111.225 Y106.896 E2.91851
G1 X112.02 Y107.502 E2.93181
G1 X112.716 Y108.399 E2.94692
G1 X113.21 Y109.206 E2.9595
G1 X113.429 Y110.103 E2.97179
G1 X113.229 Y110.951 E2.98338
G1 X112.81 Y111.98 E2.99816
G1 X112.067 Y112.145 E3.00829
G1 X111.498 Y111.412 E3.02063
G1 X111.931 Y110.35 E3.03589
G1 X112.033 Y109.429 E3.04822
G1 X111.462 Y108.495 E3.06278
G1 X110.669 Y107.894 E3.07602
G1 X109.638 Y107.877 E3.08974
G1 X108.665 Y108.646 E3.10624
G1 X108.187 Y109.107 E3.11507
G1 X107.981 Y110.329 E3.13156
G1 X108.346 Y111.391 E3.1465
G1 X109.331 Y112.057 E3.16232
G1 X110.221 Y111.933 E3.17427
G1 X111.104 Y112.305 E3.18702
G1 X111.188 Y113.067 E3.19722
G1 X110.429 Y113.236 E3.20756
G1 X109.518 Y113.131 E3.21976
G1 X108.884 Y113.152 E3.2282
G1 X108.082 Y112.626 E3.24096
G1 X107.385 Y111.728 E3.25609
G1 X106.895 Y110.978 E3.26801
G1 X106.592 Y110.097 E3.2804
G1 X106.763 Y109.082 E3.2941
G1 X107.289 Y108.298 E3.30666
G1 X107.406 Y107.692 E3.31487
;MESH:
G0 F7200 X110.173 Y110
;TYPE:WALL-INNER
G1 F600 X110.086 Y110.15 E3.31775
G1 X109.914 Y110.15 E3.32061
G1 X109.827 Y110 E3.32349
G1 X109.914 Y109.85 E3.32566
G1 X110.086 Y109.85 E3.32781
G1 X110.173 Y110 E3.32997
G0 F7200 X110.635 Y110
;TYPE:WALL-OUTER
G1 F600 X110.318 Y110.55 E3.34052
G1 X109.682 Y110.55 E3.3511
G1 X109.365 Y110 E3.36166
G1 X109.682 Y109.45 E3.37221
G1 X110.318 Y109.45 E3.38279
G1 X110.635 Y110 E3.39335
G0 F7200 X110.535 Y110.173
G0 X110.114 Y109.977
;MESH:NONMESH
G0 F600 X110.114 Y109.977 Z0.7
G0 F7200 X107.87 Y107.671
;TIME_ELAPSED:24.250548

;LAYER:6
;TYPE:SUPPORT
G1 F3000 X108.246 Y107.737 E3.39843
G1 X108.711 Y107.013 E3.40988
G1 X109.606 Y106.898 E3.42188
G1 X110.566 Y107.039 E3.43479
G1 X111.528 Y107.495 E3.44895
G1 X112.281 Y108.076 E3.46161
G1 X112.726 Y108.811 E3.47304
G1 X113.105 Y110.621 E3.49764
G1 X112.908 Y111.412 E3.50848
G1 X112.307 Y112.12 E3.52084
G1 X111.526 Y111.749 E3.53234
G1 X111.37 Y111.124 E3.54091
G1 X111.788 Y110.368 E3.55241
G1 X111.924 Y109.447 E3.56479
G1 X111.387 Y108.56 E3.57859
G1 X110.718 Y108.051 E3.58977
G1 X109.717 Y108.104 E3.60311
G1 X108.837 Y108.586 E3.61646
G1 X108.282 Y109.472 E3.63036
G1 X108.08 Y110.659 E3.64638
G1 X108.755 Y111.623 E3.66204
G1 X110.018 Y111.906 E3.67926
G1 X111.117 Y112.347 E3.69501
G1 X111.239 Y113.034 E3.7043
G1 X110.587 Y113.138 E3.71308
G1 X109.7 Y112.907 E3.72527
G1 X109.044 Y112.918 E3.734
G1 X108.292 Y112.434 E3.7459
G1 X107.586 Y111.554 E3.76091
G1 X107.119 Y110.828 E3.7724
G1 X106.839 Y110.028 E3.78367
G1 X106.998 Y109.097 E3.79624
G1 X107.87 Y107.671 E3.81847
;MESH:
G0 F7200 X110.173 Y110
;TYPE:WALL-INNER
G1 F600 X110.086 Y110.15 E3.82136
G1 X109.914 Y110.15 E3.82422
G1 X109.827 Y110 E3.8271
G1 X109.914 Y109.85 E3.82926
G1 X110.086 Y109.85 E3.83141
G1 X110.173 Y110 E3.83358
G0 F7200 X110.635 Y110
;TYPE:WALL-OUTER
G1 F600 X110.318 Y110.55 E3.84413
G1 X109.682 Y110.55 E3.85471
G1 X109.365 Y110 E3.86527
G1 X109.682 Y109.45 E3.87582
G1 X110.318 Y109.45 E3.8864
G1 X110.635 Y110 E3.89696
G0 F7200 X110.535 Y110.173
G0 X110.114 Y109.977
;MESH:NONMESH
G0 F600 X110.114 Y109.977 Z0.8
G0 F7200 X107.646 Y107.854
;TIME_ELAPSED:26.513948

;LAYER:7
;TYPE:SUPPORT
G1 F3000 X108.429 Y107.789 E3.90741
G1 X108.437 Y107.232 E3.91482
G1 X109.115 Y107.176 E3.92387
G1 X109.609 Y106.933 E3.9312
G1 X110.555 Y107.029 E3.94385
G1 X111.464 Y107.514 E3.95755
G1 X112.223 Y108.163 E3.97084
G1 X112.928 Y109.387 E3.98963
G1 X113.121 Y110.163 E4.00027
G1 X112.767 Y110.771 E4.00963
G1 X112.836 Y111.516 E4.01958
