;FLAVOR:Marlin
;TIME:2331
;Filament used:0.38766m
;Layer height: 0.1
;MINX:99.33
;MINY:103.33
;MINZ:0.1
;MAXX:120.67
;MAXY:116.67
;MAXZ:6.1
                                  
;Creality Print GCode Generated by CXEngine:NO_MAGE_VERSION_GIT_HEAD_BRANCH
;CXEngine Release Time:2022-09-30 09:53:04
;Gcode Generated Time:2023-04-15 18:36:50
;----------Machine Config--------------
;Machine Name:Ender-3 V2
;Machine Height:250
;Machine Width:220
;Machine Depth:220
;Material name:PLA
;Number of Extruders:1
;ExtruderParams[0] Nozzle Diameter1000
;----------Profile Config---------------
;Engine Version:275f99b
;Engine Release Time:2022-09-30 09:42:18
;Layer Height:0.1
;Wall Thickness:0.8
;Top/Bottom Thickness:0.5
;Out Wall Line Width:0.4
;Inner Wall Line Width:0.4
;Inital Layer Height:100
;Wall Line Count:2
;Infill Line Distance:4
;Infill Pattern:grid
;Infill Sparse Density:20
;Infill Wipe Distance:0
;Print Temperature:200
;Bed Temperature:60
;Support Enable:true
;Support Density:0
;Support Angle:60
;Adhesion Type:none
;machine is belt:false
;machine belt offset:10
;machine belt offset Y:0
;Raft Base Line Spacing:1.6
;Wait Heatup Sync:true
;----------Shell Config----------------
;Outer Wall Wipe Distance:200
;Outer Inset First:false
;Infill Before Walls:false
;Infill Overlap:0.16
;Fill Gaps Between Walls:everywhere
;Minimum Infill Area:1
;Top Surface Skin Layer:0
;Top Layers:4
;Z Seam Alignment:sharpest_corner
;Seam Corner Preference:z_seam_corner_inner
;Z Seam X:110
;Z Seam Y:110
;Horizontal Expansion:0
;Top/Bottom Pattern:zigzag
;Ironing Pattern:zigzag
;Vase Model:false
;----------Support Config----------------
;Support Type:everywhere
;Support Pattern:zigzag
;Support Infill Layer Thickness:0.1
;Minimum Support Area:5
;Enable Support Roof:false
;Support Roof Thickness:0.8
;Support Roof Pattern:lines
;Connect Support Lines:0
;Connect Support ZigZags:1
;Minimum Support X/Y Distance:0.2
;Support Line Distance:0
; ---------PrintSpeed & Travel----------
;Enable Print Cool:true
;Avoid Printed Parts Traveling:true
;Enable Retraction:true
;Retraction Distance:8
;Retraction Speed:100
;Retraction Prime Speed:100
;Maximum Retraction Count:100
;Minimum Extrusion Distance Window:1
;Z Hop When Retracted:false
;Z Hop Height:0.2
;Retract Before Outer Wall:true
;Print Speed:50
;Infill Speed:50

;Prime Tower Speed:50
;Travel Speed:120
;Initial Layer Speed:25
;Skirt/Brim Speed:25
;Combing Mode:infill
; --------SpecialModel&Mesh Fixes--------
;Union Overlapping Volum:true
;Remove All Holes:false
;Maximum Travel Resolution:0.6
;Maximum Deviation:0.05
;Maximum Model Angle:0.872665
;IS Mold Print:false
;Make Overhang Printable:false
;Enable Coasting:false
;Coasting Volumes:0.06
;Coasting Speed:0.9
;Raft AirGap:0.25
;Layer0 ZOverLap:0.13
;---------------------End of Head--------------------------
M140 S60
M105
M104 S200
M105
M109 S200
M105
M190 S60
M82 ;absolute extrusion mode
M220 S100 ;Reset Feedrate
M221 S100 ;Reset Flowrate

G28 ;Home

G92 E0 ;Reset Extruder
G1 Z2.0 F3000 ;Move Z Axis up
G1 X10.1 Y20 Z0.28 F5000.0 ;Move to start position
G1 X10.1 Y145.0 Z0.28 F1500.0 E15 ;Draw the first line
G1 X10.4 Y145.0 Z0.28 F5000.0 ;Move to side a little
G1 X10.4 Y20 Z0.28 F1500.0 E30 ;Draw the second line
G92 E0  ;Reset Extruder
G1 E-1.0000 F1800 ;Retract a bit
G1 Z2.0 F3000 ;Move Z Axis up
G1 E0.0000 F1800 

G92 E0
G92 E0
G1 F6000 E-8

;LAYER_COUNT:61

;LAYER:0
M107
G0 F3600 X109.121 Y111.739 Z0.1
;TYPE:SUPPORT
G1 F6000 E0
G1 F1500 X109.582 Y111.403 E0.00835
G1 X110.148 Y111.403 E0.01663
G1 X110.609 Y111.739 E0.02498
G1 X110.785 Y112.278 E0.03328
G1 X110.609 Y112.817 E0.04158
G1 X110.148 Y113.153 E0.04992
G1 X109.582 Y113.153 E0.05821
G1 X109.121 Y112.817 E0.06655
G1 X108.945 Y112.278 E0.07485
G1 X109.121 Y111.739 E0.08315
;;retract;;
G1 F6000 E-7.91685
;MESH:
G0 F3600 X108.293 Y111.47
G0 X101.499 Y114.434
G0 X101.494 Y113.136
;TYPE:WALL-INNER
G1 F6000 E0.08315
G1 F1500 X100.979 Y113.25 E0.0928
G1 X100.948 Y113.256 E0.09338
G1 X100.602 Y113.494 E0.10106
G1 X100.602 Y113.256 E0.10237
G1 X100.602 Y113.224 E0.10292
G1 X100.606 Y106.859 E0.21936
G1 X100.606 Y106.565 E0.22474
G1 X100.607 Y106.511 E0.22572
G1 X100.655 Y106.565 E0.22604
G1 X100.913 Y106.705 E0.22938
G1 X101.057 Y106.784 E0.23239
G1 X101.503 Y106.859 E0.24066
G1 X101.962 Y106.777 E0.24919
G1 X102.362 Y106.551 E0.25759
G1 X102.664 Y106.201 E0.26605
G1 X102.83 Y105.775 E0.27441
G1 X102.846 Y105.317 E0.2828
G1 X102.732 Y104.956 E0.28972
G1 X102.708 Y104.878 E0.29122
G1 X102.498 Y104.6 E0.29759
G1 X102.708 Y104.6 E0.29843
G1 X102.79 Y104.6 E0.29975
G1 X113.086 Y104.6 E0.4881
G1 X113.087 Y104.6 E0.48811
G1 X113.652 Y104.6 E0.49845
G1 X113.212 Y104.954 E0.5039
G1 X113.211 Y104.955 E0.50393
G1 X113.099 Y105.045 E0.50656
G1 X113.064 Y105.877 E0.52179
G1 X113.601 Y106.391 E0.53539
G1 X114.081 Y106.472 E0.54429
G1 X114.758 Y106.166 E0.55789
G1 X115 Y105.372 E0.57307
G1 X114.721 Y104.919 E0.5828
G1 X114.565 Y104.664 E0.58827
G1 X114.191 Y104.6 E0.59521
G1 X114.565 Y104.6 E0.59574
G1 X114.864 Y104.6 E0.59921
G1 X117.215 Y104.6 E0.64222
G1 X117.282 Y104.6 E0.64344
G1 X117.5 Y104.6 E0.64743
G1 X117.282 Y104.898 E0.65116
G1 X117.264 Y104.962 E0.65225
G1 X117.152 Y105.339 E0.65945
G1 X117.175 Y105.796 E0.66782
G1 X117.349 Y106.22 E0.6762
G1 X117.655 Y106.565 E0.68464
G1 X118.057 Y106.784 E0.69301
G1 X118.503 Y106.859 E0.70128
G1 X118.962 Y106.777 E0.70981
G1 X119.096 Y106.694 E0.7127
G1 X119.4 Y106.507 E0.71923
G1 X119.4 Y106.863 E0.72289
G1 X119.4 Y106.864 E0.72291
G1 X119.4 Y113.228 E0.83933
G1 X119.4 Y113.252 E0.83977
G1 X119.4 Y113.491 E0.84414
G1 X119.04 Y113.252 E0.84904
G1 X119.017 Y113.248 E0.84945
G1 X118.494 Y113.136 E0.85924
G1 X117.948 Y113.256 E0.86946
G1 X117.553 Y113.527 E0.87823
G1 X117.282 Y113.898 E0.88663
G1 X117.152 Y114.339 E0.89504
G1 X117.175 Y114.796 E0.90341
G1 X117.288 Y115.07 E0.90883
G1 X117.349 Y115.22 E0.9118
G1 X117.509 Y115.4 E0.9162
G1 X117.349 Y115.4 E0.91653
G1 X117.186 Y115.4 E0.91884
G1 X114.869 Y115.4 E0.96122
G1 X114.758 Y115.4 E0.96325
G1 X114.24 Y115.4 E0.97273
G1 X114.758 Y115.166 E0.97625
G1 X114.79 Y115.06 E0.97794
G1 X115 Y114.372 E0.9911
G1 X114.565 Y113.664 E1.0063
G1 X113.747 Y113.524 E1.02148
G1 X113.099 Y114.045 E1.03669
G1 X113.064 Y114.877 E1.05193
G1 X113.243 Y115.048 E1.05645
G1 X113.601 Y115.391 E1.06552
G1 X113.106 Y115.391 E1.07038
G1 X113.105 Y115.391 E1.07039
G1 X111.42 Y115.391 E1.10122
G1 X110.922 Y115.391 E1.11033
G1 X110.399 Y115.391 E1.1199
G1 X109.848 Y115.392 E1.12997
G1 X109.315 Y115.393 E1.13972
G1 X108.791 Y115.394 E1.14931
G1 X108.281 Y115.394 E1.15864
G1 X102.812 Y115.399 E1.25868
G1 X102.665 Y115.399 E1.26137
G1 X102.492 Y115.4 E1.26454
G1 X102.664 Y115.201 E1.26661
G1 X102.717 Y115.064 E1.26874
G1 X102.83 Y114.775 E1.27442
G1 X102.846 Y114.317 E1.2828
G1 X102.708 Y113.878 E1.29122
G1 X102.431 Y113.512 E1.29961
G1 X102.04 Y113.252 E1.3082
G1 X101.494 Y113.136 E1.31841
G0 F3600 X101.496 Y113.545
;TYPE:WALL-OUTER
G1 F600 X101.11 Y113.63 E1.32564
G1 X100.836 Y113.818 E1.33172
G1 X100.646 Y114.078 E1.33761
G1 X100.599 Y114.235 E1.34061
G1 X100.555 Y114.387 E1.34351
G1 X100.571 Y114.708 E1.34939
G1 X100.598 Y114.775 E1.35071
G1 X100.693 Y115.005 E1.35526
G1 X100.908 Y115.247 E1.36118
G1 X101.19 Y115.401 E1.36706
G1 X101.501 Y115.453 E1.37283
G1 X101.794 Y115.401 E1.37827
G1 X101.825 Y115.395 E1.37885
G1 X102.105 Y115.237 E1.38473
G1 X102.316 Y114.992 E1.39064
G1 X102.433 Y114.693 E1.39652
G1 X102.444 Y114.372 E1.40239
G1 X102.347 Y114.064 E1.4083
G1 X102.153 Y113.807 E1.41419
G1 X101.882 Y113.627 E1.42014
G1 X101.496 Y113.545 E1.42736
G0 F3600 X101.301 Y113.588
G0 X101.208 Y113.158
;;retract;;
G1 F6000 E-6.57264
G0 F3600 X101.499 Y114.434
G0 X99.334 Y109.544
G0 X101.099 Y109.545
;TYPE:WALL-INNER
G1 F6000 E1.42736
G1 F600 X101.064 Y110.377 E1.44259
G1 X101.601 Y110.891 E1.45619
G1 X102.081 Y110.972 E1.4651
G1 X102.758 Y110.666 E1.47869
G1 X103 Y109.872 E1.49387
G1 X102.565 Y109.164 E1.50907
G1 X101.747 Y109.024 E1.52425
G1 X101.099 Y109.545 E1.53946
G0 F3600 X101.491 Y109.743
;TYPE:WALL-OUTER
G1 F600 X101.471 Y110.213 E1.54807
G1 X101.789 Y110.517 E1.55612
G1 X102.027 Y110.557 E1.56053
G1 X102.428 Y110.376 E1.56858
G1 X102.565 Y109.928 E1.57715
G1 X102.319 Y109.528 E1.58574
G1 X101.857 Y109.449 E1.59431
G1 X101.491 Y109.743 E1.6029
G0 F3600 X101.483 Y109.943
G0 X101.043 Y109.925
;;retract;;
G1 F6000 E-6.3971
G0 F3600 X99.334 Y109.924
G0 X101.499 Y105.434
G0 X101.496 Y104.545
G1 F6000 E1.6029
G1 F600 X101.25 Y104.599 E1.60751
G1 X101.11 Y104.63 E1.61013
G1 X100.836 Y104.818 E1.61621
G1 X100.646 Y105.078 E1.6221
G1 X100.607 Y105.211 E1.62464
G1 X100.555 Y105.387 E1.628
G1 X100.571 Y105.708 E1.63387
G1 X100.605 Y105.792 E1.63553
G1 X100.693 Y106.005 E1.63975
G1 X100.908 Y106.247 E1.64567
G1 X101.19 Y106.401 E1.65155
G1 X101.501 Y106.453 E1.65732
G1 X101.825 Y106.395 E1.66334
G1 X102.105 Y106.237 E1.66922
G1 X102.316 Y105.992 E1.67513
G1 X102.433 Y105.693 E1.68101
G1 X102.444 Y105.372 E1.68688
G1 X102.347 Y105.064 E1.69279
G1 X102.153 Y104.807 E1.69868
G1 X101.882 Y104.627 E1.70463
G1 X101.751 Y104.599 E1.70708
G1 X101.496 Y104.545 E1.71185
G0 F3600 X101.3 Y104.588
;;retract;;
G1 F6000 E-6.28815
G0 F3600 X101.499 Y105.434
G0 X118.461 Y105.442
G0 X118.496 Y104.545
G1 F6000 E1.71185
G1 F600 X118.25 Y104.599 E1.71646
G1 X118.11 Y104.63 E1.71908
G1 X117.836 Y104.818 E1.72516
G1 X117.646 Y105.078 E1.73105
G1 X117.555 Y105.387 E1.73694
G1 X117.571 Y105.708 E1.74282
G1 X117.693 Y106.005 E1.74869
G1 X117.908 Y106.247 E1.75462
G1 X118.19 Y106.401 E1.76049
G1 X118.501 Y106.453 E1.76626
G1 X118.825 Y106.395 E1.77228
G1 X119.105 Y106.237 E1.77816
G1 X119.316 Y105.992 E1.78408
G1 X119.402 Y105.774 E1.78837
G1 X119.433 Y105.693 E1.78995
G1 X119.444 Y105.372 E1.79583
G1 X119.401 Y105.236 E1.79844
G1 X119.347 Y105.064 E1.80174
G1 X119.153 Y104.807 E1.80763
G1 X118.882 Y104.627 E1.81358
G1 X118.751 Y104.599 E1.81603
G1 X118.496 Y104.545 E1.8208
G0 F3600 X118.3 Y104.588
;;retract;;
G1 F6000 E-6.1792
G0 F3600 X118.461 Y105.442
G0 X113.491 Y103.33
G0 X113.491 Y105.243
G1 F6000 E1.8208
G1 F600 X113.471 Y105.713 E1.8294
G1 X113.789 Y106.017 E1.83745
G1 X114.027 Y106.057 E1.84186
G1 X114.428 Y105.876 E1.84991
G1 X114.565 Y105.428 E1.85848
G1 X114.319 Y105.028 E1.86707
G1 X113.857 Y104.949 E1.87565
G1 X113.491 Y105.243 E1.88423
G0 F3600 X113.483 Y105.443
G0 X113.043 Y105.425
;;retract;;
G1 F6000 E-6.11577
G0 F3600 X113.043 Y103.33
G0 X109.347 Y110.33
G0 X108.718 Y107.669
;TYPE:WALL-INNER
G1 F6000 E1.88423
G1 F600 X108.897 Y107.082 E1.89546
G1 X108.768 Y106.48 E1.90672
G1 X108.362 Y106.018 E1.91797
G1 X107.782 Y105.814 E1.92922
G1 X107.177 Y105.918 E1.94045
G1 X106.698 Y106.304 E1.9517
G1 X106.469 Y106.874 E1.96294
G1 X106.546 Y107.484 E1.97419
G1 X106.912 Y107.978 E1.98544
G1 X107.425 Y108.211 E1.99574
G1 X107.733 Y108.235 E2.00139
G1 X108.273 Y108.094 E2.0116
G1 X108.718 Y107.669 E2.02286
G0 F3600 X108.366 Y107.452
;TYPE:WALL-OUTER
G1 F600 X108.484 Y107.064 E2.03028
G1 X108.399 Y106.666 E2.03772
G1 X108.131 Y106.361 E2.04515
G1 X107.747 Y106.226 E2.0526
G1 X107.347 Y106.295 E2.06002
G1 X107.03 Y106.55 E2.06746
G1 X106.879 Y106.927 E2.07489
G1 X106.93 Y107.33 E2.08232
G1 X107.172 Y107.657 E2.08977
G1 X107.526 Y107.818 E2.09688
G1 X107.697 Y107.831 E2.10002
G1 X108.072 Y107.733 E2.10711
G1 X108.366 Y107.452 E2.11455
G0 F3600 X108.424 Y107.261
G0 X108.844 Y107.39
G0 X109.843 Y108.988
;TYPE:WALL-INNER
G1 F1500 X109.051 Y109.089 E2.12915
G1 X108.519 Y109.279 E2.13949
G1 X108.046 Y109.545 E2.14941
G1 X107.624 Y109.888 E2.15936
G1 X107.268 Y110.297 E2.16928
G1 X106.984 Y110.759 E2.1792
G1 X106.783 Y111.265 E2.18916
G1 X106.671 Y111.795 E2.19907
G1 X106.648 Y112.338 E2.20901
G1 X106.719 Y112.877 E2.21896
G1 X106.881 Y113.396 E2.2289
G1 X107.126 Y113.88 E2.23883
G1 X107.451 Y114.314 E2.24875
G1 X107.844 Y114.689 E2.25868
G1 X108.293 Y114.991 E2.26858
G1 X108.325 Y115.005 E2.26922
G1 X108.79 Y115.214 E2.27604
G1 X109.314 Y115.35 E2.27923
G1 X109.848 Y115.396 E2.27983
G1 X110.398 Y115.346 E2.28047
G1 X110.922 Y115.208 E2.28347
G1 X111.375 Y115.002 E2.29016
G1 X111.417 Y114.983 E2.29101
G1 X111.866 Y114.678 E2.30094
G1 X112.257 Y114.3 E2.31088
G1 X112.579 Y113.863 E2.32081
G1 X112.821 Y113.376 E2.33076
G1 X112.979 Y112.858 E2.34067
G1 X113.047 Y112.319 E2.35061
G1 X113.021 Y111.775 E2.36057
G1 X112.906 Y111.247 E2.37046
G1 X112.702 Y110.742 E2.38042
G1 X112.415 Y110.281 E2.39035
G1 X112.056 Y109.875 E2.40027
G1 X111.632 Y109.534 E2.41022
G1 X111.157 Y109.271 E2.42015
G1 X110.632 Y109.087 E2.43033
G1 X109.843 Y108.988 E2.44488
G0 F3600 X109.843 Y109.391
;TYPE:WALL-OUTER
G1 F698.4 X109.145 Y109.48 E2.45775
G1 X108.686 Y109.644 E2.46666
G1 X108.272 Y109.877 E2.47535
G1 X107.903 Y110.177 E2.48405
G1 X107.591 Y110.535 E2.49274
G1 X107.343 Y110.939 E2.50141
G1 X107.167 Y111.381 E2.51012
G1 X107.069 Y111.845 E2.51879
G1 X107.049 Y112.32 E2.52749
G1 X107.111 Y112.791 E2.53618
G1 X107.253 Y113.245 E2.54488
G1 X107.467 Y113.668 E2.55355
G1 X107.751 Y114.048 E2.56223
G1 X108.095 Y114.376 E2.57092
G1 X108.488 Y114.64 E2.57959
G1 X108.923 Y114.835 E2.58831
G1 X109.382 Y114.954 E2.59698
G1 X109.847 Y114.994 E2.60552
G1 X110.329 Y114.951 E2.61437
G1 X110.787 Y114.83 E2.62304
G1 X111.22 Y114.633 E2.63174
G1 X111.613 Y114.366 E2.64043
G1 X111.955 Y114.036 E2.64912
G1 X112.236 Y113.654 E2.6578
G1 X112.448 Y113.228 E2.6665
G1 X112.586 Y112.774 E2.67518
G1 X112.646 Y112.303 E2.68387
G1 X112.623 Y111.828 E2.69257
G1 X112.522 Y111.365 E2.70124
G1 X112.344 Y110.924 E2.70994
G1 X112.093 Y110.521 E2.71862
G1 X111.779 Y110.165 E2.7273
G1 X111.408 Y109.867 E2.73601
G1 X110.993 Y109.637 E2.74469
G1 X110.54 Y109.479 E2.75347
G1 X109.843 Y109.391 E2.76632
G0 F3600 X109.645 Y109.416
G0 X109.591 Y108.98
;;retract;;
G1 F6000 E-5.23368
G0 F3600 X109.844 Y110.267
G0 X114.428 Y110.027
G0 X113.142 Y110.082
;TYPE:WALL-INNER
G1 F6000 E2.76632
G1 F600 X113.277 Y110.696 E2.77782
G1 X113.607 Y111.23 E2.7893
G1 X114.096 Y111.624 E2.80079
G1 X114.665 Y111.823 E2.81182
G1 X115.026 Y111.854 E2.81844
G1 X115.621 Y111.752 E2.82949
G1 X116.17 Y111.445 E2.84099
G1 X116.584 Y110.971 E2.85251
G1 X116.817 Y110.389 E2.86397
G1 X116.844 Y109.761 E2.87547
G1 X116.658 Y109.161 E2.88696
G1 X116.284 Y108.657 E2.89844
G1 X115.762 Y108.305 E2.90996
G1 X115.156 Y108.149 E2.92141
G1 X114.532 Y108.201 E2.93286
G1 X113.957 Y108.461 E2.94441
G1 X113.504 Y108.897 E2.95591
G1 X113.223 Y109.458 E2.96739
G1 X113.142 Y110.082 E2.9789
G0 F3600 X113.548 Y110.064
;TYPE:WALL-OUTER
G1 F600 X113.653 Y110.544 E2.98789
G1 X113.911 Y110.961 E2.99686
G1 X114.293 Y111.269 E3.00583
G1 X114.749 Y111.429 E3.01467
G1 X115.009 Y111.451 E3.01945
G1 X115.486 Y111.369 E3.0283
G1 X115.914 Y111.13 E3.03727
G1 X116.238 Y110.759 E3.04628
G1 X116.42 Y110.304 E3.05524
G1 X116.441 Y109.813 E3.06423
G1 X116.296 Y109.344 E3.07321
G1 X116.004 Y108.95 E3.08218
G1 X115.596 Y108.675 E3.09118
G1 X115.122 Y108.553 E3.10014
G1 X114.634 Y108.594 E3.1091
G1 X114.185 Y108.797 E3.11811
G1 X113.831 Y109.138 E3.1271
G1 X113.611 Y109.577 E3.13608
G1 X113.548 Y110.064 E3.14507
G0 F3600 X113.59 Y110.259
G0 X113.16 Y110.352
;;retract;;
G1 F6000 E-4.85493
G0 F3600 X114.47 Y110.211
G0 X111.637 Y112.905
G0 X113.491 Y114.243
G1 F6000 E3.14507
G1 F600 X113.471 Y114.713 E3.15367
G1 X113.789 Y115.017 E3.16172
G1 X114.027 Y115.057 E3.16613
G1 X114.428 Y114.876 E3.17418
G1 X114.565 Y114.428 E3.18275
G1 X114.319 Y114.028 E3.19134
G1 X113.857 Y113.949 E3.19992
G1 X113.491 Y114.243 E3.2085
G0 F3600 X113.483 Y114.443
G0 X113.043 Y114.425
;;retract;;
G1 F6000 E-4.7915
G0 F3600 X111.49 Y113.203
G0 X118.461 Y114.442
G0 X118.496 Y113.545
G1 F6000 E3.2085
G1 F600 X118.11 Y113.63 E3.21574
G1 X117.836 Y113.818 E3.22181
G1 X117.646 Y114.078 E3.2277
G1 X117.555 Y114.387 E3.2336
G1 X117.571 Y114.708 E3.23948
G1 X117.693 Y115.005 E3.24535
G1 X117.908 Y115.247 E3.25127
G1 X118.19 Y115.401 E3.25715
G1 X118.501 Y115.453 E3.26292
G1 X118.794 Y115.401 E3.26836
G1 X118.825 Y115.395 E3.26894
G1 X119.105 Y115.237 E3.27482
G1 X119.316 Y114.992 E3.28074
G1 X119.402 Y114.774 E3.28502
