;FLAVOR:Marlin
;TIME:2909
;Filament used:0.5469m
;Layer height: 0.1
;MINX:99.711
;MINY:99.239
;MINZ:0.1
;MAXX:120.144
;MAXY:123.944
;MAXZ:21.1
                               
;Creality Print GCode Generated by CXEngine:NO_MAGE_VERSION_GIT_HEAD_BRANCH
;CXEngine Release Time:2022-09-30 09:53:04
;Gcode Generated Time:2023-04-14 21:06:10
;----------Machine Config--------------
;Machine Name:Ender-3 V2
;Machine Height:250
;Machine Width:220
;Machine Depth:220
;Material name:PLA
;Number of Extruders:1
;ExtruderParams[0] Nozzle Diameter1000
;----------Profile Config---------------
;Engine Version:275f99b
;Engine Release Time:2022-09-30 09:42:18
;Layer Height:0.1
;Wall Thickness:0.8
;Top/Bottom Thickness:0.5
;Out Wall Line Width:0.4
;Inner Wall Line Width:0.4
;Inital Layer Height:100
;Wall Line Count:2
;Infill Line Distance:4
;Infill Pattern:grid
;Infill Sparse Density:20
;Infill Wipe Distance:0
;Print Temperature:200
;Bed Temperature:60
;Support Enable:true
;Support Density:0
;Support Angle:60
;Adhesion Type:none
;machine is belt:false
;machine belt offset:10
;machine belt offset Y:0
;Raft Base Line Spacing:1.6
;Wait Heatup Sync:true
;----------Shell Config----------------
;Outer Wall Wipe Distance:200
;Outer Inset First:false
;Infill Before Walls:false
;Infill Overlap:0.16
;Fill Gaps Between Walls:everywhere
;Minimum Infill Area:1
;Top Surface Skin Layer:0
;Top Layers:4
;Z Seam Alignment:sharpest_corner
;Seam Corner Preference:z_seam_corner_inner
;Z Seam X:110
;Z Seam Y:110
;Horizontal Expansion:0
;Top/Bottom Pattern:zigzag
;Ironing Pattern:zigzag
;Vase Model:false
;----------Support Config----------------
;Support Type:everywhere
;Support Pattern:zigzag
;Support Infill Layer Thickness:0.1
;Minimum Support Area:5
;Enable Support Roof:false
;Support Roof Thickness:0.8
;Support Roof Pattern:lines
;Connect Support Lines:0
;Connect Support ZigZags:1
;Minimum Support X/Y Distance:0.2
;Support Line Distance:0
; ---------PrintSpeed & Travel----------
;Enable Print Cool:true
;Avoid Printed Parts Traveling:true
;Enable Retraction:true
;Retraction Distance:8
;Retraction Speed:100
;Retraction Prime Speed:100
;Maximum Retraction Count:100
;Minimum Extrusion Distance Window:1
;Z Hop When Retracted:false
;Z Hop Height:0.2
;Retract Before Outer Wall:true
;Print Speed:50
;Infill Speed:50

;Prime Tower Speed:50
;Travel Speed:120
;Initial Layer Speed:25
;Skirt/Brim Speed:25
;Combing Mode:infill
; --------SpecialModel&Mesh Fixes--------
;Union Overlapping Volum:true
;Remove All Holes:false
;Maximum Travel Resolution:0.6
;Maximum Deviation:0.05
;Maximum Model Angle:0.872665
;IS Mold Print:false
;Make Overhang Printable:false
;Enable Coasting:false
;Coasting Volumes:0.06
;Coasting Speed:0.9
;Raft AirGap:0.25
;Layer0 ZOverLap:0.13
;---------------------End of Head--------------------------
M140 S60
M105
M104 S200
M105
M109 S200
M105
M190 S60
M82 ;absolute extrusion mode
M220 S100 ;Reset Feedrate
M221 S100 ;Reset Flowrate

G28 ;Home

G92 E0 ;Reset Extruder
G1 Z2.0 F3000 ;Move Z Axis up
G1 X10.1 Y20 Z0.28 F5000.0 ;Move to start position
G1 X10.1 Y145.0 Z0.28 F1500.0 E15 ;Draw the first line
G1 X10.4 Y145.0 Z0.28 F5000.0 ;Move to side a little
G1 X10.4 Y20 Z0.28 F1500.0 E30 ;Draw the second line
G92 E0  ;Reset Extruder
G1 E-1.0000 F1800 ;Retract a bit
G1 Z2.0 F3000 ;Move Z Axis up
G1 E0.0000 F1800 

G92 E0
G92 E0
G1 F6000 E-8

;LAYER_COUNT:212

;LAYER:0
M107
G0 F3600 X101.899 Y103.331 Z0.1
;TYPE:SUPPORT
G1 F6000 E0
G1 F1500 X102.612 Y102.991 E0.01156
G1 X103.178 Y102.991 E0.01984
G1 X104.436 Y103.777 E0.04155
G1 X104.602 Y104.288 E0.04941
G1 X104.433 Y104.807 E0.0574
G1 X103.989 Y105.13 E0.06544
G1 X103.428 Y105.13 E0.07365
G1 X101.901 Y104.324 E0.09892
G1 X101.738 Y103.825 E0.1066
G1 X101.899 Y103.331 E0.1142
;;retract;;
G1 F6000 E-7.8858
G0 F3600 X101.072 Y103.062
G0 X100.825 Y103.825
G0 X101.186 Y104.926
G0 X103.214 Y105.998
G0 X105.464 Y106.516
G0 X106.117 Y107.09
G1 F6000 E0.1142
G1 F1500 X106.773 Y106.346 E0.12872
G1 X107.084 Y106.309 E0.1333
G1 X106.893 Y107.081 E0.14494
G1 X107.143 Y107.234 E0.14923
G1 X108.788 Y105.799 E0.18118
G1 X109.273 Y105.588 E0.18892
G1 X107.491 Y107.437 E0.2265
G1 X108.507 Y108.882 E0.25235
G1 X108.102 Y109.752 E0.26639
G1 X107.727 Y109.726 E0.27189
G1 X107.629 Y110.02 E0.27643
G1 X108.473 Y110.566 E0.29114
G1 X108.704 Y111.258 E0.30181
G1 X108.127 Y111.795 E0.31335
G1 X107.29 Y114.025 E0.34821
G1 X107.491 Y114.207 E0.35218
G1 X108.787 Y113.57 E0.37331
G1 X109.012 Y113.957 E0.37986
G1 X108.631 Y115.203 E0.39893
G1 X108.705 Y115.891 E0.40905
G1 X108.809 Y116.224 E0.41416
G1 X108.562 Y116.947 E0.42534
G1 X108.61 Y117.108 E0.4278
G1 X108.279 Y116.869 E0.43377
G1 X107.938 Y116.956 E0.43892
G1 X108.112 Y116.408 E0.44734
G1 X107.436 Y116.319 E0.45732
G1 X106.266 Y114.802 E0.48535
G1 X105.876 Y114.694 E0.49128
G1 X106.136 Y113.745 E0.50568
G1 X106.672 Y112.366 E0.52733
G1 X107.031 Y111.905 E0.53588
G1 X106.063 Y110.715 E0.55833
G1 X106.199 Y110.452 E0.56266
G1 X106.946 Y110.748 E0.57442
G1 X107.129 Y110.497 E0.57897
G1 X106.384 Y109.597 E0.59606
G1 X106.273 Y108.945 E0.60574
G1 X105.568 Y108.119 E0.62163
G1 X105.757 Y107.756 E0.62762
G1 X106.183 Y107.537 E0.63463
G1 X106.117 Y107.09 E0.64125
G0 F3600 X106.813 Y108.068
G1 F1500 X106.97 Y108.276 E0.64506
G1 X106.951 Y108.317 E0.64572
G1 X106.781 Y108.129 E0.64943
G1 X106.813 Y108.068 E0.65044
;;retract;;
G1 F6000 E-7.34956
G0 F3600 X108.603 Y107.524
G0 X110.519 Y107.957
G0 X111.29 Y108.357
G1 F6000 E0.65044
G1 F1500 X111.497 Y107.957 E0.65703
G1 X112.441 Y106.674 E0.68034
G1 X112.818 Y106.628 E0.6859
G1 X112.834 Y106.878 E0.68957
G1 X113.087 Y106.965 E0.69348
G1 X113.914 Y106.027 E0.71178
G1 X114.122 Y105.937 E0.7151
G1 X114.193 Y106.1 E0.7177
G1 X113.038 Y107.517 E0.74445
G1 X113.261 Y107.771 E0.7494
G1 X114.172 Y107.207 E0.76508
G1 X114.236 Y107.355 E0.76744
G1 X113.84 Y107.981 E0.77828
G1 X114.072 Y108.678 E0.78903
G1 X113.17 Y108.645 E0.80224
G1 X112.436 Y107.808 E0.81853
G1 X112.202 Y107.863 E0.82205
G1 X112.04 Y108.481 E0.8314
G1 X113.511 Y109.826 E0.86057
G1 X113.233 Y110.359 E0.86936
G1 X114.2 Y111.336 E0.88948
G1 X114.065 Y111.595 E0.89376
G1 X113.828 Y111.516 E0.89741
G1 X113.653 Y111.689 E0.90101
G1 X113.855 Y112.318 E0.91068
G1 X114.175 Y112.866 E0.91997
G1 X113.4 Y114.425 E0.94545
G1 X113.404 Y115.363 E0.95917
G1 X112.912 Y115.685 E0.96778
G1 X112.458 Y116.368 E0.97978
G1 X112.153 Y116.713 E0.98652
G1 X111.78 Y116.613 E0.99217
G1 X111.62 Y116.845 E0.9963
G1 X111.848 Y117.162 E1.00201
G1 X111.125 Y117.067 E1.01268
G1 X111.249 Y116.201 E1.02549
G1 X111.404 Y115.512 E1.03582
G1 X112.3 Y114.441 E1.05626
G1 X111.834 Y114.065 E1.06502
G1 X111.029 Y114.464 E1.07817
G1 X110.838 Y114.137 E1.08371
G1 X111.999 Y112.983 E1.10766
G1 X112.261 Y112.05 E1.12185
G1 X112.298 Y111.288 E1.13301
G1 X111.503 Y110.77 E1.1469
G1 X111.276 Y110.087 E1.15743
G1 X112.209 Y109.334 E1.17498
G1 X111.29 Y108.357 E1.19461
;;retract;;
G1 F6000 E-6.80539
G0 F3600 X110.759 Y107.496
G0 X114.719 Y105.269
G0 X115.546 Y105
G1 F6000 E1.19461
G1 F1500 X115.377 Y104.481 E1.20259
G1 X115.541 Y103.976 E1.21036
G1 X116.836 Y103.275 E1.23191
G1 X117.387 Y103.275 E1.23998
G1 X117.896 Y103.637 E1.24912
G1 X118.062 Y104.145 E1.25694
G1 X117.902 Y104.637 E1.26451
G1 X116.552 Y105.323 E1.28667
G1 X115.99 Y105.323 E1.2949
G1 X115.546 Y105 E1.30293
;;retract;;
G1 F6000 E-6.69707
G0 F3600 X114.719 Y105.269
G0 X114.485 Y104.5
G0 X111.007 Y102.163
G0 X110.143 Y102.443
G1 F6000 E1.30293
G1 F1500 X109.496 Y102.261 E1.31277
G1 X109.576 Y101.821 E1.31931
G1 X109.715 Y101.864 E1.32144
G1 X110.424 Y101.343 E1.33432
G1 X110.433 Y101.374 E1.33479
G1 X110.001 Y102.248 E1.34906
G1 X110.143 Y102.443 E1.35259
;;retract;;
G1 F6000 E-6.64741
G0 F3600 X111.007 Y102.163
G0 X110.828 Y104.792
G0 X111.966 Y105.858
G0 X110.759 Y107.496
G0 X110.56 Y108.751
G0 X110.951 Y109.249
G0 X110.497 Y109.685
G0 X110.776 Y111.329
G0 X111.225 Y112.529
G0 X110.231 Y113.606
G0 X110.023 Y116.682
G0 X110.023 Y117.552
G1 F6000 E1.35259
G1 F1500 X110.746 Y117.552 E1.36317
G1 X110.82 Y117.666 E1.36516
G1 X110.493 Y118.303 E1.37564
G1 X110.715 Y119.916 E1.39946
G1 X110.024 Y119.916 E1.40958
G1 X109.458 Y119.483 E1.42001
G1 X109.433 Y117.982 E1.44197
G1 X110.023 Y117.552 E1.45266
;;retract;;
G1 F6000 E-6.54734
G0 F3600 X109.46 Y116.92
G0 X108.744 Y120.003
G0 X108.975 Y120.818
G1 F6000 E1.45266
G1 F1500 X108.864 Y121.455 E1.46212
G1 X109.098 Y122.005 E1.47087
G1 X108.83 Y121.972 E1.47482
G1 X108.345 Y121.546 E1.48427
G1 X108.086 Y121.603 E1.48815
G1 X108.4 Y120.809 E1.50064
G1 X108.616 Y120.907 E1.50411
G1 X108.975 Y120.818 E1.50953
;;retract;;
G1 F6000 E-6.49047
G0 F3600 X110.816 Y121.249
G1 F6000 E1.50953
G1 F1500 X110.904 Y121.045 E1.51278
G1 X111.432 Y121.113 E1.52057
G1 X111.568 Y120.894 E1.52434
G1 X111.532 Y120.84 E1.52529
G1 X111.632 Y120.901 E1.52701
G1 X112.008 Y120.812 E1.53266
G1 X111.974 Y121.309 E1.53995
G1 X111.617 Y121.21 E1.54537
G1 X111.451 Y121.398 E1.54904
G1 X111.705 Y121.999 E1.55859
G1 X111.45 Y121.968 E1.56235
G1 X110.816 Y121.249 E1.57638
;;retract;;
G1 F6000 E-6.42362
;MESH:
G0 F3600 X110.019 Y120.904
G0 X108.746 Y120.02
G0 X107.9 Y118.851
;TYPE:WALL-INNER
G1 F6000 E1.57638
G1 F600 X106.6 Y118.852 E1.60016
G1 X106.6 Y118.82 E1.60075
G1 X107.9 Y118.819 E1.60264
G1 X107.9 Y118.851 E1.60323
G0 F3600 X108.3 Y118.619
;TYPE:WALL-OUTER
G1 F600 X108.3 Y119.251 E1.61479
G1 X106.4 Y119.252 E1.64954
G1 X106.2 Y119.252 E1.6532
G1 X106.2 Y119.052 E1.65557
G1 X106.2 Y118.42 E1.66713
G1 X108.1 Y118.419 E1.70189
G1 X108.3 Y118.419 E1.70555
G1 X108.3 Y118.619 E1.70792
G0 F3600 X108.3 Y118.819
;;retract;;
G1 F6000 E-6.29208
G0 F3600 X108.746 Y120.02
G0 X112.921 Y120.11
G0 X113.4 Y118.851
;TYPE:WALL-INNER
G1 F6000 E1.70792
G1 F600 X112.1 Y118.852 E1.7317
G1 X112.1 Y118.82 E1.73228
G1 X113.4 Y118.819 E1.73418
G1 X113.4 Y118.851 E1.73476
G0 F3600 X113.8 Y118.619
;TYPE:WALL-OUTER
G1 F600 X113.8 Y119.251 E1.74632
G1 X111.9 Y119.252 E1.78108
G1 X111.7 Y119.252 E1.78474
G1 X111.7 Y119.052 E1.78711
G1 X111.7 Y118.42 E1.79867
G1 X113.6 Y118.419 E1.83343
G1 X113.8 Y118.419 E1.83709
G1 X113.8 Y118.619 E1.83945
G0 F3600 X113.8 Y118.819
;;retract;;
G1 F6000 E-6.16055
G0 F3600 X114.67 Y118.819
G0 X114.666 Y118.06
G0 X113.8 Y104.874
G0 X113.8 Y104.004
G1 F6000 E1.83945
G1 F621.6 X106.2 Y104.005 E1.97848
G1 X106.2 Y103.793 E1.98236
G1 X113.8 Y103.792 E2.05588
G1 X113.8 Y104.004 E2.05976
G0 F3600 X113.6 Y104.004
;;retract;;
G1 F6000 E-5.94024
;MESH:NONMESH
G0 F600 X113.6 Y104.004 Z0.2
G0 F3600 X113.6 Y104.874
G0 X105.364 Y103.929
G0 X104.577 Y104.231
;TIME_ELAPSED:23.370507

;LAYER:1
M140 S60
M106 S127.5
;TYPE:SUPPORT
G1 F6000 E2.05976
G1 F2250 X104.409 Y104.744 E2.06694
G1 X103.986 Y105.052 E2.0739
G1 X102.328 Y104.737 E2.09635
G1 X101.811 Y104.359 E2.10487
G1 X101.645 Y103.849 E2.11201
G1 X101.807 Y103.351 E2.11898
G1 X102.441 Y102.984 E2.12872
G1 X102.999 Y102.984 E2.13615
G1 X104.414 Y103.732 E2.15744
G1 X104.577 Y104.231 E2.16442
;;retract;;
G1 F6000 E-5.83558
G0 F5400 X105.405 Y104.499
G0 X106.004 Y106.098
G0 X106.52 Y106.799
G1 F6000 E2.16442
G1 F2250 X107.104 Y106.369 E2.17407
G1 X107.117 Y106.411 E2.17466
G1 X106.743 Y107.435 E2.18916
G1 X107.02 Y107.607 E2.1935
G1 X108.326 Y106.232 E2.21873
G1 X108.602 Y106.021 E2.22335
G1 X107.765 Y107.132 E2.24186
G1 X107.322 Y107.538 E2.24985
G1 X108.536 Y108.937 E2.27449
G1 X108.466 Y109.096 E2.2768
G1 X108.281 Y109.016 E2.27949
G1 X108.089 Y109.196 E2.28299
G1 X108.273 Y109.705 E2.29019
G1 X107.651 Y109.749 E2.29848
G1 X107.565 Y110 E2.30201
G1 X108.722 Y111.035 E2.32267
G1 X108.598 Y111.32 E2.3268
G1 X108.151 Y111.727 E2.33484
G1 X107.365 Y113.775 E2.36403
G1 X107.091 Y114.054 E2.36923
G1 X107.292 Y114.328 E2.37375
G1 X108.855 Y113.539 E2.39705
G1 X108.985 Y113.788 E2.40078
G1 X108.429 Y114.494 E2.41274
G1 X108.648 Y115.556 E2.42717
G1 X108.353 Y116.055 E2.43488
G1 X108.544 Y116.273 E2.43873
G1 X108.857 Y116.14 E2.44326
G1 X108.759 Y116.664 E2.45035
G1 X107.917 Y116.355 E2.46228
G1 X107.662 Y116.349 E2.46568
G1 X107.75 Y115.929 E2.47138
G1 X106.965 Y115.9 E2.48184
G1 X106.236 Y114.691 E2.50062
G1 X105.835 Y114.649 E2.50598
G1 X106.397 Y113.051 E2.52852
G1 X107.302 Y111.759 E2.5495
G1 X106.638 Y111.582 E2.55865
G1 X106.106 Y110.566 E2.5739
G1 X106.368 Y110.598 E2.57742
G1 X107.053 Y110.939 E2.5876
G1 X107.256 Y110.714 E2.59163
G1 X106.45 Y109.429 E2.61181
G1 X106.67 Y109.393 E2.61477
G1 X106.74 Y109.151 E2.61813
G1 X105.59 Y108.121 E2.63867
G1 X105.652 Y107.978 E2.64074
G1 X105.944 Y108.104 E2.64497
G1 X106.52 Y106.799 E2.66395
G0 F5400 X106.835 Y107.834
G1 F2250 X107.159 Y108.338 E2.67192
G1 X107.046 Y108.511 E2.67467
G1 X106.554 Y108.125 E2.68299
G1 X106.835 Y107.834 E2.68837
;;retract;;
G1 F6000 E-5.31163
G0 F5400 X108.502 Y107.585
G0 X113.233 Y105.617
G0 X114.07 Y106.042
G1 F6000 E2.68837
G1 F2250 X114.083 Y106.083 E2.68894
G1 X112.876 Y107.543 E2.71414
G1 X112.987 Y107.774 E2.71755
G1 X113.591 Y107.766 E2.72559
G1 X114.27 Y107.267 E2.7368
G1 X113.809 Y108.139 E2.74992
G1 X114.056 Y108.717 E2.75829
G1 X113.159 Y108.575 E2.77037
G1 X112.295 Y107.642 E2.78729
G1 X111.615 Y108.37 E2.80054
G1 X113.316 Y109.471 E2.8275
G1 X113.507 Y109.916 E2.83394
G1 X113.227 Y109.883 E2.83769
G1 X111.492 Y108.709 E2.86556
G1 X111.242 Y108.127 E2.87399
G1 X111.889 Y107.855 E2.88332
G1 X111.802 Y107.443 E2.88893
G1 X112.672 Y106.669 E2.90442
G1 X112.435 Y107.375 E2.91433
G1 X112.723 Y107.537 E2.91872
G1 X113.916 Y106.125 E2.94331
G1 X114.07 Y106.042 E2.94564
;;retract;;
G1 F6000 E-5.05436
G0 F5400 X114.916 Y106.432
G0 X115.215 Y107.389
G0 X115.148 Y109.069
G0 X114.666 Y109.688
G0 X112.994 Y110.304
G1 F6000 E2.94564
G1 F2250 X114.206 Y111.343 E2.96688
G1 X114.134 Y111.509 E2.96929
G1 X113.796 Y111.422 E2.97393
G1 X113.44 Y112.631 E2.9907
G1 X114.155 Y112.631 E3.00021
G1 X113.732 Y113.847 E3.01734
G1 X113.258 Y114.558 E3.02871
G1 X113.447 Y115.378 E3.0399
G1 X112.79 Y115.772 E3.0501
G1 X112.492 Y116.195 E3.05698
G1 X112.035 Y116.081 E3.06325
G1 X111.874 Y116.277 E3.06662
G1 X112.002 Y116.549 E3.07062
G1 X111.505 Y116.404 E3.07751
G1 X111.181 Y115.661 E3.08829
G1 X111.473 Y115.567 E3.09237
G1 X111.793 Y115.02 E3.1008
G1 X112.36 Y115.214 E3.10878
G1 X112.535 Y114.99 E3.11256
G1 X111.849 Y113.926 E3.1294
G1 X110.935 Y114.468 E3.14354
G1 X110.818 Y114.242 E3.14692
G1 X111.93 Y113.057 E3.16854
G1 X112.246 Y112.128 E3.1816
G1 X112.295 Y111.336 E3.19216
G1 X111.284 Y110.377 E3.21069
G1 X111.381 Y110.153 E3.21394
G1 X111.546 Y110.133 E3.21615
G1 X111.711 Y109.753 E3.22166
G1 X112.994 Y110.304 E3.24024
;;retract;;
G1 F6000 E-4.75976
G0 F5400 X114.301 Y109.615
G0 X114.598 Y104.698
G0 X115.425 Y104.428
G1 F6000 E3.24024
G1 F2250 X115.589 Y103.925 E3.24728
G1 X116.676 Y103.289 E3.26403
G1 X117.97 Y103.635 E3.28185
G1 X118.12 Y104.097 E3.28832
G1 X117.962 Y104.582 E3.2951
G1 X116.59 Y105.261 E3.31547
G1 X116.033 Y105.261 E3.32288
G1 X115.593 Y104.941 E3.33012
G1 X115.425 Y104.428 E3.3373
;;retract;;
G1 F6000 E-4.6627
G0 F5400 X114.598 Y104.698
G0 X110.398 Y116.62
G0 X109.056 Y120.254
G0 X109.459 Y119.482
G1 F6000 E3.3373
G1 F2250 X109.439 Y117.988 E3.35718
G1 X110.026 Y117.561 E3.36683
G1 X110.747 Y117.561 E3.37643
G1 X110.819 Y117.668 E3.37814
G1 X110.493 Y118.303 E3.38764
G1 X110.716 Y119.907 E3.40918
G1 X110.027 Y119.907 E3.41835
G1 X109.459 Y119.482 E3.42779
G0 F5400 X108.159 Y121.234
G1 F2250 X108.992 Y121.992 E3.44277
G1 X108.283 Y121.508 E3.45419
G1 X108.047 Y121.61 E3.45761
G1 X108.159 Y121.234 E3.46283
;;retract;;
G1 F6000 E-4.53717
G0 F5400 X109.096 Y120.387
G0 X110.267 Y121.809
G0 X111.555 Y121.286
G1 F6000 E3.46283
G1 F2250 X111.595 Y121.37 E3.46407
G1 X111.653 Y121.92 E3.47143
G1 X111.102 Y121.555 E3.48022
G1 X110.988 Y121.276 E3.48423
G1 X111.403 Y121.429 E3.49012
G1 X111.555 Y121.286 E3.49289
G0 F5400 X111.58 Y120.915
;TYPE:SUPPORT-INTERFACE
G1 F1749.9 X111.717 Y120.779 E3.49546
;;retract;;
G1 F6000 E-4.50454
G0 F5400 X112.456 Y120.641
G0 X113.096 Y121.475
G0 X112.601 Y122.669
G0 X111.883 Y123.106
G0 X110.4 Y122.131
G0 X109.735 Y121.133
G0 X109.07 Y120.357
G0 X108.431 Y120.67
G1 F6000 E3.49546
