;FLAVOR:Marlin
;TIME:3383
;Filament used:0.728489m
;Layer height: 0.1
;MINX:96.317
;MINY:82.143
;MINZ:0.1
;MAXX:123.699
;MAXY:137.734
;MAXZ:8.9
                              
;Creality Print GCode Generated by CXEngine:NO_MAGE_VERSION_GIT_HEAD_BRANCH
;CXEngine Release Time:2022-09-30 09:53:04
;Gcode Generated Time:2023-04-14 20:54:12
;----------Machine Config--------------
;Machine Name:Ender-3 V2
;Machine Height:250
;Machine Width:220
;Machine Depth:220
;Material name:PLA
;Number of Extruders:1
;ExtruderParams[0] Nozzle Diameter1000
;----------Profile Config---------------
;Engine Version:275f99b
;Engine Release Time:2022-09-30 09:42:18
;Layer Height:0.1
;Wall Thickness:0.8
;Top/Bottom Thickness:0.5
;Out Wall Line Width:0.4
;Inner Wall Line Width:0.4
;Inital Layer Height:100
;Wall Line Count:2
;Infill Line Distance:4
;Infill Pattern:grid
;Infill Sparse Density:20
;Infill Wipe Distance:0
;Print Temperature:200
;Bed Temperature:60
;Support Enable:true
;Support Density:0
;Support Angle:60
;Adhesion Type:none
;machine is belt:false
;machine belt offset:10
;machine belt offset Y:0
;Raft Base Line Spacing:1.6
;Wait Heatup Sync:true
;----------Shell Config----------------
;Outer Wall Wipe Distance:200
;Outer Inset First:false
;Infill Before Walls:false
;Infill Overlap:0.16
;Fill Gaps Between Walls:everywhere
;Minimum Infill Area:1
;Top Surface Skin Layer:0
;Top Layers:4
;Z Seam Alignment:sharpest_corner
;Seam Corner Preference:z_seam_corner_inner
;Z Seam X:110
;Z Seam Y:110
;Horizontal Expansion:0
;Top/Bottom Pattern:zigzag
;Ironing Pattern:zigzag
;Vase Model:false
;----------Support Config----------------
;Support Type:everywhere
;Support Pattern:zigzag
;Support Infill Layer Thickness:0.1
;Minimum Support Area:5
;Enable Support Roof:false
;Support Roof Thickness:0.8
;Support Roof Pattern:lines
;Connect Support Lines:0
;Connect Support ZigZags:1
;Minimum Support X/Y Distance:0.2
;Support Line Distance:0
; ---------PrintSpeed & Travel----------
;Enable Print Cool:true
;Avoid Printed Parts Traveling:true
;Enable Retraction:true
;Retraction Distance:8
;Retraction Speed:100
;Retraction Prime Speed:100
;Maximum Retraction Count:100
;Minimum Extrusion Distance Window:1
;Z Hop When Retracted:false
;Z Hop Height:0.2
;Retract Before Outer Wall:true
;Print Speed:50
;Infill Speed:50

;Prime Tower Speed:50
;Travel Speed:120
;Initial Layer Speed:25
;Skirt/Brim Speed:25
;Combing Mode:infill
; --------SpecialModel&Mesh Fixes--------
;Union Overlapping Volum:true
;Remove All Holes:false
;Maximum Travel Resolution:0.6
;Maximum Deviation:0.05
;Maximum Model Angle:0.872665
;IS Mold Print:false
;Make Overhang Printable:false
;Enable Coasting:false
;Coasting Volumes:0.06
;Coasting Speed:0.9
;Raft AirGap:0.25
;Layer0 ZOverLap:0.13
;---------------------End of Head--------------------------
M140 S60
M105
M104 S200
M105
M109 S200
M105
M190 S60
M82 ;absolute extrusion mode
M220 S100 ;Reset Feedrate
M221 S100 ;Reset Flowrate

G28 ;Home

G92 E0 ;Reset Extruder
G1 Z2.0 F3000 ;Move Z Axis up
G1 X10.1 Y20 Z0.28 F5000.0 ;Move to start position
G1 X10.1 Y145.0 Z0.28 F1500.0 E15 ;Draw the first line
G1 X10.4 Y145.0 Z0.28 F5000.0 ;Move to side a little
G1 X10.4 Y20 Z0.28 F1500.0 E30 ;Draw the second line
G92 E0  ;Reset Extruder
G1 E-1.0000 F1800 ;Retract a bit
G1 Z2.0 F3000 ;Move Z Axis up
G1 E0.0000 F1800 

G92 E0
G92 E0
G1 F6000 E-8

;LAYER_COUNT:89

;LAYER:0
M107
G0 F3600 X103.249 Y89.788 Z0.1
;TYPE:SUPPORT
G1 F6000 E0
G1 F1500 X103.714 Y89.449 E0.00842
G1 X104.286 Y89.449 E0.01679
G1 X104.751 Y89.788 E0.02521
G1 X104.929 Y90.332 E0.03359
G1 X104.751 Y90.876 E0.04197
G1 X104.286 Y91.215 E0.05039
G1 X103.714 Y91.215 E0.05876
G1 X103.249 Y90.876 E0.06718
G1 X103.071 Y90.332 E0.07556
G1 X103.249 Y89.788 E0.08393
;;retract;;
G1 F6000 E-7.91607
G0 F3600 X102.736 Y89.085
G0 X106.341 Y86.041
G0 X107.738 Y85.817
G0 X108.568 Y85.559
G1 F6000 E0.08393
G1 F1500 X108.494 Y85.321 E0.08758
G1 X108.513 Y85.065 E0.09134
G1 X108.629 Y85.14 E0.09336
G1 X109.368 Y84.597 E0.10678
G1 X108.917 Y85.385 E0.12007
G1 X109.149 Y85.732 E0.12618
G1 X108.568 Y85.559 E0.13505
G0 F3600 X110.67 Y85.326
G1 F1500 X110.717 Y85.05 E0.13914
G1 X110.819 Y85.119 E0.14095
G1 X111.54 Y84.59 E0.15403
G1 X111.55 Y84.621 E0.15451
G1 X111.151 Y85.399 E0.16731
G1 X111.325 Y85.631 E0.17155
G1 X110.736 Y85.538 E0.18028
G1 X110.67 Y85.326 E0.18353
;;retract;;
G1 F6000 E-7.81647
G0 F3600 X110.541 Y86.366
G0 X110.334 Y134.064
G0 X110.841 Y134.571
G0 X120.821 Y135.403
G0 X122.179 Y135.403
G0 X123.278 Y134.602
G0 X123.699 Y133.312
G0 X123.278 Y132.022
G0 X122.179 Y131.221
G0 X120.821 Y131.221
G0 X114.158 Y132.022
G0 X114.168 Y86.796
G0 X115.256 Y87.097
G1 F6000 E0.18353
G1 F1500 X115.717 Y86.761 E0.19187
G1 X116.283 Y86.761 E0.20016
G1 X116.744 Y87.097 E0.20851
G1 X116.92 Y87.636 E0.2168
G1 X116.744 Y88.175 E0.2251
G1 X116.283 Y88.511 E0.23345
G1 X115.717 Y88.511 E0.24173
G1 X115.256 Y88.175 E0.25008
G1 X115.08 Y87.636 E0.25838
G1 X115.256 Y87.097 E0.26668
;;retract;;
G1 F6000 E-7.73332
G0 F3600 X114.428 Y86.828
G0 X114.167 Y87.636
G0 X121.104 Y131.219
G0 X121.104 Y132.089
G1 F6000 E0.26668
G1 F1500 X121.896 Y132.089 E0.27827
G1 X122.54 Y132.558 E0.28993
G1 X122.786 Y133.312 E0.30153
G1 X122.54 Y134.066 E0.31314
G1 X121.896 Y134.535 E0.3248
G1 X121.104 Y134.535 E0.33639
G1 X120.46 Y134.066 E0.34805
G1 X120.214 Y133.312 E0.35965
G1 X120.46 Y132.558 E0.37126
G1 X121.104 Y132.089 E0.38292
;;retract;;
G1 F6000 E-7.61708
G0 F3600 X120.592 Y131.386
G0 X122.179 Y131.221
G0 X123.278 Y132.022
G0 X123.699 Y133.312
G0 X123.278 Y134.602
G0 X122.179 Y135.403
G0 X120.821 Y135.403
G0 X101.041 Y134.572
G0 X97.878 Y134.346
G0 X96.779 Y133.545
G0 X96.358 Y132.255
G0 X96.779 Y130.965
G0 X97.878 Y130.164
G0 X99.236 Y130.164
G0 X101.104 Y130.635
G0 X100.67 Y131.985
G0 X99.843 Y132.255
G1 F6000 E0.38292
G1 F1500 X99.597 Y133.009 E0.39453
G1 X98.953 Y133.478 E0.40619
G1 X98.161 Y133.478 E0.41778
G1 X97.517 Y133.009 E0.42944
G1 X97.271 Y132.255 E0.44104
G1 X97.517 Y131.501 E0.45265
G1 X98.161 Y131.032 E0.46431
G1 X98.953 Y131.032 E0.4759
G1 X99.597 Y131.501 E0.48756
G1 X99.843 Y132.255 E0.49916
;;retract;;
G1 F6000 E-7.50084
;MESH:
G0 F3600 X100.672 Y132.418
G0 X100.335 Y130.965
G0 X99.236 Y130.164
G0 X97.878 Y130.164
G0 X96.779 Y130.965
G0 X96.358 Y132.255
G0 X96.779 Y133.545
G0 X97.878 Y134.346
G0 X100.724 Y134.549
G0 X107.099 Y134.583
G0 X107.1 Y133.256
;TYPE:WALL-INNER
G1 F6000 E0.49916
G1 F1500 X107.1 Y87.307 E1.33971
G1 X108.201 Y87.306 E1.35985
G1 X108.4 Y87.306 E1.36349
G1 X108.4 Y87.505 E1.36585
G1 X108.4 Y133.116 E2.20021
G1 X108.4 Y133.315 E2.20385
G1 X108.201 Y133.315 E2.20621
G1 X107.1 Y133.314 E2.22635
G1 X101.8 Y133.306 E2.3233
G1 X101.8 Y133.276 E2.32385
G1 X107.1 Y133.256 E2.33454
G0 F3600 X106.7 Y132.858
;TYPE:WALL-OUTER
G1 F1500 X106.7 Y86.907 E3.17513
G1 X108.6 Y86.906 E3.20989
G1 X108.8 Y86.906 E3.21355
G1 X108.8 Y87.106 E3.21591
G1 X108.8 Y133.515 E4.06488
G1 X108.8 Y133.715 E4.06854
G1 X108.6 Y133.715 E4.07091
G1 X101.4 Y133.706 E4.20262
G1 X101.4 Y132.878 E4.21776
G1 X106.7 Y132.858 E4.31472
G0 F3600 X106.7 Y132.658
G0 X107.14 Y132.658
G0 X107.34 Y133.073
;TYPE:SKIN
G1 F1500 X107.617 Y133.073 E4.31978
G1 X108.159 Y133.073 E4.3297
G1 X108.159 Y133.049 E4.33014
G1 X107.339 Y132.229 E4.35135
G1 X107.339 Y131.663 E4.3617
G1 X108.159 Y132.484 E4.38293
G1 X108.159 Y131.918 E4.39329
G1 X107.339 Y131.098 E4.4145
G1 X107.339 Y130.532 E4.42485
G1 X108.159 Y131.352 E4.44607
G1 X108.159 Y130.787 E4.4564
G1 X107.339 Y129.966 E4.47763
G1 X107.339 Y129.401 E4.48796
G1 X108.159 Y130.221 E4.50918
G1 X108.159 Y129.655 E4.51953
G1 X107.339 Y128.835 E4.54075
G1 X107.339 Y128.269 E4.5511
G1 X108.159 Y129.09 E4.57233
G1 X108.159 Y128.524 E4.58268
G1 X107.339 Y127.704 E4.60389
G1 X107.339 Y127.138 E4.61425
G1 X108.159 Y127.958 E4.63546
G1 X108.159 Y127.393 E4.6458
G1 X107.339 Y126.572 E4.66702
G1 X107.339 Y126.007 E4.67736
G1 X108.159 Y126.827 E4.69857
G1 X108.159 Y126.261 E4.70893
G1 X107.339 Y125.441 E4.73014
G1 X107.339 Y124.875 E4.74049
G1 X108.159 Y125.696 E4.76172
G1 X108.159 Y125.13 E4.77207
G1 X107.339 Y124.31 E4.79329
G1 X107.339 Y123.744 E4.80364
G1 X108.159 Y124.564 E4.82486
G1 X108.159 Y123.998 E4.83521
G1 X107.339 Y123.178 E4.85642
G1 X107.339 Y122.613 E4.86676
G1 X108.159 Y123.433 E4.88797
G1 X108.159 Y122.867 E4.89833
G1 X107.339 Y122.047 E4.91954
G1 X107.339 Y121.481 E4.92989
G1 X108.159 Y122.301 E4.95111
G1 X108.159 Y121.736 E4.96144
G1 X107.339 Y120.915 E4.98267
G1 X107.339 Y120.35 E4.99301
G1 X108.159 Y121.17 E5.01422
G1 X108.159 Y120.604 E5.02457
G1 X107.339 Y119.784 E5.04579
G1 X107.339 Y119.218 E5.05614
G1 X108.159 Y120.039 E5.07737
G1 X108.159 Y119.473 E5.08772
G1 X107.339 Y118.653 E5.10893
G1 X107.339 Y118.087 E5.11929
G1 X108.159 Y118.907 E5.1405
G1 X108.159 Y118.342 E5.15084
G1 X107.339 Y117.521 E5.17206
G1 X107.339 Y116.956 E5.1824
G1 X108.159 Y117.776 E5.20361
G1 X108.159 Y117.21 E5.21397
G1 X107.339 Y116.39 E5.23518
G1 X107.339 Y115.824 E5.24553
G1 X108.159 Y116.645 E5.26676
G1 X108.159 Y116.079 E5.27712
G1 X107.339 Y115.259 E5.29833
G1 X107.339 Y114.693 E5.30868
G1 X108.159 Y115.513 E5.3299
G1 X108.159 Y114.947 E5.34025
G1 X107.339 Y114.127 E5.36146
G1 X107.339 Y113.562 E5.3718
G1 X108.159 Y114.382 E5.39301
G1 X108.159 Y113.816 E5.40337
G1 X107.339 Y112.996 E5.42458
G1 X107.339 Y112.43 E5.43493
G1 X108.159 Y113.25 E5.45615
G1 X108.159 Y112.685 E5.46648
G1 X107.339 Y111.864 E5.48771
G1 X107.339 Y111.299 E5.49805
G1 X108.159 Y112.119 E5.51926
G1 X108.159 Y111.553 E5.52961
G1 X107.339 Y110.733 E5.55083
G1 X107.338 Y110.167 E5.56118
G1 X108.159 Y110.988 E5.58242
G1 X108.159 Y110.422 E5.59277
G1 X107.338 Y109.601 E5.61401
G1 X107.338 Y109.035 E5.62437
G1 X108.159 Y109.856 E5.64561
G1 X108.159 Y109.291 E5.65594
G1 X107.338 Y108.47 E5.67718
G1 X107.338 Y107.904 E5.68754
G1 X108.159 Y108.725 E5.70878
G1 X108.159 Y108.159 E5.71913
G1 X107.338 Y107.338 E5.74037
G1 X107.338 Y106.773 E5.7507
G1 X108.159 Y107.594 E5.77194
G1 X108.159 Y107.028 E5.7823
G1 X107.338 Y106.207 E5.80354
G1 X107.338 Y105.641 E5.81389
G1 X108.159 Y106.462 E5.83513
G1 X108.159 Y105.897 E5.84547
G1 X107.338 Y105.076 E5.86671
G1 X107.338 Y104.51 E5.87706
G1 X108.159 Y105.331 E5.8983
G1 X108.159 Y104.765 E5.90865
G1 X107.338 Y103.944 E5.92989
G1 X107.338 Y103.379 E5.94023
G1 X108.159 Y104.199 E5.96146
G1 X108.159 Y103.634 E5.97179
G1 X107.338 Y102.813 E5.99303
G1 X107.338 Y102.247 E6.00338
G1 X108.159 Y103.068 E6.02462
G1 X108.159 Y102.502 E6.03498
G1 X107.338 Y101.681 E6.05622
G1 X107.338 Y101.116 E6.06655
G1 X108.159 Y101.937 E6.08779
G1 X108.159 Y101.371 E6.09815
G1 X107.338 Y100.55 E6.11939
G1 X107.338 Y99.984 E6.12974
G1 X108.159 Y100.805 E6.15098
G1 X108.159 Y100.24 E6.16131
G1 X107.338 Y99.419 E6.18255
G1 X107.338 Y98.853 E6.19291
G1 X108.159 Y99.674 E6.21415
G1 X108.159 Y99.108 E6.2245
G1 X107.338 Y98.287 E6.24574
G1 X107.338 Y97.722 E6.25608
G1 X108.159 Y98.543 E6.27732
G1 X108.159 Y97.977 E6.28767
G1 X107.338 Y97.156 E6.30891
G1 X107.338 Y96.59 E6.31926
G1 X108.159 Y97.411 E6.3405
G1 X108.159 Y96.846 E6.35084
G1 X107.338 Y96.025 E6.37208
G1 X107.338 Y95.459 E6.38243
G1 X108.159 Y96.28 E6.40367
G1 X108.159 Y95.714 E6.41403
G1 X107.338 Y94.893 E6.43527
G1 X107.338 Y94.328 E6.4456
G1 X108.159 Y95.148 E6.46683
G1 X108.159 Y94.583 E6.47716
G1 X107.338 Y93.762 E6.4984
G1 X107.338 Y93.196 E6.50876
G1 X108.159 Y94.017 E6.53
G1 X108.159 Y93.451 E6.54035
G1 X107.338 Y92.63 E6.56159
G1 X107.338 Y92.065 E6.57192
G1 X108.159 Y92.886 E6.59316
G1 X108.159 Y92.32 E6.60352
G1 X107.338 Y91.499 E6.62476
G1 X107.338 Y90.933 E6.63511
G1 X108.159 Y91.754 E6.65635
G1 X108.159 Y91.189 E6.66669
G1 X107.338 Y90.368 E6.68793
G1 X107.338 Y89.802 E6.69828
G1 X108.159 Y90.623 E6.71952
G1 X108.159 Y90.057 E6.72987
G1 X107.338 Y89.236 E6.75111
G1 X107.338 Y88.671 E6.76145
G1 X108.159 Y89.492 E6.78269
G1 X108.159 Y88.926 E6.79304
G1 X107.338 Y88.105 E6.81428
G1 X107.338 Y87.546 E6.82451
G1 X107.345 Y87.546 E6.82464
G1 X108.159 Y88.36 E6.84569
G1 X108.159 Y87.795 E6.85603
G1 X107.911 Y87.546 E6.86246
G1 X108.159 Y87.546 E6.867
;;retract;;
G1 F6000 E-1.133
G0 F3600 X109.67 Y87.546
G0 X109.666 Y134.074
G0 X109.159 Y134.581
G0 X101.041 Y134.572
G0 X97.878 Y134.346
G0 X96.779 Y133.545
G0 X96.358 Y132.255
G0 X96.779 Y130.965
G0 X97.878 Y130.164
G0 X99.1 Y130.164
G0 X105.842 Y132.003
G0 X107.339 Y132.795
G1 F6000 E6.867
G1 F1500 X107.617 Y133.073 E6.87419
;;retract;;
G1 F6000 E-1.12581
G0 F3600 X107.616 Y134.584
G0 X112.899 Y134.578
G0 X112.9 Y133.094
;TYPE:WALL-INNER
G1 F6000 E6.87419
G1 F1500 X112.9 Y133.278 E6.87755
G1 X118.2 Y133.288 E6.97451
G1 X118.2 Y133.314 E6.97498
G1 X112.9 Y133.308 E6.9818
G1 X112.716 Y133.308 E6.98407
G1 X111.6 Y133.306 E7.00448
G1 X111.6 Y87.307 E7.84595
G1 X112.701 Y87.306 E7.86609
G1 X112.9 Y87.306 E7.86973
G1 X112.9 Y87.505 E7.87208
G1 X112.9 Y133.094 E8.70605
G0 F3600 X113.3 Y132.879
;TYPE:WALL-OUTER
G1 F1500 X118.6 Y132.889 E8.803
G1 X118.6 Y133.515 E8.81445
G1 X118.6 Y133.715 E8.81811
G1 X118.4 Y133.715 E8.82048
G1 X111.2 Y133.705 E8.95219
G1 X111.2 Y86.907 E9.80827
G1 X113.1 Y86.906 E9.84303
G1 X113.3 Y86.906 E9.84668
G1 X113.3 Y87.106 E9.84905
G1 X113.3 Y132.879 E10.68638
G0 F3600 X113.5 Y132.879
G0 X111.839 Y133.065
;TYPE:SKIN
G1 F1500 X112.135 Y133.065 E10.6918
G1 X112.66 Y133.066 E10.7014
G1 X112.66 Y133.025 E10.70215
G1 X111.838 Y132.203 E10.72342
G1 X111.838 Y131.637 E10.73377
G1 X112.66 Y132.459 E10.75504
G1 X112.66 Y131.893 E10.76539
G1 X111.838 Y131.072 E10.78664
G1 X111.838 Y130.506 E10.797
G1 X112.66 Y131.328 E10.81826
G1 X112.66 Y130.762 E10.82861
G1 X111.838 Y129.94 E10.84988
G1 X111.838 Y129.375 E10.86022
G1 X112.66 Y130.196 E10.88147
G1 X112.66 Y129.631 E10.8918
G1 X111.838 Y128.809 E10.91307
G1 X111.838 Y128.243 E10.92342
G1 X112.66 Y129.065 E10.94469
G1 X112.66 Y128.499 E10.95504
G1 X111.838 Y127.678 E10.9763
G1 X111.838 Y127.112 E10.98665
G1 X112.66 Y127.934 E11.00791
G1 X112.66 Y127.368 E11.01827
G1 X111.838 Y126.546 E11.03953
G1 X111.838 Y125.98 E11.04989
G1 X112.66 Y126.802 E11.07115
G1 X112.66 Y126.236 E11.08151
G1 X111.838 Y125.415 E11.10276
G1 X111.838 Y124.849 E11.11311
G1 X112.66 Y125.671 E11.13438
G1 X112.66 Y125.105 E11.14473
G1 X111.838 Y124.283 E11.166
G1 X111.838 Y123.718 E11.17633
G1 X112.66 Y124.539 E11.19759
G1 X112.66 Y123.974 E11.20792
G1 X111.838 Y123.152 E11.22919
G1 X111.838 Y122.586 E11.23954
G1 X112.66 Y123.408 E11.26081
G1 X112.66 Y122.842 E11.27116
G1 X111.838 Y122.021 E11.29241
G1 X111.838 Y121.455 E11.30277
G1 X112.66 Y122.277 E11.32403
G1 X112.66 Y121.711 E11.33439
G1 X111.838 Y120.889 E11.35565
G1 X111.838 Y120.324 E11.36599
G1 X112.66 Y121.145 E11.38724
G1 X112.66 Y120.58 E11.39757
G1 X111.838 Y119.758 E11.41884
G1 X111.838 Y119.192 E11.42919
G1 X112.66 Y120.014 E11.45046
G1 X112.66 Y119.448 E11.46081
G1 X111.838 Y118.627 E11.48207
G1 X111.838 Y118.061 E11.49242
G1 X112.66 Y118.883 E11.51368
G1 X112.66 Y118.317 E11.52404
G1 X111.838 Y117.495 E11.5453
G1 X111.838 Y116.93 E11.55564
G1 X112.66 Y117.751 E11.57689
G1 X112.66 Y117.185 E11.58725
G1 X111.838 Y116.364 E11.6085
G1 X111.838 Y115.798 E11.61885
G1 X112.66 Y116.62 E11.64012
G1 X112.66 Y116.054 E11.65047
G1 X111.838 Y115.232 E11.67174
G1 X111.838 Y114.667 E11.68207
G1 X112.66 Y115.488 E11.70333
G1 X112.66 Y114.923 E11.71366
G1 X111.838 Y114.101 E11.73493
G1 X111.838 Y113.535 E11.74528
G1 X112.66 Y114.357 E11.76655
G1 X112.66 Y113.791 E11.7769
G1 X111.838 Y112.97 E11.79815
G1 X111.838 Y112.404 E11.80851
G1 X112.66 Y113.226 E11.82977
G1 X112.66 Y112.66 E11.84013
G1 X111.838 Y111.838 E11.86139
G1 X111.838 Y111.273 E11.87173
G1 X112.66 Y112.094 E11.89298
G1 X112.66 Y111.529 E11.90331
G1 X111.838 Y110.707 E11.92458
G1 X111.838 Y110.141 E11.93493
G1 X112.66 Y110.963 E11.9562
G1 X112.66 Y110.397 E11.96655
G1 X111.838 Y109.576 E11.98781
G1 X111.838 Y109.01 E11.99816
G1 X112.66 Y109.832 E12.01942
G1 X112.66 Y109.266 E12.02978
G1 X111.838 Y108.444 E12.05104
G1 X111.838 Y107.879 E12.06138
G1 X112.66 Y108.7 E12.08263
G1 X112.66 Y108.135 E12.09297
G1 X111.838 Y107.313 E12.11423
G1 X111.838 Y106.747 E12.12459
