;FLAVOR:Marlin
;TIME:1716
;Filament used:0.250052m
;Layer height: 0.1
;MINX:103.33
;MINY:105.33
;MINZ:0.1
;MAXX:116.67
;MAXY:114.67
;MAXZ:15
                                 
;Creality Print GCode Generated by CXEngine:NO_MAGE_VERSION_GIT_HEAD_BRANCH
;CXEngine Release Time:2022-09-30 09:53:04
;Gcode Generated Time:2023-04-14 20:55:54
;----------Machine Config--------------
;Machine Name:Ender-3 V2
;Machine Height:250
;Machine Width:220
;Machine Depth:220
;Material name:PLA
;Number of Extruders:1
;ExtruderParams[0] Nozzle Diameter1000
;----------Profile Config---------------
;Engine Version:275f99b
;Engine Release Time:2022-09-30 09:42:18
;Layer Height:0.1
;Wall Thickness:0.8
;Top/Bottom Thickness:0.5
;Out Wall Line Width:0.4
;Inner Wall Line Width:0.4
;Inital Layer Height:100
;Wall Line Count:2
;Infill Line Distance:4
;Infill Pattern:grid
;Infill Sparse Density:20
;Infill Wipe Distance:0
;Print Temperature:200
;Bed Temperature:60
;Support Enable:true
;Support Density:0
;Support Angle:60
;Adhesion Type:none
;machine is belt:false
;machine belt offset:10
;machine belt offset Y:0
;Raft Base Line Spacing:1.6
;Wait Heatup Sync:true
;----------Shell Config----------------
;Outer Wall Wipe Distance:200
;Outer Inset First:false
;Infill Before Walls:false
;Infill Overlap:0.16
;Fill Gaps Between Walls:everywhere
;Minimum Infill Area:1
;Top Surface Skin Layer:0
;Top Layers:4
;Z Seam Alignment:sharpest_corner
;Seam Corner Preference:z_seam_corner_inner
;Z Seam X:110
;Z Seam Y:110
;Horizontal Expansion:0
;Top/Bottom Pattern:zigzag
;Ironing Pattern:zigzag
;Vase Model:false
;----------Support Config----------------
;Support Type:everywhere
;Support Pattern:zigzag
;Support Infill Layer Thickness:0.1
;Minimum Support Area:5
;Enable Support Roof:false
;Support Roof Thickness:0.8
;Support Roof Pattern:lines
;Connect Support Lines:0
;Connect Support ZigZags:1
;Minimum Support X/Y Distance:0.2
;Support Line Distance:0
; ---------PrintSpeed & Travel----------
;Enable Print Cool:true
;Avoid Printed Parts Traveling:true
;Enable Retraction:true
;Retraction Distance:8
;Retraction Speed:100
;Retraction Prime Speed:100
;Maximum Retraction Count:100
;Minimum Extrusion Distance Window:1
;Z Hop When Retracted:false
;Z Hop Height:0.2
;Retract Before Outer Wall:true
;Print Speed:50
;Infill Speed:50

;Prime Tower Speed:50
;Travel Speed:120
;Initial Layer Speed:25
;Skirt/Brim Speed:25
;Combing Mode:infill
; --------SpecialModel&Mesh Fixes--------
;Union Overlapping Volum:true
;Remove All Holes:false
;Maximum Travel Resolution:0.6
;Maximum Deviation:0.05
;Maximum Model Angle:0.872665
;IS Mold Print:false
;Make Overhang Printable:false
;Enable Coasting:false
;Coasting Volumes:0.06
;Coasting Speed:0.9
;Raft AirGap:0.25
;Layer0 ZOverLap:0.13
;---------------------End of Head--------------------------
M140 S60
M105
M104 S200
M105
M109 S200
M105
M190 S60
M82 ;absolute extrusion mode
M220 S100 ;Reset Feedrate
M221 S100 ;Reset Flowrate

G28 ;Home

G92 E0 ;Reset Extruder
G1 Z2.0 F3000 ;Move Z Axis up
G1 X10.1 Y20 Z0.28 F5000.0 ;Move to start position
G1 X10.1 Y145.0 Z0.28 F1500.0 E15 ;Draw the first line
G1 X10.4 Y145.0 Z0.28 F5000.0 ;Move to side a little
G1 X10.4 Y20 Z0.28 F1500.0 E30 ;Draw the second line
G92 E0  ;Reset Extruder
G1 E-1.0000 F1800 ;Retract a bit
G1 Z2.0 F3000 ;Move Z Axis up
G1 E0.0000 F1800 

G92 E0
G92 E0
G1 F6000 E-8

;LAYER_COUNT:150

;LAYER:0
M107
;MESH:
G0 F3600 X112.184 Y111.588 Z0.1
;TYPE:WALL-INNER
G1 F6000 E0
G1 F673.7 X112.422 Y111.195 E0.0084
G1 X112.589 Y110.769 E0.01677
G1 X112.682 Y110.321 E0.02515
G1 X112.697 Y109.863 E0.03353
G1 X112.636 Y109.41 E0.04189
G1 X112.498 Y108.971 E0.05031
G1 X112.287 Y108.564 E0.05869
G1 X112.012 Y108.199 E0.06705
G1 X111.679 Y107.885 E0.07543
G1 X111.298 Y107.632 E0.08379
G1 X110.88 Y107.445 E0.09217
G1 X110.433 Y107.334 E0.10059
G1 X109.976 Y107.3 E0.10898
G1 X109.522 Y107.342 E0.11732
G1 X109.079 Y107.461 E0.12571
G1 X108.663 Y107.654 E0.1341
G1 X108.286 Y107.913 E0.14247
G1 X107.957 Y108.233 E0.15086
G1 X107.688 Y108.603 E0.15923
G1 X107.485 Y109.015 E0.16763
G1 X107.355 Y109.455 E0.17602
G1 X107.301 Y109.909 E0.18439
G1 X107.324 Y110.366 E0.19276
G1 X107.425 Y110.813 E0.20114
G1 X107.599 Y111.236 E0.20951
G1 X107.843 Y111.624 E0.21789
G1 X108.147 Y111.965 E0.22625
G1 X108.507 Y112.25 E0.23465
G1 X108.909 Y112.471 E0.24304
G1 X109.354 Y112.623 E0.25164
G1 X110.013 Y112.705 E0.26379
G1 X110.69 Y112.611 E0.27629
G1 X111.133 Y112.452 E0.2849
G1 X111.531 Y112.225 E0.29329
G1 X111.886 Y111.934 E0.30168
G1 X112.184 Y111.588 E0.31004
G0 F3600 X111.859 Y111.352
;TYPE:WALL-OUTER
G1 F600 X112.062 Y111.017 E0.3172
G1 X112.204 Y110.655 E0.32432
G1 X112.283 Y110.273 E0.33145
G1 X112.296 Y109.883 E0.33859
G1 X112.244 Y109.497 E0.34571
G1 X112.127 Y109.124 E0.35287
G1 X111.947 Y108.778 E0.36
G1 X111.713 Y108.467 E0.36712
G1 X111.429 Y108.199 E0.37426
G1 X111.105 Y107.984 E0.38138
G1 X110.749 Y107.825 E0.38851
G1 X110.369 Y107.73 E0.39567
G1 X109.98 Y107.701 E0.40281
G1 X109.593 Y107.737 E0.40992
G1 X109.216 Y107.838 E0.41706
G1 X108.862 Y108.003 E0.4242
G1 X108.541 Y108.223 E0.43132
G1 X108.261 Y108.496 E0.43848
G1 X108.032 Y108.811 E0.4456
G1 X107.859 Y109.161 E0.45274
G1 X107.748 Y109.536 E0.4599
G1 X107.702 Y109.922 E0.46701
G1 X107.722 Y110.311 E0.47413
G1 X107.808 Y110.692 E0.48128
G1 X107.956 Y111.052 E0.4884
G1 X108.164 Y111.383 E0.49555
G1 X108.423 Y111.673 E0.50266
G1 X108.729 Y111.916 E0.50981
G1 X109.071 Y112.104 E0.51695
G1 X109.444 Y112.231 E0.52416
G1 X110.01 Y112.302 E0.53459
G1 X110.594 Y112.221 E0.54538
G1 X110.965 Y112.087 E0.55259
G1 X111.304 Y111.894 E0.55973
G1 X111.605 Y111.647 E0.56685
G1 X111.859 Y111.352 E0.57397
G0 F3600 X111.962 Y111.181
G0 X112.338 Y111.41
;;retract;;
G1 F6000 E-7.42603
G0 F3600 X111.218 Y110.732
G0 X115.399 Y114.67
G0 X115.4 Y113.399
;TYPE:WALL-INNER
G1 F6000 E0.57397
G1 F1500 X115.201 Y113.399 E0.57761
G1 X104.8 Y113.386 E0.76788
G1 X104.601 Y113.386 E0.77152
G1 X104.601 Y113.187 E0.77388
G1 X104.616 Y106.6 E0.89437
G1 X115.394 Y106.6 E1.09154
G1 X115.4 Y113.2 E1.21227
G1 X115.4 Y113.399 E1.21463
G0 F3600 X115.8 Y113.8
;TYPE:WALL-OUTER
G1 F1500 X115.6 Y113.8 E1.21828
G1 X104.4 Y113.785 E1.42317
G1 X104.2 Y113.785 E1.42683
G1 X104.2 Y113.585 E1.42919
G1 X104.217 Y106.2 E1.56429
G1 X115.794 Y106.2 E1.77607
G1 X115.8 Y113.6 E1.91144
G1 X115.8 Y113.8 E1.91381
G0 F3600 X115.6 Y113.8
G0 X115.359 Y113.359
;;retract;;
G1 F6000 E-6.08619
G0 F3600 X116.669 Y113.358
G0 X111.32 Y109.455
G0 X112.591 Y108.632
;TYPE:SKIN
G1 F6000 E1.91381
G1 F600 X112.719 Y108.878 E1.91888
G1 X112.869 Y109.356 E1.92804
G1 X112.888 Y109.494 E1.93059
G1 X115.157 Y111.763 E1.98929
G1 X115.157 Y112.329 E1.99965
G1 X112.927 Y110.099 E2.05734
G1 X112.92 Y110.35 E2.06193
G1 X112.866 Y110.603 E2.06666
G1 X115.158 Y112.895 E2.12596
G1 X115.158 Y113.159 E2.13079
G1 X114.855 Y113.158 E2.13633
G1 X112.738 Y111.041 E2.1911
G1 X112.637 Y111.302 E2.19622
G1 X112.56 Y111.428 E2.19892
G1 X114.288 Y113.157 E2.24363
G1 X113.722 Y113.156 E2.25399
G1 X112.339 Y111.773 E2.28977
G1 X112.077 Y112.077 E2.29711
G1 X113.156 Y113.156 E2.32502
G1 X112.589 Y113.155 E2.33539
G1 X111.772 Y112.338 E2.35653
G1 X111.668 Y112.422 E2.35898
G1 X111.428 Y112.559 E2.36403
G1 X112.023 Y113.154 E2.37942
G1 X111.456 Y113.154 E2.3898
G1 X111.041 Y112.738 E2.40055
G1 X110.748 Y112.844 E2.40624
G1 X110.602 Y112.864 E2.40894
G1 X110.89 Y113.153 E2.4164
G1 X110.324 Y113.152 E2.42676
G1 X110.105 Y112.934 E2.43241
G1 X110.014 Y112.946 E2.43409
G1 X109.486 Y112.88 E2.44382
G1 X109.757 Y113.151 E2.45083
G1 X109.191 Y113.151 E2.46119
G1 X108.632 Y112.592 E2.47565
G0 F3600 X108.374 Y112.449
G1 F600 X107.981 Y112.139 E2.48481
G1 X107.651 Y111.768 E2.49389
G1 X107.385 Y111.345 E2.50303
G1 X107.195 Y110.885 E2.51213
G1 X107.109 Y110.503 E2.5193
G1 X104.852 Y108.246 E2.57769
G1 X104.854 Y107.682 E2.588
G1 X107.061 Y109.89 E2.64511
G1 X107.119 Y109.406 E2.65403
G1 X107.125 Y109.388 E2.65438
G1 X104.855 Y107.118 E2.7131
G1 X104.856 Y106.838 E2.71823
G1 X105.142 Y106.839 E2.72346
G1 X107.253 Y108.951 E2.77808
G1 X107.261 Y108.926 E2.77856
G1 X107.437 Y108.568 E2.78586
G1 X105.708 Y106.839 E2.83059
G1 X106.273 Y106.839 E2.84093
G1 X107.663 Y108.229 E2.87688
G1 X107.775 Y108.074 E2.88038
G1 X107.926 Y107.926 E2.88425
G1 X106.839 Y106.839 E2.91237
G1 X107.405 Y106.839 E2.92273
G1 X108.226 Y107.661 E2.94398
G1 X108.543 Y107.444 E2.95101
G1 X108.565 Y107.434 E2.95145
G1 X107.97 Y106.839 E2.96684
G1 X108.536 Y106.839 E2.97719
G1 X108.951 Y107.253 E2.98792
G1 X108.994 Y107.234 E2.98878
G1 X109.39 Y107.127 E2.99628
G1 X109.102 Y106.839 E3.00373
G1 X109.668 Y106.839 E3.01409
G1 X109.894 Y107.065 E3.01993
G1 X109.973 Y107.058 E3.02138
G1 X110.47 Y107.096 E3.0305
G1 X110.496 Y107.102 E3.03099
G1 X110.234 Y106.84 E3.03777
G1 X110.8 Y106.84 E3.04812
G1 X111.353 Y107.393 E3.06243
G0 F3600 X111.413 Y107.42
G1 F600 X111.828 Y107.697 E3.07156
G1 X112.191 Y108.038 E3.08067
G1 X112.49 Y108.435 E3.08976
G1 X112.591 Y108.632 E3.09381
G1 X115.157 Y111.197 E3.16018
G1 X115.156 Y110.631 E3.17053
G1 X111.365 Y106.84 E3.26861
G1 X111.931 Y106.84 E3.27896
G1 X115.156 Y110.065 E3.36239
G1 X115.155 Y109.499 E3.37275
G1 X112.497 Y106.84 E3.44152
G1 X113.062 Y106.84 E3.45186
G1 X115.155 Y108.932 E3.50599
G1 X115.154 Y108.366 E3.51635
G1 X113.628 Y106.84 E3.55582
G1 X114.194 Y106.84 E3.56618
G1 X115.154 Y107.8 E3.59101
G1 X115.153 Y107.234 E3.60137
G1 X114.759 Y106.84 E3.61156
G1 X115.153 Y106.84 E3.61877
;;retract;;
G1 F6000 E-4.38123
G0 F3600 X115.153 Y105.33
G0 X108.731 Y110.651
G0 X107.385 Y111.345
G1 F6000 E3.61877
G1 F600 X104.851 Y108.811 E3.68432
G1 X104.849 Y109.375 E3.69464
G1 X108.624 Y113.149 E3.79229
G1 X108.057 Y113.149 E3.80266
G1 X104.848 Y109.939 E3.88569
G1 X104.846 Y110.503 E3.89601
G1 X107.491 Y113.148 E3.96443
G1 X106.925 Y113.147 E3.97479
G1 X104.845 Y111.068 E4.02859
G1 X104.844 Y111.633 E4.03892
G1 X106.358 Y113.146 E4.07808
G1 X105.792 Y113.146 E4.08843
G1 X104.843 Y112.197 E4.11298
G1 X104.842 Y112.761 E4.1233
G1 X105.225 Y113.145 E4.13322
G1 X104.841 Y113.145 E4.14024
;;retract;;
G1 F6000 E-3.85976
G0 F3600 X104.84 Y114.657
G0 X109.205 Y114.662
G0 X109.206 Y113.166
;TYPE:SKIN
G1 F6000 E4.14024
G1 F600 X109.375 Y113.335 E4.14243
G0 F3600 X109.658 Y113.335
G1 F600 X109.209 Y112.886 E4.14824
G0 F3600 X109.274 Y112.668
G1 F600 X109.941 Y113.335 E4.15687
G0 F3600 X109.911 Y113.022
G1 F600 X110.214 Y113.042 E4.17262
G0 F3600 X110.79 Y113.336
G1 F600 X110.19 Y112.736 E4.18038
G0 F3600 X110.606 Y112.869
G1 F600 X110.758 Y112.737 E4.18655
;;retract;;
G1 F6000 E-3.81345
G0 F3600 X110.384 Y111.373
G0 X110.342 Y108.619
G0 X110.672 Y107.278
G1 F6000 E4.18655
G1 F600 X110.049 Y106.655 E4.19461
G0 F3600 X110.517 Y106.84
G1 F600 X110.673 Y106.714 E4.20095
G0 F3600 X110.076 Y106.965
G1 F600 X109.781 Y106.953 E4.2167
G0 F3600 X109.805 Y107.259
G1 F600 X109.252 Y106.706 E4.22385
G0 F3600 X109.295 Y107.032
G1 F600 X109.545 Y107.282 E4.22709
;;retract;;
G1 F6000 E-3.77291
;MESH:NONMESH
G0 F600 X109.545 Y107.282 Z0.2
G0 F3600 X109.747 Y108.595
G0 X111.152 Y110.842
G0 X112.209 Y111.548
;TIME_ELAPSED:29.439273

;LAYER:1
M140 S60
M106 S127.5
;TYPE:WALL-INNER
;MESH:
G1 F6000 E4.22709
G1 F673 X112.439 Y111.153 E4.23469
G1 X112.599 Y110.725 E4.24229
G1 X112.684 Y110.275 E4.2499
G1 X112.691 Y109.817 E4.25752
G1 X112.622 Y109.366 E4.26511
G1 X112.478 Y108.93 E4.27274
G1 X112.26 Y108.526 E4.28038
G1 X111.978 Y108.167 E4.28797
G1 X111.642 Y107.859 E4.29555
G1 X111.255 Y107.612 E4.30318
G1 X110.835 Y107.433 E4.31078
G1 X110.388 Y107.329 E4.31841
G1 X109.931 Y107.303 E4.32602
G1 X109.476 Y107.353 E4.33363
G1 X109.035 Y107.48 E4.34126
G1 X108.626 Y107.679 E4.34883
G1 X108.252 Y107.944 E4.35645
G1 X107.93 Y108.27 E4.36407
G1 X107.668 Y108.644 E4.37167
G1 X107.471 Y109.057 E4.37928
G1 X107.349 Y109.5 E4.38692
G1 X107.302 Y109.954 E4.39451
G1 X107.333 Y110.411 E4.40212
G1 X107.441 Y110.856 E4.40974
G1 X107.622 Y111.276 E4.41735
G1 X107.873 Y111.659 E4.42496
G1 X108.184 Y111.995 E4.43257
G1 X108.546 Y112.273 E4.44016
G1 X108.951 Y112.487 E4.44778
G1 X109.397 Y112.63 E4.45557
G1 X110.033 Y112.704 E4.46622
G1 X110.676 Y112.617 E4.47701
G1 X111.173 Y112.431 E4.48584
G1 X111.569 Y112.195 E4.4935
G1 X111.916 Y111.899 E4.50109
G1 X112.209 Y111.548 E4.50869
G0 F5400 X111.88 Y111.318
;TYPE:WALL-OUTER
G1 F600 X112.076 Y110.981 E4.51517
G1 X112.212 Y110.617 E4.52164
G1 X112.285 Y110.234 E4.52812
G1 X112.291 Y109.844 E4.53461
G1 X112.232 Y109.46 E4.54107
G1 X112.109 Y109.089 E4.54757
G1 X111.924 Y108.746 E4.55405
G1 X111.684 Y108.44 E4.56051
G1 X111.397 Y108.177 E4.56699
G1 X111.068 Y107.967 E4.57348
G1 X110.71 Y107.815 E4.57995
G1 X110.331 Y107.726 E4.58642
G1 X109.942 Y107.704 E4.5929
G1 X109.554 Y107.747 E4.59939
G1 X109.179 Y107.855 E4.60588
G1 X108.83 Y108.024 E4.61233
G1 X108.512 Y108.25 E4.61882
G1 X108.238 Y108.527 E4.6253
G1 X108.015 Y108.846 E4.63177
G1 X107.847 Y109.198 E4.63826
G1 X107.743 Y109.574 E4.64475
G1 X107.703 Y109.961 E4.65122
G1 X107.73 Y110.35 E4.6577
G1 X107.822 Y110.729 E4.66419
G1 X107.976 Y111.086 E4.67065
G1 X108.189 Y111.412 E4.67713
G1 X108.454 Y111.698 E4.68361
G1 X108.763 Y111.935 E4.69009
G1 X109.107 Y112.117 E4.69656
G1 X109.482 Y112.237 E4.70311
G1 X110.029 Y112.301 E4.71227
G1 X110.578 Y112.227 E4.72148
G1 X110.999 Y112.069 E4.72896
G1 X111.335 Y111.869 E4.73546
G1 X111.631 Y111.617 E4.74192
G1 X111.88 Y111.318 E4.7484
G0 F5400 X111.98 Y111.145
G0 X112.361 Y111.366
;;retract;;
G1 F6000 E-3.2516
G0 F5400 X111.229 Y110.707
G0 X115.398 Y114.669
G0 X115.399 Y113.399
;TYPE:WALL-INNER
G1 F6000 E4.7484
G1 F1500 X115.199 Y113.399 E4.75172
G1 X104.6 Y113.383 E4.92798
G1 X104.6 Y106.6 E5.04079
G1 X115.382 Y106.6 E5.22009
G1 X115.399 Y113.199 E5.32983
G1 X115.399 Y113.399 E5.33199
G0 F5400 X115.8 Y113.6
;TYPE:WALL-OUTER
G1 F1500 X115.8 Y113.8 E5.33531
G1 X115.6 Y113.8 E5.33747
G1 X104.2 Y113.782 E5.52705
G1 X104.2 Y106.2 E5.65314
G1 X115.781 Y106.2 E5.84573
G1 X115.8 Y113.6 E5.96879
G0 F5400 X115.8 Y113.8
G0 X115.157 Y113.159
;TYPE:SKIN
G1 F600 X115.155 Y112.815 E5.97451
G1 X115.154 Y112.251 E5.98389
G1 X114.247 Y113.157 E6.00521
G1 X113.682 Y113.156 E6.01461
G1 X115.153 Y111.686 E6.04919
G1 X115.151 Y111.122 E6.05857
G1 X113.117 Y113.156 E6.10641
G1 X112.553 Y113.155 E6.11579
G1 X115.15 Y110.558 E6.17687
G1 X115.148 Y109.993 E6.18626
G1 X111.988 Y113.154 E6.26059
G1 X111.423 Y113.153 E6.26999
G1 X115.147 Y109.429 E6.35757
G1 X115.145 Y108.865 E6.36695
G1 X112.515 Y111.495 E6.4288
G1 X112.654 Y111.256 E6.4334
G1 X112.83 Y110.789 E6.4417
G1 X112.871 Y110.574 E6.44534
G1 X115.144 Y108.301 E6.4988
G1 X115.143 Y107.736 E6.5082
G1 X112.928 Y109.951 E6.56029
G1 X112.929 Y109.8 E6.5628
G1 X112.875 Y109.438 E6.56889
G1 X115.141 Y107.172 E6.62218
G1 X115.141 Y106.839 E6.62772
G1 X114.909 Y106.839 E6.63158
G1 X112.752 Y108.996 E6.6823
G1 X112.698 Y108.835 E6.68513
G1 X112.576 Y108.606 E6.68944
G1 X114.343 Y106.839 E6.731
G1 X113.777 Y106.839 E6.74041
G1 X112.356 Y108.26 E6.77383
G1 X112.153 Y108.004 E6.77927
G1 X112.097 Y107.953 E6.78053
G1 X113.212 Y106.839 E6.80674
G1 X112.646 Y106.839 E6.81615
G1 X111.802 Y107.683 E6.836
G1 X111.787 Y107.667 E6.83636
G1 X111.46 Y107.459 E6.84281
G1 X112.08 Y106.839 E6.85739
G1 X111.514 Y106.839 E6.8668
G1 X111.077 Y107.277 E6.87709
G1 X110.908 Y107.204 E6.88015
G1 X110.645 Y107.142 E6.88465
G1 X110.949 Y106.839 E6.89179
G1 X110.383 Y106.839 E6.9012
G1 X110.148 Y107.075 E6.90674
G1 X109.923 Y107.061 E6.91049
G1 X109.554 Y107.103 E6.91666
G1 X109.817 Y106.839 E6.92286
G1 X109.252 Y106.839 E6.93226
G1 X108.729 Y107.362 E6.94456
G1 X108.503 Y107.471 E6.94873
G1 X108.095 Y107.76 E6.95704
G1 X107.745 Y108.114 E6.96532
G1 X107.46 Y108.522 E6.9736
G0 F5400 X105.292 Y106.839
G1 F600 X104.839 Y107.292 E6.98425
G1 X104.839 Y107.857 E6.99365
G1 X105.858 Y106.839 E7.0176
G1 X106.423 Y106.839 E7.027
G1 X104.839 Y108.423 E7.06425
G1 X104.839 Y108.989 E7.07366
G1 X106.989 Y106.839 E7.12423
G1 X107.555 Y106.839 E7.13364
G1 X104.839 Y109.554 E7.19751
G1 X104.839 Y110.12 E7.20692
G1 X108.12 Y106.839 E7.28408
G1 X108.686 Y106.839 E7.29349
