;FLAVOR:Marlin
;TIME:3552
;Filament used:2.70866m
;Layer height: 0.2
;MINX:75.203
;MINY:97.7
;MINZ:0.24
;MAXX:144.799
;MAXY:122.298
;MAXZ:37.49
                              
;Creality Print GCode Generated by CXEngine:NO_MAGE_VERSION_GIT_HEAD_BRANCH
;CXEngine Release Time:2022-09-30 09:53:04
;Gcode Generated Time:2023-05-05 12:56:18
;----------Machine Config--------------
;Machine Name:Ender-3 V2
;Machine Height:250
;Machine Width:220
;Machine Depth:220
;Material name:PLA
;Number of Extruders:1
;ExtruderParams[0] Nozzle Diameter1000
;----------Profile Config---------------
;Engine Version:275f99b
;Engine Release Time:2022-09-30 09:42:18
;Layer Height:0.2
;Wall Thickness:0.8
;Top/Bottom Thickness:1
;Out Wall Line Width:0.4
;Inner Wall Line Width:0.4
;Inital Layer Height:200
;Wall Line Count:2
;Infill Line Distance:4
;Infill Pattern:grid
;Infill Sparse Density:20
;Infill Wipe Distance:0
;Print Temperature:200
;Bed Temperature:60
;Support Enable:false
;Support Density:30
;Support Angle:60
;Adhesion Type:simpleraft
;machine is belt:false
;machine belt offset:10
;machine belt offset Y:0
;Raft Base Line Spacing:1.6
;Wait Heatup Sync:true
;----------Shell Config----------------
;Outer Wall Wipe Distance:200
;Outer Inset First:false
;Infill Before Walls:false
;Infill Overlap:0.16
;Fill Gaps Between Walls:everywhere
;Minimum Infill Area:1
;Top Surface Skin Layer:0
;Top Layers:3
;Z Seam Alignment:sharpest_corner
;Seam Corner Preference:z_seam_corner_inner
;Z Seam X:110
;Z Seam Y:110
;Horizontal Expansion:0
;Top/Bottom Pattern:zigzag
;Ironing Pattern:zigzag
;Vase Model:false
;----------Support Config----------------
;Support Type:everywhere
;Support Pattern:zigzag
;Support Infill Layer Thickness:0.2
;Minimum Support Area:5
;Enable Support Roof:false
;Support Roof Thickness:0.8
;Support Roof Pattern:lines
;Connect Support Lines:0
;Connect Support ZigZags:1
;Minimum Support X/Y Distance:0.2
;Support Line Distance:1.33
; ---------PrintSpeed & Travel----------
;Enable Print Cool:true
;Avoid Printed Parts Traveling:true
;Enable Retraction:true
;Retraction Distance:8
;Retraction Speed:100
;Retraction Prime Speed:100
;Maximum Retraction Count:100
;Minimum Extrusion Distance Window:1
;Z Hop When Retracted:false
;Z Hop Height:0.2
;Retract Before Outer Wall:true
;Print Speed:50
;Infill Speed:50

;Prime Tower Speed:50
;Travel Speed:120
;Initial Layer Speed:25
;Skirt/Brim Speed:25
;Combing Mode:infill
; --------SpecialModel&Mesh Fixes--------
;Union Overlapping Volum:true
;Remove All Holes:false
;Maximum Travel Resolution:0.6
;Maximum Deviation:0.05
;Maximum Model Angle:0.872665
;IS Mold Print:false
;Make Overhang Printable:false
;Enable Coasting:false
;Coasting Volumes:0.06
;Coasting Speed:0.9
;Raft AirGap:0.25
;Layer0 ZOverLap:0.13
;---------------------End of Head--------------------------
M140 S60
M105
M104 S200
M105
M109 S200
M105
M190 S60
M82 ;absolute extrusion mode
M220 S100 ;Reset Feedrate
M221 S100 ;Reset Flowrate

G28 ;Home

G92 E0 ;Reset Extruder
G1 Z2.0 F3000 ;Move Z Axis up
G1 X10.1 Y20 Z0.28 F5000.0 ;Move to start position
G1 X10.1 Y145.0 Z0.28 F1500.0 E15 ;Draw the first line
G1 X10.4 Y145.0 Z0.28 F5000.0 ;Move to side a little
G1 X10.4 Y20 Z0.28 F1500.0 E30 ;Draw the second line
G92 E0  ;Reset Extruder
G1 E-1.0000 F1800 ;Retract a bit
G1 Z2.0 F3000 ;Move Z Axis up
G1 E0.0000 F1800 

G92 E0
G92 E0
G1 F6000 E-8

;LAYER_COUNT:183

;LAYER:-4
M107
G0 F7200 X76.8 Y103.351 Z0.24
;TYPE:SUPPORT-INTERFACE
G1 F6000 E0
G1 F1200 X76.8 Y116.634 E1.16634
G1 X76.522 Y116.047 E1.22337
G1 X76.233 Y115.257 E1.29723
G1 X76.019 Y114.451 E1.37046
G1 X75.877 Y113.634 E1.44327
G1 X75.81 Y112.886 E1.50921
G1 X75.803 Y107.45 E1.98653
G1 X75.848 Y106.602 E2.06109
G1 X75.972 Y105.759 E2.13591
G1 X76.16 Y104.968 E2.2073
G1 X76.417 Y104.199 E2.2785
G1 X76.746 Y103.45 E2.35033
G1 X77.157 Y102.701 E2.42535
G1 X77.619 Y102.018 E2.49775
G1 X78.118 Y101.402 E2.56736
G1 X78.4 Y101.111 E2.60294
G1 X78.4 Y118.88 E4.16318
G1 X78.883 Y119.353 E4.22254
G1 X79.514 Y119.866 E4.29395
G1 X80 Y120.193 E4.34538
G1 X80 Y99.784 E6.13743
G1 X80.685 Y99.381 E6.20721
G1 X81.461 Y99.015 E6.28255
G1 X81.6 Y98.963 E6.29558
G1 X81.6 Y121.024 E8.23269
G1 X81.698 Y121.068 E8.24212
G1 X82.461 Y121.323 E8.31276
G1 X83.2 Y121.5 E8.37948
G1 X83.2 Y98.489 E10.4
G1 X83.814 Y98.381 E10.45474
G1 X84.8 Y98.313 E10.54153
G1 X84.8 Y121.674 E12.59278
G1 X84.95 Y121.683 E12.60598
G1 X86.4 Y121.683 E12.7333
G1 X86.4 Y98.301 E14.78639
G1 X88 Y98.301 E14.92688
G1 X88 Y121.684 E16.98007
G1 X89.6 Y121.684 E17.12056
G1 X89.6 Y98.301 E19.17375
G1 X91.2 Y98.301 E19.31424
G1 X91.2 Y121.685 E21.36751
G1 X92.8 Y121.685 E21.508
G1 X92.8 Y98.301 E23.56127
G1 X94.4 Y98.301 E23.70176
G1 X94.4 Y121.686 E25.75513
G1 X96 Y121.686 E25.89562
G1 X96 Y98.301 E27.94898
G1 X97.6 Y98.301 E28.08947
G1 X97.6 Y121.687 E30.14292
G1 X99.2 Y121.687 E30.28341
G1 X99.2 Y98.301 E32.33686
G1 X100.8 Y98.301 E32.47735
G1 X100.8 Y121.688 E34.53088
G1 X102.4 Y121.688 E34.67138
G1 X102.4 Y98.302 E36.72482
G1 X104 Y98.302 E36.86531
G1 X104 Y121.689 E38.91885
G1 X105.6 Y121.69 E39.05934
G1 X105.6 Y98.302 E41.11297
G1 X107.2 Y98.302 E41.25346
G1 X107.2 Y121.69 E43.30708
G1 X108.8 Y121.691 E43.44757
G1 X108.8 Y98.302 E45.50129
G1 X110.4 Y98.302 E45.64178
G1 X110.4 Y121.691 E47.69549
G1 X112 Y121.692 E47.83598
G1 X112 Y98.302 E49.88978
G1 X113.6 Y98.302 E50.03027
G1 X113.6 Y121.692 E52.08407
G1 X115.2 Y121.693 E52.22456
G1 X115.2 Y98.302 E54.27845
G1 X116.8 Y98.302 E54.41894
G1 X116.8 Y121.693 E56.47283
G1 X118.4 Y121.694 E56.61332
G1 X118.4 Y98.303 E58.66721
G1 X120 Y98.303 E58.8077
G1 X120 Y121.694 E60.86159
G1 X121.6 Y121.695 E61.00208
G1 X121.6 Y98.303 E63.05605
G1 X123.2 Y98.303 E63.19654
G1 X123.2 Y121.695 E65.25052
G1 X124.8 Y121.696 E65.39101
G1 X124.8 Y98.303 E67.44507
G1 X126.4 Y98.303 E67.58556
G1 X126.4 Y121.697 E69.63971
G1 X128 Y121.697 E69.78021
G1 X128 Y98.303 E71.83436
G1 X129.6 Y98.303 E71.97485
G1 X129.6 Y121.698 E74.02909
G1 X131.2 Y121.698 E74.16958
G1 X131.2 Y98.303 E76.22382
G1 X132.8 Y98.303 E76.36431
G1 X132.8 Y121.699 E78.41863
G1 X134.4 Y121.699 E78.55913
G1 X134.4 Y98.303 E80.61345
G1 X135.047 Y98.303 E80.67026
G1 X135.905 Y98.349 E80.74571
G1 X136 Y98.363 E80.75414
G1 X136 Y121.632 E82.79732
G1 X136.186 Y121.619 E82.81369
G1 X136.963 Y121.482 E82.88297
G1 X137.6 Y121.313 E82.94083
G1 X137.6 Y98.684 E84.92781
G1 X138.314 Y98.922 E84.9939
G1 X139.039 Y99.24 E85.06341
G1 X139.2 Y99.329 E85.07957
G1 X139.2 Y120.677 E86.95407
G1 X139.308 Y120.624 E86.96463
G1 X140.004 Y120.213 E87.0356
G1 X140.665 Y119.742 E87.10687
G1 X140.8 Y119.627 E87.12244
G1 X140.8 Y100.377 E88.81272
G1 X141.097 Y100.617 E88.84625
G1 X141.698 Y101.2 E88.91977
G1 X142.243 Y101.836 E88.99332
G1 X142.4 Y102.057 E89.01712
G1 X142.4 Y117.954 E90.41298
G1 X142.843 Y117.299 E90.48242
G1 X143.254 Y116.549 E90.55751
G1 X143.578 Y115.813 E90.62812
G1 X143.84 Y115.029 E90.70071
G1 X144.028 Y114.239 E90.77201
G1 X144.152 Y113.398 E90.84665
G1 X144.197 Y112.546 E90.92157
G1 X144.199 Y107.469 E91.36736
G1 X144.117 Y106.306 E91.46974
G1 X144 Y105.64 E91.52911
G1 X144 Y114.357 E92.29452
G0 F600 X144 Y114.357 Z0.47
G0 F7200 X143.61 Y116.734
;TIME_ELAPSED:58.607503

;LAYER:-3
;TYPE:SUPPORT
G1 F1800 X143.951 Y115.959 E92.35929
G1 X144.024 Y115.739 E92.37703
G1 X126.186 Y97.902 E94.30678
G1 X127.6 Y97.902 E94.41494
G1 X144.342 Y114.643 E96.22612
G1 X144.422 Y114.312 E96.25217
G1 X144.55 Y113.445 E96.31922
G1 X144.55 Y113.437 E96.31983
G1 X129.015 Y97.902 E98.00048
G1 X130.429 Y97.902 E98.10865
G1 X144.596 Y112.07 E99.64136
G1 X144.597 Y110.656 E99.74953
G1 X131.843 Y97.902 E101.12932
G1 X133.257 Y97.902 E101.23749
G1 X144.597 Y109.242 E102.46431
G1 X144.598 Y107.828 E102.57247
G1 X134.672 Y97.902 E103.64632
G1 X135.049 Y97.903 E103.67516
G1 X135.952 Y97.951 E103.74433
G1 X136.166 Y97.983 E103.76089
G1 X144.519 Y106.336 E104.66455
G1 X144.515 Y106.257 E104.67061
G1 X144.372 Y105.445 E104.73368
G1 X144.149 Y104.608 E104.79994
G1 X143.856 Y103.808 E104.86511
G1 X143.474 Y102.998 E104.93362
G1 X143.054 Y102.285 E104.99693
G1 X142.559 Y101.59 E105.0622
G1 X142.294 Y101.282 E105.09328
G1 X141.19 Y100.177 E105.21277
G1 X140.726 Y99.801 E105.25846
G1 X139.999 Y99.31 E105.32557
G1 X139.227 Y98.886 E105.39295
G1 X138.455 Y98.548 E105.45741
G1 X137.991 Y98.393 E105.49484
G1 X144.114 Y104.516 E106.15725
G0 F7200 X143.608 Y116.738
G1 F1800 X124.771 Y97.901 E108.19513
G1 X123.357 Y97.901 E108.3033
G1 X143.095 Y117.639 E110.43866
G1 X142.699 Y118.226 E110.49282
G1 X142.506 Y118.464 E110.51627
G1 X121.943 Y97.901 E112.74087
G1 X120.529 Y97.901 E112.84904
G1 X141.842 Y119.214 E115.15479
G1 X141.576 Y119.488 E115.184
G1 X141.103 Y119.89 E115.23149
G1 X119.114 Y97.901 E117.61037
G1 X117.7 Y97.901 E117.71853
G1 X140.294 Y120.495 E120.16286
G1 X140.221 Y120.55 E120.16986
G1 X139.502 Y120.974 E120.23371
G1 X139.404 Y121.019 E120.24196
G1 X116.286 Y97.901 E122.74298
G1 X114.871 Y97.901 E122.85122
G1 X138.418 Y121.447 E125.3986
G1 X137.896 Y121.648 E125.44139
G1 X137.349 Y121.792 E125.48466
G1 X113.457 Y97.901 E128.06936
G1 X112.043 Y97.901 E128.17753
G1 X136.162 Y122.02 E130.78684
G1 X135.005 Y122.1 E130.87556
G1 X134.826 Y122.098 E130.88926
G1 X110.628 Y97.901 E133.50706
G1 X109.214 Y97.901 E133.61523
G1 X133.412 Y122.098 E136.23304
G1 X131.997 Y122.098 E136.34128
G1 X107.8 Y97.901 E138.95903
G1 X106.386 Y97.901 E139.0672
G1 X130.582 Y122.097 E141.68484
G1 X129.168 Y122.097 E141.79301
G1 X104.971 Y97.9 E144.41076
G1 X103.557 Y97.9 E144.51893
G1 X127.753 Y122.096 E147.13658
G1 X126.338 Y122.096 E147.24482
G1 X102.142 Y97.9 E149.86246
G1 X100.728 Y97.9 E149.97063
G1 X124.924 Y122.096 E152.58828
G1 X123.509 Y122.095 E152.69652
G1 X99.314 Y97.9 E155.31406
G1 X97.9 Y97.9 E155.42222
G1 X122.094 Y122.094 E158.03965
G1 X120.68 Y122.094 E158.14782
G1 X96.486 Y97.9 E160.76525
G1 X95.071 Y97.9 E160.87349
G1 X119.265 Y122.094 E163.49092
G1 X117.85 Y122.093 E163.59916
G1 X93.657 Y97.899 E166.21654
G1 X92.242 Y97.899 E166.32478
G1 X116.436 Y122.093 E168.94221
G1 X115.021 Y122.092 E169.05045
G1 X90.828 Y97.899 E171.66777
G1 X89.414 Y97.899 E171.77594
G1 X113.606 Y122.091 E174.39315
G1 X112.192 Y122.091 E174.50132
G1 X88 Y97.899 E177.11853
G1 X86.585 Y97.899 E177.22677
G1 X110.777 Y122.091 E179.84398
G1 X109.362 Y122.09 E179.95223
G1 X85.171 Y97.899 E182.56933
G1 X84.994 Y97.9 E182.58287
G1 X83.836 Y97.978 E182.67166
G1 X107.948 Y122.09 E185.28021
G1 X106.533 Y122.089 E185.38846
G1 X82.65 Y98.206 E187.97224
G1 X82.104 Y98.352 E188.01548
G1 X81.575 Y98.545 E188.05855
G1 X105.118 Y122.089 E190.6056
G1 X103.703 Y122.088 E190.71385
G1 X80.595 Y98.98 E193.21379
G1 X80.498 Y99.026 E193.222
G1 X79.779 Y99.45 E193.28585
G1 X79.704 Y99.503 E193.29288
G1 X102.289 Y122.088 E195.73624
G1 X100.874 Y122.087 E195.84448
G1 X78.895 Y100.108 E198.22228
G1 X78.424 Y100.512 E198.26975
G1 X78.157 Y100.784 E198.2989
G1 X99.459 Y122.086 E200.60346
G1 X98.045 Y122.086 E200.71163
G1 X77.493 Y101.534 E202.93505
G1 X77.301 Y101.774 E202.95856
G1 X76.904 Y102.36 E203.0127
G1 X96.63 Y122.086 E205.14676
G1 X95.215 Y122.085 E205.25501
G1 X76.39 Y103.26 E207.29159
G1 X76.39 Y103.266 E207.29205
G1 X76.045 Y104.051 E207.35764
G1 X75.975 Y104.259 E207.37443
G1 X93.801 Y122.085 E209.30293
G1 X92.386 Y122.084 E209.41118
G1 X75.656 Y105.355 E211.22106
G1 X75.578 Y105.686 E211.24707
G1 X75.45 Y106.555 E211.31427
G1 X75.449 Y106.561 E211.31473
G1 X90.971 Y122.084 E212.99403
G1 X89.557 Y122.084 E213.1022
G1 X75.403 Y107.929 E214.63351
G1 X75.405 Y109.346 E214.74191
G1 X88.142 Y122.083 E216.11986
G1 X86.727 Y122.082 E216.2281
G1 X75.407 Y110.762 E217.45276
G1 X75.408 Y112.178 E217.56108
G1 X85.313 Y122.082 E218.6326
G1 X84.948 Y122.083 E218.66052
G1 X84.045 Y122.035 E218.72969
G1 X83.816 Y121.999 E218.74743
G1 X75.477 Y113.661 E219.64953
G1 X75.481 Y113.689 E219.65169
G1 X75.629 Y114.544 E219.71807
G1 X75.851 Y115.378 E219.78409
G1 X76.152 Y116.2 E219.85105
G1 X76.521 Y116.98 E219.91706
G1 X76.964 Y117.73 E219.9837
G1 X77.452 Y118.411 E220.04779
G1 X77.775 Y118.787 E220.08571
G1 X78.729 Y119.742 E220.18897
G1 X79.285 Y120.194 E220.24378
G1 X79.997 Y120.674 E220.30947
G1 X80.748 Y121.087 E220.37504
G1 X81.552 Y121.441 E220.44224
G1 X81.987 Y121.585 E220.47729
G1 X75.892 Y115.49 E221.13668
;;retract;;
G1 F6000 E213.13668
G0 F600 X75.892 Y115.49 Z0.62
G0 F7200 X137.34 Y122.011
;TIME_ELAPSED:119.534154

;LAYER:-2
;TYPE:SUPPORT-INTERFACE
G1 F6000 E221.13668
G1 F2400 X137.375 Y122 E221.1376
G1 X82.71 Y122 E222.50122
G1 X82.291 Y121.899 E222.51197
G1 X81.463 Y121.621 E222.53376
G1 X81.414 Y121.6 E222.53509
G1 X138.603 Y121.6 E223.96167
G1 X138.781 Y121.536 E223.96639
G1 X139.489 Y121.2 E223.98594
G1 X80.537 Y121.2 E225.4565
G1 X79.894 Y120.845 E225.47483
G1 X79.826 Y120.8 E225.47686
G1 X140.189 Y120.8 E226.98262
G1 X140.334 Y120.716 E226.9868
G1 X140.774 Y120.4 E227.00032
G1 X79.231 Y120.4 E228.53551
G1 X79.174 Y120.361 E228.53723
G1 X78.729 Y120 E228.55153
G1 X141.285 Y120 E230.11199
G1 X141.708 Y119.639 E230.12587
G1 X141.744 Y119.6 E230.12719
G1 X78.278 Y119.6 E231.71036
G1 X77.866 Y119.2 E231.72468
G1 X142.133 Y119.2 E233.32783
G1 X142.327 Y119.002 E233.33474
G1 X142.489 Y118.8 E233.3412
G1 X77.522 Y118.8 E234.96181
G1 X77.293 Y118.532 E234.9706
G1 X77.198 Y118.4 E234.97466
G1 X142.814 Y118.4 E236.61146
G1 X142.867 Y118.336 E236.61353
G1 X143.092 Y118 E236.62362
G1 X76.912 Y118 E238.27448
G1 X76.788 Y117.826 E238.27981
G1 X76.655 Y117.6 E238.28636
G1 X143.362 Y117.6 E239.95037
G1 X143.367 Y117.594 E239.95056
G1 X143.582 Y117.2 E239.96176
G1 X76.42 Y117.2 E241.63712
G1 X76.339 Y117.062 E241.64111
G1 X76.215 Y116.8 E241.64835
G1 X143.798 Y116.8 E243.33421
G1 X143.974 Y116.4 E243.34511
G1 X76.025 Y116.4 E245.04011
G1 X75.968 Y116.278 E245.04347
G1 X75.866 Y116 E245.05085
G1 X144.147 Y116 E246.75413
G1 X144.281 Y115.6 E246.76465
G1 X75.719 Y115.6 E248.47494
G1 X75.664 Y115.449 E248.47895
G1 X75.597 Y115.2 E248.48538
G1 X144.415 Y115.2 E250.20205
G1 X144.51 Y114.8 E250.21231
G1 X75.49 Y114.8 E251.93402
G1 X75.436 Y114.598 E251.93923
G1 X75.401 Y114.4 E251.94425
G1 X144.606 Y114.4 E253.67057
G1 X144.621 Y114.341 E253.67209
G1 X144.67 Y114 E253.68069
G1 X75.332 Y114 E255.41033
G1 X75.283 Y113.716 E255.41752
G1 X75.272 Y113.6 E255.42043
G1 X144.729 Y113.6 E257.15304
G1 X144.748 Y113.472 E257.15627
G1 X144.762 Y113.2 E257.16306
G1 X75.236 Y113.2 E258.89739
G1 X75.21 Y112.899 E258.90493
G1 X75.209 Y112.8 E258.9074
G1 X144.783 Y112.8 E260.64293
G1 X144.797 Y112.555 E260.64905
G1 X144.797 Y112.4 E260.65292
G1 X75.209 Y112.4 E262.3888
G1 X75.208 Y112 E262.39878
G1 X144.797 Y112 E264.13468
G1 X144.797 Y111.6 E264.14466
G1 X75.208 Y111.6 E265.88056
G1 X75.207 Y111.2 E265.89054
G1 X144.797 Y111.2 E267.62647
G1 X144.797 Y110.8 E267.63645
G1 X75.207 Y110.8 E269.37238
G1 X75.206 Y110.4 E269.38236
G1 X144.797 Y110.4 E271.11831
G1 X144.798 Y110 E271.12829
G1 X75.206 Y110 E272.86427
G1 X75.205 Y109.6 E272.87425
G1 X144.798 Y109.6 E274.61025
G1 X144.798 Y109.2 E274.62023
G1 X75.205 Y109.2 E276.35623
G1 X75.204 Y108.8 E276.36621
G1 X144.798 Y108.8 E278.10224
G1 X144.798 Y108.4 E278.11222
G1 X75.204 Y108.4 E279.84825
G1 X75.203 Y108 E279.85823
G1 X144.798 Y108 E281.59428
G1 X144.798 Y107.6 E281.60426
G1 X75.203 Y107.6 E283.34031
G1 X75.203 Y107.442 E283.34426
G1 X75.216 Y107.2 E283.3503
G1 X144.782 Y107.2 E285.08563
G1 X144.754 Y106.8 E285.09563
G1 X75.238 Y106.8 E286.82972
G1 X75.252 Y106.528 E286.83651
G1 X75.271 Y106.4 E286.83974
G1 X144.726 Y106.4 E288.5723
G1 X144.714 Y106.238 E288.57635
G1 X144.673 Y106 E288.58238
G1 X75.33 Y106 E290.31215
G1 X75.379 Y105.659 E290.32074
G1 X75.394 Y105.6 E290.32226
G1 X144.602 Y105.6 E292.04866
G1 X144.565 Y105.392 E292.05393
G1 X144.514 Y105.2 E292.05889
G1 X75.489 Y105.2 E293.78072
G1 X75.585 Y104.8 E293.79098
G1 X144.407 Y104.8 E295.50775
G1 X144.336 Y104.537 E295.51455
G1 X144.287 Y104.4 E295.51818
G1 X75.719 Y104.4 E297.22861
G1 X75.853 Y104 E297.23914
G1 X144.14 Y104 E298.94256
G1 X144.036 Y103.719 E298.95004
G1 X143.981 Y103.6 E298.95331
G1 X76.025 Y103.6 E300.64848
