;FLAVOR:Marlin
;TIME:1573
;Filament used:0.330737m
;Layer height: 0.1
;MINX:102.417
;MINY:102.579
;MINZ:0.1
;MAXX:117.583
;MAXY:117.422
;MAXZ:15
                             
;Creality Print GCode Generated by CXEngine:NO_MAGE_VERSION_GIT_HEAD_BRANCH
;CXEngine Release Time:2022-09-30 09:53:04
;Gcode Generated Time:2023-05-03 15:50:46
;----------Machine Config--------------
;Machine Name:Ender-3 V2
;Machine Height:250
;Machine Width:220
;Machine Depth:220
;Material name:PLA
;Number of Extruders:1
;ExtruderParams[0] Nozzle Diameter1000
;----------Profile Config---------------
;Engine Version:275f99b
;Engine Release Time:2022-09-30 09:42:18
;Layer Height:0.1
;Wall Thickness:0.8
;Top/Bottom Thickness:0.5
;Out Wall Line Width:0.4
;Inner Wall Line Width:0.4
;Inital Layer Height:100
;Wall Line Count:2
;Infill Line Distance:4
;Infill Pattern:grid
;Infill Sparse Density:20
;Infill Wipe Distance:0
;Print Temperature:200
;Bed Temperature:60
;Support Enable:true
;Support Density:0
;Support Angle:60
;Adhesion Type:none
;machine is belt:false
;machine belt offset:10
;machine belt offset Y:0
;Raft Base Line Spacing:1.6
;Wait Heatup Sync:true
;----------Shell Config----------------
;Outer Wall Wipe Distance:200
;Outer Inset First:false
;Infill Before Walls:false
;Infill Overlap:0.16
;Fill Gaps Between Walls:everywhere
;Minimum Infill Area:1
;Top Surface Skin Layer:0
;Top Layers:4
;Z Seam Alignment:sharpest_corner
;Seam Corner Preference:z_seam_corner_inner
;Z Seam X:110
;Z Seam Y:110
;Horizontal Expansion:0
;Top/Bottom Pattern:zigzag
;Ironing Pattern:zigzag
;Vase Model:false
;----------Support Config----------------
;Support Type:everywhere
;Support Pattern:zigzag
;Support Infill Layer Thickness:0.1
;Minimum Support Area:5
;Enable Support Roof:false
;Support Roof Thickness:0.8
;Support Roof Pattern:lines
;Connect Support Lines:0
;Connect Support ZigZags:1
;Minimum Support X/Y Distance:0.2
;Support Line Distance:0
; ---------PrintSpeed & Travel----------
;Enable Print Cool:true
;Avoid Printed Parts Traveling:true
;Enable Retraction:true
;Retraction Distance:8
;Retraction Speed:100
;Retraction Prime Speed:100
;Maximum Retraction Count:100
;Minimum Extrusion Distance Window:1
;Z Hop When Retracted:false
;Z Hop Height:0.2
;Retract Before Outer Wall:true
;Print Speed:50
;Infill Speed:50

;Prime Tower Speed:50
;Travel Speed:120
;Initial Layer Speed:25
;Skirt/Brim Speed:25
;Combing Mode:infill
; --------SpecialModel&Mesh Fixes--------
;Union Overlapping Volum:true
;Remove All Holes:false
;Maximum Travel Resolution:0.6
;Maximum Deviation:0.05
;Maximum Model Angle:0.872665
;IS Mold Print:false
;Make Overhang Printable:false
;Enable Coasting:false
;Coasting Volumes:0.06
;Coasting Speed:0.9
;Raft AirGap:0.25
;Layer0 ZOverLap:0.13
;---------------------End of Head--------------------------
M140 S60
M105
M104 S200
M105
M109 S200
M105
M190 S60
M82 ;absolute extrusion mode
M220 S100 ;Reset Feedrate
M221 S100 ;Reset Flowrate

G28 ;Home

G92 E0 ;Reset Extruder
G1 Z2.0 F3000 ;Move Z Axis up
G1 X10.1 Y20 Z0.28 F5000.0 ;Move to start position
G1 X10.1 Y145.0 Z0.28 F1500.0 E15 ;Draw the first line
G1 X10.4 Y145.0 Z0.28 F5000.0 ;Move to side a little
G1 X10.4 Y20 Z0.28 F1500.0 E30 ;Draw the second line
G92 E0  ;Reset Extruder
G1 E-1.0000 F1800 ;Retract a bit
G1 Z2.0 F3000 ;Move Z Axis up
G1 E0.0000 F1800 

G92 E0
G92 E0
G1 F6000 E-8

;LAYER_COUNT:152

;LAYER:0
M107
G0 F3600 X109.843 Y109.952 Z0.1
;TYPE:SUPPORT
G1 F6000 E0
G1 F1500 X109.972 Y109.837 E0.00253
G1 X110.149 Y110.019 E0.00624
G1 X110.004 Y110.149 E0.00909
G1 X109.843 Y109.952 E0.01282
;MESH:
G0 F3600 X111.54 Y108.957
;TYPE:WALL-INNER
G1 F600 X111.102 Y108.504 E0.02434
G1 X110.543 Y108.223 E0.03579
G1 X109.919 Y108.142 E0.0473
G1 X109.305 Y108.277 E0.0588
G1 X108.77 Y108.607 E0.0703
G1 X108.376 Y109.097 E0.0818
G1 X108.168 Y109.69 E0.0933
G1 X108.168 Y110.315 E0.10473
G1 X108.378 Y110.908 E0.11624
G1 X108.773 Y111.397 E0.12774
G1 X109.308 Y111.725 E0.13922
G1 X109.922 Y111.858 E0.15071
G1 X110.546 Y111.777 E0.16222
G1 X111.083 Y111.505 E0.17323
G1 X111.358 Y111.263 E0.17993
G1 X111.695 Y110.761 E0.19099
G1 X111.851 Y110.156 E0.20242
G1 X111.801 Y109.536 E0.2138
G1 X111.54 Y108.957 E0.22542
G0 F3600 X111.204 Y109.185
;TYPE:WALL-OUTER
G1 F600 X110.862 Y108.831 E0.23442
G1 X110.424 Y108.611 E0.24339
G1 X109.937 Y108.548 E0.25237
G1 X109.457 Y108.653 E0.26136
G1 X109.039 Y108.911 E0.27035
G1 X108.731 Y109.294 E0.27934
G1 X108.568 Y109.758 E0.28833
G1 X108.568 Y110.246 E0.29726
G1 X108.732 Y110.71 E0.30626
G1 X109.041 Y111.092 E0.31525
G1 X109.459 Y111.348 E0.32422
G1 X109.939 Y111.452 E0.3332
G1 X110.427 Y111.389 E0.3422
G1 X110.857 Y111.171 E0.35102
G1 X111.055 Y110.997 E0.35584
G1 X111.325 Y110.595 E0.3647
G1 X111.447 Y110.121 E0.37366
G1 X111.408 Y109.637 E0.38254
G1 X111.204 Y109.185 E0.39161
G0 F3600 X111.065 Y109.042
G0 X111.382 Y108.737
G0 X110.625 Y105.646
;TYPE:WALL-INNER
G1 F1500 X111.245 Y105.782 E0.40322
G1 X111.827 Y105.998 E0.41458
G1 X112.378 Y106.3 E0.42607
G1 X112.884 Y106.679 E0.43764
G1 X113.323 Y107.118 E0.44899
G1 X113.698 Y107.621 E0.46047
G1 X114.005 Y108.181 E0.47215
G1 X114.22 Y108.762 E0.48349
G1 X114.355 Y109.39 E0.49524
G1 X114.399 Y109.995 E0.50633
G1 X114.354 Y110.624 E0.51787
G1 X114.219 Y111.242 E0.52944
G1 X114.002 Y111.825 E0.54082
G1 X113.697 Y112.382 E0.55244
G1 X113.324 Y112.881 E0.56383
G1 X112.878 Y113.326 E0.57536
G1 X112.378 Y113.699 E0.58677
G1 X111.821 Y114.004 E0.59839
G1 X111.237 Y114.221 E0.60978
G1 X110.623 Y114.354 E0.62128
G1 X109.998 Y114.399 E0.63274
G1 X109.375 Y114.354 E0.64417
G1 X108.758 Y114.219 E0.65572
G1 X108.17 Y114 E0.6672
G1 X107.62 Y113.698 E0.67868
G1 X107.124 Y113.328 E0.69
G1 X106.673 Y112.877 E0.70166
G1 X106.301 Y112.378 E0.71305
G1 X105.995 Y111.816 E0.72475
G1 X105.778 Y111.229 E0.7362
G1 X105.645 Y110.609 E0.7478
G1 X105.601 Y109.995 E0.75906
G1 X105.646 Y109.373 E0.77047
G1 X105.78 Y108.761 E0.78193
G1 X106.001 Y108.169 E0.79349
G1 X106.303 Y107.619 E0.80497
G1 X106.675 Y107.12 E0.81636
G1 X107.118 Y106.677 E0.82782
G1 X107.623 Y106.3 E0.83934
G1 X108.18 Y105.995 E0.85096
G1 X108.76 Y105.78 E0.86228
G1 X109.377 Y105.646 E0.87383
G1 X110.004 Y105.601 E0.88533
G1 X110.625 Y105.646 E0.89672
G0 F3600 X110.685 Y105.249
;TYPE:WALL-OUTER
G1 F1500 X111.355 Y105.396 E0.90926
G1 X111.995 Y105.634 E0.92175
G1 X112.595 Y105.963 E0.93427
G1 X113.148 Y106.377 E0.94691
G1 X113.626 Y106.855 E0.95927
G1 X114.035 Y107.404 E0.9718
G1 X114.369 Y108.014 E0.98452
G1 X114.605 Y108.65 E0.99693
G1 X114.752 Y109.334 E1.00973
G1 X114.8 Y109.995 E1.02185
G1 X114.751 Y110.682 E1.03445
G1 X114.604 Y111.356 E1.04707
G1 X114.367 Y111.991 E1.05947
G1 X114.035 Y112.598 E1.07213
G1 X113.626 Y113.145 E1.08462
G1 X113.14 Y113.63 E1.09718
G1 X112.595 Y114.036 E1.10961
G1 X111.988 Y114.368 E1.12227
G1 X111.348 Y114.606 E1.13476
G1 X110.681 Y114.751 E1.14725
G1 X109.998 Y114.8 E1.15977
G1 X109.317 Y114.751 E1.17226
G1 X108.644 Y114.604 E1.18486
G1 X108.004 Y114.365 E1.19736
G1 X107.407 Y114.038 E1.20981
G1 X106.857 Y113.627 E1.22237
G1 X106.37 Y113.139 E1.23498
G1 X105.964 Y112.595 E1.2474
G1 X105.63 Y111.983 E1.26016
G1 X105.393 Y111.341 E1.27267
G1 X105.248 Y110.665 E1.28532
G1 X105.2 Y109.995 E1.29761
G1 X105.249 Y109.313 E1.31012
G1 X105.395 Y108.648 E1.32257
G1 X105.636 Y108.003 E1.33517
G1 X105.963 Y107.406 E1.34762
G1 X106.376 Y106.853 E1.36025
G1 X106.855 Y106.374 E1.37264
G1 X107.406 Y105.963 E1.38521
G1 X108.013 Y105.631 E1.39787
G1 X108.649 Y105.395 E1.41028
G1 X109.319 Y105.249 E1.42282
G1 X110.004 Y105.2 E1.43538
G1 X110.685 Y105.249 E1.44787
G0 F3600 X110.88 Y105.291
G0 X110.785 Y105.721
;;retract;;
G1 F6000 E-6.55213
G0 F3600 X111.066 Y104.442
G0 X112.365 Y104.845
G0 X113.073 Y105.236
G0 X113.724 Y105.724
G0 X114.709 Y106.856
G0 X113.497 Y107.756
;TYPE:SKIN
G1 F6000 E1.44787
G1 F600 X113.136 Y107.27 E1.45895
G1 X112.731 Y106.865 E1.46943
G1 X112.241 Y106.498 E1.48063
G1 X112.051 Y106.394 E1.48459
G1 X113.601 Y107.944 E1.52469
G1 X113.782 Y108.274 E1.53157
G1 X113.988 Y108.83 E1.54242
G1 X114.006 Y108.915 E1.54401
G1 X111.084 Y105.993 E1.6196
G1 X110.589 Y105.884 E1.62887
G1 X110.395 Y105.87 E1.63243
G1 X114.129 Y109.604 E1.72903
G1 X114.158 Y109.991 E1.73613
G1 X114.144 Y110.184 E1.73967
G1 F1500 X109.815 Y105.855 E1.85166
G1 F600 X109.407 Y105.884 E1.85915
G1 X109.301 Y105.907 E1.86113
G1 F1500 X114.091 Y110.697 E1.98505
G1 F600 X113.991 Y111.162 E1.99375
G1 X111.816 Y108.988 E2.05
G1 X112.036 Y109.474 E2.05976
G1 X112.061 Y109.798 E2.06571
G1 X113.839 Y111.576 E2.1117
G1 X113.784 Y111.722 E2.11456
G1 X113.656 Y111.959 E2.11949
G1 X112.046 Y110.349 E2.16114
G1 X111.931 Y110.8 E2.16965
G1 X113.446 Y112.315 E2.20885
G1 X113.204 Y112.639 E2.21624
G1 X111.719 Y111.153 E2.25467
G1 X111.539 Y111.423 E2.26061
G1 X111.477 Y111.477 E2.26211
G1 X112.932 Y112.932 E2.29975
G1 X112.722 Y113.142 E2.30519
G1 X112.637 Y113.203 E2.3071
G1 X111.166 Y111.732 E2.34516
G1 X110.79 Y111.922 E2.35286
G1 X112.314 Y113.445 E2.39228
G1 X112.244 Y113.498 E2.39388
G1 X111.957 Y113.654 E2.39986
G1 X110.347 Y112.044 E2.44151
G1 X109.91 Y112.101 E2.44957
G1 X109.818 Y112.081 E2.45129
G1 X111.575 Y113.837 E2.49673
G1 X111.164 Y113.99 E2.50476
G0 F3600 X111.162 Y113.99
G1 F600 X108.97 Y111.798 E2.56147
G0 F3600 X108.612 Y111.577
G1 F600 X108.165 Y111.026 E2.57444
G1 X108.147 Y110.976 E2.57542
G1 X107.928 Y110.355 E2.58746
G1 X107.928 Y110.191 E2.59046
G1 X106.16 Y108.422 E2.63621
G1 X106.218 Y108.267 E2.63924
G1 X106.343 Y108.04 E2.64398
G1 X107.934 Y109.631 E2.68514
G1 X108.081 Y109.213 E2.69325
G1 X106.552 Y107.683 E2.73282
G1 X106.794 Y107.36 E2.7402
G1 X108.275 Y108.84 E2.7785
G1 X108.527 Y108.527 E2.78585
G1 X107.065 Y107.065 E2.82367
G1 X107.268 Y106.862 E2.82892
G1 X107.36 Y106.795 E2.83101
G1 X108.844 Y108.278 E2.86939
G1 X109.193 Y108.062 E2.87689
G1 X107.684 Y106.553 E2.91593
G1 X107.757 Y106.498 E2.9176
G1 X108.04 Y106.343 E2.92351
G1 X109.651 Y107.953 E2.96517
G1 X109.907 Y107.898 E2.96996
G1 X110.198 Y107.935 E2.97533
G1 X108.424 Y106.161 E3.02122
G1 X108.837 Y106.008 E3.02928
G1 X111.025 Y108.197 E3.08589
G0 F3600 X111.245 Y108.308
G1 F600 X111.741 Y108.819 E3.09892
G1 X111.816 Y108.988 E3.1023
G0 F3600 X108.147 Y110.976
G1 F600 X106.008 Y108.836 E3.15765
G1 X105.906 Y109.301 E3.16636
G1 F1500 X110.697 Y114.091 E3.29029
G1 F600 X110.592 Y114.115 E3.29226
G1 X110.184 Y114.144 E3.29975
G1 F1500 X105.853 Y109.813 E3.41179
G1 F600 X105.841 Y109.997 E3.41516
G1 X105.869 Y110.394 E3.42244
G1 X109.603 Y114.129 E3.51906
G1 X109.409 Y114.115 E3.52261
G1 X108.916 Y114.007 E3.53185
G1 X105.992 Y111.083 E3.60749
G1 X106.008 Y111.159 E3.60891
G1 X106.214 Y111.714 E3.61974
G1 X106.399 Y112.056 E3.62686
G1 X107.946 Y113.603 E3.66688
G1 X107.751 Y113.496 E3.67095
G1 X107.276 Y113.141 E3.68179
G1 X106.859 Y112.724 E3.69258
G1 X106.503 Y112.248 E3.70345
;MESH:NONMESH
G0 X106.503 Y112.248 Z0.2
G0 F3600 X109.972 Y109.837
;TIME_ELAPSED:22.364578

;LAYER:1
M140 S60
M106 S127.5
;TYPE:SUPPORT
G1 F2250 X110.149 Y110.019 E3.70683
G1 X110.004 Y110.149 E3.70942
G1 X109.843 Y109.952 E3.71281
G1 X109.972 Y109.837 E3.71511
;MESH:
G0 F5400 X111.539 Y108.956
;TYPE:WALL-INNER
G1 F600 X111.1 Y108.502 E3.72561
G1 X110.538 Y108.222 E3.73605
G1 X109.916 Y108.144 E3.74648
G1 X109.302 Y108.278 E3.75693
G1 X108.767 Y108.609 E3.76739
G1 X108.373 Y109.1 E3.77786
G1 X108.167 Y109.7 E3.78841
G1 X108.169 Y110.32 E3.79872
G1 X108.379 Y110.91 E3.80913
G1 X108.776 Y111.399 E3.81961
G1 X109.313 Y111.726 E3.83006
G1 X109.927 Y111.858 E3.84051
G1 X110.55 Y111.776 E3.85096
G1 X111.086 Y111.502 E3.86097
G1 X111.362 Y111.259 E3.86708
G1 X111.698 Y110.753 E3.87719
G1 X111.851 Y110.152 E3.8875
G1 X111.802 Y109.541 E3.89769
G1 X111.539 Y108.956 E3.90836
G0 F5400 X111.203 Y109.184
;TYPE:WALL-OUTER
G1 F600 X110.86 Y108.829 E3.91657
G1 X110.421 Y108.61 E3.92473
G1 X109.934 Y108.549 E3.93289
G1 X109.454 Y108.654 E3.94106
G1 X109.036 Y108.913 E3.94924
G1 X108.729 Y109.296 E3.9574
G1 X108.567 Y109.766 E3.96567
G1 X108.569 Y110.25 E3.97372
G1 X108.733 Y110.711 E3.98185
G1 X109.043 Y111.093 E3.99004
G1 X109.463 Y111.349 E3.99822
G1 X109.943 Y111.452 E4.00638
G1 X110.43 Y111.388 E4.01455
G1 X110.859 Y111.169 E4.02256
G1 X111.058 Y110.994 E4.02697
G1 X111.327 Y110.588 E4.03506
G1 X111.447 Y110.118 E4.04313
G1 X111.409 Y109.642 E4.05107
G1 X111.203 Y109.184 E4.05942
G0 F5400 X111.064 Y109.04
G0 X111.38 Y108.734
G0 X110.63 Y105.647
;TYPE:WALL-INNER
G1 F1500 X111.244 Y105.782 E4.06988
G1 X111.83 Y106 E4.08028
G1 X112.384 Y106.304 E4.09079
G1 X112.884 Y106.68 E4.10119
G1 X113.332 Y107.129 E4.11174
G1 X113.698 Y107.619 E4.12191
G1 X114.003 Y108.179 E4.13251
G1 X114.224 Y108.786 E4.14326
G1 X114.356 Y109.408 E4.15383
G1 X114.399 Y110 E4.1637
G1 X114.355 Y110.617 E4.17399
G1 X114.217 Y111.247 E4.18471
G1 X113.999 Y111.833 E4.19511
G1 X113.701 Y112.377 E4.20543
G1 X113.316 Y112.89 E4.21609
G1 X112.878 Y113.326 E4.22637
G1 X112.376 Y113.701 E4.23679
G1 X111.821 Y114.003 E4.2473
G1 X111.228 Y114.222 E4.25781
G1 X110.625 Y114.354 E4.26808
G1 X109.988 Y114.398 E4.27869
G1 X109.377 Y114.354 E4.28888
G1 X108.75 Y114.216 E4.29956
G1 X108.163 Y113.996 E4.30998
G1 X107.621 Y113.698 E4.32027
G1 X107.12 Y113.324 E4.33067
G1 X106.664 Y112.867 E4.3414
G1 X106.299 Y112.375 E4.35159
G1 X105.99 Y111.803 E4.3624
G1 X105.771 Y111.202 E4.37304
G1 X105.644 Y110.599 E4.38329
G1 X105.602 Y109.979 E4.39362
G1 X105.647 Y109.369 E4.40379
G1 X105.781 Y108.755 E4.41425
G1 X106.002 Y108.167 E4.42469
G1 X106.303 Y107.618 E4.4351
G1 X106.681 Y107.114 E4.44558
G1 X107.121 Y106.674 E4.45593
G1 X107.625 Y106.299 E4.46638
G1 X108.179 Y105.997 E4.47687
G1 X108.771 Y105.777 E4.48737
G1 X109.37 Y105.647 E4.49757
G1 X110.017 Y105.602 E4.50835
G1 X110.63 Y105.647 E4.51857
G0 F5400 X110.69 Y105.25
;TYPE:WALL-OUTER
G1 F1500 X111.357 Y105.397 E4.52993
G1 X111.996 Y105.635 E4.54127
G1 X112.601 Y105.967 E4.55275
G1 X113.148 Y106.378 E4.56413
G1 X113.631 Y106.862 E4.5755
G1 X114.036 Y107.404 E4.58675
G1 X114.37 Y108.017 E4.59836
G1 X114.609 Y108.672 E4.60995
G1 X114.753 Y109.354 E4.62154
G1 X114.8 Y110 E4.63232
G1 X114.752 Y110.677 E4.6436
G1 X114.602 Y111.36 E4.65523
G1 X114.364 Y111.999 E4.66657
G1 X114.038 Y112.594 E4.67785
G1 X113.621 Y113.15 E4.68941
G1 X113.136 Y113.633 E4.7008
G1 X112.593 Y114.038 E4.71206
G1 X111.99 Y114.367 E4.72348
G1 X111.337 Y114.608 E4.73506
G1 X110.683 Y114.751 E4.74619
G1 X109.988 Y114.799 E4.75778
G1 X109.315 Y114.751 E4.769
G1 X108.638 Y114.601 E4.78053
G1 X107.997 Y114.361 E4.79191
G1 X107.404 Y114.036 E4.80316
G1 X106.856 Y113.626 E4.81454
G1 X106.362 Y113.131 E4.82617
G1 X105.961 Y112.592 E4.83734
G1 X105.624 Y111.966 E4.84916
G1 X105.387 Y111.317 E4.86065
G1 X105.247 Y110.651 E4.87197
G1 X105.201 Y109.979 E4.88317
G1 X105.25 Y109.311 E4.89431
G1 X105.395 Y108.647 E4.90562
G1 X105.639 Y107.997 E4.91716
G1 X105.966 Y107.401 E4.92847
G1 X106.379 Y106.85 E4.93992
G1 X106.859 Y106.37 E4.95121
G1 X107.408 Y105.962 E4.96258
G1 X108.012 Y105.632 E4.97403
G1 X108.66 Y105.392 E4.98552
G1 X109.312 Y105.25 E4.99662
G1 X110.018 Y105.201 E5.00839
G1 X110.69 Y105.25 E5.01959
G0 F5400 X110.885 Y105.293
G0 X110.79 Y105.721
;;retract;;
G1 F6000 E-2.98041
G0 F5400 X110.823 Y104.389
G0 X110.027 Y104.329
G0 X109.198 Y104.387
G0 X108.424 Y104.554
G0 X107.659 Y104.836
G0 X106.945 Y105.225
G0 X106.296 Y105.705
G0 X105.239 Y106.923
G0 X106.331 Y108.063
;TYPE:SKIN
G1 F6000 E5.01959
G1 F600 X106.218 Y108.267 E5.02347
G1 X106.011 Y108.82 E5.03329
G1 X105.976 Y108.984 E5.03608
G1 X108.984 Y105.975 E5.10683
G1 X109.395 Y105.886 E5.11383
G1 X109.658 Y105.868 E5.11821
G1 X105.866 Y109.659 E5.20738
G1 X105.843 Y109.975 E5.21265
G1 X105.86 Y110.23 E5.2169
G1 F1500 X110.233 Y105.858 E5.31973
G1 F600 X110.594 Y105.884 E5.32575
G1 X110.74 Y105.916 E5.32824
G1 F1500 X105.918 Y110.738 E5.44164
G1 F600 X106.002 Y111.134 E5.44838
G1 X106.025 Y111.197 E5.44949
G1 X108.115 Y109.107 E5.49865
G1 X107.927 Y109.659 E5.50834
G1 X107.927 Y109.861 E5.5117
G1 X106.177 Y111.611 E5.55286
G1 X106.21 Y111.705 E5.55452
G1 X106.364 Y111.99 E5.5599
G1 X107.945 Y110.409 E5.59709
