;FLAVOR:Marlin
;TIME:245
;Filament used:0.0440044m
;Layer height: 0.1
;MINX:106.956
;MINY:106.951
;MINZ:0.1
;MAXX:113.044
;MAXY:113.031
;MAXZ:4.5
                            
;Creality Print GCode Generated by CXEngine:NO_MAGE_VERSION_GIT_HEAD_BRANCH
;CXEngine Release Time:2022-09-30 09:53:04
;Gcode Generated Time:2023-05-03 17:33:29
;----------Machine Config--------------
;Machine Name:Ender-3 V2
;Machine Height:250
;Machine Width:220
;Machine Depth:220
;Material name:PLA
;Number of Extruders:1
;ExtruderParams[0] Nozzle Diameter1000
;----------Profile Config---------------
;Engine Version:275f99b
;Engine Release Time:2022-09-30 09:42:18
;Layer Height:0.1
;Wall Thickness:0.8
;Top/Bottom Thickness:0.5
;Out Wall Line Width:0.4
;Inner Wall Line Width:0.4
;Inital Layer Height:100
;Wall Line Count:2
;Infill Line Distance:4
;Infill Pattern:grid
;Infill Sparse Density:20
;Infill Wipe Distance:0
;Print Temperature:200
;Bed Temperature:60
;Support Enable:true
;Support Density:0
;Support Angle:60
;Adhesion Type:none
;machine is belt:false
;machine belt offset:10
;machine belt offset Y:0
;Raft Base Line Spacing:1.6
;Wait Heatup Sync:true
;----------Shell Config----------------
;Outer Wall Wipe Distance:200
;Outer Inset First:false
;Infill Before Walls:false
;Infill Overlap:0.16
;Fill Gaps Between Walls:everywhere
;Minimum Infill Area:1
;Top Surface Skin Layer:0
;Top Layers:4
;Z Seam Alignment:sharpest_corner
;Seam Corner Preference:z_seam_corner_inner
;Z Seam X:110
;Z Seam Y:110
;Horizontal Expansion:0
;Top/Bottom Pattern:zigzag
;Ironing Pattern:zigzag
;Vase Model:false
;----------Support Config----------------
;Support Type:everywhere
;Support Pattern:zigzag
;Support Infill Layer Thickness:0.1
;Minimum Support Area:5
;Enable Support Roof:false
;Support Roof Thickness:0.8
;Support Roof Pattern:lines
;Connect Support Lines:0
;Connect Support ZigZags:1
;Minimum Support X/Y Distance:0.2
;Support Line Distance:0
; ---------PrintSpeed & Travel----------
;Enable Print Cool:true
;Avoid Printed Parts Traveling:true
;Enable Retraction:true
;Retraction Distance:8
;Retraction Speed:100
;Retraction Prime Speed:100
;Maximum Retraction Count:100
;Minimum Extrusion Distance Window:1
;Z Hop When Retracted:false
;Z Hop Height:0.2
;Retract Before Outer Wall:true
;Print Speed:50
;Infill Speed:50

;Prime Tower Speed:50
;Travel Speed:120
;Initial Layer Speed:25
;Skirt/Brim Speed:25
;Combing Mode:infill
; --------SpecialModel&Mesh Fixes--------
;Union Overlapping Volum:true
;Remove All Holes:false
;Maximum Travel Resolution:0.6
;Maximum Deviation:0.05
;Maximum Model Angle:0.872665
;IS Mold Print:false
;Make Overhang Printable:false
;Enable Coasting:false
;Coasting Volumes:0.06
;Coasting Speed:0.9
;Raft AirGap:0.25
;Layer0 ZOverLap:0.13
;---------------------End of Head--------------------------
M140 S60
M105
M104 S200
M105
M109 S200
M105
M190 S60
M82 ;absolute extrusion mode
M220 S100 ;Reset Feedrate
M221 S100 ;Reset Flowrate

G28 ;Home

G92 E0 ;Reset Extruder
G1 Z2.0 F3000 ;Move Z Axis up
G1 X10.1 Y20 Z0.28 F5000.0 ;Move to start position
G1 X10.1 Y145.0 Z0.28 F1500.0 E15 ;Draw the first line
G1 X10.4 Y145.0 Z0.28 F5000.0 ;Move to side a little
G1 X10.4 Y20 Z0.28 F1500.0 E30 ;Draw the second line
G92 E0  ;Reset Extruder
G1 E-1.0000 F1800 ;Retract a bit
G1 Z2.0 F3000 ;Move Z Axis up
G1 E0.0000 F1800 

G92 E0
G92 E0
G1 F6000 E-8

;LAYER_COUNT:45

;LAYER:0
M107
;MESH:
G0 F3600 X110.351 Y107.67 Z0.1
;TYPE:WALL-INNER
G1 F6000 E0
G1 F600 X110 Y107.67 E0.00642
G1 X109.649 Y107.67 E0.01284
G1 X109.52 Y107.709 E0.01531
G1 X108.974 Y107.878 E0.02576
G1 X108.574 Y108.152 E0.03463
G1 X108.394 Y108.275 E0.03862
G1 X108.23 Y108.481 E0.04344
G1 X107.959 Y108.822 E0.0514
G1 X107.941 Y108.869 E0.05233
G1 X107.732 Y109.403 E0.06282
G1 X107.703 Y109.476 E0.06425
G1 X107.673 Y109.878 E0.07163
G1 X107.65 Y110.18 E0.07717
G1 X107.691 Y110.358 E0.08051
G1 X107.808 Y110.864 E0.09001
G1 X108.077 Y111.33 E0.09985
G1 X108.158 Y111.469 E0.10279
G1 X108.398 Y111.692 E0.10879
G1 X108.672 Y111.947 E0.11564
G1 X108.762 Y111.99 E0.11746
G1 X109.285 Y112.241 E0.12807
G1 X109.309 Y112.253 E0.12856
G1 X109.76 Y112.32 E0.1369
G1 X110 Y112.357 E0.14135
G1 X110.238 Y112.321 E0.14575
G1 X110.698 Y112.25 E0.15426
G1 X110.715 Y112.242 E0.15461
G1 X111.237 Y111.991 E0.1652
G1 X111.328 Y111.947 E0.16705
G1 X111.602 Y111.693 E0.17389
G1 X111.845 Y111.467 E0.17996
G1 X111.922 Y111.333 E0.18278
G1 X112.194 Y110.861 E0.19275
G1 X112.308 Y110.358 E0.20218
G1 X112.35 Y110.173 E0.20565
G1 X112.328 Y109.879 E0.21105
G1 X112.297 Y109.476 E0.21844
G1 X112.269 Y109.404 E0.21985
G1 X112.06 Y108.87 E0.23034
G1 X112.041 Y108.822 E0.23129
G1 X111.77 Y108.483 E0.23923
G1 X111.599 Y108.269 E0.24424
G1 X111.428 Y108.153 E0.24802
G1 X111.018 Y107.875 E0.25708
G1 X110.481 Y107.71 E0.26736
G1 X110.351 Y107.67 E0.26985
G0 F3600 X110.291 Y108.07
;TYPE:WALL-OUTER
G1 F600 X109.709 Y108.07 E0.28049
G1 X109.15 Y108.242 E0.29119
G1 X108.67 Y108.571 E0.30184
G1 X108.309 Y109.024 E0.31243
G1 X108.097 Y109.566 E0.32308
G1 X108.053 Y110.149 E0.33377
G1 X108.184 Y110.716 E0.34442
G1 X108.474 Y111.217 E0.35501
G1 X108.9 Y111.613 E0.36565
G1 X109.428 Y111.866 E0.37636
G1 X110 Y111.952 E0.38694
G1 X110.579 Y111.864 E0.39765
G1 X111.1 Y111.613 E0.40823
G1 X111.528 Y111.215 E0.41892
G1 X111.817 Y110.713 E0.42952
G1 X111.947 Y110.143 E0.44022
G1 X111.903 Y109.566 E0.4508
G1 X111.691 Y109.024 E0.46145
G1 X111.325 Y108.566 E0.47217
G1 X110.843 Y108.24 E0.48282
G1 X110.291 Y108.07 E0.49338
G0 F3600 X110.091 Y108.07
G0 X110.091 Y107.63
G0 X110.571 Y107.417
;TYPE:WALL-INNER
G1 F659.3 X111.111 Y107.598 E0.50121
G1 X111.165 Y107.63 E0.5022
G1 X111.603 Y107.894 E0.50923
G1 X111.788 Y108.069 E0.51278
G1 X112.016 Y108.286 E0.51713
G1 X112.272 Y108.664 E0.5234
G1 X112.338 Y108.761 E0.52512
G1 X112.551 Y109.293 E0.53302
G1 X112.573 Y109.431 E0.53504
G1 X112.642 Y109.855 E0.54094
G1 X112.624 Y110.187 E0.54551
G1 X112.611 Y110.426 E0.54884
G1 X112.471 Y110.936 E0.55609
G1 X112.46 Y110.976 E0.55675
G1 X112.45 Y110.996 E0.5571
G1 X112.19 Y111.486 E0.56471
G1 X112.055 Y111.645 E0.56763
G1 X111.818 Y111.924 E0.57268
G1 X111.497 Y112.168 E0.57824
G1 X111.369 Y112.265 E0.58053
G1 X110.843 Y112.508 E0.5885
G1 X110.76 Y112.526 E0.58979
G1 X110.286 Y112.631 E0.59646
G1 X110 Y112.631 E0.60042
G1 X109.714 Y112.631 E0.60438
G1 X109.249 Y112.529 E0.61094
G1 X109.157 Y112.508 E0.61236
G1 X108.631 Y112.265 E0.62033
G1 X108.504 Y112.169 E0.6226
G1 X108.183 Y111.924 E0.62817
G1 X107.949 Y111.647 E0.63316
G1 X107.811 Y111.485 E0.63612
G1 X107.553 Y111 E0.64365
G1 X107.541 Y110.978 E0.64411
G1 X107.531 Y110.941 E0.64481
G1 X107.389 Y110.428 E0.65213
G1 X107.377 Y110.195 E0.65537
G1 X107.358 Y109.855 E0.66006
G1 X107.426 Y109.432 E0.66596
G1 X107.449 Y109.293 E0.668
G1 X107.662 Y108.761 E0.67591
G1 X107.727 Y108.665 E0.67762
G1 X107.984 Y108.286 E0.68389
G1 X108.205 Y108.077 E0.68808
G1 X108.397 Y107.894 E0.69176
G1 X108.827 Y107.635 E0.69865
G1 X108.889 Y107.598 E0.69979
G1 X109.429 Y107.417 E0.70758
G1 X109.618 Y107.397 E0.71024
G1 X110 Y107.354 E0.71553
G1 X110.381 Y107.396 E0.7208
G1 X110.571 Y107.417 E0.72348
G0 F3600 X110.654 Y107.023
;TYPE:WALL-OUTER
G1 F1500 X111.284 Y107.234 E0.73564
G1 X111.843 Y107.571 E0.74758
G1 X112.323 Y108.026 E0.75968
G1 X112.693 Y108.573 E0.77176
G1 X112.939 Y109.187 E0.78386
G1 X113.044 Y109.831 E0.79579
G1 X113.008 Y110.494 E0.80794
G1 X112.834 Y111.125 E0.81991
G1 X112.524 Y111.711 E0.83204
G1 X112.096 Y112.214 E0.84412
G1 X111.575 Y112.611 E0.85611
G1 X110.97 Y112.89 E0.86829
G1 X110.331 Y113.031 E0.88026
G1 X109.669 Y113.031 E0.89237
G1 X109.03 Y112.89 E0.90434
G1 X108.425 Y112.611 E0.91653
G1 X107.904 Y112.214 E0.92851
G1 X107.478 Y111.712 E0.94056
G1 X107.168 Y111.128 E0.95265
G1 X106.992 Y110.493 E0.96471
G1 X106.956 Y109.831 E0.97683
G1 X107.061 Y109.187 E0.98877
G1 X107.307 Y108.573 E1.00087
G1 X107.677 Y108.026 E1.01295
G1 X108.157 Y107.571 E1.02505
G1 X108.716 Y107.234 E1.03699
G1 X109.346 Y107.023 E1.04914
G1 X110 Y106.951 E1.06118
G1 X110.654 Y107.023 E1.07322
G0 F3600 X110.843 Y107.086
G0 X110.703 Y107.503
;MESH:NONMESH
G0 F600 X110.703 Y107.503 Z0.2
G0 F3600 X110.695 Y107.748
;TIME_ELAPSED:10.385442

;LAYER:1
M140 S60
M106 S127.5
;TYPE:WALL-INNER
;MESH:
G1 F600 X110.511 Y107.721 E1.07631
G1 X110 Y107.643 E1.0849
G1 X109.476 Y107.722 E1.09372
G1 X109.305 Y107.748 E1.09659
G1 X109.027 Y107.882 E1.10173
G1 X108.672 Y108.053 E1.10828
G1 X108.604 Y108.116 E1.10982
G1 X108.187 Y108.503 E1.11928
G1 X108.173 Y108.516 E1.1196
G1 X107.946 Y108.852 E1.12634
G1 X107.94 Y108.868 E1.12663
G1 X107.732 Y109.402 E1.13616
G1 X107.703 Y109.476 E1.13748
G1 X107.673 Y109.878 E1.14418
G1 X107.65 Y110.176 E1.14915
G1 X107.691 Y110.358 E1.15226
G1 X107.807 Y110.861 E1.16084
G1 X108.078 Y111.33 E1.16985
G1 X108.158 Y111.469 E1.17252
G1 X108.398 Y111.692 E1.17796
G1 X108.672 Y111.947 E1.18419
G1 X108.763 Y111.99 E1.18586
G1 X109.284 Y112.242 E1.19549
G1 X109.305 Y112.252 E1.19587
G1 X109.76 Y112.32 E1.20352
G1 X110 Y112.357 E1.20756
G1 X110.257 Y112.319 E1.21188
G1 X110.502 Y112.282 E1.216
G1 X110.695 Y112.252 E1.21925
G1 X110.974 Y112.118 E1.2244
G1 X111.328 Y111.947 E1.23094
G1 X111.396 Y111.884 E1.23248
G1 X111.815 Y111.495 E1.24199
G1 X111.827 Y111.484 E1.24226
G1 X112.054 Y111.148 E1.249
G1 X112.06 Y111.132 E1.24928
G1 X112.268 Y110.598 E1.25881
G1 X112.297 Y110.524 E1.26014
G1 X112.327 Y110.122 E1.26684
G1 X112.35 Y109.824 E1.27181
G1 X112.309 Y109.642 E1.27491
G1 X112.193 Y109.139 E1.2835
G1 X111.922 Y108.67 E1.29251
G1 X111.842 Y108.531 E1.29517
G1 X111.602 Y108.308 E1.30062
G1 X111.328 Y108.053 E1.30685
G1 X111.224 Y108.003 E1.30876
G1 X110.981 Y107.886 E1.31325
G1 X110.695 Y107.748 E1.31853
G0 F5400 X110.576 Y108.135
;TYPE:WALL-OUTER
G1 F600 X110 Y108.048 E1.32822
G1 X109.424 Y108.135 E1.33791
G1 X108.9 Y108.387 E1.34758
G1 X108.479 Y108.778 E1.35713
G1 X108.302 Y109.039 E1.36238
G1 X108.097 Y109.566 E1.37178
G1 X108.053 Y110.146 E1.38145
G1 X108.183 Y110.713 E1.39113
G1 X108.474 Y111.217 E1.4008
G1 X108.9 Y111.613 E1.41048
G1 X109.424 Y111.865 E1.42015
G1 X110 Y111.952 E1.42983
G1 X110.576 Y111.865 E1.43952
G1 X111.1 Y111.613 E1.44919
G1 X111.521 Y111.222 E1.45875
G1 X111.698 Y110.961 E1.46399
G1 X111.903 Y110.434 E1.47339
G1 X111.947 Y109.854 E1.48307
G1 X111.817 Y109.287 E1.49274
G1 X111.526 Y108.783 E1.50242
G1 X111.1 Y108.387 E1.51209
G1 X110.576 Y108.135 E1.52176
G0 F5400 X110.379 Y108.106
G0 X110.445 Y107.671
G0 X110.557 Y107.413
;TYPE:WALL-INNER
G1 F659.2 X110.781 Y107.487 E1.52475
G1 X111.118 Y107.599 E1.52921
G1 X111.357 Y107.726 E1.53276
G1 X111.496 Y107.831 E1.53502
G1 X111.817 Y108.076 E1.54008
G1 X112.051 Y108.353 E1.54462
G1 X112.189 Y108.515 E1.54732
G1 X112.448 Y109.002 E1.5542
G1 X112.459 Y109.022 E1.55458
G1 X112.47 Y109.062 E1.55527
G1 X112.611 Y109.572 E1.56188
G1 X112.623 Y109.809 E1.56488
G1 X112.642 Y110.145 E1.56909
G1 X112.574 Y110.568 E1.57445
G1 X112.551 Y110.707 E1.5763
G1 X112.338 Y111.239 E1.58348
G1 X112.292 Y111.308 E1.58463
G1 X112.064 Y111.644 E1.58947
G1 X112.018 Y111.712 E1.59062
G1 X111.603 Y112.106 E1.59778
G1 X111.472 Y112.185 E1.59976
G1 X111.112 Y112.402 E1.60502
G1 X110.783 Y112.512 E1.60936
G1 X110.549 Y112.591 E1.61249
G1 X110.304 Y112.631 E1.61573
G1 X110 Y112.631 E1.61956
G1 X109.714 Y112.631 E1.62317
G1 X109.245 Y112.528 E1.62918
G1 X109.157 Y112.508 E1.63041
G1 X108.631 Y112.265 E1.63765
G1 X108.504 Y112.169 E1.63972
G1 X108.183 Y111.924 E1.64478
G1 X107.949 Y111.647 E1.64931
G1 X107.811 Y111.485 E1.65201
G1 X107.552 Y110.998 E1.6589
G1 X107.541 Y110.978 E1.65927
G1 X107.53 Y110.938 E1.65996
G1 X107.389 Y110.428 E1.66658
G1 X107.377 Y110.191 E1.66957
G1 X107.358 Y109.855 E1.67378
G1 X107.426 Y109.432 E1.67915
G1 X107.449 Y109.293 E1.681
G1 X107.662 Y108.761 E1.68818
G1 X107.708 Y108.692 E1.68933
G1 X107.936 Y108.356 E1.69417
G1 X107.984 Y108.286 E1.69535
G1 X108.397 Y107.894 E1.70247
G1 X108.528 Y107.815 E1.70446
G1 X108.889 Y107.598 E1.70972
G1 X109.217 Y107.488 E1.71405
G1 X109.429 Y107.417 E1.71688
G1 X109.968 Y107.358 E1.72361
G1 X110.002 Y107.354 E1.72418
G1 X110.03 Y107.357 E1.72465
G1 X110.557 Y107.413 E1.73128
G0 F5400 X110.643 Y107.02
;TYPE:WALL-OUTER
G1 F1500 X111.276 Y107.23 E1.74237
G1 X111.569 Y107.385 E1.74789
G1 X112.096 Y107.786 E1.7589
G1 X112.522 Y108.288 E1.76985
G1 X112.832 Y108.872 E1.78084
G1 X113.008 Y109.507 E1.7918
G1 X113.044 Y110.169 E1.80283
G1 X112.939 Y110.813 E1.81368
G1 X112.693 Y111.427 E1.82468
G1 X112.323 Y111.974 E1.83566
G1 X111.843 Y112.429 E1.84666
G1 X111.284 Y112.766 E1.85751
G1 X110.645 Y112.981 E1.86873
G1 X110.337 Y113.031 E1.87391
G1 X109.669 Y113.031 E1.88502
G1 X109.03 Y112.89 E1.89591
G1 X108.425 Y112.611 E1.90699
G1 X107.904 Y112.214 E1.91788
G1 X107.478 Y111.712 E1.92883
G1 X107.168 Y111.128 E1.93982
G1 X106.992 Y110.493 E1.95078
G1 X106.956 Y109.831 E1.96181
G1 X107.061 Y109.187 E1.97266
G1 X107.307 Y108.573 E1.98366
G1 X107.677 Y108.026 E1.99464
G1 X108.157 Y107.571 E2.00564
G1 X108.716 Y107.234 E2.01649
G1 X109.346 Y107.023 E2.02754
G1 X110.001 Y106.951 E2.0385
G1 X110.643 Y107.02 E2.04924
G0 F5400 X110.833 Y107.083
G0 X110.695 Y107.501
;MESH:NONMESH
G0 F600 X110.695 Y107.501 Z0.3
G0 F5400 X110.351 Y107.67
;TIME_ELAPSED:15.718813

;LAYER:2
M106 S255
;TYPE:WALL-INNER
;MESH:
G1 F600 X110 Y107.67 E2.05508
G1 X109.649 Y107.67 E2.06091
G1 X109.519 Y107.709 E2.06317
G1 X108.978 Y107.876 E2.07259
G1 X108.573 Y108.152 E2.08074
G1 X108.397 Y108.272 E2.08428
G1 X108.23 Y108.481 E2.08873
G1 X107.959 Y108.822 E2.09597
G1 X107.941 Y108.869 E2.09681
G1 X107.732 Y109.403 E2.10634
G1 X107.703 Y109.476 E2.10765
G1 X107.673 Y109.878 E2.11435
G1 X107.65 Y110.176 E2.11933
G1 X107.691 Y110.359 E2.12244
G1 X107.801 Y110.84 E2.13065
G1 X107.982 Y111.211 E2.13751
G1 X108.048 Y111.293 E2.13926
G1 X108.399 Y111.728 E2.14856
G1 X108.807 Y112.007 E2.15678
G1 X108.977 Y112.123 E2.1602
G1 X109.249 Y112.206 E2.16493
G1 X109.627 Y112.323 E2.17151
G1 X109.736 Y112.331 E2.17333
G1 X110.022 Y112.353 E2.1781
G1 X110.239 Y112.321 E2.18175
G1 X110.674 Y112.255 E2.18906
G1 X110.732 Y112.232 E2.1901
G1 X111.056 Y112.103 E2.1959
G1 X111.193 Y112.009 E2.19866
G1 X111.604 Y111.727 E2.20695
G1 X111.948 Y111.294 E2.21615
G1 X112.041 Y111.178 E2.21862
G1 X112.164 Y110.863 E2.22425
G1 X112.297 Y110.524 E2.2303
G1 X112.306 Y110.405 E2.23229
G1 X112.35 Y109.824 E2.24198
G1 X112.246 Y109.363 E2.24984
G1 X112.199 Y109.16 E2.2533
G1 X112.069 Y108.893 E2.25824
G1 X112.018 Y108.789 E2.26017
G1 X111.772 Y108.484 E2.26668
G1 X111.601 Y108.272 E2.27121
G1 X111.427 Y108.153 E2.27472
G1 X111.023 Y107.877 E2.28285
G1 X110.481 Y107.71 E2.29229
G1 X110.351 Y107.67 E2.29455
G0 F7200 X110.291 Y108.07
;TYPE:WALL-OUTER
G1 F600 X109.709 Y108.07 E2.30423
G1 X109.153 Y108.241 E2.3139
G1 X108.672 Y108.569 E2.32358
G1 X108.309 Y109.024 E2.33326
G1 X108.097 Y109.566 E2.34294
G1 X108.053 Y110.146 E2.35261
G1 X108.181 Y110.706 E2.36217
G1 X108.322 Y110.995 E2.36751
G1 X108.673 Y111.431 E2.37682
G1 X109.153 Y111.759 E2.38649
G1 X109.702 Y111.928 E2.39604
G1 X110.007 Y111.951 E2.40113
G1 X110.569 Y111.866 E2.41058
G1 X110.867 Y111.748 E2.41591
G1 X111.328 Y111.431 E2.42522
G1 X111.691 Y110.976 E2.4349
G1 X111.903 Y110.434 E2.44457
G1 X111.947 Y109.854 E2.45425
G1 X111.819 Y109.294 E2.4638
G1 X111.678 Y109.005 E2.46915
G1 X111.327 Y108.569 E2.47846
G1 X110.847 Y108.241 E2.48813
G1 X110.291 Y108.07 E2.4978
G0 F7200 X110.091 Y108.07
G0 X110.091 Y107.63
G0 X110.571 Y107.417
;TYPE:WALL-INNER
G1 F659.2 X111.111 Y107.598 E2.5049
G1 X111.169 Y107.633 E2.50603
G1 X111.603 Y107.894 E2.51236
G1 X111.79 Y108.072 E2.51563
G1 X112.016 Y108.286 E2.51954
G1 X112.25 Y108.631 E2.52475
G1 X112.338 Y108.761 E2.52674
G1 X112.456 Y109.056 E2.5306
G1 X112.551 Y109.293 E2.53384
G1 X112.629 Y109.778 E2.53996
G1 X112.642 Y109.855 E2.54126
G1 X112.611 Y110.428 E2.54839
G1 X112.565 Y110.597 E2.55064
G1 X112.459 Y110.978 E2.5556
G1 X112.284 Y111.307 E2.56026
G1 X112.189 Y111.485 E2.56283
G1 X111.826 Y111.914 E2.56984
G1 X111.817 Y111.924 E2.57003
G1 X111.778 Y111.954 E2.57074
G1 X111.369 Y112.265 E2.57715
