;FLAVOR:Marlin
;TIME:1297
;Filament used:0.694156m
;Layer height: 0.2
;MINX:90.967
;MINY:102.83
;MINZ:0.2
;MAXX:129.045
;MAXY:117.17
;MAXZ:18
                                
;Creality Print GCode Generated by CXEngine:NO_MAGE_VERSION_GIT_HEAD_BRANCH
;CXEngine Release Time:2022-09-30 09:53:04
;Gcode Generated Time:2023-05-03 15:43:12
;----------Machine Config--------------
;Machine Name:Ender-3 V2
;Machine Height:250
;Machine Width:220
;Machine Depth:220
;Material name:PLA
;Number of Extruders:1
;ExtruderParams[0] Nozzle Diameter1000
;----------Profile Config---------------
;Engine Version:275f99b
;Engine Release Time:2022-09-30 09:42:18
;Layer Height:0.2
;Wall Thickness:0.8
;Top/Bottom Thickness:1
;Out Wall Line Width:0.4
;Inner Wall Line Width:0.4
;Inital Layer Height:200
;Wall Line Count:2
;Infill Line Distance:4
;Infill Pattern:grid
;Infill Sparse Density:20
;Infill Wipe Distance:0
;Print Temperature:200
;Bed Temperature:60
;Support Enable:false
;Support Density:30
;Support Angle:60
;Adhesion Type:none
;machine is belt:false
;machine belt offset:10
;machine belt offset Y:0
;Raft Base Line Spacing:1.6
;Wait Heatup Sync:true
;----------Shell Config----------------
;Outer Wall Wipe Distance:200
;Outer Inset First:false
;Infill Before Walls:false
;Infill Overlap:0.16
;Fill Gaps Between Walls:everywhere
;Minimum Infill Area:1
;Top Surface Skin Layer:0
;Top Layers:3
;Z Seam Alignment:sharpest_corner
;Seam Corner Preference:z_seam_corner_inner
;Z Seam X:110
;Z Seam Y:110
;Horizontal Expansion:0
;Top/Bottom Pattern:zigzag
;Ironing Pattern:zigzag
;Vase Model:false
;----------Support Config----------------
;Support Type:everywhere
;Support Pattern:zigzag
;Support Infill Layer Thickness:0.2
;Minimum Support Area:5
;Enable Support Roof:false
;Support Roof Thickness:0.8
;Support Roof Pattern:lines
;Connect Support Lines:0
;Connect Support ZigZags:1
;Minimum Support X/Y Distance:0.2
;Support Line Distance:1.33
; ---------PrintSpeed & Travel----------
;Enable Print Cool:true
;Avoid Printed Parts Traveling:true
;Enable Retraction:true
;Retraction Distance:8
;Retraction Speed:100
;Retraction Prime Speed:100
;Maximum Retraction Count:100
;Minimum Extrusion Distance Window:1
;Z Hop When Retracted:false
;Z Hop Height:0.2
;Retract Before Outer Wall:true
;Print Speed:50
;Infill Speed:50

;Prime Tower Speed:50
;Travel Speed:120
;Initial Layer Speed:25
;Skirt/Brim Speed:25
;Combing Mode:infill
; --------SpecialModel&Mesh Fixes--------
;Union Overlapping Volum:true
;Remove All Holes:false
;Maximum Travel Resolution:0.6
;Maximum Deviation:0.05
;Maximum Model Angle:0.872665
;IS Mold Print:false
;Make Overhang Printable:false
;Enable Coasting:false
;Coasting Volumes:0.06
;Coasting Speed:0.9
;Raft AirGap:0.25
;Layer0 ZOverLap:0.13
;---------------------End of Head--------------------------
M140 S60
M105
M104 S200
M105
M109 S200
M105
M190 S60
M82 ;absolute extrusion mode
M220 S100 ;Reset Feedrate
M221 S100 ;Reset Flowrate

G28 ;Home

G92 E0 ;Reset Extruder
G1 Z2.0 F3000 ;Move Z Axis up
G1 X10.1 Y20 Z0.28 F5000.0 ;Move to start position
G1 X10.1 Y145.0 Z0.28 F1500.0 E15 ;Draw the first line
G1 X10.4 Y145.0 Z0.28 F5000.0 ;Move to side a little
G1 X10.4 Y20 Z0.28 F1500.0 E30 ;Draw the second line
G92 E0  ;Reset Extruder
G1 E-1.0000 F1800 ;Retract a bit
G1 Z2.0 F3000 ;Move Z Axis up
G1 E0.0000 F1800 

G92 E0
G92 E0
G1 F6000 E-8

;LAYER_COUNT:90

;LAYER:0
M107
;MESH:
G0 F3600 X123.975 Y107.9 Z0.2
;TYPE:WALL-INNER
G1 F6000 E0
G1 F1500 X92.225 Y107.9 E1.16161
G1 X92.225 Y104.1 E1.30064
G1 X127.775 Y104.1 E2.60128
G1 X127.775 Y115.9 E3.03299
G1 X123.975 Y115.9 E3.17202
G1 X123.975 Y107.9 E3.46471
G0 F3600 X123.575 Y108.3
;TYPE:WALL-OUTER
G1 F1500 X91.825 Y108.3 E4.62632
G1 X91.825 Y103.7 E4.79462
G1 X128.175 Y103.7 E6.12452
G1 X128.175 Y116.3 E6.58551
G1 X123.575 Y116.3 E6.7538
G1 X123.575 Y108.3 E7.04649
G0 F3600 X123.375 Y108.3
G0 X123.375 Y107.86
;;retract;;
G1 F6000 E-0.95351
G0 F3600 X122.717 Y109.158
G0 X122.717 Y117.158
G0 X129.033 Y117.158
G0 X129.033 Y102.842
G0 X127.533 Y102.83
G0 X127.533 Y104.339
;TYPE:SKIN
G1 F6000 E7.04649
G1 F1500 X126.967 Y104.339 E7.0672
G1 X127.534 Y104.907 E7.09656
G1 X127.534 Y105.472 E7.11723
G1 X126.401 Y104.339 E7.17586
G1 X125.836 Y104.339 E7.19653
G1 X127.534 Y106.038 E7.28441
G1 X127.534 Y106.604 E7.30512
G1 X125.27 Y104.339 E7.42228
G1 X124.704 Y104.339 E7.44299
G1 X127.534 Y107.169 E7.58942
G1 X127.534 Y107.735 E7.61013
G1 X124.138 Y104.339 E7.78584
G1 X123.573 Y104.339 E7.80651
G1 X127.534 Y108.301 E8.01148
G1 X127.534 Y108.866 E8.03215
G1 X123.007 Y104.339 E8.26638
G1 X122.441 Y104.339 E8.28709
G1 X127.534 Y109.432 E8.5506
G1 X127.534 Y109.998 E8.57131
G1 X121.876 Y104.339 E8.86408
G1 X121.31 Y104.339 E8.88479
G1 X127.534 Y110.563 E9.20683
G1 X127.534 Y111.129 E9.22753
G1 X124.214 Y107.809 E9.39931
G1 X124.214 Y108.375 E9.42002
G1 X127.534 Y111.695 E9.5918
G1 X127.534 Y112.26 E9.61247
G1 X124.214 Y108.941 E9.78422
G1 X124.214 Y109.506 E9.80489
G1 X127.534 Y112.826 E9.97667
G1 X127.534 Y113.392 E9.99738
G1 X124.214 Y110.072 E10.16916
G1 X124.214 Y110.638 E10.18987
G1 X127.534 Y113.958 E10.36165
G1 X127.534 Y114.523 E10.38232
G1 X124.214 Y111.203 E10.5541
G1 X124.214 Y111.769 E10.5748
G1 X127.534 Y115.089 E10.74658
G1 X127.534 Y115.655 E10.76729
G1 X124.214 Y112.335 E10.93907
G1 X124.214 Y112.9 E10.95974
G1 X126.973 Y115.66 E11.10252
G1 X126.408 Y115.66 E11.12319
G1 X124.214 Y113.466 E11.23671
G1 X124.214 Y114.032 E11.25742
G1 X125.842 Y115.66 E11.34165
G1 X125.276 Y115.66 E11.36236
G1 X124.214 Y114.597 E11.41733
G1 X124.214 Y115.163 E11.43804
G1 X124.711 Y115.66 E11.46376
G1 X124.214 Y115.66 E11.48194
;;retract;;
G1 F6000 E3.48194
G0 F3600 X122.705 Y115.66
G0 X122.717 Y109.158
G0 X124.214 Y107.659
G1 F6000 E11.48194
G1 F1500 X124.214 Y107.809 E11.48743
G0 F3600 X124.064 Y107.659
G1 F1500 X120.744 Y104.339 E11.65921
G1 X120.179 Y104.339 E11.67988
G1 X123.498 Y107.659 E11.85163
G1 X122.932 Y107.659 E11.87234
G1 X119.613 Y104.339 E12.04409
G1 X119.047 Y104.339 E12.0648
G1 X122.366 Y107.659 E12.23655
G1 X121.801 Y107.659 E12.25722
G1 X118.482 Y104.339 E12.42898
G1 X117.916 Y104.339 E12.44968
G1 X121.235 Y107.659 E12.62144
G1 X120.669 Y107.659 E12.64214
G1 X117.35 Y104.339 E12.8139
G1 X116.785 Y104.339 E12.83457
G1 X120.104 Y107.659 E13.00632
G1 X119.538 Y107.659 E13.02703
G1 X116.219 Y104.339 E13.19878
G1 X115.653 Y104.339 E13.21949
G1 X118.972 Y107.659 E13.39124
G1 X118.407 Y107.659 E13.41191
G1 X115.087 Y104.339 E13.58369
G1 X114.522 Y104.339 E13.60436
G1 X117.841 Y107.659 E13.77612
G1 X117.275 Y107.659 E13.79683
G1 X113.956 Y104.339 E13.96858
G1 X113.39 Y104.339 E13.98929
G1 X116.71 Y107.659 E14.16106
G1 X116.144 Y107.659 E14.18177
G1 X112.825 Y104.339 E14.35353
G1 X112.259 Y104.339 E14.37423
G1 X115.578 Y107.659 E14.54599
G1 X115.013 Y107.659 E14.56666
G1 X111.693 Y104.339 E14.73844
G1 X111.128 Y104.339 E14.75911
G1 X114.447 Y107.659 E14.93086
G1 X113.881 Y107.659 E14.95157
G1 X110.562 Y104.339 E15.12332
G1 X109.996 Y104.339 E15.14403
G1 X113.315 Y107.659 E15.31578
G1 X112.75 Y107.659 E15.33645
G1 X109.431 Y104.339 E15.50821
G1 X108.865 Y104.339 E15.52891
G1 X112.184 Y107.659 E15.70067
G1 X111.618 Y107.659 E15.72138
G1 X108.299 Y104.339 E15.89313
G1 X107.734 Y104.339 E15.9138
G1 X111.053 Y107.659 E16.08555
G1 X110.487 Y107.659 E16.10626
G1 X107.168 Y104.339 E16.27801
G1 X106.602 Y104.339 E16.29872
G1 X109.921 Y107.659 E16.47047
G1 X109.356 Y107.659 E16.49115
G1 X106.037 Y104.339 E16.6629
G1 X105.471 Y104.339 E16.68361
G1 X108.79 Y107.659 E16.85536
G1 X108.224 Y107.659 E16.87607
G1 X104.905 Y104.339 E17.04782
G1 X104.339 Y104.339 E17.06853
G1 X107.659 Y107.659 E17.24031
G1 X107.093 Y107.659 E17.26101
G1 X103.774 Y104.339 E17.43277
G1 X103.208 Y104.339 E17.45347
G1 X106.527 Y107.659 E17.62523
G1 X105.962 Y107.659 E17.6459
G1 X102.642 Y104.339 E17.81768
G1 X102.077 Y104.339 E17.83835
G1 X105.396 Y107.659 E18.0101
G1 X104.83 Y107.659 E18.03081
G1 X101.511 Y104.339 E18.20256
G1 X100.945 Y104.339 E18.22327
G1 X104.265 Y107.659 E18.39505
G1 X103.699 Y107.659 E18.41576
G1 X100.38 Y104.339 E18.58751
G1 X99.814 Y104.339 E18.60822
G1 X103.133 Y107.659 E18.77997
G1 X102.567 Y107.659 E18.80068
G1 X99.248 Y104.339 E18.97243
G1 X98.683 Y104.339 E18.9931
G1 X102.002 Y107.659 E19.16486
G1 X101.436 Y107.659 E19.18556
G1 X98.117 Y104.339 E19.35732
G1 X97.551 Y104.339 E19.37802
G1 X100.87 Y107.659 E19.54978
G1 X100.305 Y107.659 E19.57045
G1 X96.986 Y104.339 E19.7422
G1 X96.42 Y104.339 E19.76291
G1 X99.739 Y107.659 E19.93466
G1 X99.173 Y107.659 E19.95537
G1 X95.854 Y104.339 E20.12712
G1 X95.289 Y104.339 E20.14779
G1 X98.608 Y107.659 E20.31955
G1 X98.042 Y107.659 E20.34026
G1 X94.723 Y104.339 E20.51201
G1 X94.157 Y104.339 E20.53272
G1 X97.476 Y107.659 E20.70447
G1 X96.911 Y107.659 E20.72514
G1 X93.591 Y104.339 E20.89692
G1 X93.026 Y104.339 E20.91759
G1 X96.345 Y107.659 E21.08934
G1 X95.779 Y107.659 E21.11005
G1 X92.464 Y104.344 E21.28157
G1 X92.464 Y104.909 E21.30224
G1 X95.214 Y107.659 E21.44453
G1 X94.648 Y107.659 E21.46524
G1 X92.464 Y105.475 E21.57824
G1 X92.464 Y106.041 E21.59895
G1 X94.082 Y107.659 E21.68266
G1 X93.516 Y107.659 E21.70337
G1 X92.464 Y106.606 E21.75783
G1 X92.464 Y107.172 E21.77854
G1 X92.951 Y107.659 E21.80373
G1 X92.464 Y107.659 E21.82155
;;retract;;
G1 F6000 E13.82155
;MESH:NONMESH
G0 F600 X92.464 Y107.659 Z0.4
G0 F3600 X92.464 Y109.17
G0 X122.717 Y109.158
G0 X123.975 Y107.9
;TIME_ELAPSED:36.219904

;LAYER:1
M140 S60
M106 S127.5
;TYPE:WALL-INNER
;MESH:
G1 F6000 E21.82155
G1 F1500 X92.225 Y107.9 E22.87756
G1 X92.225 Y104.1 E23.00395
G1 X127.775 Y104.1 E24.18635
G1 X127.775 Y115.9 E24.57882
G1 X123.975 Y115.9 E24.7052
G1 X123.975 Y107.9 E24.97129
G0 F5400 X123.575 Y108.3
;TYPE:WALL-OUTER
G1 F1500 X91.825 Y108.3 E26.02729
G1 X91.825 Y103.7 E26.18029
G1 X128.175 Y103.7 E27.3893
G1 X128.175 Y116.3 E27.80838
G1 X123.575 Y116.3 E27.96137
G1 X123.575 Y108.3 E28.22745
G0 F5400 X123.375 Y108.3
G0 X123.375 Y107.86
;;retract;;
G1 F6000 E20.22745
G0 F5400 X122.717 Y109.158
G0 X122.717 Y117.158
G0 X129.033 Y117.158
G0 X129.045 Y115.66
G0 X127.533 Y115.66
;TYPE:SKIN
G1 F6000 E28.22745
G1 F1500 X127.533 Y115.145 E28.24458
G1 X127.533 Y114.579 E28.26341
G1 X126.453 Y115.66 E28.31423
G1 X125.887 Y115.66 E28.33306
G1 X127.533 Y114.013 E28.4105
G1 X127.533 Y113.448 E28.42929
G1 X125.321 Y115.66 E28.53334
G1 X124.756 Y115.66 E28.55213
G1 X127.533 Y112.882 E28.68278
G1 X127.533 Y112.316 E28.7016
G1 X124.214 Y115.636 E28.85774
G1 X124.214 Y115.07 E28.87657
G1 X127.533 Y111.751 E29.03268
G1 X127.533 Y111.185 E29.05151
G1 X124.214 Y114.504 E29.20762
G1 X124.214 Y113.938 E29.22645
G1 X127.533 Y110.619 E29.38256
G1 X127.533 Y110.054 E29.40136
G1 X124.214 Y113.373 E29.55747
G1 X124.214 Y112.807 E29.5763
G1 X127.533 Y109.488 E29.73241
G1 X127.533 Y108.922 E29.75124
G1 X124.214 Y112.241 E29.90735
G1 X124.214 Y111.676 E29.92614
G1 X127.533 Y108.357 E30.08226
G1 X127.533 Y107.791 E30.10109
G1 X124.214 Y111.11 E30.2572
G1 X124.214 Y110.544 E30.27603
G1 X127.533 Y107.225 E30.43214
G1 X127.533 Y106.659 E30.45097
G1 X124.214 Y109.979 E30.60711
G1 X124.214 Y109.413 E30.62593
G1 X127.533 Y106.094 E30.78205
G1 X127.533 Y105.528 E30.80087
G1 X124.214 Y108.847 E30.95699
G1 X124.214 Y108.282 E30.97578
G1 X127.533 Y104.962 E31.13192
G1 X127.533 Y104.397 E31.15071
G1 X124.214 Y107.716 E31.30683
G1 X124.214 Y107.659 E31.30872
G1 X123.705 Y107.659 E31.32565
G1 X127.026 Y104.339 E31.48184
G1 X126.46 Y104.339 E31.50066
G1 X123.139 Y107.659 E31.65685
G1 X122.574 Y107.659 E31.67564
G1 X125.894 Y104.339 E31.8318
G1 X125.329 Y104.339 E31.8506
G1 X122.008 Y107.659 E32.00678
G1 X121.442 Y107.659 E32.02561
G1 X124.763 Y104.339 E32.18179
G1 X124.197 Y104.339 E32.20062
G1 X120.877 Y107.659 E32.35678
G1 X120.311 Y107.659 E32.37561
G1 X123.631 Y104.339 E32.53177
G1 X123.066 Y104.339 E32.55056
G1 X119.745 Y107.659 E32.70675
G1 X119.18 Y107.659 E32.72554
G1 X122.5 Y104.339 E32.8817
G1 X121.934 Y104.339 E32.90053
G1 X118.614 Y107.659 E33.05669
G1 X118.048 Y107.659 E33.07552
G1 X121.369 Y104.339 E33.2317
G1 X120.803 Y104.339 E33.25053
G1 X117.482 Y107.659 E33.40671
G1 X116.917 Y107.659 E33.4255
G1 X120.237 Y104.339 E33.58167
G1 X119.672 Y104.339 E33.60046
G1 X116.351 Y107.659 E33.75665
G1 X115.785 Y107.659 E33.77547
G1 X119.106 Y104.339 E33.93166
G1 X118.54 Y104.339 E33.95048
G1 X115.22 Y107.659 E34.10664
G1 X114.654 Y107.659 E34.12547
G1 X117.975 Y104.339 E34.28166
G1 X117.409 Y104.339 E34.30048
G1 X114.088 Y107.659 E34.45667
G1 X113.523 Y107.659 E34.47546
G1 X116.843 Y104.339 E34.63162
G1 X116.278 Y104.339 E34.65041
G1 X112.957 Y107.659 E34.8066
G1 X112.391 Y107.659 E34.82543
G1 X115.712 Y104.339 E34.98161
G1 X115.146 Y104.339 E35.00044
G1 X111.826 Y107.659 E35.1566
G1 X111.26 Y107.659 E35.17542
G1 X114.58 Y104.339 E35.33159
G1 X114.015 Y104.339 E35.35038
G1 X110.694 Y107.659 E35.50657
G1 X110.129 Y107.659 E35.52536
G1 X113.449 Y104.339 E35.68152
G1 X112.883 Y104.339 E35.70035
G1 X109.563 Y107.659 E35.85651
G1 X108.997 Y107.659 E35.87533
G1 X112.318 Y104.339 E36.03152
G1 X111.752 Y104.339 E36.05034
G1 X108.431 Y107.659 E36.20653
G1 X107.866 Y107.659 E36.22532
G1 X111.186 Y104.339 E36.38149
G1 X110.621 Y104.339 E36.40028
G1 X107.3 Y107.659 E36.55646
G1 X106.734 Y107.659 E36.57529
G1 X110.055 Y104.339 E36.73147
G1 X109.489 Y104.339 E36.7503
G1 X106.169 Y107.659 E36.90646
G1 X105.603 Y107.659 E36.92529
G1 X108.924 Y104.339 E37.08147
G1 X108.358 Y104.339 E37.1003
G1 X105.037 Y107.659 E37.25649
G1 X104.472 Y107.659 E37.27528
G1 X107.792 Y104.339 E37.43144
G1 X107.227 Y104.339 E37.45023
G1 X103.906 Y107.659 E37.60642
G1 X103.34 Y107.659 E37.62524
G1 X106.661 Y104.339 E37.78143
G1 X106.095 Y104.339 E37.80025
G1 X102.775 Y107.659 E37.95642
G1 X102.209 Y107.659 E37.97524
G1 X105.53 Y104.339 E38.13143
G1 X104.964 Y104.339 E38.15025
G1 X101.643 Y107.659 E38.30644
G1 X101.078 Y107.659 E38.32523
G1 X104.398 Y104.339 E38.48139
G1 X103.832 Y104.339 E38.50022
G1 X100.512 Y107.659 E38.65638
G1 X99.946 Y107.659 E38.67521
G1 X103.267 Y104.339 E38.83139
G1 X102.701 Y104.339 E38.85022
G1 X99.381 Y107.659 E39.00638
G1 X98.815 Y107.659 E39.02521
G1 X102.135 Y104.339 E39.18137
G1 X101.57 Y104.339 E39.20016
G1 X98.249 Y107.659 E39.35635
G1 X97.683 Y107.659 E39.37517
G1 X101.004 Y104.339 E39.53136
G1 X100.438 Y104.339 E39.55018
G1 X97.118 Y107.659 E39.70635
G1 X96.552 Y107.659 E39.72517
G1 X99.873 Y104.339 E39.88136
G1 X99.307 Y104.339 E39.90018
G1 X95.986 Y107.659 E40.05637
G1 X95.421 Y107.659 E40.07516
G1 X98.741 Y104.339 E40.23132
G1 X98.176 Y104.339 E40.25012
G1 X94.855 Y107.659 E40.4063
G1 X94.289 Y107.659 E40.42513
G1 X97.61 Y104.339 E40.58131
G1 X97.044 Y104.339 E40.60014
G1 X93.724 Y107.659 E40.7563
G1 X93.158 Y107.659 E40.77513
G1 X96.479 Y104.339 E40.93131
G1 X95.913 Y104.339 E40.95014
G1 X92.592 Y107.659 E41.10632
G1 X92.464 Y107.659 E41.11058
G1 X92.465 Y107.221 E41.12515
G1 X95.347 Y104.339 E41.26071
G1 X94.782 Y104.339 E41.2795
G1 X92.465 Y106.655 E41.38846
G1 X92.465 Y106.09 E41.40726
G1 X94.216 Y104.339 E41.48962
G1 X93.65 Y104.339 E41.50844
G1 X92.465 Y105.524 E41.56418
G1 X92.465 Y104.958 E41.58301
G1 X93.084 Y104.339 E41.61212
G1 X92.519 Y104.339 E41.63091
G0 F5400 X92.465 Y104.339
G1 F1500 X92.465 Y104.393 E41.63271
;;retract;;
G1 F6000 E33.63271
G0 F5400 X92.465 Y102.83
G0 X90.967 Y102.842
G0 X90.967 Y109.158
G0 X122.717 Y117.158
G0 X127.019 Y117.17
G0 X127.019 Y115.66
G1 F6000 E41.63271
G1 F1500 X127.533 Y115.145 E41.65691
;;retract;;
G1 F6000 E33.65691
;MESH:NONMESH
G0 F600 X127.533 Y115.145 Z0.6
G0 F5400 X129.045 Y115.145
G0 X129.033 Y117.158
G0 X122.717 Y117.158
G0 X122.717 Y109.158
G0 X123.975 Y107.9
;TIME_ELAPSED:67.704853

;LAYER:2
M106 S255
;TYPE:WALL-INNER
;MESH:
G1 F6000 E41.65691
G1 F1500 X92.225 Y107.9 E42.71292
G1 X92.225 Y104.1 E42.83931
G1 X127.775 Y104.1 E44.02171
G1 X127.775 Y115.9 E44.41418
G1 X123.975 Y115.9 E44.54056
G1 X123.975 Y107.9 E44.80665
G0 F7200 X123.575 Y108.3
;TYPE:WALL-OUTER
G1 F1500 X91.825 Y108.3 E45.86266
G1 X91.825 Y103.7 E46.01565
G1 X128.175 Y103.7 E47.22466
G1 X128.175 Y116.3 E47.64374
