;FLAVOR:Marlin
;TIME:4437
;Filament used:3.3292m
;Layer height: 0.2
;MINX:54.302
;MINY:83.499
;MINZ:0.24
;MAXX:164.46
;MAXY:136.196
;MAXZ:9.89
                               
;Creality Print GCode Generated by CXEngine:NO_MAGE_VERSION_GIT_HEAD_BRANCH
;CXEngine Release Time:2022-09-30 09:53:04
;Gcode Generated Time:2023-05-05 12:57:50
;----------Machine Config--------------
;Machine Name:Ender-3 V2
;Machine Height:250
;Machine Width:220
;Machine Depth:220
;Material name:PLA
;Number of Extruders:1
;ExtruderParams[0] Nozzle Diameter1000
;----------Profile Config---------------
;Engine Version:275f99b
;Engine Release Time:2022-09-30 09:42:18
;Layer Height:0.2
;Wall Thickness:0.8
;Top/Bottom Thickness:1
;Out Wall Line Width:0.4
;Inner Wall Line Width:0.4
;Inital Layer Height:200
;Wall Line Count:2
;Infill Line Distance:4
;Infill Pattern:grid
;Infill Sparse Density:20
;Infill Wipe Distance:0
;Print Temperature:200
;Bed Temperature:60
;Support Enable:true
;Support Density:0
;Support Angle:60
;Adhesion Type:simpleraft
;machine is belt:false
;machine belt offset:10
;machine belt offset Y:0
;Raft Base Line Spacing:1.6
;Wait Heatup Sync:true
;----------Shell Config----------------
;Outer Wall Wipe Distance:200
;Outer Inset First:false
;Infill Before Walls:false
;Infill Overlap:0.16
;Fill Gaps Between Walls:everywhere
;Minimum Infill Area:1
;Top Surface Skin Layer:0
;Top Layers:3
;Z Seam Alignment:sharpest_corner
;Seam Corner Preference:z_seam_corner_inner
;Z Seam X:110
;Z Seam Y:110
;Horizontal Expansion:0
;Top/Bottom Pattern:zigzag
;Ironing Pattern:zigzag
;Vase Model:false
;----------Support Config----------------
;Support Type:everywhere
;Support Pattern:zigzag
;Support Infill Layer Thickness:0.2
;Minimum Support Area:5
;Enable Support Roof:false
;Support Roof Thickness:0.8
;Support Roof Pattern:lines
;Connect Support Lines:0
;Connect Support ZigZags:1
;Minimum Support X/Y Distance:0.2
;Support Line Distance:0
; ---------PrintSpeed & Travel----------
;Enable Print Cool:true
;Avoid Printed Parts Traveling:true
;Enable Retraction:true
;Retraction Distance:8
;Retraction Speed:100
;Retraction Prime Speed:100
;Maximum Retraction Count:100
;Minimum Extrusion Distance Window:1
;Z Hop When Retracted:false
;Z Hop Height:0.2
;Retract Before Outer Wall:true
;Print Speed:50
;Infill Speed:50

;Prime Tower Speed:50
;Travel Speed:120
;Initial Layer Speed:25
;Skirt/Brim Speed:25
;Combing Mode:infill
; --------SpecialModel&Mesh Fixes--------
;Union Overlapping Volum:true
;Remove All Holes:false
;Maximum Travel Resolution:0.6
;Maximum Deviation:0.05
;Maximum Model Angle:0.872665
;IS Mold Print:false
;Make Overhang Printable:false
;Enable Coasting:false
;Coasting Volumes:0.06
;Coasting Speed:0.9
;Raft AirGap:0.25
;Layer0 ZOverLap:0.13
;---------------------End of Head--------------------------
M140 S60
M105
M104 S200
M105
M109 S200
M105
M190 S60
M82 ;absolute extrusion mode
M220 S100 ;Reset Feedrate
M221 S100 ;Reset Flowrate

G28 ;Home

G92 E0 ;Reset Extruder
G1 Z2.0 F3000 ;Move Z Axis up
G1 X10.1 Y20 Z0.28 F5000.0 ;Move to start position
G1 X10.1 Y145.0 Z0.28 F1500.0 E15 ;Draw the first line
G1 X10.4 Y145.0 Z0.28 F5000.0 ;Move to side a little
G1 X10.4 Y20 Z0.28 F1500.0 E30 ;Draw the second line
G92 E0  ;Reset Extruder
G1 E-1.0000 F1800 ;Retract a bit
G1 Z2.0 F3000 ;Move Z Axis up
G1 E0.0000 F1800 

G92 E0
G92 E0
G1 F6000 E-8

;LAYER_COUNT:45

;LAYER:-4
M107
G0 F7200 X56 Y89.089 Z0.24
;TYPE:SUPPORT-INTERFACE
G1 F6000 E0
G1 F1200 X56 Y112.52 E2.0574
G1 X55.698 Y111.915 E2.11677
G1 X55.389 Y111.118 E2.19183
G1 X55.163 Y110.334 E2.26348
G1 X55.006 Y109.527 E2.33566
G1 X54.922 Y108.732 E2.40586
G1 X54.902 Y93.513 E3.74219
G1 X54.951 Y92.508 E3.83054
G1 X55.074 Y91.676 E3.90439
G1 X55.262 Y90.885 E3.97578
G1 X55.519 Y90.116 E4.04698
G1 X55.848 Y89.367 E4.11881
G1 X56.259 Y88.618 E4.19383
G1 X56.721 Y87.935 E4.26623
G1 X57.221 Y87.317 E4.33603
G1 X57.6 Y86.916 E4.38448
G1 X57.6 Y114.689 E6.82314
G1 X57.604 Y114.694 E6.8237
G1 X58.119 Y115.181 E6.88594
G1 X58.737 Y115.681 E6.95574
G1 X59.2 Y115.994 E7.00481
G1 X59.2 Y85.602 E9.67343
G1 X59.757 Y85.26 E9.73082
G1 X60.487 Y84.896 E9.80245
G1 X60.8 Y84.774 E9.83195
G1 X60.8 Y116.83 E12.64668
G1 X60.91 Y116.879 E12.65725
G1 X61.683 Y117.138 E12.72884
G1 X62.4 Y117.309 E12.79356
G1 X62.4 Y84.296 E15.69232
G1 X62.875 Y84.204 E15.73481
G1 X63.663 Y84.121 E15.80438
G1 X64 Y84.109 E15.83399
G1 X64 Y117.487 E18.76481
G1 X64.172 Y117.497 E18.77993
G1 X65.6 Y117.497 E18.90532
G1 X65.6 Y84.1 E21.8378
G1 X67.2 Y84.1 E21.9783
G1 X67.2 Y117.498 E24.91087
G1 X68.8 Y117.499 E25.05136
G1 X68.8 Y84.1 E27.98401
G1 X70.4 Y84.1 E28.1245
G1 X70.4 Y117.5 E31.05725
G1 X72 Y117.501 E31.19774
G1 X72 Y84.1 E34.13058
G1 X73.6 Y84.1 E34.27107
G1 X73.6 Y117.501 E37.2039
G1 X75.2 Y117.502 E37.34439
G1 X75.2 Y84.1 E40.27731
G1 X76.8 Y84.1 E40.4178
G1 X76.8 Y117.503 E43.35081
G1 X78.4 Y117.504 E43.4913
G1 X78.4 Y84.1 E46.4244
G1 X80 Y84.1 E46.56489
G1 X80 Y117.505 E49.49808
G1 X81.6 Y117.505 E49.63857
G1 X81.6 Y84.1 E52.57175
G1 X83.2 Y84.1 E52.71224
G1 X83.2 Y117.506 E55.64551
G1 X84.8 Y117.507 E55.786
G1 X84.8 Y84.1 E58.71937
G1 X86.4 Y84.1 E58.85986
G1 X86.4 Y117.508 E61.7933
G1 X88 Y117.509 E61.9338
G1 X88 Y84.1 E64.86733
G1 X89.6 Y84.1 E65.00782
G1 X89.6 Y117.51 E67.94145
G1 X91.2 Y117.51 E68.08194
G1 X91.2 Y84.1 E71.01556
G1 X92.8 Y84.1 E71.15605
G1 X92.8 Y117.783 E74.11365
G1 X92.819 Y117.788 E74.11537
G1 X93.501 Y118.062 E74.17991
G1 X94.141 Y118.419 E74.24426
G1 X94.4 Y118.609 E74.27246
G1 X94.4 Y84.1 E77.30258
G1 X96 Y84.1 E77.44308
G1 X96 Y120.365 E80.62739
G1 X96.115 Y120.55 E80.64651
G1 X96.421 Y121.216 E80.71087
G1 X96.642 Y121.919 E80.77558
G1 X96.798 Y122.903 E80.86306
G1 X96.958 Y123.73 E80.93702
G1 X97.26 Y124.734 E81.02908
G1 X97.6 Y125.522 E81.10444
G1 X97.6 Y84.1 E84.74157
G1 X99.2 Y84.1 E84.88206
G1 X99.2 Y130.074 E88.91889
G1 X99.431 Y130.505 E88.96183
G1 X99.865 Y131.167 E89.03133
G1 X100.384 Y131.821 E89.10464
G1 X100.8 Y132.259 E89.15768
G1 X100.8 Y84.1 E93.38637
G1 X102.4 Y84.1 E93.52686
G1 X102.4 Y133.554 E97.86926
G1 X103.71 Y134.387 E98.00557
G1 X104 Y134.534 E98.03412
G1 X104 Y84.1 E102.46256
G1 X105.6 Y84.1 E102.60305
G1 X105.6 Y135.184 E107.08858
G1 X105.971 Y135.297 E107.12263
G1 X106.749 Y135.461 E107.19244
G1 X107.2 Y135.514 E107.23232
G1 X107.2 Y84.1 E111.74681
G1 X108.8 Y84.1 E111.8873
G1 X108.8 Y135.559 E116.40575
G1 X109.226 Y135.532 E116.44323
G1 X110.4 Y135.34 E116.54769
G1 X110.4 Y84.1 E121.04691
G1 X112 Y84.1 E121.1874
G1 X112 Y135.244 E125.67819
G1 X113.361 Y135.381 E125.7983
G1 X113.6 Y135.392 E125.8193
G1 X113.6 Y84.1 E130.32309
G1 X115.2 Y84.1 E130.46358
G1 X115.2 Y135.47 E134.97421
G1 X115.312 Y135.476 E134.98406
G1 X116.8 Y135.458 E135.11473
G1 X116.8 Y84.1 E139.62431
G1 X118.4 Y84.1 E139.7648
G1 X118.4 Y135.427 E144.27165
G1 X120 Y135.345 E144.41233
G1 X120 Y84.1 E148.91199
G1 X121.6 Y84.1 E149.05248
G1 X121.6 Y135.166 E153.53642
G1 X121.904 Y135.128 E153.56332
G1 X122.633 Y135.117 E153.62734
G1 X123.2 Y135.182 E153.67745
G1 X123.2 Y84.1 E158.16279
G1 X124.8 Y84.1 E158.30329
G1 X124.8 Y135.289 E162.79803
G1 X125.283 Y135.301 E162.84045
G1 X126.278 Y135.378 E162.92808
G1 X126.4 Y135.395 E162.93889
G1 X126.4 Y84.136 E167.43978
G1 X126.697 Y84.15 E167.46589
G1 X127.522 Y84.272 E167.53912
G1 X128 Y84.387 E167.58229
G1 X128 Y135.515 E172.07167
G1 X128.795 Y135.488 E172.14152
G1 X129.6 Y135.366 E172.21301
G1 X129.6 Y84.79 E176.65392
G1 X130.137 Y84.856 E176.70143
G1 X131.2 Y84.829 E176.7948
G1 X131.2 Y135.065 E181.20586
G1 X131.562 Y134.98 E181.23851
G1 X132.671 Y134.625 E181.34075
G1 X132.8 Y134.607 E181.35219
G1 X132.8 Y84.885 E185.71812
G1 X133.504 Y84.979 E185.78048
G1 X134.316 Y85.174 E185.85381
G1 X134.4 Y85.199 E185.8615
G1 X134.4 Y134.488 E190.18941
G1 X134.592 Y134.493 E190.20628
G1 X135.323 Y134.604 E190.2712
G1 X136 Y134.814 E190.33344
G1 X136 Y85.627 E194.65239
G1 X136.03 Y85.633 E194.65508
G1 X136.846 Y85.881 E194.72996
G1 X137.566 Y86.171 E194.79812
G1 X137.6 Y86.189 E194.8015
G1 X137.6 Y135.198 E199.10482
G1 X138.045 Y135.269 E199.14439
G1 X139.2 Y135.382 E199.24629
G1 X139.2 Y87.142 E203.48209
G1 X139.689 Y87.519 E203.5363
G1 X140.474 Y88.254 E203.63073
G1 X140.8 Y88.61 E203.67311
G1 X140.8 Y135.454 E207.78633
G1 X142.4 Y135.338 E207.92719
G1 X142.4 Y90.583 E211.85699
G1 X142.944 Y91.427 E211.94515
G1 X143.368 Y92.162 E212.01966
G1 X143.726 Y92.943 E212.0951
G1 X143.993 Y93.701 E212.16567
G1 X144 Y93.728 E212.16811
G1 X144 Y135.453 E215.83185
G1 X144.526 Y135.51 E215.87831
G1 X145.6 Y135.568 E215.97275
G1 X145.6 Y111.055 E218.12516
G1 X145.927 Y111.459 E218.1708
G1 X146.458 Y111.965 E218.2352
G1 X147.046 Y112.402 E218.29953
G1 X147.2 Y112.489 E218.31506
G1 X147.2 Y135.543 E220.33936
G1 X148.128 Y135.462 E220.42115
G1 X148.8 Y135.356 E220.48089
G1 X148.8 Y113.151 E222.43063
G1 X149.082 Y113.225 E222.45623
G1 X150.4 Y113.37 E222.57266
G1 X150.4 Y135.116 E224.48211
G1 X150.408 Y135.114 E224.48283
G1 X152 Y135.157 E224.62267
G1 X152 Y113.629 E226.51298
G1 X152.138 Y113.66 E226.52539
G1 X153.221 Y113.955 E226.62395
G1 X153.6 Y113.992 E226.65739
G1 X153.6 Y135.039 E228.50546
G1 X153.931 Y135.012 E228.53462
G1 X154.95 Y134.858 E228.62511
G1 X155.2 Y134.797 E228.64771
G1 X155.2 Y114.144 E230.46118
G0 F7200 X155.201 Y114.144
G1 F1200 X156.208 Y114.361 E230.55163
G1 X156.8 Y114.554 E230.60631
G1 X156.8 Y134.281 E232.33847
G1 X158.245 Y133.674 E232.47609
G1 X158.4 Y133.592 E232.49149
G1 X158.4 Y115.29 E234.09853
G1 X158.471 Y115.328 E234.1056
G1 X159.225 Y115.821 E234.1847
G1 X160 Y116.414 E234.27039
G1 X160 Y132.568 E235.68882
G1 X160.296 Y132.334 E235.72195
G1 X160.882 Y131.783 E235.79258
G1 X161.44 Y131.155 E235.86634
G1 X161.924 Y130.5 E235.93785
G1 X162.357 Y129.788 E236.01103
G1 X162.79 Y128.9 E236.09777
G1 X163.2 Y127.875 E236.19471
G1 X163.2 Y120.988 E236.79943
G1 X162.909 Y120.16 E236.8765
G1 X162.57 Y119.438 E236.94653
G1 X162.147 Y118.713 E237.02024
G1 X161.671 Y118.046 E237.09219
G1 X161.6 Y117.964 E237.10171
G1 X161.6 Y130.939 E238.24101
G0 F600 X161.6 Y130.939 Z0.47
G0 F7200 X163.736 Y121.309
;TIME_ELAPSED:142.605538

;LAYER:-3
;TYPE:SUPPORT
G1 F1800 X156.444 Y114.018 E239.02984
G1 X157.118 Y114.236 E239.08403
G1 X157.883 Y114.558 E239.14752
G1 X158.674 Y114.982 E239.21617
G1 X159.107 Y115.266 E239.25579
G1 X162.688 Y118.847 E239.6432
G1 X162.923 Y119.25 E239.67889
G1 X163.279 Y120.007 E239.74288
G1 X163.77 Y121.403 E239.85608
G1 X164.054 Y122.454 E239.93937
G1 X164.175 Y123.163 E239.99439
G1 X154.707 Y113.695 E241.01868
G1 X153.293 Y113.56 E241.12734
G1 X153.107 Y113.509 E241.1421
G1 X164.258 Y124.66 E242.34847
G1 X164.255 Y125.007 E242.37501
G1 X164.168 Y125.858 E242.44045
G1 X164.147 Y125.964 E242.44872
G1 X151.243 Y113.059 E243.84479
G1 X149.656 Y112.886 E243.96691
G1 X163.888 Y127.118 E245.5066
G1 X163.775 Y127.514 E245.5381
G1 X163.516 Y128.16 E245.59135
G1 X147.624 Y112.268 E247.31062
G1 X147.264 Y112.066 E247.3422
G1 X146.716 Y111.659 E247.39442
G1 X146.222 Y111.187 E247.44669
G1 X145.793 Y110.657 E247.49885
G1 X145.435 Y110.08 E247.55079
G1 X119.054 Y83.699 E250.40482
G1 X117.64 Y83.699 E250.51299
G1 X163.105 Y129.164 E255.43162
G1 X162.709 Y129.98 E255.501
G1 X162.632 Y130.105 E255.51223
G1 X116.226 Y83.699 E260.53266
G1 X114.812 Y83.699 E260.64083
G1 X162.078 Y130.965 E265.7543
G1 X161.753 Y131.406 E265.79621
G1 X161.447 Y131.748 E265.83131
G1 X113.398 Y83.699 E271.02949
G1 X111.983 Y83.699 E271.13774
G1 X160.744 Y132.46 E276.41294
G1 X160.553 Y132.641 E276.43307
G1 X159.969 Y133.099 E276.48985
G1 X110.569 Y83.699 E281.83419
G1 X109.155 Y83.699 E281.94235
G1 X159.116 Y133.66 E287.34738
G1 X158.414 Y134.037 E287.40834
G1 X158.177 Y134.136 E287.42799
G1 X107.741 Y83.699 E292.88446
G1 X106.326 Y83.699 E292.9927
G1 X157.181 Y134.553 E298.49439
G1 X156.743 Y134.739 E298.5308
G1 X156.155 Y134.942 E298.57838
G1 X104.912 Y83.699 E304.1221
G1 X103.498 Y83.699 E304.23027
G1 X155.045 Y135.246 E309.80688
G1 X155.019 Y135.253 E309.80894
G1 X153.98 Y135.41 E309.88933
G1 X153.808 Y135.423 E309.90252
G1 X102.084 Y83.699 E315.49828
G1 X100.67 Y83.699 E315.60645
G1 X152.498 Y135.528 E321.21351
G1 X152.102 Y135.561 E321.24391
G1 X151.089 Y135.533 E321.32143
G1 X99.255 Y83.699 E326.92909
G1 X97.841 Y83.699 E327.03726
G1 X149.755 Y135.613 E332.65357
G1 X149.37 Y135.67 E332.68335
G1 X148.529 Y135.801 E332.74846
G1 X96.427 Y83.699 E338.38511
G1 X95.013 Y83.699 E338.49328
G1 X147.252 Y135.938 E344.14475
G1 X147.003 Y135.961 E344.16388
G1 X146.116 Y135.996 E344.23179
G1 X145.883 Y135.983 E344.24964
G1 X93.599 Y83.699 E349.90598
G1 X92.184 Y83.699 E350.01423
G1 X144.382 Y135.896 E355.66121
G1 X142.798 Y135.727 E355.78307
G1 X90.77 Y83.699 E361.41172
G1 X89.356 Y83.699 E361.51989
G1 X141.463 Y135.806 E367.15708
G1 X140.713 Y135.861 E367.21461
G1 X140.094 Y135.852 E367.26196
G1 X87.942 Y83.699 E372.90408
G1 X86.527 Y83.699 E373.01232
G1 X138.549 Y135.72 E378.64027
G1 X137.992 Y135.666 E378.68308
G1 X137.052 Y135.516 E378.7559
G1 X136.887 Y135.473 E378.76894
G1 X85.113 Y83.699 E384.37011
G1 X83.699 Y83.699 E384.47827
G1 X134.951 Y134.951 E390.02297
G1 X134.558 Y134.892 E390.05337
G1 X133.728 Y134.875 E390.11688
G1 X133.493 Y134.908 E390.13503
G1 X82.285 Y83.699 E395.67502
G1 X80.871 Y83.699 E395.78319
G1 X132.325 Y135.154 E401.34979
G1 X131.666 Y135.367 E401.40277
G1 X131.225 Y135.468 E401.43738
G1 X79.456 Y83.699 E407.03801
G1 X78.042 Y83.699 E407.14618
G1 X130.044 Y135.7 E412.77196
G1 X128.826 Y135.887 E412.86622
G1 X128.815 Y135.886 E412.86707
G1 X76.628 Y83.699 E418.51291
G1 X75.214 Y83.699 E418.62108
G1 X127.416 Y135.901 E424.26855
G1 X126.934 Y135.873 E424.30549
G1 X126.235 Y135.776 E424.35947
G1 X125.845 Y135.744 E424.38941
G1 X73.8 Y83.699 E430.01989
G1 X72.385 Y83.699 E430.12814
G1 X124.364 Y135.678 E435.75148
G1 X123.921 Y135.669 E435.78538
G1 X122.811 Y135.538 E435.87088
G1 X70.971 Y83.699 E441.47914
G1 X69.557 Y83.699 E441.5873
G1 X121.444 Y135.587 E447.20075
G1 X120.304 Y135.729 E447.28863
G1 X120.178 Y135.734 E447.29828
G1 X68.143 Y83.699 E452.92768
G1 X66.728 Y83.699 E453.03593
G1 X118.833 Y135.804 E458.6729
G1 X118.113 Y135.842 E458.72806
G1 X117.463 Y135.848 E458.77779
G1 X65.314 Y83.699 E464.41952
G1 X64.256 Y83.7 E464.50046
G1 X63.912 Y83.711 E464.52679
G1 X116.066 Y135.865 E470.16906
G1 X115.298 Y135.876 E470.22782
G1 X114.629 Y135.842 E470.27906
G1 X62.63 Y83.843 E475.90457
G1 X61.974 Y83.971 E475.9557
G1 X61.147 Y84.21 E476.02156
G1 X60.442 Y84.483 E476.07939
G1 X111.577 Y135.618 E481.61143
G1 X111.689 Y135.615 E481.62
G1 X113.132 Y135.759 E481.73093
G1 X61.484 Y84.111 E487.31847
G0 F7200 X54.652 Y109.806
G1 F1800 X62.595 Y117.749 E488.17778
G1 X62.405 Y117.722 E488.19246
G1 X61.576 Y117.524 E488.25766
G1 X60.764 Y117.252 E488.32317
G1 X60.619 Y117.188 E488.3353
G1 X55.219 Y111.787 E488.91955
G1 X55.011 Y111.251 E488.96353
G1 X54.772 Y110.422 E489.02953
G1 X54.61 Y109.587 E489.0946
G1 X54.522 Y108.755 E489.1586
G1 X54.521 Y108.261 E489.19639
G1 X64.154 Y117.894 E490.23854
G1 X64.17 Y117.897 E490.23978
G1 X65.57 Y117.896 E490.34688
G1 X54.519 Y106.845 E491.54243
G1 X54.517 Y105.428 E491.65083
G1 X66.985 Y117.897 E492.99973
G1 X68.4 Y117.898 E493.10798
G1 X54.515 Y104.013 E494.61013
G1 X54.513 Y102.596 E494.71853
G1 X69.815 Y117.898 E496.37397
G1 X71.23 Y117.899 E496.48222
G1 X54.512 Y101.181 E498.29085
G1 X54.51 Y99.764 E498.39925
G1 X72.645 Y117.9 E500.36124
G1 X74.06 Y117.9 E500.46948
G1 X54.508 Y98.348 E502.58472
G1 X54.506 Y96.933 E502.69296
G1 X75.475 Y117.901 E504.96144
G1 X76.89 Y117.902 E505.06968
G1 X54.504 Y95.516 E507.49151
G1 X54.503 Y94.101 E507.59976
G1 X78.305 Y117.902 E510.17472
G1 X79.72 Y117.904 E510.28297
G1 X54.539 Y92.722 E513.00723
G1 X54.552 Y92.472 E513.02638
G1 X54.68 Y91.603 E513.09357
G1 X54.708 Y91.478 E513.10337
G1 X81.135 Y117.905 E515.96237
G1 X82.55 Y117.905 E516.07062
G1 X55.012 Y90.368 E519.04976
G1 X55.147 Y89.968 E519.08206
G1 X55.414 Y89.355 E519.1332
G1 X83.965 Y117.906 E522.22199
G1 X85.38 Y117.907 E522.33024
G1 X55.903 Y88.43 E525.51921
G1 X55.912 Y88.418 E525.52035
G1 X56.403 Y87.691 E525.58746
