;FLAVOR:Marlin
;TIME:1864
;Filament used:0.591284m
;Layer height: 0.1
;MINX:91.859
;MINY:91.86
;MINZ:0.24
;MAXX:128.139
;MAXY:128.14
;MAXZ:7.29
                              
;Creality Print GCode Generated by CXEngine:NO_MAGE_VERSION_GIT_HEAD_BRANCH
;CXEngine Release Time:2022-09-30 09:53:04
;Gcode Generated Time:2023-05-03 15:52:03
;----------Machine Config--------------
;Machine Name:Ender-3 V2
;Machine Height:250
;Machine Width:220
;Machine Depth:220
;Material name:PLA
;Number of Extruders:1
;ExtruderParams[0] Nozzle Diameter1000
;----------Profile Config---------------
;Engine Version:275f99b
;Engine Release Time:2022-09-30 09:42:18
;Layer Height:0.1
;Wall Thickness:0.8
;Top/Bottom Thickness:0.5
;Out Wall Line Width:0.4
;Inner Wall Line Width:0.4
;Inital Layer Height:100
;Wall Line Count:2
;Infill Line Distance:4
;Infill Pattern:grid
;Infill Sparse Density:20
;Infill Wipe Distance:0
;Print Temperature:200
;Bed Temperature:60
;Support Enable:true
;Support Density:0
;Support Angle:60
;Adhesion Type:raft
;machine is belt:false
;machine belt offset:10
;machine belt offset Y:0
;Raft Base Line Spacing:1.6
;Wait Heatup Sync:true
;----------Shell Config----------------
;Outer Wall Wipe Distance:200
;Outer Inset First:false
;Infill Before Walls:false
;Infill Overlap:0.16
;Fill Gaps Between Walls:everywhere
;Minimum Infill Area:1
;Top Surface Skin Layer:0
;Top Layers:4
;Z Seam Alignment:sharpest_corner
;Seam Corner Preference:z_seam_corner_inner
;Z Seam X:110
;Z Seam Y:110
;Horizontal Expansion:0
;Top/Bottom Pattern:zigzag
;Ironing Pattern:zigzag
;Vase Model:false
;----------Support Config----------------
;Support Type:everywhere
;Support Pattern:zigzag
;Support Infill Layer Thickness:0.1
;Minimum Support Area:5
;Enable Support Roof:false
;Support Roof Thickness:0.8
;Support Roof Pattern:lines
;Connect Support Lines:0
;Connect Support ZigZags:1
;Minimum Support X/Y Distance:0.2
;Support Line Distance:0
; ---------PrintSpeed & Travel----------
;Enable Print Cool:true
;Avoid Printed Parts Traveling:true
;Enable Retraction:true
;Retraction Distance:8
;Retraction Speed:100
;Retraction Prime Speed:100
;Maximum Retraction Count:100
;Minimum Extrusion Distance Window:1
;Z Hop When Retracted:false
;Z Hop Height:0.2
;Retract Before Outer Wall:true
;Print Speed:50
;Infill Speed:50

;Prime Tower Speed:50
;Travel Speed:120
;Initial Layer Speed:25
;Skirt/Brim Speed:25
;Combing Mode:infill
; --------SpecialModel&Mesh Fixes--------
;Union Overlapping Volum:true
;Remove All Holes:false
;Maximum Travel Resolution:0.6
;Maximum Deviation:0.05
;Maximum Model Angle:0.872665
;IS Mold Print:false
;Make Overhang Printable:false
;Enable Coasting:false
;Coasting Volumes:0.06
;Coasting Speed:0.9
;Raft AirGap:0.25
;Layer0 ZOverLap:0.13
;---------------------End of Head--------------------------
M140 S60
M105
M104 S200
M105
M109 S200
M105
M190 S60
M82 ;absolute extrusion mode
M220 S100 ;Reset Feedrate
M221 S100 ;Reset Flowrate

G28 ;Home

G92 E0 ;Reset Extruder
G1 Z2.0 F3000 ;Move Z Axis up
G1 X10.1 Y20 Z0.28 F5000.0 ;Move to start position
G1 X10.1 Y145.0 Z0.28 F1500.0 E15 ;Draw the first line
G1 X10.4 Y145.0 Z0.28 F5000.0 ;Move to side a little
G1 X10.4 Y20 Z0.28 F1500.0 E30 ;Draw the second line
G92 E0  ;Reset Extruder
G1 E-1.0000 F1800 ;Retract a bit
G1 Z2.0 F3000 ;Move Z Axis up
G1 E0.0000 F1800 

G92 E0
G92 E0
G1 F6000 E-8

;LAYER_COUNT:66

;LAYER:-6
M107
G0 F7200 X97.088 Y97.538 Z0.24
;TYPE:SUPPORT-INTERFACE
G1 F6000 E0
G1 F1200 X97.723 Y96.915 E0.07101
G1 X98.464 Y96.255 E0.15022
G1 X99.147 Y95.71 E0.21997
G1 X99.955 Y95.13 E0.29937
G1 X100.67 Y94.671 E0.36719
G1 X101.577 Y94.155 E0.45049
G1 X102.369 Y93.759 E0.52117
G1 X103.265 Y93.366 E0.59927
G1 X104.06 Y93.065 E0.66713
G1 X105.057 Y92.748 E0.75064
G1 X105.878 Y92.535 E0.81834
G1 X106.893 Y92.328 E0.90103
G1 X107.766 Y92.197 E0.9715
G1 X108.76 Y92.098 E1.05124
G1 X109.594 Y92.06 E1.11788
G1 X110.651 Y92.067 E1.20225
G1 X111.514 Y92.12 E1.27127
G1 X112.494 Y92.229 E1.34998
G1 X113.321 Y92.364 E1.41687
G1 X114.339 Y92.587 E1.50006
G1 X115.175 Y92.817 E1.56927
G1 X116.141 Y93.138 E1.65053
G1 X116.931 Y93.448 E1.71827
G1 X117.877 Y93.877 E1.80119
G1 X118.691 Y94.303 E1.87452
G1 X120.09 Y95.161 E2.00553
G1 X121.054 Y95.864 E2.10077
G1 X121.712 Y96.404 E2.16871
G1 X122.471 Y97.097 E2.25076
G1 X123.094 Y97.731 E2.32171
G1 X123.758 Y98.481 E2.40167
G1 X124.279 Y99.134 E2.46835
G1 X124.883 Y99.973 E2.55087
G1 X125.352 Y100.709 E2.62054
G1 X125.845 Y101.576 E2.70015
G1 X126.236 Y102.358 E2.76994
G1 X126.625 Y103.242 E2.84704
G1 X126.926 Y104.034 E2.91467
G1 X127.246 Y105.035 E2.99856
G1 X127.468 Y105.891 E3.06915
G1 X127.673 Y106.887 E3.15032
G1 X127.801 Y107.745 E3.21957
G1 X127.901 Y108.735 E3.299
G1 X127.94 Y109.585 E3.36692
G1 X127.933 Y110.647 E3.45169
G1 X127.883 Y111.48 E3.51831
G1 X127.763 Y112.542 E3.60362
G1 X127.628 Y113.353 E3.66925
G1 X127.414 Y114.331 E3.74916
G1 X127.19 Y115.151 E3.81702
G1 X126.863 Y116.14 E3.90017
G1 X126.557 Y116.921 E3.96712
G1 X126.115 Y117.891 E4.05221
G1 X125.697 Y118.691 E4.12426
G1 X125.221 Y119.503 E4.1994
G1 X124.75 Y120.22 E4.26788
G1 X124.136 Y121.054 E4.35055
G1 X123.605 Y121.702 E4.41742
G1 X122.912 Y122.462 E4.49952
G1 X122.277 Y123.085 E4.57053
G1 X121.536 Y123.745 E4.64974
G1 X120.844 Y124.296 E4.72035
G1 X120.045 Y124.87 E4.79888
G1 X119.33 Y125.329 E4.86671
G1 X118.423 Y125.845 E4.95
G1 X117.635 Y126.239 E5.02033
G1 X116.735 Y126.634 E5.09879
G1 X115.94 Y126.935 E5.16664
G1 X114.943 Y127.252 E5.25015
G1 X114.122 Y127.465 E5.31786
G1 X113.107 Y127.672 E5.40055
G1 X112.234 Y127.803 E5.47102
G1 X111.24 Y127.902 E5.55075
G1 X110.406 Y127.94 E5.6174
G1 X109.353 Y127.933 E5.70145
G1 X108.517 Y127.883 E5.76831
G1 X107.446 Y127.761 E5.85435
G1 X106.659 Y127.631 E5.91802
G1 X105.662 Y127.412 E5.99951
G1 X104.874 Y127.198 E6.06468
G1 X103.853 Y126.86 E6.15054
G1 X103.068 Y126.552 E6.21785
G1 X102.113 Y126.118 E6.30158
G1 X101.3 Y125.692 E6.37485
G1 X99.91 Y124.839 E6.50503
G1 X98.936 Y124.128 E6.60129
G1 X98.288 Y123.596 E6.66822
G1 X97.529 Y122.903 E6.75026
G1 X96.906 Y122.269 E6.82121
G1 X96.242 Y121.519 E6.90117
G1 X95.715 Y120.858 E6.96865
G1 X95.112 Y120.019 E7.05113
G1 X94.643 Y119.282 E7.12086
G1 X94.156 Y118.425 E7.19954
G1 X93.751 Y117.613 E7.27198
G1 X93.366 Y116.735 E7.3485
G1 X93.061 Y115.929 E7.4173
G1 X92.748 Y114.943 E7.49987
G1 X92.533 Y114.113 E7.56831
G1 X92.328 Y113.107 E7.65027
G1 X92.197 Y112.231 E7.72097
G1 X92.098 Y111.244 E7.80015
G1 X92.06 Y110.412 E7.86664
G1 X92.067 Y109.349 E7.95149
G1 X92.121 Y108.481 E8.02091
G1 X92.234 Y107.476 E8.10164
G1 X92.375 Y106.629 E8.17018
G1 X92.765 Y105 E8.30389
G1 X93.141 Y103.85 E8.40047
G1 X93.443 Y103.079 E8.46657
G1 X93.885 Y102.109 E8.55166
G1 X94.309 Y101.299 E8.62464
G1 X95.161 Y99.91 E8.75471
G1 X95.864 Y98.946 E8.84995
G1 X96.395 Y98.298 E8.91683
G1 X97.088 Y97.538 E8.99893
G0 F7200 X97.6 Y97.035
G1 F1200 X97.6 Y122.967 E11.06893
G0 F7200 X99.2 Y124.32
G1 F1200 X99.2 Y95.671 E13.35582
G0 F7200 X100.8 Y94.597
G1 F1200 X100.8 Y125.385 E15.81345
G0 F7200 X102.4 Y126.248
G1 F1200 X102.4 Y93.745 E18.40798
G0 F7200 X104 Y93.087
G1 F1200 X104 Y126.908 E21.10772
G0 F7200 X105.6 Y127.395
G1 F1200 X105.6 Y92.607 E23.88465
G0 F7200 X107.2 Y92.281
G1 F1200 X107.2 Y127.72 E26.71354
G0 F7200 X108.8 Y127.899
G1 F1200 X108.8 Y92.096 E29.57149
G0 F7200 X110.4 Y92.066
G1 F1200 X110.4 Y127.939 E32.43503
G0 F7200 X112 Y127.827
G1 F1200 X112 Y92.175 E35.28093
G0 F7200 X113.6 Y92.426
G1 F1200 X113.6 Y127.572 E38.08643
G0 F7200 X115.2 Y127.171
G1 F1200 X115.2 Y92.826 E40.828
G0 F7200 X116.8 Y93.397
G1 F1200 X116.8 Y126.606 E43.47888
G0 F7200 X118.4 Y125.857
G1 F1200 X118.4 Y94.151 E46.00979
G0 F7200 X120 Y95.106
G1 F1200 X120 Y124.899 E48.388
G0 F7200 X121.6 Y123.688
G1 F1200 X121.6 Y96.313 E50.57319
G0 F7200 X123.2 Y97.851
G1 F1200 X123.2 Y122.147 E52.5126
G0 F7200 X124.8 Y120.144
G1 F1200 X124.8 Y99.858 E54.13192
G0 F7200 X126.4 Y102.731
G1 F1200 X126.4 Y117.266 E55.29216
;;retract;;
G1 F6000 E47.29216
G0 F7200 X96 Y121.215
G1 F6000 E55.29216
G1 F1200 X96 Y98.78 E57.08302
G0 F7200 X94.4 Y101.15
G1 F1200 X94.4 Y118.854 E58.49623
G0 F7200 X92.8 Y115.106
G1 F1200 X92.8 Y104.892 E59.31156
G0 F600 X92.8 Y104.892 Z0.47
G0 F7200 X93.93 Y117.972
;TIME_ELAPSED:45.660516

;LAYER:-5
M140 S60
;TYPE:SUPPORT
G1 F1800 X102.034 Y126.076 E60.18829
G1 X102.112 Y126.117 E60.19503
G1 X103.067 Y126.55 E60.27525
G1 X103.852 Y126.859 E60.33978
G1 X104.419 Y127.046 E60.38545
G1 X92.948 Y115.575 E61.62644
G1 X92.747 Y114.942 E61.67725
G1 X92.532 Y114.112 E61.74284
G1 X92.438 Y113.651 E61.77883
G1 X106.348 Y127.562 E63.28374
G1 X106.659 Y127.63 E63.30809
G1 X107.446 Y127.76 E63.36911
G1 X108.026 Y127.825 E63.41376
G1 X92.169 Y111.968 E65.12925
G1 X92.097 Y111.243 E65.18498
G1 X92.061 Y110.446 E65.24601
G1 X109.548 Y127.933 E67.13784
G1 X110.406 Y127.939 E67.20348
G1 X110.943 Y127.914 E67.2446
G1 X92.084 Y109.054 E69.28492
G1 X92.121 Y108.48 E69.32892
G1 X92.201 Y107.758 E69.38449
G1 X112.243 Y127.799 E71.55268
G1 X113.106 Y127.671 E71.61942
G1 X113.457 Y127.599 E71.64683
G1 X92.396 Y106.538 E73.92531
G1 X92.669 Y105.397 E74.01506
G1 X114.609 Y127.337 E76.38864
G1 X114.943 Y127.25 E76.41504
G1 X115.696 Y127.01 E76.4755
G1 X92.99 Y104.304 E78.93194
G1 X93.14 Y103.849 E78.96859
G1 X93.368 Y103.267 E79.01641
G1 X116.733 Y126.632 E81.54415
G0 F7200 X116.734 Y126.632
G1 F1800 X117.634 Y126.237 E81.61934
G1 X117.712 Y126.198 E81.62601
G1 X93.802 Y102.287 E84.21277
G1 X93.884 Y102.108 E84.22783
G1 X94.28 Y101.351 E84.29318
G1 X118.646 Y125.717 E86.92922
G1 X119.33 Y125.328 E86.98941
G1 X119.537 Y125.194 E87.00827
G1 X94.815 Y100.472 E89.68282
G1 X95.161 Y99.909 E89.73337
G1 X95.373 Y99.616 E89.76104
G1 X120.383 Y124.626 E92.46675
G1 X120.844 Y124.295 E92.51016
G1 X121.19 Y124.018 E92.54407
G1 X95.977 Y98.806 E95.27168
G1 X96.394 Y98.297 E95.32202
G1 X96.627 Y98.041 E95.3485
G1 X121.955 Y123.369 E98.0886
G1 X122.277 Y123.084 E98.1215
G1 X122.684 Y122.684 E98.16515
G1 X97.314 Y97.314 E100.90981
G1 X97.722 Y96.914 E100.95351
G1 X98.043 Y96.629 E100.98635
G1 X123.371 Y121.957 E103.72646
G1 X123.604 Y121.702 E103.75288
G1 X124.021 Y121.193 E103.80322
G1 X98.808 Y95.98 E106.53089
G1 X99.146 Y95.709 E106.56403
G1 X99.615 Y95.373 E106.60816
G1 X124.627 Y120.384 E109.31403
G1 X124.749 Y120.219 E109.32973
G1 X125.196 Y119.539 E109.39198
G1 X100.461 Y94.804 E112.06794
G1 X100.668 Y94.67 E112.0868
G1 X101.353 Y94.282 E112.14702
G1 X125.719 Y118.648 E114.78306
G1 X126.114 Y117.89 E114.84844
G1 X126.196 Y117.711 E114.86351
G1 X102.285 Y93.8 E117.45032
G1 X102.368 Y93.758 E117.45743
G1 X103.264 Y93.366 E117.53225
G0 F7200 X103.265 Y93.366
G1 F1800 X126.63 Y116.731 E120.05999
G1 X126.862 Y116.14 E120.10856
G1 X127.009 Y115.696 E120.14434
G1 X104.302 Y92.988 E122.60095
G1 X105.056 Y92.748 E122.66148
G1 X105.39 Y92.662 E122.68786
G1 X127.337 Y114.609 E125.0622
G1 X127.413 Y114.33 E125.08432
G1 X127.603 Y113.461 E125.15236
G1 X106.541 Y92.399 E127.43096
G1 X106.892 Y92.327 E127.45837
G1 X107.756 Y92.199 E127.52518
G1 X127.796 Y112.24 E129.69326
G1 X127.882 Y111.48 E129.75177
G1 X127.914 Y110.944 E129.79285
G1 X109.055 Y92.085 E131.83311
G1 X109.593 Y92.059 E131.87431
G1 X110.45 Y92.066 E131.93987
G1 X127.937 Y109.552 E133.83165
G1 X127.9 Y108.734 E133.89429
G1 X127.829 Y108.03 E133.94842
G1 X111.97 Y92.171 E135.66412
G1 X112.493 Y92.229 E135.70438
G1 X113.32 Y92.364 E135.76848
G1 X113.65 Y92.437 E135.79433
G1 X127.561 Y106.348 E137.29929
G1 X127.467 Y105.89 E137.33506
G1 X127.245 Y105.035 E137.40263
G1 X127.05 Y104.422 E137.45184
G1 X115.579 Y92.952 E138.69278
G1 X116.14 Y93.137 E138.73797
G1 X116.93 Y93.448 E138.80292
G1 X117.876 Y93.876 E138.88234
G1 X117.965 Y93.924 E138.89008
G1 X118.689 Y94.303 E138.95259
G1 X120.089 Y95.161 E139.0782
G1 X121.053 Y95.863 E139.16943
G1 X121.711 Y96.404 E139.2346
G1 X122.47 Y97.097 E139.31322
G1 X123.093 Y97.73 E139.38116
G1 X123.757 Y98.48 E139.45779
G1 X124.278 Y99.133 E139.52169
G1 X124.882 Y99.972 E139.60078
G1 X125.351 Y100.708 E139.66754
G1 X125.843 Y101.575 E139.7438
G0 F7200 X126.071 Y102.029
G1 F1800 X117.965 Y93.924 E140.62069
;;retract;;
G1 F6000 E132.62069
G0 F7200 X94.156 Y118.424
G1 F6000 E140.62069
G1 F1800 X94.642 Y119.281 E140.69606
G1 X95.112 Y120.017 E140.76286
G1 X95.715 Y120.857 E140.84196
G1 X96.242 Y121.518 E140.90663
G1 X96.906 Y122.268 E140.98326
G1 X97.528 Y122.902 E141.0512
G1 X98.287 Y123.595 E141.12983
G1 X98.936 Y124.127 E141.19402
G1 X99.909 Y124.838 E141.28621
G1 X101.3 Y125.691 E141.41103
G1 X102.034 Y126.076 E141.47444
G0 F600 X102.034 Y126.076 Z0.62
G0 F7200 X108.497 Y128.082
;TIME_ELAPSED:84.984292

;LAYER:-4
;TYPE:SUPPORT-INTERFACE
G1 F2400 X109.352 Y128.133 E141.49581
G1 X110.41 Y128.14 E141.5222
G1 X111.26 Y128.1 E141.54342
G1 X112.26 Y128.001 E141.56849
G1 X112.266 Y128 E141.56864
G1 X107.771 Y128 E141.68077
G1 X107.418 Y127.96 E141.68963
G1 X106.61 Y127.826 E141.71006
G1 X105.613 Y127.606 E141.73553
G1 X105.59 Y127.6 E141.73613
G1 X114.395 Y127.6 E141.95577
G1 X114.988 Y127.447 E141.97104
G1 X115.766 Y127.2 E141.99141
G1 X104.242 Y127.2 E142.27887
G1 X103.777 Y127.046 E142.29109
G1 X103.151 Y126.8 E142.30787
G1 X116.853 Y126.8 E142.64967
G1 X117.722 Y126.419 E142.67334
G1 X117.759 Y126.4 E142.67438
G1 X102.249 Y126.4 E143.06127
G1 X102.03 Y126.3 E143.06728
G1 X101.456 Y126 E143.08344
G1 X118.552 Y126 E143.5099
G1 X119.255 Y125.6 E143.53007
G1 X100.748 Y125.6 E143.99173
G1 X100.387 Y125.388 E144.00218
G1 X100.1 Y125.2 E144.01073
G1 X119.898 Y125.2 E144.5046
G1 X120.148 Y125.04 E144.512
G1 X120.482 Y124.8 E144.52226
G1 X99.509 Y124.8 E145.04544
G1 X98.966 Y124.4 E145.06226
G1 X121.032 Y124.4 E145.6127
G1 X121.533 Y124 E145.62869
G1 X98.463 Y124 E146.20417
G1 X98.163 Y123.753 E146.21387
G1 X97.995 Y123.6 E146.21953
G1 X121.993 Y123.6 E146.81817
G1 X122.44 Y123.2 E146.83313
G1 X97.557 Y123.2 E147.45384
G1 X97.395 Y123.052 E147.45931
G1 X97.147 Y122.8 E147.46813
G1 X122.851 Y122.8 E148.10932
G1 X123.051 Y122.603 E148.11632
G1 X123.236 Y122.4 E148.12318
G1 X96.754 Y122.4 E148.78377
G1 X96.4 Y122 E148.7971
G1 X123.601 Y122 E149.47563
G1 X123.752 Y121.835 E149.48121
G1 X123.945 Y121.6 E149.48879
G1 X96.05 Y121.6 E150.18464
G1 X95.73 Y121.2 E150.19741
G1 X124.273 Y121.2 E150.90942
G1 X124.29 Y121.18 E150.91008
G1 X124.567 Y120.8 E150.92181
G1 X95.425 Y120.8 E151.64876
G1 X95.138 Y120.4 E151.66104
G1 X124.858 Y120.4 E152.40241
G1 X125.003 Y120.202 E152.40853
G1 X125.126 Y120 E152.41443
G1 X94.862 Y120 E153.16937
G1 X94.607 Y119.6 E153.1812
G1 X125.372 Y119.6 E153.94864
G1 X125.617 Y119.2 E153.96034
G1 X94.365 Y119.2 E154.73992
G1 X94.138 Y118.8 E154.75139
G1 X125.863 Y118.8 E155.54278
G1 X125.87 Y118.79 E155.54308
G1 X126.073 Y118.4 E155.55405
G1 X93.919 Y118.4 E156.35614
G1 X93.72 Y118 E156.36728
G1 X126.282 Y118 E157.17954
G1 X126.297 Y117.973 E157.18031
G1 X126.467 Y117.6 E157.19054
G1 X93.526 Y117.6 E158.01225
G1 X93.351 Y117.2 E158.02315
G1 X126.649 Y117.2 E158.85377
G1 X126.74 Y117.002 E158.8592
G1 X126.818 Y116.8 E158.86461
G1 X93.176 Y116.8 E159.70381
G1 X93.025 Y116.4 E159.71447
G1 X126.975 Y116.4 E160.56136
G1 X127.049 Y116.211 E160.56642
G1 X127.118 Y116 E160.57196
G1 X92.873 Y116 E161.42621
G1 X92.872 Y115.995 E161.42633
G1 X92.746 Y115.6 E161.43668
G1 X127.251 Y115.6 E162.29741
G1 X127.378 Y115.217 E162.30747
G1 X127.382 Y115.2 E162.30791
G1 X92.619 Y115.2 E163.17507
G1 X92.553 Y114.989 E163.18059
G1 X92.504 Y114.8 E163.18546
G1 X127.492 Y114.8 E164.05824
G1 X127.601 Y114.4 E164.06858
G1 X92.401 Y114.4 E164.94665
G1 X92.336 Y114.148 E164.95314
G1 X92.305 Y114 E164.95691
G1 X127.691 Y114 E165.83962
G1 X127.779 Y113.6 E165.84984
G1 X92.224 Y113.6 E166.73676
G1 X92.142 Y113.2 E166.74694
G1 X127.857 Y113.2 E167.63786
G1 X127.923 Y112.8 E167.64797
G1 X92.079 Y112.8 E168.5421
G1 X92.019 Y112.4 E168.55219
G1 X127.98 Y112.4 E169.44924
G1 X128.025 Y112 E169.45929
G1 X91.972 Y112 E170.35863
G1 X91.933 Y111.6 E170.36866
G1 X128.07 Y111.6 E171.2701
G1 X128.082 Y111.501 E171.27259
G1 X128.099 Y111.2 E171.28011
G1 X91.896 Y111.2 E172.18319
G1 X91.878 Y110.8 E172.19318
