;FLAVOR:Marlin
;TIME:3298
;Filament used:1.71887m
;Layer height: 0.1
;MINX:80.273
;MINY:80.211
;MINZ:0.24
;MAXX:139.727
;MAXY:139.788
;MAXZ:5.89
                             
;Creality Print GCode Generated by CXEngine:NO_MAGE_VERSION_GIT_HEAD_BRANCH
;CXEngine Release Time:2022-09-30 09:53:04
;Gcode Generated Time:2023-05-03 19:21:45
;----------Machine Config--------------
;Machine Name:Ender-3 V2
;Machine Height:250
;Machine Width:220
;Machine Depth:220
;Material name:PLA
;Number of Extruders:1
;ExtruderParams[0] Nozzle Diameter1000
;----------Profile Config---------------
;Engine Version:275f99b
;Engine Release Time:2022-09-30 09:42:18
;Layer Height:0.1
;Wall Thickness:0.8
;Top/Bottom Thickness:0.5
;Out Wall Line Width:0.4
;Inner Wall Line Width:0.4
;Inital Layer Height:100
;Wall Line Count:2
;Infill Line Distance:4
;Infill Pattern:grid
;Infill Sparse Density:20
;Infill Wipe Distance:0
;Print Temperature:200
;Bed Temperature:60
;Support Enable:true
;Support Density:0
;Support Angle:60
;Adhesion Type:simpleraft
;machine is belt:false
;machine belt offset:10
;machine belt offset Y:0
;Raft Base Line Spacing:1.6
;Wait Heatup Sync:true
;----------Shell Config----------------
;Outer Wall Wipe Distance:200
;Outer Inset First:false
;Infill Before Walls:false
;Infill Overlap:0.16
;Fill Gaps Between Walls:everywhere
;Minimum Infill Area:1
;Top Surface Skin Layer:0
;Top Layers:4
;Z Seam Alignment:sharpest_corner
;Seam Corner Preference:z_seam_corner_inner
;Z Seam X:110
;Z Seam Y:110
;Horizontal Expansion:0
;Top/Bottom Pattern:zigzag
;Ironing Pattern:zigzag
;Vase Model:false
;----------Support Config----------------
;Support Type:everywhere
;Support Pattern:zigzag
;Support Infill Layer Thickness:0.1
;Minimum Support Area:5
;Enable Support Roof:false
;Support Roof Thickness:0.8
;Support Roof Pattern:lines
;Connect Support Lines:0
;Connect Support ZigZags:1
;Minimum Support X/Y Distance:0.2
;Support Line Distance:0
; ---------PrintSpeed & Travel----------
;Enable Print Cool:true
;Avoid Printed Parts Traveling:true
;Enable Retraction:true
;Retraction Distance:8
;Retraction Speed:100
;Retraction Prime Speed:100
;Maximum Retraction Count:100
;Minimum Extrusion Distance Window:1
;Z Hop When Retracted:false
;Z Hop Height:0.2
;Retract Before Outer Wall:true
;Print Speed:50
;Infill Speed:50

;Prime Tower Speed:50
;Travel Speed:120
;Initial Layer Speed:25
;Skirt/Brim Speed:25
;Combing Mode:infill
; --------SpecialModel&Mesh Fixes--------
;Union Overlapping Volum:true
;Remove All Holes:false
;Maximum Travel Resolution:0.6
;Maximum Deviation:0.05
;Maximum Model Angle:0.872665
;IS Mold Print:false
;Make Overhang Printable:false
;Enable Coasting:false
;Coasting Volumes:0.06
;Coasting Speed:0.9
;Raft AirGap:0.25
;Layer0 ZOverLap:0.13
;---------------------End of Head--------------------------
M140 S60
M105
M104 S200
M105
M109 S200
M105
M190 S60
M82 ;absolute extrusion mode
M220 S100 ;Reset Feedrate
M221 S100 ;Reset Flowrate

G28 ;Home

G92 E0 ;Reset Extruder
G1 Z2.0 F3000 ;Move Z Axis up
G1 X10.1 Y20 Z0.28 F5000.0 ;Move to start position
G1 X10.1 Y145.0 Z0.28 F1500.0 E15 ;Draw the first line
G1 X10.4 Y145.0 Z0.28 F5000.0 ;Move to side a little
G1 X10.4 Y20 Z0.28 F1500.0 E30 ;Draw the second line
G92 E0  ;Reset Extruder
G1 E-1.0000 F1800 ;Retract a bit
G1 Z2.0 F3000 ;Move Z Axis up
G1 E0.0000 F1800 

G92 E0
G92 E0
G1 F6000 E-8

;LAYER_COUNT:50

;LAYER:-4
M107
G0 F7200 X83.2 Y98.462 Z0.24
;TYPE:SUPPORT-INTERFACE
G1 F6000 E0
G1 F1200 X83.2 Y121.554 E1.8433
G1 X83.102 Y121.344 E1.8618
G1 X82.829 Y120.559 E1.92815
G1 X82.461 Y119.198 E2.04069
G1 X81.872 Y117.747 E2.16569
G1 X81.606 Y116.789 E2.24506
G1 X81.6 Y116.754 E2.24789
G1 X81.6 Y103.341 E3.31857
G1 X81.635 Y103.123 E3.3362
G1 X81.826 Y102.363 E3.39875
G1 X82.101 Y101.577 E3.46522
G1 X82.591 Y100.432 E3.56464
G1 X83.06 Y98.797 E3.70042
G1 X83.442 Y97.883 E3.77949
G1 X83.854 Y97.123 E3.8485
G1 X84.563 Y96.005 E3.95417
G1 X84.8 Y95.506 E3.99827
G1 X84.8 Y124.584 E6.3194
G1 X84.936 Y124.882 E6.34555
G1 X85.329 Y125.605 E6.41124
G1 X85.916 Y126.465 E6.49435
G1 X86.4 Y127.021 E6.5532
G1 X86.4 Y92.916 E9.27561
G1 X87.218 Y92.005 E9.37334
G1 X87.793 Y91.147 E9.45579
G1 X88 Y90.875 E9.48307
G1 X88 Y129.153 E12.53859
G1 X88.206 Y129.419 E12.56544
G1 X88.915 Y130.166 E12.64765
G1 X89.6 Y130.734 E12.71869
G1 X89.6 Y89.211 E16.03323
G1 X90.448 Y88.541 E16.1195
G1 X91.2 Y87.771 E16.20541
G1 X91.2 Y132.275 E19.75792
G1 X91.69 Y132.732 E19.8114
G1 X92.328 Y133.228 E19.87591
G1 X92.8 Y133.53 E19.92064
G1 X92.8 Y86.446 E23.67909
G1 X93.103 Y86.248 E23.70798
G1 X94.292 Y85.587 E23.81657
G1 X94.4 Y85.507 E23.8273
G1 X94.4 Y134.532 E27.74069
G1 X95.044 Y135.019 E27.80514
G1 X95.73 Y135.465 E27.87045
G1 X96 Y135.604 E27.8947
G1 X96 Y84.402 E31.98186
G1 X96.531 Y84.105 E32.03043
G1 X97.287 Y83.776 E32.09624
G1 X97.6 Y83.663 E32.1228
G1 X97.6 Y136.295 E36.32412
G1 X98.139 Y136.498 E36.37009
G1 X99.2 Y137.053 E36.46567
G1 X99.2 Y82.992 E40.78106
G1 X99.99 Y82.595 E40.85163
G1 X100.8 Y82.302 E40.92039
G1 X100.8 Y137.687 E45.34146
G1 X101.105 Y137.785 E45.36703
G1 X102.4 Y138.038 E45.47236
G1 X102.4 Y81.928 E49.9513
G1 X103.047 Y81.813 E50.00376
G1 X104 Y81.515 E50.08346
G1 X104 Y138.523 E54.63409
G1 X104.728 Y138.711 E54.69411
G1 X105.544 Y138.843 E54.76009
G1 X105.6 Y138.847 E54.76457
G1 X105.6 Y81.141 E59.37092
G1 X105.615 Y81.139 E59.37212
G1 X106.407 Y81.07 E59.43558
G1 X107.2 Y81.059 E59.49889
G1 X107.2 Y138.911 E64.11689
G1 X107.403 Y138.914 E64.13309
G1 X108.751 Y139.123 E64.24198
G1 X108.8 Y139.126 E64.2459
G1 X108.8 Y80.916 E68.89248
G1 X109.428 Y80.831 E68.94306
G1 X110.4 Y80.812 E69.02067
G1 X110.4 Y139.173 E73.67929
G1 X110.572 Y139.169 E73.69303
G1 X112 Y138.974 E73.80807
G1 X112 Y80.994 E78.43629
G1 X112.597 Y81.086 E78.48451
G1 X113.6 Y81.098 E78.56458
G1 X113.6 Y138.93 E83.18098
G1 X114.385 Y138.861 E83.24388
G1 X115.2 Y138.709 E83.31006
G1 X115.2 Y81.278 E87.89445
G1 X115.272 Y81.289 E87.90026
G1 X116.082 Y81.498 E87.96704
G1 X116.8 Y81.733 E88.02734
G1 X116.8 Y138.235 E92.53758
G1 X116.953 Y138.187 E92.55038
G1 X118.242 Y137.956 E92.65491
G1 X118.4 Y137.917 E92.6679
G1 X118.4 Y82.119 E97.12194
G1 X118.894 Y82.215 E97.16211
G1 X119.859 Y82.523 E97.24297
G1 X120 Y82.585 E97.25526
G1 X120 Y137.409 E101.63155
G1 X120.01 Y137.405 E101.63241
G1 X121.482 Y136.665 E101.76393
G1 X121.6 Y136.623 E101.77392
G1 X121.6 Y83.366 E106.02513
G1 X121.861 Y83.502 E106.04862
G1 X123.2 Y84.006 E106.16283
G1 X123.2 Y136.013 E110.31425
G1 X123.474 Y135.893 E110.33813
G1 X124.383 Y135.383 E110.42133
G1 X124.8 Y135.079 E110.46252
G1 X124.8 Y84.88 E114.46962
G1 X124.954 Y84.979 E114.48424
G1 X126.066 Y85.82 E114.59553
G1 X126.4 Y86.006 E114.62605
G1 X126.4 Y134.029 E118.45945
G1 X126.907 Y133.746 E118.5058
G1 X127.609 Y133.284 E118.57288
G1 X128 Y132.967 E118.61306
G1 X128 Y87.028 E122.28011
G1 X128.313 Y87.269 E122.31164
G1 X128.931 Y87.846 E122.37914
G1 X129.6 Y88.558 E122.45712
G1 X129.6 Y131.421 E125.87863
G1 X130.536 Y130.679 E125.97398
G1 X131.156 Y130.113 E126.04099
G1 X131.2 Y130.064 E126.04625
G1 X131.2 Y89.957 E129.24776
G1 X131.78 Y90.566 E129.31489
G1 X132.287 Y91.217 E129.38076
G1 X132.8 Y91.981 E129.45422
G1 X132.8 Y127.976 E132.32749
G1 X133.671 Y127.004 E132.43168
G1 X134.188 Y126.344 E132.4986
G1 X134.4 Y126.008 E132.53031
G1 X134.4 Y93.998 E135.08549
G1 X134.664 Y94.384 E135.12282
G1 X135.069 Y95.129 E135.19051
G1 X135.638 Y96.375 E135.29985
G1 X136 Y96.965 E135.3551
G1 X136 Y123.098 E137.44115
G1 X136.257 Y122.688 E137.47978
G1 X136.557 Y122.12 E137.53105
G1 X136.941 Y121.2 E137.61063
G1 X137.409 Y119.568 E137.74616
G1 X137.899 Y118.422 E137.84565
G1 X138.174 Y117.637 E137.91204
G1 X138.367 Y116.869 E137.97525
G1 X138.502 Y116.023 E138.04364
G1 X138.603 Y114.969 E138.12816
G1 X138.898 Y113.747 E138.22851
G1 X139.041 Y112.922 E138.29534
G1 X139.11 Y112.096 E138.36151
G1 X139.105 Y111.26 E138.42824
G1 X139.03 Y110.259 E138.50837
G1 X139.128 Y108.81 E138.6243
G1 X139.124 Y107.981 E138.69048
G1 X139.016 Y106.973 E138.7714
G1 X138.673 Y105.439 E138.89687
G1 X138.536 Y104.036 E139.0094
G1 X138.393 Y103.209 E139.07639
G1 X138.126 Y102.248 E139.15601
G1 X137.6 Y100.953 E139.26759
G1 X137.6 Y119.122 E140.71791
G0 F600 X137.6 Y119.122 Z0.47
G0 F7200 X139.288 Y113.832
;TIME_ELAPSED:93.901551

;LAYER:-3
;TYPE:SUPPORT
G1 F1800 X106.147 Y80.691 E144.30327
G1 X105.557 Y80.743 E144.34858
G1 X104.907 Y80.865 E144.39917
G1 X139.012 Y114.971 E148.08887
G1 X138.998 Y115.035 E148.09389
G1 X138.898 Y116.077 E148.17396
G1 X138.87 Y116.243 E148.18684
G1 X103.789 Y81.162 E151.98208
G1 X102.952 Y81.424 E152.04917
G1 X102.685 Y81.472 E152.06992
G1 X138.638 Y117.425 E155.9595
G1 X138.559 Y117.747 E155.98486
G1 X138.295 Y118.496 E156.04561
G1 X101.496 Y81.697 E160.02671
G1 X100.84 Y81.863 E160.07847
G1 X100.404 Y82.02 E160.11392
G1 X137.876 Y119.491 E164.16778
G1 X137.787 Y119.702 E164.18529
G1 X137.538 Y120.568 E164.25423
G1 X99.41 Y82.439 E168.37916
G1 X98.468 Y82.912 E168.45979
G1 X137.192 Y121.635 E172.64909
G1 X136.917 Y122.296 E172.70386
G1 X136.751 Y122.609 E172.73096
G1 X97.438 Y83.296 E176.98404
G1 X97.14 Y83.403 E177.00826
G1 X96.437 Y83.709 E177.06691
G1 X136.222 Y123.494 E181.37105
G1 X135.788 Y124.189 E181.43373
G1 X135.695 Y124.382 E181.45012
G1 X95.524 Y84.21 E185.79607
G1 X95.402 Y84.279 E185.80679
G1 X94.695 Y84.795 E185.87375
G1 X135.239 Y125.34 E190.26005
G1 X135.08 Y125.678 E190.28863
G1 X134.725 Y126.239 E190.33941
G1 X93.856 Y85.371 E194.76077
G1 X92.947 Y85.876 E194.84032
G1 X134.133 Y127.062 E199.29602
G1 X133.98 Y127.259 E199.3151
G1 X133.477 Y127.82 E199.37274
G1 X92.097 Y86.44 E203.84944
G1 X91.347 Y87.049 E203.92334
G1 X91.319 Y87.076 E203.92632
G1 X132.845 Y128.602 E208.41881
G1 X132.263 Y129.435 E208.49654
G1 X90.619 Y87.791 E213.0018
G1 X90.18 Y88.243 E213.05
G1 X89.888 Y88.474 E213.07848
G1 X131.614 Y130.2 E217.59261
G1 X131.442 Y130.393 E217.61238
G1 X130.893 Y130.893 E217.66919
G1 X89.106 Y89.106 E222.18991
G1 X88.558 Y89.607 E222.24671
G1 X88.382 Y89.796 E222.26647
G1 X130.11 Y131.524 E226.78081
G1 X129.82 Y131.757 E226.80927
G1 X129.379 Y132.207 E226.85747
G1 X87.734 Y90.562 E231.36283
G1 X87.461 Y90.924 E231.39751
G1 X87.147 Y91.39 E231.4405
G1 X128.679 Y132.922 E235.93364
G1 X128.653 Y132.951 E235.93662
G1 X127.902 Y133.559 E236.01053
G1 X86.522 Y92.179 E240.48723
G1 X86.02 Y92.741 E240.54487
G1 X85.866 Y92.937 E240.56394
G1 X127.05 Y134.121 E245.01943
G1 X126.142 Y134.628 E245.09898
G1 X85.274 Y93.759 E249.52034
G1 X84.92 Y94.322 E249.57122
G1 X84.759 Y94.658 E249.59972
G1 X125.304 Y135.203 E253.98608
G1 X124.598 Y135.721 E254.05306
G1 X124.474 Y135.788 E254.06384
G1 X84.303 Y95.617 E258.40974
G1 X84.212 Y95.811 E258.42613
G1 X83.773 Y96.5 E258.48863
G1 X123.561 Y136.289 E262.79315
G1 X122.86 Y136.597 E262.85172
G1 X122.56 Y136.702 E262.87604
G1 X83.25 Y97.392 E267.12879
G1 X83.083 Y97.704 E267.15586
G1 X82.807 Y98.363 E267.21051
G1 X121.53 Y137.086 E271.39976
G1 X120.589 Y137.559 E271.48033
G1 X82.46 Y99.431 E275.60526
G1 X82.213 Y100.298 E275.67422
G1 X82.122 Y100.507 E275.69166
G1 X119.594 Y137.979 E279.74556
G1 X119.16 Y138.137 E279.78089
G1 X118.502 Y138.301 E279.83277
G1 X81.703 Y101.502 E283.81387
G1 X81.441 Y102.253 E283.87471
G1 X81.36 Y102.573 E283.89997
G1 X117.313 Y138.527 E287.78959
G1 X117.048 Y138.576 E287.81021
G1 X116.209 Y138.836 E287.8774
G1 X81.128 Y103.755 E291.67264
G1 X81.102 Y103.923 E291.68564
G1 X81.002 Y104.965 E291.76572
G1 X80.986 Y105.027 E291.77062
G1 X115.092 Y139.133 E295.46037
G1 X114.443 Y139.257 E295.51092
G1 X113.851 Y139.307 E295.55637
G1 X80.711 Y106.167 E299.14162
G0 F7200 X80.711 Y106.169
G1 F1800 X80.561 Y107.031 E299.20855
G1 X80.529 Y107.399 E299.23681
G1 X112.474 Y139.344 E302.69278
G1 X112.213 Y139.349 E302.71275
G1 X111.201 Y139.486 E302.79087
G1 X80.496 Y108.78 E306.11274
G1 X80.569 Y109.743 E306.18662
G1 X80.535 Y110.233 E306.22419
G1 X109.882 Y139.581 E309.39915
G1 X109.56 Y139.588 E309.42379
G1 X108.713 Y139.521 E309.48879
G1 X108.351 Y139.464 E309.51682
G1 X80.473 Y111.586 E312.5328
G1 X80.476 Y112.044 E312.56784
G1 X80.588 Y113.086 E312.64801
G1 X80.596 Y113.123 E312.6509
G1 X106.778 Y139.305 E315.4834
G1 X106.342 Y139.302 E315.51676
G1 X105.496 Y139.241 E315.58164
G1 X105.26 Y139.201 E315.59995
G1 X80.958 Y114.899 E318.22906
G1 X81.067 Y116.017 E318.31499
G1 X81.151 Y116.507 E318.35303
G1 X103.395 Y138.751 E320.75949
G1 X102.554 Y138.477 E320.82715
G1 X101.498 Y138.268 E320.9095
G1 X81.754 Y118.524 E323.04551
G1 X82.081 Y119.326 E323.11176
G1 X82.43 Y120.614 E323.21385
G1 X99.412 Y137.595 E325.05099
G1 X99.199 Y137.504 E325.06871
G1 X97.975 Y136.864 E325.17437
G1 X96.836 Y136.434 E325.2675
G1 X83.679 Y123.277 E326.69089
G1 X84.008 Y123.813 E326.739
G1 X84.575 Y125.055 E326.84345
G1 X84.989 Y125.817 E326.90979
G1 X85.598 Y126.709 E326.99241
G1 X86.653 Y127.923 E327.11545
G1 X87.392 Y129.022 E327.21676
G1 X87.901 Y129.678 E327.28027
G1 X88.643 Y130.46 E327.36274
G1 X89.935 Y131.532 E327.49117
G1 X90.787 Y132.438 E327.58631
G1 X91.425 Y133.033 E327.65304
G1 X92.101 Y133.558 E327.71852
G1 X92.81 Y134.013 E327.78296
G1 X93.236 Y134.249 E327.82022
G1 X85.387 Y126.399 E328.66942
;;retract;;
G1 F6000 E320.66942
G0 F7200 X139.289 Y113.831
G1 F6000 E328.66942
G1 F1800 X139.439 Y112.969 E328.73635
G1 X139.469 Y112.599 E328.76475
G1 X107.524 Y80.654 E332.22072
G1 X107.787 Y80.651 E332.24084
G1 X108.797 Y80.513 E332.31882
G1 X139.502 Y111.217 E335.64058
G1 X139.431 Y110.257 E335.71422
G1 X139.464 Y109.765 E335.75194
G1 X110.116 Y80.417 E338.92695
G1 X110.44 Y80.412 E338.95174
G1 X111.287 Y80.479 E339.01674
G1 X111.647 Y80.535 E339.04461
G1 X139.525 Y108.412 E342.06054
G1 X139.524 Y107.956 E342.09542
G1 X139.412 Y106.914 E342.17559
G1 X139.402 Y106.875 E342.17867
G1 X113.22 Y80.693 E345.01117
G1 X113.658 Y80.698 E345.04468
G1 X114.504 Y80.759 E345.10956
G1 X114.738 Y80.797 E345.1277
G1 X139.041 Y105.1 E347.75692
G1 X138.933 Y103.983 E347.84276
G1 X138.848 Y103.492 E347.88088
G1 X116.603 Y81.247 E350.28746
G1 X117.446 Y81.523 E350.35531
G1 X118.499 Y81.73 E350.43741
G1 X138.244 Y101.474 E352.57346
G1 X137.919 Y100.674 E352.63952
G1 X137.569 Y99.385 E352.7417
G1 X120.587 Y82.404 E354.57884
G1 X120.801 Y82.496 E354.59666
G1 X122.025 Y83.136 E354.70232
G1 X123.163 Y83.565 E354.79536
G1 X136.32 Y96.722 E356.21875
G1 X135.992 Y96.187 E356.26675
G1 X135.425 Y94.945 E356.37119
G1 X135.009 Y94.179 E356.43788
G1 X134.402 Y93.291 E356.52016
G1 X133.347 Y92.077 E356.6432
G1 X132.607 Y90.976 E356.74468
G1 X132.085 Y90.305 E356.80971
G1 X131.357 Y89.54 E356.8905
G1 X130.065 Y88.468 E357.01892
G1 X129.213 Y87.562 E357.11406
G1 X128.57 Y86.962 E357.18134
G1 X127.885 Y86.433 E357.24755
G1 X127.19 Y85.987 E357.31072
G1 X126.762 Y85.75 E357.34815
G1 X134.613 Y93.601 E358.19751
G0 F600 X134.613 Y93.601 Z0.62
G0 F7200 X112.086 Y80.4
;TIME_ELAPSED:193.982525

;LAYER:-2
;TYPE:SUPPORT-INTERFACE
G1 F2400 X108.151 Y80.4 E358.29567
G1 X109.371 Y80.233 E358.32638
G1 X110.442 Y80.212 E358.3531
G1 X111.325 Y80.282 E358.3752
G1 X112.647 Y80.487 E358.40857
G1 X113.655 Y80.498 E358.43372
G1 X114.514 Y80.559 E358.4552
G1 X115.392 Y80.701 E358.47738
G1 X115.777 Y80.8 E358.4873
G1 X104.281 Y80.8 E358.77407
G1 X102.997 Y81.2 E358.80762
G1 X117.103 Y81.2 E359.15949
G1 X117.495 Y81.328 E359.16978
G1 X118.879 Y81.6 E359.20496
G1 X101.066 Y81.6 E359.64931
G1 X100.791 Y81.669 E359.65638
G1 X99.873 Y82 E359.68073
G1 X120.166 Y82 E360.18694
G1 X120.888 Y82.316 E360.2066
G1 X121.051 Y82.4 E360.21117
G1 X99.044 Y82.4 E360.76014
G1 X98.28 Y82.784 E360.78147
G1 X98.236 Y82.8 E360.78264
G1 X121.815 Y82.8 E361.37082
G1 X122.105 Y82.953 E361.379
G1 X122.766 Y83.2 E361.3966
G1 X97.114 Y83.2 E362.03649
G1 X97.066 Y83.217 E362.03776
G1 X96.273 Y83.562 E362.05933
G1 X96.206 Y83.6 E362.06125
G1 X123.769 Y83.6 E362.74882
G1 X124.544 Y84 E362.77057
G1 X95.49 Y84 E363.49533
G1 X95.304 Y84.104 E363.50064
G1 X94.899 Y84.4 E363.51316
G1 X125.163 Y84.4 E364.26809
G1 X125.307 Y84.495 E364.2724
G1 X125.712 Y84.8 E364.28505
G1 X94.351 Y84.8 E365.06735
G1 X93.966 Y85.081 E365.07924
