;FLAVOR:Marlin
;TIME:3866
;Filament used:1.80824m
;Layer height: 0.1
;MINX:80.272
;MINY:80.211
;MINZ:0.24
;MAXX:139.728
;MAXY:139.788
;MAXZ:10.89
                            
;Creality Print GCode Generated by CXEngine:NO_MAGE_VERSION_GIT_HEAD_BRANCH
;CXEngine Release Time:2022-09-30 09:53:04
;Gcode Generated Time:2023-05-03 15:49:47
;----------Machine Config--------------
;Machine Name:Ender-3 V2
;Machine Height:250
;Machine Width:220
;Machine Depth:220
;Material name:PLA
;Number of Extruders:1
;ExtruderParams[0] Nozzle Diameter1000
;----------Profile Config---------------
;Engine Version:275f99b
;Engine Release Time:2022-09-30 09:42:18
;Layer Height:0.1
;Wall Thickness:0.8
;Top/Bottom Thickness:0.5
;Out Wall Line Width:0.4
;Inner Wall Line Width:0.4
;Inital Layer Height:100
;Wall Line Count:2
;Infill Line Distance:4
;Infill Pattern:grid
;Infill Sparse Density:20
;Infill Wipe Distance:0
;Print Temperature:200
;Bed Temperature:60
;Support Enable:true
;Support Density:0
;Support Angle:60
;Adhesion Type:simpleraft
;machine is belt:false
;machine belt offset:10
;machine belt offset Y:0
;Raft Base Line Spacing:1.6
;Wait Heatup Sync:true
;----------Shell Config----------------
;Outer Wall Wipe Distance:200
;Outer Inset First:false
;Infill Before Walls:false
;Infill Overlap:0.16
;Fill Gaps Between Walls:everywhere
;Minimum Infill Area:1
;Top Surface Skin Layer:0
;Top Layers:4
;Z Seam Alignment:sharpest_corner
;Seam Corner Preference:z_seam_corner_inner
;Z Seam X:110
;Z Seam Y:110
;Horizontal Expansion:0
;Top/Bottom Pattern:zigzag
;Ironing Pattern:zigzag
;Vase Model:false
;----------Support Config----------------
;Support Type:everywhere
;Support Pattern:zigzag
;Support Infill Layer Thickness:0.1
;Minimum Support Area:5
;Enable Support Roof:false
;Support Roof Thickness:0.8
;Support Roof Pattern:lines
;Connect Support Lines:0
;Connect Support ZigZags:1
;Minimum Support X/Y Distance:0.2
;Support Line Distance:0
; ---------PrintSpeed & Travel----------
;Enable Print Cool:true
;Avoid Printed Parts Traveling:true
;Enable Retraction:true
;Retraction Distance:8
;Retraction Speed:100
;Retraction Prime Speed:100
;Maximum Retraction Count:100
;Minimum Extrusion Distance Window:1
;Z Hop When Retracted:false
;Z Hop Height:0.2
;Retract Before Outer Wall:true
;Print Speed:50
;Infill Speed:50

;Prime Tower Speed:50
;Travel Speed:120
;Initial Layer Speed:25
;Skirt/Brim Speed:25
;Combing Mode:infill
; --------SpecialModel&Mesh Fixes--------
;Union Overlapping Volum:true
;Remove All Holes:false
;Maximum Travel Resolution:0.6
;Maximum Deviation:0.05
;Maximum Model Angle:0.872665
;IS Mold Print:false
;Make Overhang Printable:false
;Enable Coasting:false
;Coasting Volumes:0.06
;Coasting Speed:0.9
;Raft AirGap:0.25
;Layer0 ZOverLap:0.13
;---------------------End of Head--------------------------
M140 S60
M105
M104 S200
M105
M109 S200
M105
M190 S60
M82 ;absolute extrusion mode
M220 S100 ;Reset Feedrate
M221 S100 ;Reset Flowrate

G28 ;Home

G92 E0 ;Reset Extruder
G1 Z2.0 F3000 ;Move Z Axis up
G1 X10.1 Y20 Z0.28 F5000.0 ;Move to start position
G1 X10.1 Y145.0 Z0.28 F1500.0 E15 ;Draw the first line
G1 X10.4 Y145.0 Z0.28 F5000.0 ;Move to side a little
G1 X10.4 Y20 Z0.28 F1500.0 E30 ;Draw the second line
G92 E0  ;Reset Extruder
G1 E-1.0000 F1800 ;Retract a bit
G1 Z2.0 F3000 ;Move Z Axis up
G1 E0.0000 F1800 

G92 E0
G92 E0
G1 F6000 E-8

;LAYER_COUNT:100

;LAYER:-4
M107
G0 F7200 X83.2 Y98.467 Z0.24
;TYPE:SUPPORT-INTERFACE
G1 F6000 E0
G1 F1200 X83.2 Y121.554 E1.8429
G1 X83.102 Y121.344 E1.8614
G1 X82.829 Y120.559 E1.92775
G1 X82.461 Y119.198 E2.04029
G1 X81.872 Y117.747 E2.16529
G1 X81.606 Y116.789 E2.24466
G1 X81.6 Y116.754 E2.24749
G1 X81.6 Y103.341 E3.31818
G1 X81.635 Y103.123 E3.3358
G1 X81.826 Y102.363 E3.39835
G1 X82.101 Y101.577 E3.46482
G1 X82.589 Y100.436 E3.56388
G1 X83.051 Y98.826 E3.69759
G1 X83.445 Y97.878 E3.77954
G1 X83.854 Y97.123 E3.84808
G1 X84.547 Y96.037 E3.95091
G1 X84.8 Y95.505 E3.99794
G1 X84.8 Y124.584 E6.31915
G1 X84.936 Y124.882 E6.3453
G1 X85.329 Y125.605 E6.41099
G1 X85.916 Y126.465 E6.4941
G1 X86.4 Y127.021 E6.55294
G1 X86.4 Y92.916 E9.27535
G1 X87.218 Y92.005 E9.37309
G1 X87.793 Y91.147 E9.45553
G1 X88 Y90.875 E9.48282
G1 X88 Y129.153 E12.53833
G1 X88.206 Y129.419 E12.56519
G1 X88.915 Y130.166 E12.6474
G1 X89.6 Y130.734 E12.71843
G1 X89.6 Y89.211 E16.03298
G1 X90.448 Y88.541 E16.11925
G1 X91.2 Y87.771 E16.20516
G1 X91.2 Y132.275 E19.75766
G1 X91.69 Y132.732 E19.81115
G1 X92.328 Y133.228 E19.87566
G1 X92.8 Y133.53 E19.92039
G1 X92.8 Y86.446 E23.67884
G1 X93.103 Y86.248 E23.70773
G1 X94.292 Y85.587 E23.81632
G1 X94.4 Y85.507 E23.82705
G1 X94.4 Y134.532 E27.74044
G1 X95.044 Y135.019 E27.80489
G1 X95.73 Y135.465 E27.8702
G1 X96 Y135.604 E27.89444
G1 X96 Y84.402 E31.98161
G1 X96.531 Y84.105 E32.03017
G1 X97.287 Y83.776 E32.09599
G1 X97.6 Y83.663 E32.12255
G1 X97.6 Y136.295 E36.32387
G1 X98.139 Y136.498 E36.36984
G1 X99.2 Y137.053 E36.46542
G1 X99.2 Y82.992 E40.7808
G1 X99.99 Y82.595 E40.85138
G1 X100.8 Y82.302 E40.92014
G1 X100.8 Y137.687 E45.34121
G1 X101.105 Y137.785 E45.36678
G1 X102.4 Y138.038 E45.47211
G1 X102.4 Y81.928 E49.95105
G1 X103.047 Y81.813 E50.00351
G1 X104 Y81.515 E50.08321
G1 X104 Y138.523 E54.63384
G1 X104.728 Y138.711 E54.69386
G1 X105.544 Y138.843 E54.75984
G1 X105.6 Y138.847 E54.76432
G1 X105.6 Y81.141 E59.37066
G1 X105.615 Y81.139 E59.37187
G1 X106.407 Y81.07 E59.43533
G1 X107.2 Y81.059 E59.49864
G1 X107.2 Y138.911 E64.11664
G1 X107.403 Y138.914 E64.13284
G1 X108.751 Y139.123 E64.24173
G1 X108.8 Y139.126 E64.24565
G1 X108.8 Y80.916 E68.89222
G1 X109.428 Y80.831 E68.94281
G1 X110.4 Y80.812 E69.02041
G1 X110.4 Y139.173 E73.67904
G1 X110.572 Y139.169 E73.69277
G1 X112 Y138.974 E73.80782
G1 X112 Y80.992 E78.4362
G1 X112.585 Y81.081 E78.48343
G1 X113.6 Y81.11 E78.56448
G1 X113.6 Y138.93 E83.17993
G1 X114.385 Y138.861 E83.24283
G1 X115.2 Y138.709 E83.30901
G1 X115.2 Y81.275 E87.89364
G1 X115.224 Y81.278 E87.89557
G1 X116.017 Y81.477 E87.96083
G1 X116.8 Y81.734 E88.02662
G1 X116.8 Y138.235 E92.53677
G1 X116.953 Y138.187 E92.54957
G1 X118.242 Y137.956 E92.6541
G1 X118.4 Y137.917 E92.66709
G1 X118.4 Y82.119 E97.12113
G1 X118.894 Y82.215 E97.1613
G1 X119.859 Y82.523 E97.24216
G1 X120 Y82.585 E97.25446
G1 X120 Y137.409 E101.63075
G1 X120.01 Y137.405 E101.63161
G1 X121.482 Y136.665 E101.76312
G1 X121.6 Y136.623 E101.77312
G1 X121.6 Y83.366 E106.02432
G1 X121.861 Y83.502 E106.04781
G1 X123.2 Y84.006 E106.16202
G1 X123.2 Y136.013 E110.31344
G1 X123.474 Y135.893 E110.33732
G1 X124.383 Y135.383 E110.42052
G1 X124.8 Y135.079 E110.46171
G1 X124.8 Y84.88 E114.46882
G1 X124.954 Y84.979 E114.48343
G1 X126.066 Y85.82 E114.59472
G1 X126.4 Y86.006 E114.62524
G1 X126.4 Y134.029 E118.45864
G1 X126.907 Y133.746 E118.50499
G1 X127.609 Y133.284 E118.57207
G1 X128 Y132.967 E118.61225
G1 X128 Y87.028 E122.2793
G1 X128.313 Y87.269 E122.31084
G1 X128.931 Y87.846 E122.37833
G1 X129.6 Y88.558 E122.45632
G1 X129.6 Y131.421 E125.87783
G1 X130.536 Y130.679 E125.97317
G1 X131.156 Y130.113 E126.04018
G1 X131.2 Y130.064 E126.04544
G1 X131.2 Y89.957 E129.24695
G1 X131.78 Y90.566 E129.31409
G1 X132.287 Y91.217 E129.37995
G1 X132.8 Y91.981 E129.45341
G1 X132.8 Y127.976 E132.32669
G1 X133.671 Y127.004 E132.43087
G1 X134.188 Y126.344 E132.49779
G1 X134.4 Y126.008 E132.52951
G1 X134.4 Y93.998 E135.08468
G1 X134.664 Y94.384 E135.12201
G1 X135.069 Y95.129 E135.1897
G1 X135.638 Y96.375 E135.29904
G1 X136 Y96.965 E135.3543
G1 X136 Y123.106 E137.44098
G1 X136.148 Y122.873 E137.46302
G1 X136.557 Y122.12 E137.53142
G1 X136.948 Y121.178 E137.61284
G1 X137.411 Y119.564 E137.74687
G1 X137.899 Y118.422 E137.846
G1 X138.174 Y117.637 E137.9124
G1 X138.367 Y116.869 E137.97561
G1 X138.502 Y116.023 E138.04399
G1 X138.605 Y114.954 E138.12972
G1 X138.908 Y113.698 E138.23286
G1 X139.045 Y112.901 E138.29741
G1 X139.111 Y112.077 E138.3634
G1 X139.104 Y111.256 E138.42893
G1 X139.029 Y110.232 E138.51089
G1 X139.129 Y108.783 E138.62683
G1 X139.123 Y107.974 E138.69141
G1 X139.015 Y106.961 E138.77273
G1 X138.673 Y105.441 E138.8971
G1 X138.536 Y104.035 E139.00986
G1 X138.393 Y103.209 E139.07678
G1 X138.126 Y102.248 E139.1564
G1 X137.6 Y100.953 E139.26797
G1 X137.6 Y119.122 E140.7183
G0 F600 X137.6 Y119.122 Z0.47
G0 F7200 X136.32 Y96.722
;TIME_ELAPSED:94.114069

;LAYER:-3
;TYPE:SUPPORT
G1 F1800 X123.163 Y83.565 E142.14169
G1 X123.536 Y83.705 E142.17217
G1 X124.47 Y84.188 E142.2526
G1 X125.185 Y84.653 E142.31785
G1 X126.285 Y85.484 E142.42331
G1 X126.762 Y85.75 E142.46509
G1 X134.613 Y93.601 E143.31445
G1 X135.009 Y94.179 E143.36805
G1 X135.425 Y94.945 E143.43473
G1 X135.992 Y96.187 E143.53917
G1 X136.813 Y97.524 E143.6592
G1 X137.268 Y98.502 E143.74171
G1 X137.553 Y99.323 E143.80819
G1 X137.569 Y99.385 E143.81309
G1 X120.587 Y82.404 E145.65024
G1 X120.003 Y82.149 E145.69898
G1 X118.998 Y81.828 E145.77969
G1 X118.499 Y81.73 E145.81859
G1 X138.244 Y101.474 E147.95465
G1 X138.503 Y102.111 E148.00725
G1 X138.784 Y103.123 E148.0876
G1 X138.848 Y103.492 E148.11625
G1 X116.604 Y81.248 E150.52271
G1 X116.125 Y81.092 E150.56125
G1 X115.3 Y80.885 E150.62632
G1 X114.746 Y80.805 E150.66914
G1 X139.041 Y105.1 E153.29749
G1 X139.069 Y105.377 E153.31879
G1 X139.406 Y106.879 E153.43655
G1 X113.226 Y80.699 E156.26883
G1 X112.621 Y80.682 E156.31513
G1 X111.647 Y80.534 E156.39049
G1 X139.526 Y108.413 E159.40658
G1 X139.529 Y108.795 E159.4358
G1 X139.461 Y109.762 E159.50996
G1 X110.116 Y80.417 E162.68465
G1 X109.401 Y80.431 E162.73935
G1 X108.797 Y80.513 E162.78598
G1 X139.502 Y111.217 E166.10775
G1 X139.504 Y111.239 E166.10944
G1 X139.511 Y112.094 E166.17485
G1 X139.469 Y112.599 E166.21361
G1 X107.524 Y80.654 E169.66958
G1 X106.394 Y80.67 E169.75603
G1 X106.147 Y80.691 E169.77499
G1 X139.287 Y113.831 E173.36024
G1 X139.011 Y114.969 E173.44982
G1 X104.907 Y80.865 E177.13936
G1 X104.498 Y80.942 E177.1712
G1 X103.789 Y81.162 E177.22799
G1 X138.87 Y116.243 E181.02322
G1 X138.759 Y116.949 E181.0779
G1 X138.638 Y117.425 E181.11547
G1 X102.685 Y81.472 E185.00504
G1 X101.673 Y81.653 E185.08368
G1 X101.496 Y81.697 E185.09764
G1 X138.295 Y118.496 E189.07873
G1 X138.267 Y118.579 E189.08544
G1 X137.876 Y119.491 E189.16134
G1 X100.404 Y82.02 E193.2152
G1 X99.832 Y82.227 E193.26173
G1 X99.41 Y82.439 E193.29786
G1 X137.538 Y120.568 E197.42279
G1 X137.329 Y121.302 E197.48117
G1 X137.19 Y121.634 E197.5087
G1 X98.468 Y82.912 E201.69784
G1 X98.36 Y82.967 E201.70711
G1 X97.438 Y83.296 E201.782
G1 X136.748 Y122.605 E206.03469
G1 X136.498 Y123.067 E206.07488
G1 X136.224 Y123.496 E206.11382
G1 X96.437 Y83.709 E210.41817
G1 X96.358 Y83.744 E210.42478
G1 X95.524 Y84.21 E210.49787
G1 X135.696 Y124.382 E214.84387
G1 X135.24 Y125.341 E214.92511
G1 X94.695 Y84.795 E219.31152
G1 X94.076 Y85.249 E219.37024
G1 X93.856 Y85.371 E219.38949
G1 X134.725 Y126.239 E223.81084
G1 X134.511 Y126.581 E223.84171
G1 X134.133 Y127.062 E223.8885
G1 X92.947 Y85.876 E228.34421
G1 X92.898 Y85.904 E228.34853
G1 X92.16 Y86.389 E228.41608
G1 X92.097 Y86.44 E228.42228
G1 X133.477 Y127.82 E232.89898
G1 X133.099 Y128.241 E232.94226
G1 X132.845 Y128.602 E232.97603
G1 X91.319 Y87.076 E237.46851
G1 X90.619 Y87.791 E237.54506
G1 X132.263 Y129.435 E242.05031
G1 X132.139 Y129.614 E242.06697
G1 X131.614 Y130.2 E242.12716
G1 X89.888 Y88.474 E246.64128
G1 X89.206 Y89.015 E246.70788
G1 X89.106 Y89.106 E246.71822
G1 X130.893 Y130.893 E251.23894
G1 X130.795 Y130.984 E251.24917
G1 X130.11 Y131.524 E251.3159
G1 X88.382 Y89.796 E255.83024
G1 X87.985 Y90.235 E255.87552
G1 X87.734 Y90.562 E255.90706
G1 X129.379 Y132.207 E260.41242
G1 X128.679 Y132.922 E260.48896
G1 X87.147 Y91.39 E264.9821
G1 X86.901 Y91.759 E265.01603
G1 X86.522 Y92.179 E265.0593
G1 X127.902 Y133.559 E269.536
G1 X127.842 Y133.61 E269.54202
G1 X127.116 Y134.087 E269.60847
G1 X127.05 Y134.121 E269.61415
G1 X85.866 Y92.937 E274.06964
G1 X85.494 Y93.413 E274.11585
G1 X85.274 Y93.759 E274.14722
G1 X126.142 Y134.628 E278.56858
G1 X125.924 Y134.751 E278.58772
G1 X125.304 Y135.203 E278.64642
G1 X84.758 Y94.658 E283.03283
G1 X84.302 Y95.616 E283.114
G1 X124.474 Y135.788 E287.46
G1 X123.652 Y136.252 E287.53221
G1 X123.561 Y136.289 E287.53973
G1 X83.774 Y96.502 E291.84408
G1 X83.502 Y96.932 E291.883
G1 X83.251 Y97.393 E291.92316
G1 X122.56 Y136.702 E296.1758
G1 X121.64 Y137.033 E296.25059
G1 X121.53 Y137.086 E296.25993
G1 X82.809 Y98.365 E300.44896
G1 X82.671 Y98.698 E300.47654
G1 X82.46 Y99.431 E300.53489
G1 X120.589 Y137.559 E304.65982
G1 X120.168 Y137.773 E304.69595
G1 X119.594 Y137.979 E304.7426
G1 X82.122 Y100.507 E308.7965
G1 X81.733 Y101.42 E308.87242
G1 X81.703 Y101.502 E308.8791
G1 X118.502 Y138.301 E312.8602
G1 X118.327 Y138.347 E312.87404
G1 X117.313 Y138.527 E312.95282
G1 X81.36 Y102.573 E316.84245
G1 X81.242 Y103.047 E316.87982
G1 X81.128 Y103.755 E316.93468
G1 X116.209 Y138.836 E320.72991
G1 X115.502 Y139.058 E320.7866
G1 X115.092 Y139.133 E320.81849
G1 X80.986 Y105.027 E324.50824
G1 X80.711 Y106.167 E324.59795
G1 X113.851 Y139.307 E328.1832
G1 X113.606 Y139.33 E328.20202
G1 X112.474 Y139.344 E328.28863
G1 X80.529 Y107.399 E331.7446
G1 X80.49 Y107.879 E331.78144
G1 X80.495 Y108.755 E331.84845
G1 X80.496 Y108.78 E331.85036
G1 X111.201 Y139.486 E335.17224
G1 X110.599 Y139.569 E335.21872
G1 X109.882 Y139.581 E335.27358
G1 X80.535 Y110.234 E338.44848
G1 X80.472 Y111.187 E338.52155
G1 X80.474 Y111.587 E338.55215
G1 X108.351 Y139.464 E341.56802
G1 X107.37 Y139.314 E341.64394
G1 X106.778 Y139.305 E341.68923
G1 X80.593 Y113.12 E344.52205
G1 X80.931 Y114.623 E344.6399
G1 X80.958 Y114.899 E344.66111
G1 X105.26 Y139.201 E347.29022
G1 X104.651 Y139.104 E347.3374
G1 X103.806 Y138.886 E347.40416
G1 X103.395 Y138.751 E347.43725
G1 X81.151 Y116.507 E349.84372
G1 X81.215 Y116.874 E349.87221
G1 X81.497 Y117.889 E349.9528
G1 X81.754 Y118.524 E350.0052
G1 X101.498 Y138.268 E352.14121
G1 X101.003 Y138.172 E352.17978
G1 X99.996 Y137.851 E352.26063
G1 X99.412 Y137.595 E352.30941
G1 X82.43 Y120.614 E354.14656
G1 X82.447 Y120.677 E354.15155
G1 X82.732 Y121.498 E354.21803
G1 X83.185 Y122.473 E354.30027
G1 X84.008 Y123.813 E354.42057
G1 X84.575 Y125.055 E354.52501
G1 X84.989 Y125.817 E354.59135
G1 X85.387 Y126.399 E354.64529
G1 X93.236 Y134.249 E355.49449
G1 X93.715 Y134.516 E355.53644
G1 X94.813 Y135.345 E355.64168
G1 X95.53 Y135.812 E355.70714
G1 X96.464 Y136.295 E355.78758
G1 X96.836 Y136.434 E355.81796
G1 X83.679 Y123.277 E357.24135
G0 F600 X83.679 Y123.277 Z0.62
G0 F7200 X107.913 Y139.6
;TIME_ELAPSED:192.508138

;LAYER:-2
;TYPE:SUPPORT-INTERFACE
G1 F2400 X111.848 Y139.6 E357.33951
G1 X110.629 Y139.767 E357.3702
G1 X109.558 Y139.788 E357.39692
G1 X108.675 Y139.718 E357.41902
G1 X107.353 Y139.513 E357.45239
G1 X106.345 Y139.502 E357.47753
G1 X105.486 Y139.441 E357.49902
G1 X104.608 Y139.299 E357.5212
G1 X104.222 Y139.2 E357.53114
G1 X115.718 Y139.2 E357.81791
G1 X117.002 Y138.8 E357.85146
G1 X102.896 Y138.8 E358.20334
G1 X102.505 Y138.672 E358.2136
G1 X101.125 Y138.4 E358.24868
G1 X118.933 Y138.4 E358.69291
G1 X119.209 Y138.331 E358.7
G1 X120.126 Y138 E358.72432
G1 X99.835 Y138 E359.23048
G1 X99.104 Y137.68 E359.25039
G1 X98.95 Y137.6 E359.25472
G1 X120.955 Y137.6 E359.80364
G1 X121.72 Y137.216 E359.82499
G1 X121.763 Y137.2 E359.82613
G1 X98.186 Y137.2 E360.41426
G1 X97.895 Y137.047 E360.42246
G1 X97.236 Y136.8 E360.44002
G1 X122.885 Y136.8 E361.07984
G1 X122.934 Y136.783 E361.08113
G1 X123.726 Y136.438 E361.10268
G1 X123.793 Y136.4 E361.1046
G1 X96.232 Y136.4 E361.79211
G1 X95.457 Y136 E361.81387
G1 X124.509 Y136 E362.53857
G1 X124.697 Y135.896 E362.54393
G1 X125.101 Y135.6 E362.55643
G1 X94.838 Y135.6 E363.31134
G1 X94.686 Y135.5 E363.31588
G1 X94.288 Y135.2 E363.32831
G1 X125.648 Y135.2 E364.11059
G1 X126.034 Y134.919 E364.1225
G1 X126.246 Y134.8 E364.12856
G1 X93.759 Y134.8 E364.93896
G1 X93.606 Y134.683 E364.94376
G1 X93.093 Y134.4 E364.95838
G1 X126.965 Y134.4 E365.80332
G1 X127.205 Y134.267 E365.81016
G1 X127.611 Y134 E365.82228
G1 X92.419 Y134 E366.70015
G1 X91.982 Y133.718 E366.71312
G1 X91.829 Y133.6 E366.71794
G1 X128.168 Y133.6 E367.62442
G1 X128.662 Y133.2 E367.64028
