;FLAVOR:Marlin
;TIME:1788
;Filament used:1.08072m
;Layer height: 0.2
;MINX:94.592
;MINY:106.83
;MINZ:0.2
;MAXX:125.42
;MAXY:113.17
;MAXZ:28
                                  
;Creality Print GCode Generated by CXEngine:NO_MAGE_VERSION_GIT_HEAD_BRANCH
;CXEngine Release Time:2022-09-30 09:53:04
;Gcode Generated Time:2023-05-03 15:41:36
;----------Machine Config--------------
;Machine Name:Ender-3 V2
;Machine Height:250
;Machine Width:220
;Machine Depth:220
;Material name:PLA
;Number of Extruders:1
;ExtruderParams[0] Nozzle Diameter1000
;----------Profile Config---------------
;Engine Version:275f99b
;Engine Release Time:2022-09-30 09:42:18
;Layer Height:0.2
;Wall Thickness:0.8
;Top/Bottom Thickness:1
;Out Wall Line Width:0.4
;Inner Wall Line Width:0.4
;Inital Layer Height:200
;Wall Line Count:2
;Infill Line Distance:4
;Infill Pattern:grid
;Infill Sparse Density:20
;Infill Wipe Distance:0
;Print Temperature:200
;Bed Temperature:60
;Support Enable:false
;Support Density:30
;Support Angle:60
;Adhesion Type:none
;machine is belt:false
;machine belt offset:10
;machine belt offset Y:0
;Raft Base Line Spacing:1.6
;Wait Heatup Sync:true
;----------Shell Config----------------
;Outer Wall Wipe Distance:200
;Outer Inset First:false
;Infill Before Walls:false
;Infill Overlap:0.16
;Fill Gaps Between Walls:everywhere
;Minimum Infill Area:1
;Top Surface Skin Layer:0
;Top Layers:3
;Z Seam Alignment:sharpest_corner
;Seam Corner Preference:z_seam_corner_inner
;Z Seam X:110
;Z Seam Y:110
;Horizontal Expansion:0
;Top/Bottom Pattern:zigzag
;Ironing Pattern:zigzag
;Vase Model:false
;----------Support Config----------------
;Support Type:everywhere
;Support Pattern:zigzag
;Support Infill Layer Thickness:0.2
;Minimum Support Area:5
;Enable Support Roof:false
;Support Roof Thickness:0.8
;Support Roof Pattern:lines
;Connect Support Lines:0
;Connect Support ZigZags:1
;Minimum Support X/Y Distance:0.2
;Support Line Distance:1.33
; ---------PrintSpeed & Travel----------
;Enable Print Cool:true
;Avoid Printed Parts Traveling:true
;Enable Retraction:true
;Retraction Distance:8
;Retraction Speed:100
;Retraction Prime Speed:100
;Maximum Retraction Count:100
;Minimum Extrusion Distance Window:1
;Z Hop When Retracted:false
;Z Hop Height:0.2
;Retract Before Outer Wall:true
;Print Speed:50
;Infill Speed:50

;Prime Tower Speed:50
;Travel Speed:120
;Initial Layer Speed:25
;Skirt/Brim Speed:25
;Combing Mode:infill
; --------SpecialModel&Mesh Fixes--------
;Union Overlapping Volum:true
;Remove All Holes:false
;Maximum Travel Resolution:0.6
;Maximum Deviation:0.05
;Maximum Model Angle:0.872665
;IS Mold Print:false
;Make Overhang Printable:false
;Enable Coasting:false
;Coasting Volumes:0.06
;Coasting Speed:0.9
;Raft AirGap:0.25
;Layer0 ZOverLap:0.13
;---------------------End of Head--------------------------
M140 S60
M105
M104 S200
M105
M109 S200
M105
M190 S60
M82 ;absolute extrusion mode
M220 S100 ;Reset Feedrate
M221 S100 ;Reset Flowrate

G28 ;Home

G92 E0 ;Reset Extruder
G1 Z2.0 F3000 ;Move Z Axis up
G1 X10.1 Y20 Z0.28 F5000.0 ;Move to start position
G1 X10.1 Y145.0 Z0.28 F1500.0 E15 ;Draw the first line
G1 X10.4 Y145.0 Z0.28 F5000.0 ;Move to side a little
G1 X10.4 Y20 Z0.28 F1500.0 E30 ;Draw the second line
G92 E0  ;Reset Extruder
G1 E-1.0000 F1800 ;Retract a bit
G1 Z2.0 F3000 ;Move Z Axis up
G1 E0.0000 F1800 

G92 E0
G92 E0
G1 F6000 E-8

;LAYER_COUNT:140

;LAYER:0
M107
;MESH:
G0 F3600 X124.15 Y108.118 Z0.2
;TYPE:WALL-INNER
G1 F6000 E0
G1 F1500 X124.15 Y111.701 E0.13109
G1 X124.15 Y111.9 E0.13837
G1 X123.951 Y111.9 E0.14308
G1 X96.053 Y111.882 E1.16376
G1 X95.853 Y111.882 E1.17108
G1 X95.853 Y111.682 E1.17582
G1 X95.867 Y108.1 E1.30687
G1 X124.15 Y108.118 E2.34163
G0 F3600 X124.55 Y107.718
;TYPE:WALL-OUTER
G1 F1500 X124.55 Y112.1 E2.50195
G1 X124.55 Y112.3 E2.50927
G1 X124.35 Y112.3 E2.51401
G1 X95.651 Y112.282 E3.564
G1 X95.451 Y112.282 E3.57131
G1 X95.451 Y112.082 E3.57605
G1 X95.469 Y107.7 E3.73637
G1 X124.55 Y107.718 E4.80034
G0 F3600 X124.55 Y107.918
G0 X124.11 Y108.157
G0 X123.909 Y108.358
;TYPE:SKIN
G1 F1500 X123.631 Y108.358 E4.81051
G1 X123.066 Y108.358 E4.83118
G1 X123.909 Y109.202 E4.87482
G1 X123.909 Y109.767 E4.89549
G1 X122.499 Y108.357 E4.96845
G1 X121.934 Y108.357 E4.98912
G1 X123.909 Y110.333 E5.09133
G1 X123.909 Y110.899 E5.11204
G1 X121.367 Y108.357 E5.24356
G1 X120.801 Y108.356 E5.26427
G1 X123.909 Y111.464 E5.42508
G1 X123.909 Y111.659 E5.43222
G1 X123.538 Y111.659 E5.44579
G1 X120.235 Y108.356 E5.61669
G1 X119.669 Y108.355 E5.6374
G1 X122.972 Y111.659 E5.80832
G1 X122.406 Y111.658 E5.82903
G1 X119.103 Y108.355 E5.99993
G1 X118.537 Y108.354 E6.02064
G1 X121.84 Y111.658 E6.19156
G1 X121.274 Y111.657 E6.21227
G1 X117.971 Y108.354 E6.38317
G1 X117.405 Y108.354 E6.40388
G1 X120.708 Y111.657 E6.57477
G1 X120.142 Y111.657 E6.59548
G1 X116.839 Y108.354 E6.76638
G1 X116.273 Y108.353 E6.78709
G1 X119.575 Y111.656 E6.95796
G1 X119.01 Y111.656 E6.97863
G1 X115.707 Y108.353 E7.14953
G1 X115.141 Y108.352 E7.17024
G1 X118.443 Y111.655 E7.34112
G1 X117.878 Y111.655 E7.36179
G1 X114.574 Y108.352 E7.53271
G1 X114.008 Y108.352 E7.55342
G1 X117.311 Y111.654 E7.72429
G1 X116.746 Y111.654 E7.74496
G1 X113.442 Y108.351 E7.91589
G1 X112.876 Y108.351 E7.9366
G1 X116.179 Y111.654 E8.1075
G1 X115.614 Y111.654 E8.12817
G1 X112.31 Y108.35 E8.29912
G1 X111.744 Y108.35 E8.31983
G1 X115.047 Y111.653 E8.49073
G1 X114.482 Y111.653 E8.5114
G1 X111.178 Y108.349 E8.68235
G1 X110.612 Y108.349 E8.70306
G1 X113.915 Y111.652 E8.87395
G1 X113.349 Y111.652 E8.89466
G1 X110.046 Y108.349 E9.06556
G1 X109.479 Y108.348 E9.08631
G1 X112.783 Y111.652 E9.25726
G1 X112.217 Y111.652 E9.27796
G1 X108.914 Y108.348 E9.44889
G1 X108.347 Y108.347 E9.46963
G1 X111.651 Y111.651 E9.64059
G1 X111.085 Y111.651 E9.66129
G1 X107.782 Y108.347 E9.83222
G1 X107.215 Y108.347 E9.85296
G1 X110.519 Y111.65 E10.02389
G1 X109.952 Y111.65 E10.04463
G1 X106.65 Y108.347 E10.21551
G1 X106.083 Y108.346 E10.23625
G1 X109.387 Y111.65 E10.4072
G1 X108.82 Y111.649 E10.42795
G1 X105.518 Y108.346 E10.59882
G1 X104.951 Y108.345 E10.61956
G1 X108.255 Y111.649 E10.79051
G1 X107.688 Y111.648 E10.81126
G1 X104.385 Y108.345 E10.98216
G1 X103.819 Y108.345 E11.00287
G1 X107.123 Y111.648 E11.17379
G1 X106.556 Y111.647 E11.19454
G1 X103.253 Y108.344 E11.36543
G1 X102.687 Y108.344 E11.38614
G1 X105.991 Y111.647 E11.55707
G1 X105.424 Y111.647 E11.57781
G1 X102.121 Y108.343 E11.74874
G1 X101.555 Y108.343 E11.76944
G1 X104.858 Y111.647 E11.94037
G1 X104.292 Y111.646 E11.96108
G1 X100.988 Y108.342 E12.13203
G1 X100.423 Y108.342 E12.1527
G1 X103.726 Y111.646 E12.32363
G1 X103.16 Y111.645 E12.34433
G1 X99.856 Y108.342 E12.51526
G1 X99.291 Y108.342 E12.53593
G1 X102.594 Y111.645 E12.70683
G1 X102.028 Y111.645 E12.72754
G1 X98.724 Y108.341 E12.89849
G1 X98.158 Y108.34 E12.9192
G1 X101.462 Y111.645 E13.09017
G1 X100.896 Y111.644 E13.11088
G1 X97.592 Y108.34 E13.28183
G1 X97.026 Y108.34 E13.30254
G1 X100.329 Y111.643 E13.47344
G1 X99.764 Y111.643 E13.49411
G1 X96.46 Y108.34 E13.66503
G1 X96.106 Y108.339 E13.67799
G1 X96.105 Y108.55 E13.68571
G1 X99.197 Y111.642 E13.84569
G1 X98.632 Y111.642 E13.86636
G1 X96.102 Y109.113 E13.99724
G1 X96.1 Y109.677 E14.01787
G1 X98.065 Y111.642 E14.11954
G1 X97.5 Y111.642 E14.14021
G1 X96.098 Y110.24 E14.21275
G1 X96.096 Y110.804 E14.23339
G1 X96.933 Y111.641 E14.2767
G1 X96.368 Y111.641 E14.29737
G1 X96.093 Y111.641 E14.30743
G0 F3600 X96.094 Y111.367
G1 F1500 X96.368 Y111.641 E14.3216
;;retract;;
G1 F6000 E6.3216
G0 F3600 X96.368 Y113.154
G0 X125.408 Y113.158
G0 X125.42 Y108.636
G0 X123.909 Y108.636
G1 F6000 E14.3216
G1 F1500 X123.631 Y108.358 E14.33599
;MESH:NONMESH
G0 F600 X123.631 Y108.358 Z0.4
G0 F3600 X124.15 Y108.1
;TIME_ELAPSED:24.985359

;LAYER:1
M140 S60
M106 S127.5
;TYPE:WALL-INNER
;MESH:
G1 F1500 X124.15 Y111.9 E14.46238
G1 X95.85 Y111.9 E15.40364
G1 X95.85 Y108.1 E15.53003
G1 X124.15 Y108.1 E16.47129
G0 F5400 X124.55 Y107.7
;TYPE:WALL-OUTER
G1 F1500 X124.55 Y112.3 E16.62429
G1 X95.45 Y112.3 E17.59216
G1 X95.45 Y107.7 E17.74515
G1 X124.55 Y107.7 E18.71302
G0 F5400 X124.55 Y107.9
G0 X124.11 Y108.14
;;retract;;
G1 F6000 E10.71302
G0 F5400 X125.42 Y108.14
G0 X125.42 Y111.659
G0 X123.909 Y111.659
;TYPE:SKIN
G1 F6000 E18.71302
G1 F1500 X123.909 Y111.415 E18.72114
G1 X123.665 Y111.659 E18.73261
G1 X123.099 Y111.659 E18.75144
G1 X123.909 Y110.85 E18.78952
G1 X123.909 Y110.284 E18.80834
G1 X122.533 Y111.659 E18.87304
G1 X121.968 Y111.659 E18.89183
G1 X123.909 Y109.718 E18.98313
G1 X123.909 Y109.153 E19.00192
G1 X121.402 Y111.659 E19.11982
G1 X120.836 Y111.659 E19.13865
G1 X123.909 Y108.587 E19.28317
G1 X123.909 Y108.34 E19.29138
G1 X123.591 Y108.339 E19.30196
G1 X120.271 Y111.659 E19.45812
G1 X119.705 Y111.659 E19.47695
G1 X123.025 Y108.339 E19.63311
G1 X122.46 Y108.339 E19.6519
G1 X119.139 Y111.659 E19.80809
G1 X118.574 Y111.659 E19.82688
G1 X121.894 Y108.339 E19.98304
G1 X121.328 Y108.339 E20.00187
G1 X118.008 Y111.659 E20.15803
G1 X117.442 Y111.659 E20.17686
G1 X120.763 Y108.339 E20.33304
G1 X120.197 Y108.339 E20.35187
G1 X116.876 Y111.659 E20.50805
G1 X116.311 Y111.659 E20.52685
G1 X119.631 Y108.339 E20.68301
G1 X119.066 Y108.339 E20.7018
G1 X115.745 Y111.659 E20.85799
G1 X115.179 Y111.659 E20.87681
G1 X118.5 Y108.339 E21.033
G1 X117.934 Y108.339 E21.05182
G1 X114.614 Y111.659 E21.20799
G1 X114.048 Y111.659 E21.22681
G1 X117.369 Y108.339 E21.383
G1 X116.803 Y108.339 E21.40182
G1 X113.482 Y111.659 E21.55801
G1 X112.917 Y111.659 E21.5768
G1 X116.237 Y108.339 E21.73296
G1 X115.672 Y108.339 E21.75176
G1 X112.351 Y111.659 E21.90794
G1 X111.785 Y111.659 E21.92677
G1 X115.106 Y108.339 E22.08295
G1 X114.54 Y108.339 E22.10178
G1 X111.22 Y111.659 E22.25794
G1 X110.654 Y111.659 E22.27677
G1 X113.975 Y108.339 E22.43295
G1 X113.409 Y108.339 E22.45178
G1 X110.088 Y111.659 E22.60796
G1 X109.523 Y111.659 E22.62676
G1 X112.843 Y108.339 E22.78292
G1 X112.277 Y108.339 E22.80174
G1 X108.957 Y111.659 E22.95791
G1 X108.391 Y111.659 E22.97673
G1 X111.712 Y108.339 E23.13292
G1 X111.146 Y108.339 E23.15174
G1 X107.826 Y111.659 E23.30791
G1 X107.26 Y111.659 E23.32673
G1 X110.58 Y108.339 E23.48289
G1 X110.015 Y108.339 E23.50168
G1 X106.694 Y111.659 E23.65787
G1 X106.128 Y111.659 E23.6767
G1 X109.449 Y108.339 E23.83288
G1 X108.883 Y108.339 E23.85171
G1 X105.563 Y111.659 E24.00787
G1 X104.997 Y111.659 E24.0267
G1 X108.318 Y108.339 E24.18288
G1 X107.752 Y108.339 E24.20171
G1 X104.431 Y111.659 E24.35789
G1 X103.866 Y111.659 E24.37669
G1 X107.186 Y108.339 E24.53285
G1 X106.621 Y108.339 E24.55164
G1 X103.3 Y111.659 E24.70783
G1 X102.734 Y111.659 E24.72665
G1 X106.055 Y108.339 E24.88284
G1 X105.489 Y108.339 E24.90166
G1 X102.169 Y111.659 E25.05783
G1 X101.603 Y111.659 E25.07665
G1 X104.924 Y108.339 E25.23284
G1 X104.358 Y108.339 E25.25166
G1 X101.037 Y111.659 E25.40785
G1 X100.472 Y111.659 E25.42664
G1 X103.792 Y108.339 E25.5828
G1 X103.226 Y108.339 E25.60163
G1 X99.906 Y111.659 E25.75779
G1 X99.34 Y111.659 E25.77662
G1 X102.661 Y108.339 E25.9328
G1 X102.095 Y108.339 E25.95163
G1 X98.775 Y111.659 E26.10779
G1 X98.209 Y111.659 E26.12661
G1 X101.529 Y108.339 E26.28278
G1 X100.964 Y108.339 E26.30157
G1 X97.643 Y111.659 E26.45776
G1 X97.077 Y111.659 E26.47658
G1 X100.398 Y108.339 E26.63277
G1 X99.832 Y108.339 E26.65159
G1 X96.512 Y111.659 E26.80775
G1 X96.09 Y111.659 E26.82179
G1 X96.09 Y111.516 E26.82655
G1 X99.267 Y108.339 E26.97598
G1 X98.701 Y108.339 E26.99481
G1 X96.09 Y110.95 E27.11762
G1 X96.09 Y110.385 E27.13641
G1 X98.135 Y108.339 E27.23263
G1 X97.57 Y108.339 E27.25142
G1 X96.09 Y109.819 E27.32103
G1 X96.09 Y109.253 E27.33986
G1 X97.004 Y108.339 E27.38285
G1 X96.438 Y108.339 E27.40168
G1 X96.09 Y108.687 E27.41805
G1 X96.089 Y108.339 E27.42962
;;retract;;
G1 F6000 E19.42962
;MESH:NONMESH
G0 F600 X96.089 Y108.339 Z0.6
G0 F5400 X96.089 Y106.83
G0 X124.15 Y106.83
G0 X124.15 Y108.1
;TIME_ELAPSED:44.986444

;LAYER:2
M106 S255
;TYPE:WALL-INNER
;MESH:
G1 F6000 E27.42962
G1 F1500 X124.15 Y111.9 E27.55601
G1 X95.85 Y111.9 E28.49727
G1 X95.85 Y108.1 E28.62366
G1 X124.15 Y108.1 E29.56492
G0 F7200 X124.55 Y107.7
;TYPE:WALL-OUTER
G1 F1500 X124.55 Y112.3 E29.71792
G1 X95.45 Y112.3 E30.68579
G1 X95.45 Y107.7 E30.83878
G1 X124.55 Y107.7 E31.80665
G0 F7200 X124.55 Y107.9
G0 X124.11 Y108.14
G0 X123.909 Y108.636
;TYPE:SKIN
G1 F1500 X123.613 Y108.34 E31.82058
G1 X123.047 Y108.34 E31.8394
G1 X123.909 Y109.202 E31.87995
G1 X123.909 Y109.767 E31.89874
G1 X122.482 Y108.34 E31.96586
G1 X121.916 Y108.34 E31.98469
G1 X123.909 Y110.333 E32.07843
G1 X123.909 Y110.899 E32.09726
G1 X121.35 Y108.34 E32.21762
G1 X120.785 Y108.34 E32.23642
G1 X123.909 Y111.464 E32.38336
G1 X123.909 Y111.659 E32.38985
G1 X123.538 Y111.659 E32.40219
G1 X120.219 Y108.34 E32.5583
G1 X119.653 Y108.34 E32.57713
G1 X122.972 Y111.659 E32.73324
G1 X122.407 Y111.659 E32.75203
G1 X119.088 Y108.34 E32.90815
G1 X118.522 Y108.34 E32.92697
G1 X121.841 Y111.659 E33.08309
G1 X121.275 Y111.659 E33.10192
G1 X117.956 Y108.34 E33.25803
G1 X117.391 Y108.34 E33.27682
G1 X120.71 Y111.659 E33.43294
G1 X120.144 Y111.659 E33.45176
G1 X116.825 Y108.34 E33.60788
G1 X116.259 Y108.34 E33.6267
G1 X119.578 Y111.659 E33.78282
G1 X119.013 Y111.659 E33.80161
G1 X115.693 Y108.34 E33.95775
G1 X115.128 Y108.34 E33.97654
G1 X118.447 Y111.659 E34.13266
G1 X117.881 Y111.659 E34.15148
G1 X114.562 Y108.34 E34.3076
G1 X113.996 Y108.34 E34.32642
G1 X117.316 Y111.659 E34.48256
G1 X116.75 Y111.659 E34.50139
G1 X113.431 Y108.34 E34.6575
G1 X112.865 Y108.34 E34.67633
G1 X116.184 Y111.659 E34.83245
G1 X115.619 Y111.659 E34.85124
G1 X112.299 Y108.34 E35.00738
G1 X111.734 Y108.34 E35.02617
G1 X115.053 Y111.659 E35.18228
G1 X114.487 Y111.659 E35.20111
G1 X111.168 Y108.34 E35.35723
G1 X110.602 Y108.34 E35.37605
G1 X113.921 Y111.659 E35.53217
G1 X113.356 Y111.659 E35.55096
G1 X110.037 Y108.34 E35.70707
G1 X109.471 Y108.34 E35.7259
G1 X112.79 Y111.659 E35.88201
G1 X112.224 Y111.659 E35.90084
G1 X108.905 Y108.34 E36.05696
G1 X108.34 Y108.34 E36.07575
G1 X111.659 Y111.659 E36.23186
G1 X111.093 Y111.659 E36.25069
G1 X107.774 Y108.34 E36.4068
G1 X107.208 Y108.34 E36.42563
G1 X110.527 Y111.659 E36.58174
G1 X109.962 Y111.659 E36.60054
G1 X106.643 Y108.34 E36.75665
G1 X106.077 Y108.34 E36.77548
G1 X109.396 Y111.659 E36.93159
G1 X108.83 Y111.659 E36.95042
G1 X105.511 Y108.34 E37.10653
G1 X104.945 Y108.34 E37.12536
G1 X108.265 Y111.659 E37.2815
G1 X107.699 Y111.659 E37.30032
G1 X104.38 Y108.34 E37.45644
G1 X103.814 Y108.34 E37.47526
G1 X107.133 Y111.659 E37.63138
G1 X106.568 Y111.659 E37.65017
G1 X103.248 Y108.34 E37.80631
G1 X102.683 Y108.34 E37.8251
G1 X106.002 Y111.659 E37.98122
G1 X105.436 Y111.659 E38.00004
G1 X102.117 Y108.34 E38.15616
G1 X101.551 Y108.34 E38.17498
G1 X104.871 Y111.659 E38.33112
G1 X104.305 Y111.659 E38.34995
G1 X100.986 Y108.34 E38.50606
G1 X100.42 Y108.34 E38.52489
G1 X103.739 Y111.659 E38.68101
G1 X103.173 Y111.659 E38.69983
G1 X99.854 Y108.34 E38.85595
G1 X99.289 Y108.34 E38.87474
G1 X102.608 Y111.659 E39.03085
G1 X102.042 Y111.659 E39.04968
G1 X98.723 Y108.34 E39.20579
G1 X98.157 Y108.34 E39.22462
G1 X101.476 Y111.659 E39.38074
G1 X100.911 Y111.659 E39.39953
G1 X97.592 Y108.34 E39.55564
G1 X97.026 Y108.34 E39.57447
G1 X100.345 Y111.659 E39.73058
G1 X99.779 Y111.659 E39.74941
G1 X96.46 Y108.34 E39.90552
G1 X96.089 Y108.339 E39.91786
G1 X96.089 Y108.534 E39.92435
G1 X99.214 Y111.659 E40.07134
G1 X98.648 Y111.659 E40.09017
G1 X96.089 Y109.1 E40.21053
G1 X96.089 Y109.665 E40.22932
G1 X98.082 Y111.659 E40.32309
G1 X97.517 Y111.659 E40.34189
G1 X96.089 Y110.231 E40.40905
G1 X96.089 Y110.797 E40.42788
G1 X96.951 Y111.659 E40.46842
G1 X96.385 Y111.659 E40.48725
G1 X96.09 Y111.659 E40.49706
G0 F7200 X96.089 Y111.362
G1 F1500 X96.385 Y111.659 E40.51101
;;retract;;
G1 F6000 E32.51101
G0 F7200 X96.385 Y113.17
G0 X94.592 Y113.158
G0 X94.592 Y106.842
G0 X123.613 Y106.83
G0 X123.613 Y108.34
G1 F6000 E40.51101
G1 F1500 X123.909 Y108.34 E40.52085
;MESH:NONMESH
G0 F600 X123.909 Y108.34 Z0.8
G0 F7200 X124.15 Y108.1
;TIME_ELAPSED:65.082367

;LAYER:3
;TYPE:WALL-INNER
;MESH:
G1 F1500 X124.15 Y111.9 E40.64724
