;FLAVOR:Marlin
;TIME:4996
;Filament used:3.8605m
;Layer height: 0.2
;MINX:51.137
;MINY:97.699
;MINZ:0.24
;MAXX:168.861
;MAXY:122.3
;MAXZ:30.29
                               
;Creality Print GCode Generated by CXEngine:NO_MAGE_VERSION_GIT_HEAD_BRANCH
;CXEngine Release Time:2022-09-30 09:53:04
;Gcode Generated Time:2023-05-05 12:56:43
;----------Machine Config--------------
;Machine Name:Ender-3 V2
;Machine Height:250
;Machine Width:220
;Machine Depth:220
;Material name:PLA
;Number of Extruders:1
;ExtruderParams[0] Nozzle Diameter1000
;----------Profile Config---------------
;Engine Version:275f99b
;Engine Release Time:2022-09-30 09:42:18
;Layer Height:0.2
;Wall Thickness:0.8
;Top/Bottom Thickness:1
;Out Wall Line Width:0.4
;Inner Wall Line Width:0.4
;Inital Layer Height:200
;Wall Line Count:2
;Infill Line Distance:4
;Infill Pattern:grid
;Infill Sparse Density:20
;Infill Wipe Distance:0
;Print Temperature:200
;Bed Temperature:60
;Support Enable:false
;Support Density:30
;Support Angle:60
;Adhesion Type:simpleraft
;machine is belt:false
;machine belt offset:10
;machine belt offset Y:0
;Raft Base Line Spacing:1.6
;Wait Heatup Sync:true
;----------Shell Config----------------
;Outer Wall Wipe Distance:200
;Outer Inset First:false
;Infill Before Walls:false
;Infill Overlap:0.16
;Fill Gaps Between Walls:everywhere
;Minimum Infill Area:1
;Top Surface Skin Layer:0
;Top Layers:3
;Z Seam Alignment:sharpest_corner
;Seam Corner Preference:z_seam_corner_inner
;Z Seam X:110
;Z Seam Y:110
;Horizontal Expansion:0
;Top/Bottom Pattern:zigzag
;Ironing Pattern:zigzag
;Vase Model:false
;----------Support Config----------------
;Support Type:everywhere
;Support Pattern:zigzag
;Support Infill Layer Thickness:0.2
;Minimum Support Area:5
;Enable Support Roof:false
;Support Roof Thickness:0.8
;Support Roof Pattern:lines
;Connect Support Lines:0
;Connect Support ZigZags:1
;Minimum Support X/Y Distance:0.2
;Support Line Distance:1.33
; ---------PrintSpeed & Travel----------
;Enable Print Cool:true
;Avoid Printed Parts Traveling:true
;Enable Retraction:true
;Retraction Distance:8
;Retraction Speed:100
;Retraction Prime Speed:100
;Maximum Retraction Count:100
;Minimum Extrusion Distance Window:1
;Z Hop When Retracted:false
;Z Hop Height:0.2
;Retract Before Outer Wall:true
;Print Speed:50
;Infill Speed:50

;Prime Tower Speed:50
;Travel Speed:120
;Initial Layer Speed:25
;Skirt/Brim Speed:25
;Combing Mode:infill
; --------SpecialModel&Mesh Fixes--------
;Union Overlapping Volum:true
;Remove All Holes:false
;Maximum Travel Resolution:0.6
;Maximum Deviation:0.05
;Maximum Model Angle:0.872665
;IS Mold Print:false
;Make Overhang Printable:false
;Enable Coasting:false
;Coasting Volumes:0.06
;Coasting Speed:0.9
;Raft AirGap:0.25
;Layer0 ZOverLap:0.13
;---------------------End of Head--------------------------
M140 S60
M105
M104 S200
M105
M109 S200
M105
M190 S60
M82 ;absolute extrusion mode
M220 S100 ;Reset Feedrate
M221 S100 ;Reset Flowrate

G28 ;Home

G92 E0 ;Reset Extruder
G1 Z2.0 F3000 ;Move Z Axis up
G1 X10.1 Y20 Z0.28 F5000.0 ;Move to start position
G1 X10.1 Y145.0 Z0.28 F1500.0 E15 ;Draw the first line
G1 X10.4 Y145.0 Z0.28 F5000.0 ;Move to side a little
G1 X10.4 Y20 Z0.28 F1500.0 E30 ;Draw the second line
G92 E0  ;Reset Extruder
G1 E-1.0000 F1800 ;Retract a bit
G1 Z2.0 F3000 ;Move Z Axis up
G1 E0.0000 F1800 

G92 E0
G92 E0
G1 F6000 E-8

;LAYER_COUNT:147

;LAYER:-4
M107
G0 F7200 X54.4 Y101.046 Z0.24
;TYPE:SUPPORT-INTERFACE
G1 F6000 E0
G1 F1200 X54.4 Y118.955 E1.57253
G1 X54.234 Y118.794 E1.59284
G1 X53.694 Y118.164 E1.6657
G1 X53.22 Y117.499 E1.7374
G1 X52.818 Y116.815 E1.80707
G1 X52.8 Y116.776 E1.81084
G1 X52.8 Y103.236 E2.99974
G1 X53.094 Y102.701 E3.05334
G1 X53.556 Y102.018 E3.12575
G1 X54.055 Y101.402 E3.19536
G1 X54.637 Y100.802 E3.26875
G1 X55.273 Y100.257 E3.3423
G1 X55.933 Y99.787 E3.41344
G1 X56 Y99.747 E3.4203
G1 X56 Y120.249 E5.22051
G1 X56.138 Y120.343 E5.23517
G1 X56.883 Y120.752 E5.3098
G1 X57.6 Y121.066 E5.37853
G1 X57.6 Y98.94 E7.32134
G1 X58.162 Y98.734 E7.3739
G1 X58.974 Y98.518 E7.44768
G1 X59.2 Y98.478 E7.46783
G1 X59.2 Y121.528 E9.49177
G1 X60.021 Y121.65 E9.56465
G1 X60.8 Y121.688 E9.63314
G1 X60.8 Y98.309 E11.68597
G1 X60.943 Y98.3 E11.69855
G1 X62.4 Y98.3 E11.82649
G1 X62.4 Y121.7 E13.88117
G1 X64 Y121.7 E14.02166
G1 X64 Y98.3 E16.07633
G1 X65.6 Y98.3 E16.21683
G1 X65.6 Y121.7 E18.2715
G1 X67.2 Y121.7 E18.41199
G1 X67.2 Y98.3 E20.46667
G1 X68.8 Y98.3 E20.60716
G1 X68.8 Y121.699 E22.66175
G1 X70.4 Y121.699 E22.80224
G1 X70.4 Y98.3 E24.85683
G1 X72 Y98.3 E24.99733
G1 X72 Y121.699 E27.05192
G1 X73.6 Y121.699 E27.19241
G1 X73.6 Y98.3 E29.247
G1 X75.2 Y98.3 E29.38749
G1 X75.2 Y121.699 E31.44208
G1 X76.8 Y121.698 E31.58257
G1 X76.8 Y98.3 E33.63707
G1 X78.4 Y98.3 E33.77756
G1 X78.4 Y121.698 E35.83207
G1 X80 Y121.698 E35.97256
G1 X80 Y98.3 E38.02706
G1 X81.6 Y98.3 E38.16755
G1 X81.6 Y121.698 E40.22205
G1 X83.2 Y121.698 E40.36254
G1 X83.2 Y98.3 E42.41705
G1 X84.8 Y98.3 E42.55754
G1 X84.8 Y121.697 E44.61195
G1 X86.4 Y121.697 E44.75244
G1 X86.4 Y98.3 E46.80686
G1 X88 Y98.3 E46.94735
G1 X88 Y121.697 E49.00176
G1 X89.6 Y121.697 E49.14225
G1 X89.6 Y98.3 E51.19667
G1 X91.2 Y98.3 E51.33716
G1 X91.2 Y121.697 E53.39157
G1 X92.8 Y121.696 E53.53206
G1 X92.8 Y98.3 E55.58639
G1 X94.4 Y98.3 E55.72688
G1 X94.4 Y121.696 E57.78121
G1 X96 Y121.696 E57.9217
G1 X96 Y98.3 E59.97603
G1 X97.6 Y98.3 E60.11652
G1 X97.6 Y121.696 E62.17084
G1 X99.2 Y121.695 E62.31133
G1 X99.2 Y98.3 E64.36557
G1 X100.8 Y98.3 E64.50606
G1 X100.8 Y121.695 E66.5603
G1 X102.4 Y121.695 E66.70079
G1 X102.4 Y98.3 E68.75503
G1 X104 Y98.3 E68.89552
G1 X104 Y121.695 E70.94976
G1 X105.6 Y121.695 E71.09025
G1 X105.6 Y98.3 E73.14449
G1 X107.2 Y98.3 E73.28498
G1 X107.2 Y121.694 E75.33914
G1 X108.8 Y121.694 E75.47963
G1 X108.8 Y98.3 E77.53378
G1 X110.4 Y98.3 E77.67427
G1 X110.4 Y121.694 E79.72842
G1 X112 Y121.694 E79.86891
G1 X112 Y98.3 E81.92306
G1 X113.6 Y98.3 E82.06355
G1 X113.6 Y121.694 E84.1177
G1 X115.2 Y121.693 E84.2582
G1 X115.2 Y98.3 E86.31226
G1 X116.8 Y98.3 E86.45275
G1 X116.8 Y121.693 E88.50681
G1 X118.4 Y121.693 E88.6473
G1 X118.4 Y98.3 E90.70137
G1 X120 Y98.3 E90.84186
G1 X120 Y121.693 E92.89592
G1 X121.6 Y121.693 E93.03641
G1 X121.6 Y98.3 E95.09048
G1 X123.2 Y98.3 E95.23097
G1 X123.2 Y121.692 E97.28494
G1 X124.8 Y121.692 E97.42543
G1 X124.8 Y98.3 E99.47941
G1 X126.4 Y98.3 E99.6199
G1 X126.4 Y121.692 E101.67388
G1 X128 Y121.692 E101.81437
G1 X128 Y98.3 E103.86834
G1 X129.6 Y98.3 E104.00883
G1 X129.6 Y121.691 E106.06272
G1 X131.2 Y121.691 E106.20321
G1 X131.2 Y98.3 E108.2571
G1 X132.8 Y98.3 E108.39759
G1 X132.8 Y121.691 E110.45148
G1 X134.4 Y121.691 E110.59197
G1 X134.4 Y98.3 E112.64586
G1 X136 Y98.3 E112.78635
G1 X136 Y121.691 E114.84024
G1 X137.6 Y121.69 E114.98073
G1 X137.6 Y98.3 E117.03453
G1 X139.2 Y98.3 E117.17502
G1 X139.2 Y121.69 E119.22882
G1 X140.8 Y121.69 E119.36931
G1 X140.8 Y98.3 E121.42311
G1 X142.4 Y98.3 E121.5636
G1 X142.4 Y121.69 E123.6174
G1 X144 Y121.69 E123.75789
G1 X144 Y98.3 E125.81169
G1 X145.6 Y98.3 E125.95218
G1 X145.6 Y121.689 E128.00589
G1 X147.2 Y121.689 E128.14638
G1 X147.2 Y98.3 E130.2001
G1 X148.8 Y98.3 E130.34059
G1 X148.8 Y121.689 E132.3943
G1 X150.4 Y121.689 E132.53479
G1 X150.4 Y98.3 E134.5885
G1 X152 Y98.3 E134.72899
G1 X152 Y121.688 E136.78262
G1 X153.6 Y121.688 E136.92311
G1 X153.6 Y98.3 E138.97673
G1 X155.2 Y98.3 E139.11722
G1 X155.2 Y121.688 E141.17085
G1 X156.8 Y121.688 E141.31134
G1 X156.8 Y98.3 E143.36496
G1 X158.4 Y98.3 E143.50546
G1 X158.4 Y121.688 E145.55908
G1 X159.496 Y121.687 E145.65532
G1 X160 Y121.641 E145.69975
G1 X160 Y98.356 E147.74433
G1 X160.785 Y98.472 E147.81401
G1 X161.58 Y98.662 E147.88578
G1 X161.6 Y98.669 E147.88764
G1 X161.6 Y121.33 E149.87743
G1 X161.897 Y121.248 E149.90449
G1 X162.654 Y120.965 E149.97545
G1 X163.2 Y120.705 E150.02855
G1 X163.2 Y99.305 E151.90762
G1 X163.843 Y99.657 E151.97198
G1 X164.526 Y100.119 E152.04439
G1 X164.8 Y100.341 E152.07535
G1 X164.8 Y119.688 E153.77415
G1 X165.388 Y119.174 E153.84272
G1 X165.962 Y118.578 E153.91538
G1 X166.477 Y117.937 E153.98758
G1 X166.932 Y117.256 E154.0595
G1 X167.328 Y116.531 E154.13203
G1 X167.654 Y115.778 E154.20408
G1 X167.915 Y114.988 E154.27714
G1 X168 Y114.628 E154.30962
G1 X168 Y105.44 E155.11638
G1 X167.811 Y104.729 E155.18098
G1 X167.529 Y103.961 E155.25282
G1 X167.163 Y103.185 E155.32816
G1 X166.761 Y102.501 E155.39782
G1 X166.4 Y101.995 E155.4524
G1 X166.4 Y118.033 E156.86065
G0 F600 X166.4 Y118.033 Z0.47
G0 F7200 X166.356 Y101.302
;TIME_ELAPSED:96.540892

;LAYER:-3
;TYPE:SUPPORT
G1 F1800 X165.219 Y100.165 E156.98365
G1 X165.407 Y100.317 E157.00215
G1 X166.032 Y100.924 E157.0688
G1 X166.603 Y101.59 E157.1359
G1 X167.098 Y102.285 E157.20118
G1 X167.518 Y102.998 E157.26448
G1 X167.9 Y103.808 E157.33299
G1 X168.16 Y104.52 E157.39097
G1 X162.031 Y98.391 E158.05404
G1 X161.687 Y98.276 E158.08179
G1 X160.858 Y98.078 E158.14699
G1 X160.208 Y97.983 E158.19724
G1 X168.565 Y106.339 E159.10129
G1 X168.644 Y107.464 E159.18756
G1 X168.644 Y107.833 E159.21579
G1 X158.711 Y97.9 E160.29039
G1 X157.297 Y97.9 E160.39856
G1 X168.649 Y109.252 E161.62667
G1 X168.654 Y110.671 E161.73522
G1 X155.883 Y97.9 E163.11685
G1 X154.468 Y97.9 E163.2251
G1 X168.659 Y112.091 E164.76035
G1 X168.661 Y112.484 E164.79042
G1 X168.614 Y113.418 E164.86196
G1 X168.608 Y113.453 E164.86467
G1 X153.054 Y97.9 E166.54733
G1 X151.64 Y97.9 E166.6555
G1 X168.401 Y114.661 E168.46878
G1 X168.298 Y115.106 E168.50373
G1 X168.082 Y115.756 E168.55612
G1 X150.226 Y97.9 E170.48787
G1 X148.812 Y97.9 E170.59604
G1 X167.662 Y116.751 E172.63538
G1 X167.274 Y117.465 E172.69755
G1 X167.148 Y117.651 E172.71473
G1 X147.397 Y97.9 E174.85149
G1 X145.983 Y97.9 E174.95966
G1 X166.558 Y118.475 E177.18557
G1 X166.264 Y118.842 E177.22154
G1 X165.894 Y119.225 E177.26228
G1 X144.569 Y97.9 E179.56932
G1 X143.155 Y97.9 E179.67749
G1 X165.158 Y119.903 E182.05788
G1 X165.036 Y120.012 E182.0704
G1 X164.348 Y120.507 E182.13524
G1 X141.74 Y97.9 E184.58103
G1 X140.326 Y97.9 E184.6892
G1 X163.451 Y121.025 E187.19097
G1 X162.806 Y121.335 E187.24572
G1 X162.471 Y121.459 E187.27304
G1 X138.912 Y97.9 E189.82177
G1 X137.498 Y97.9 E189.92994
G1 X161.397 Y121.799 E192.51545
G1 X161.186 Y121.858 E192.53221
G1 X160.34 Y122.01 E192.59797
G1 X160.205 Y122.021 E192.60833
G1 X136.084 Y97.9 E195.21786
G1 X134.669 Y97.9 E195.3261
G1 X158.856 Y122.086 E197.94272
G1 X157.442 Y122.086 E198.05089
G1 X133.255 Y97.9 E200.6675
G1 X131.841 Y97.9 E200.77567
G1 X156.028 Y122.086 E203.39229
G1 X154.613 Y122.086 E203.50053
G1 X130.427 Y97.9 E206.11709
G1 X129.013 Y97.9 E206.22526
G1 X153.2 Y122.087 E208.84193
G1 X151.786 Y122.087 E208.9501
G1 X127.598 Y97.9 E211.56682
G1 X126.184 Y97.9 E211.67499
G1 X150.371 Y122.087 E214.29166
G1 X148.957 Y122.087 E214.39983
G1 X124.77 Y97.9 E217.0165
G1 X123.356 Y97.9 E217.12467
G1 X147.544 Y122.088 E219.74144
G1 X146.129 Y122.088 E219.84969
G1 X121.941 Y97.9 E222.46647
G1 X120.527 Y97.9 E222.57464
G1 X144.715 Y122.088 E225.19141
G1 X143.301 Y122.088 E225.29958
G1 X119.113 Y97.9 E227.91636
G1 X117.699 Y97.9 E228.02453
G1 X141.888 Y122.089 E230.64141
G1 X140.473 Y122.089 E230.74966
G1 X116.285 Y97.9 E233.36649
G1 X114.87 Y97.9 E233.47474
G1 X139.059 Y122.089 E236.09162
G1 X137.645 Y122.089 E236.19979
G1 X113.456 Y97.9 E238.81668
G1 X112.042 Y97.9 E238.92484
G1 X136.231 Y122.089 E241.54173
G1 X134.817 Y122.089 E241.6499
G1 X110.628 Y97.9 E244.26678
G1 X109.214 Y97.9 E244.37495
G1 X133.403 Y122.089 E246.99184
G1 X131.989 Y122.09 E247.10001
G1 X107.799 Y97.9 E249.717
G1 X106.385 Y97.9 E249.82517
G1 X130.575 Y122.09 E252.44216
G1 X129.161 Y122.09 E252.55033
G1 X104.971 Y97.9 E255.16733
G1 X103.557 Y97.9 E255.27549
G1 X127.747 Y122.09 E257.89249
G1 X126.333 Y122.091 E258.00066
G1 X102.142 Y97.9 E260.61776
G1 X100.728 Y97.9 E260.72593
G1 X124.919 Y122.091 E263.34303
G1 X123.505 Y122.091 E263.4512
G1 X99.314 Y97.9 E266.0683
G1 X97.9 Y97.9 E266.17647
G1 X122.091 Y122.091 E268.79357
G1 X120.677 Y122.091 E268.90174
G1 X96.486 Y97.9 E271.51884
G1 X95.071 Y97.9 E271.62709
G1 X119.263 Y122.091 E274.24424
G1 X117.849 Y122.091 E274.35241
G1 X93.657 Y97.9 E276.96957
G1 X92.243 Y97.9 E277.07774
G1 X116.435 Y122.091 E279.69489
G1 X115.021 Y122.092 E279.80306
G1 X90.829 Y97.9 E282.42027
G1 X89.415 Y97.9 E282.52844
G1 X113.607 Y122.092 E285.14565
G1 X112.193 Y122.092 E285.25382
G1 X88 Y97.9 E287.87108
G1 X86.586 Y97.9 E287.97925
G1 X110.778 Y122.092 E290.59646
G1 X109.365 Y122.093 E290.70455
G1 X85.172 Y97.9 E293.32187
G1 X83.758 Y97.9 E293.43004
G1 X107.951 Y122.093 E296.04736
G1 X106.536 Y122.093 E296.15561
G1 X82.343 Y97.9 E298.77292
G1 X80.929 Y97.9 E298.88109
G1 X105.122 Y122.093 E301.49841
G1 X103.709 Y122.094 E301.6065
G1 X79.515 Y97.9 E304.22393
G1 X78.101 Y97.9 E304.3321
G1 X102.295 Y122.094 E306.94953
G1 X100.88 Y122.094 E307.05777
G1 X76.687 Y97.9 E309.67514
G1 X75.272 Y97.9 E309.78339
G1 X99.466 Y122.094 E312.40081
G1 X98.053 Y122.094 E312.50891
G1 X73.858 Y97.9 E315.12639
G1 X72.444 Y97.9 E315.23456
G1 X96.638 Y122.094 E317.85198
G1 X95.224 Y122.094 E317.96015
G1 X71.03 Y97.9 E320.57758
G1 X69.616 Y97.9 E320.68575
G1 X93.811 Y122.095 E323.30328
G1 X92.396 Y122.095 E323.41153
G1 X68.201 Y97.9 E326.02906
G1 X66.787 Y97.9 E326.13723
G1 X90.982 Y122.095 E328.75476
G1 X89.568 Y122.095 E328.86293
G1 X65.373 Y97.9 E331.48047
G1 X63.959 Y97.9 E331.58864
G1 X88.155 Y122.096 E334.20628
G1 X86.74 Y122.096 E334.31452
G1 X62.545 Y97.9 E336.93211
G1 X61.13 Y97.9 E337.04036
G1 X85.326 Y122.096 E339.658
G1 X83.912 Y122.096 E339.76617
G1 X59.793 Y97.977 E342.37548
G1 X59.702 Y97.984 E342.38246
G1 X58.882 Y98.128 E342.44615
G1 X58.603 Y98.201 E342.46821
G1 X82.498 Y122.096 E345.05329
G1 X81.084 Y122.096 E345.16146
G1 X57.528 Y98.54 E347.70987
G1 X57.245 Y98.644 E347.73293
G1 X56.546 Y98.973 E347.79203
G1 X79.67 Y122.096 E350.29365
G1 X78.256 Y122.096 E350.40181
G1 X55.653 Y99.494 E352.84706
G1 X55.027 Y99.941 E352.90591
G1 X54.843 Y100.098 E352.92441
G1 X76.842 Y122.097 E355.30437
G1 X75.428 Y122.097 E355.41254
G1 X54.104 Y100.774 E357.71942
G1 X53.755 Y101.136 E357.75789
G1 X53.44 Y101.523 E357.79606
G1 X74.014 Y122.097 E360.02186
G1 X72.6 Y122.097 E360.13003
G1 X52.849 Y102.347 E362.26673
G1 X52.747 Y102.501 E362.28086
G1 X52.335 Y103.247 E362.34606
G1 X71.186 Y122.098 E364.38545
G1 X69.772 Y122.098 E364.49362
G1 X51.917 Y104.243 E366.42526
G1 X51.711 Y104.864 E366.47531
G1 X51.597 Y105.337 E366.51253
G1 X68.358 Y122.098 E368.32582
G1 X66.943 Y122.098 E368.43407
G1 X51.388 Y106.542 E370.11694
G1 X51.387 Y106.555 E370.11793
G1 X51.341 Y107.423 E370.18443
G1 X51.34 Y107.909 E370.22161
G1 X65.53 Y122.098 E371.7567
G1 X64.116 Y122.098 E371.86486
G1 X51.339 Y109.322 E373.24709
G1 X51.338 Y110.735 E373.35518
G1 X62.701 Y122.098 E374.58449
G1 X61.287 Y122.098 E374.69266
G1 X51.337 Y112.148 E375.7691
G1 X51.337 Y112.5 E375.79602
G1 X51.413 Y113.639 E375.88335
G1 X59.794 Y122.019 E376.78999
G1 X59.123 Y121.922 E376.84186
G1 X58.294 Y121.724 E376.90706
G1 X57.977 Y121.616 E376.93268
G1 X51.809 Y115.448 E377.59996
G1 X52.081 Y116.192 E377.66056
G1 X52.463 Y117.002 E377.72907
G1 X52.883 Y117.715 E377.79237
G1 X53.378 Y118.41 E377.85764
G1 X53.944 Y119.07 E377.92416
G1 X54.573 Y119.682 E377.99129
G1 X54.861 Y119.915 E378.01963
G1 X53.513 Y118.566 E378.16552
G0 F600 X53.513 Y118.566 Z0.62
G0 F7200 X58.589 Y122
;TIME_ELAPSED:198.810661

;LAYER:-2
;TYPE:SUPPORT-INTERFACE
G1 F2400 X161.419 Y122 E380.73062
G1 X161.215 Y122.057 E380.73591
G1 X160.365 Y122.209 E380.75745
G1 X159.511 Y122.287 E380.77884
G1 X61.008 Y122.3 E383.23601
G1 X59.961 Y122.247 E383.26216
G1 X59.087 Y122.119 E383.28419
G1 X58.231 Y121.914 E383.30615
G1 X57.4 Y121.635 E383.32801
G1 X57.319 Y121.6 E383.33022
G1 X162.664 Y121.6 E385.95806
G1 X162.888 Y121.517 E385.96402
G1 X163.549 Y121.2 E385.9823
G1 X56.448 Y121.2 E388.65395
G1 X55.835 Y120.862 E388.67141
G1 X55.742 Y120.8 E388.6742
G1 X164.25 Y120.8 E391.38094
G1 X164.432 Y120.693 E391.38621
G1 X164.837 Y120.4 E391.39868
G1 X55.149 Y120.4 E394.13486
G1 X55.102 Y120.367 E394.13629
G1 X54.647 Y120 E394.15087
