;FLAVOR:Marlin
;TIME:550
;Filament used:0.0836882m
;Layer height: 0.1
;MINX:105.482
;MINY:105.482
;MINZ:0.1
;MAXX:114.518
;MAXY:114.518
;MAXZ:5
                              
;Creality Print GCode Generated by CXEngine:NO_MAGE_VERSION_GIT_HEAD_BRANCH
;CXEngine Release Time:2022-09-30 09:53:04
;Gcode Generated Time:2023-05-03 15:47:27
;----------Machine Config--------------
;Machine Name:Ender-3 V2
;Machine Height:250
;Machine Width:220
;Machine Depth:220
;Material name:PLA
;Number of Extruders:1
;ExtruderParams[0] Nozzle Diameter1000
;----------Profile Config---------------
;Engine Version:275f99b
;Engine Release Time:2022-09-30 09:42:18
;Layer Height:0.1
;Wall Thickness:0.8
;Top/Bottom Thickness:0.5
;Out Wall Line Width:0.4
;Inner Wall Line Width:0.4
;Inital Layer Height:100
;Wall Line Count:2
;Infill Line Distance:4
;Infill Pattern:grid
;Infill Sparse Density:20
;Infill Wipe Distance:0
;Print Temperature:200
;Bed Temperature:60
;Support Enable:true
;Support Density:0
;Support Angle:60
;Adhesion Type:none
;machine is belt:false
;machine belt offset:10
;machine belt offset Y:0
;Raft Base Line Spacing:1.6
;Wait Heatup Sync:true
;----------Shell Config----------------
;Outer Wall Wipe Distance:200
;Outer Inset First:false
;Infill Before Walls:false
;Infill Overlap:0.16
;Fill Gaps Between Walls:everywhere
;Minimum Infill Area:1
;Top Surface Skin Layer:0
;Top Layers:4
;Z Seam Alignment:sharpest_corner
;Seam Corner Preference:z_seam_corner_inner
;Z Seam X:110
;Z Seam Y:110
;Horizontal Expansion:0
;Top/Bottom Pattern:zigzag
;Ironing Pattern:zigzag
;Vase Model:false
;----------Support Config----------------
;Support Type:everywhere
;Support Pattern:zigzag
;Support Infill Layer Thickness:0.1
;Minimum Support Area:5
;Enable Support Roof:false
;Support Roof Thickness:0.8
;Support Roof Pattern:lines
;Connect Support Lines:0
;Connect Support ZigZags:1
;Minimum Support X/Y Distance:0.2
;Support Line Distance:0
; ---------PrintSpeed & Travel----------
;Enable Print Cool:true
;Avoid Printed Parts Traveling:true
;Enable Retraction:true
;Retraction Distance:8
;Retraction Speed:100
;Retraction Prime Speed:100
;Maximum Retraction Count:100
;Minimum Extrusion Distance Window:1
;Z Hop When Retracted:false
;Z Hop Height:0.2
;Retract Before Outer Wall:true
;Print Speed:50
;Infill Speed:50

;Prime Tower Speed:50
;Travel Speed:120
;Initial Layer Speed:25
;Skirt/Brim Speed:25
;Combing Mode:infill
; --------SpecialModel&Mesh Fixes--------
;Union Overlapping Volum:true
;Remove All Holes:false
;Maximum Travel Resolution:0.6
;Maximum Deviation:0.05
;Maximum Model Angle:0.872665
;IS Mold Print:false
;Make Overhang Printable:false
;Enable Coasting:false
;Coasting Volumes:0.06
;Coasting Speed:0.9
;Raft AirGap:0.25
;Layer0 ZOverLap:0.13
;---------------------End of Head--------------------------
M140 S60
M105
M104 S200
M105
M109 S200
M105
M190 S60
M82 ;absolute extrusion mode
M220 S100 ;Reset Feedrate
M221 S100 ;Reset Flowrate

G28 ;Home

G92 E0 ;Reset Extruder
G1 Z2.0 F3000 ;Move Z Axis up
G1 X10.1 Y20 Z0.28 F5000.0 ;Move to start position
G1 X10.1 Y145.0 Z0.28 F1500.0 E15 ;Draw the first line
G1 X10.4 Y145.0 Z0.28 F5000.0 ;Move to side a little
G1 X10.4 Y20 Z0.28 F1500.0 E30 ;Draw the second line
G92 E0  ;Reset Extruder
G1 E-1.0000 F1800 ;Retract a bit
G1 Z2.0 F3000 ;Move Z Axis up
G1 E0.0000 F1800 

G92 E0
G92 E0
G1 F6000 E-8

;LAYER_COUNT:50

;LAYER:0
M107
;MESH:
G0 F3600 X112.094 Y109.458 Z0.1
;TYPE:WALL-INNER
G1 F6000 E0
G1 F600 X112.138 Y109.809 E0.00647
G1 X112.145 Y109.865 E0.0075
G1 X112.145 Y110.136 E0.01246
G1 X112.14 Y110.182 E0.01331
G1 X112.096 Y110.534 E0.0198
G1 X112.056 Y110.852 E0.02566
G1 X111.998 Y110.927 E0.02739
G1 X111.779 Y111.208 E0.03391
G1 X111.612 Y111.421 E0.03886
G1 X111.547 Y111.486 E0.04054
G1 X111.423 Y111.61 E0.04375
G1 X111.274 Y111.726 E0.04721
G1 X110.994 Y111.945 E0.05371
G1 X110.853 Y112.055 E0.05698
G1 X110.619 Y112.084 E0.06129
G1 X110.267 Y112.128 E0.06778
G1 X110.135 Y112.145 E0.07022
G1 X109.903 Y112.145 E0.07446
G1 X109.864 Y112.145 E0.07517
G1 X109.543 Y112.106 E0.08109
G1 X109.191 Y112.062 E0.08758
G1 X109.148 Y112.056 E0.08837
G1 X109.131 Y112.043 E0.08877
G1 X108.853 Y111.826 E0.09522
G1 X108.577 Y111.61 E0.10163
G1 X108.388 Y111.421 E0.10652
G1 X108.043 Y110.979 E0.11677
G1 X107.945 Y110.853 E0.11969
G1 X107.855 Y110.135 E0.13293
G1 X107.855 Y109.864 E0.13789
G1 X107.944 Y109.148 E0.15109
G1 X108.044 Y109.02 E0.15406
G1 X108.39 Y108.577 E0.16434
G1 X108.577 Y108.39 E0.16918
G1 X108.848 Y108.179 E0.17546
G1 X109.126 Y107.962 E0.18191
G1 X109.147 Y107.945 E0.18241
G1 X109.185 Y107.941 E0.18311
G1 X109.535 Y107.897 E0.18956
G1 X109.865 Y107.855 E0.19565
G1 X109.895 Y107.855 E0.19619
G1 X110.136 Y107.855 E0.2006
G1 X110.257 Y107.87 E0.20283
G1 X110.611 Y107.914 E0.20936
G1 X110.852 Y107.944 E0.2138
G1 X110.988 Y108.05 E0.21696
G1 X111.268 Y108.269 E0.22346
G1 X111.423 Y108.39 E0.22706
G1 X111.541 Y108.508 E0.23011
G1 X111.61 Y108.577 E0.23189
G1 X111.773 Y108.787 E0.23676
G1 X111.992 Y109.067 E0.24326
G1 X112.055 Y109.147 E0.24512
G1 X112.094 Y109.458 E0.25086
G0 F3600 X111.644 Y109.568
;TYPE:WALL-OUTER
G1 F600 X111.548 Y109.295 E0.25615
G1 X111.405 Y109.042 E0.26147
G1 X111.222 Y108.817 E0.26677
G1 X111.005 Y108.628 E0.27203
G1 X110.757 Y108.477 E0.27735
G1 X110.488 Y108.371 E0.28264
G1 X110.204 Y108.312 E0.28794
G1 X109.915 Y108.302 E0.29323
G1 X109.629 Y108.341 E0.29851
G1 X109.353 Y108.427 E0.3038
G1 X109.095 Y108.561 E0.30912
G1 X108.8 Y108.782 E0.31586
G1 X108.802 Y111.22 E0.36046
G1 X109.1 Y111.442 E0.36726
G1 X109.357 Y111.575 E0.37255
G1 X109.635 Y111.66 E0.37787
G1 X109.922 Y111.699 E0.38317
G1 X110.211 Y111.687 E0.38846
G1 X110.493 Y111.627 E0.39373
G1 X110.762 Y111.52 E0.39903
G1 X111.009 Y111.369 E0.40432
G1 X111.227 Y111.178 E0.40963
G1 X111.408 Y110.954 E0.41489
G1 X111.55 Y110.7 E0.42022
G1 X111.645 Y110.426 E0.42552
G1 X111.695 Y110.142 E0.4308
G1 X111.695 Y109.851 E0.43612
G1 X111.644 Y109.568 E0.44138
G0 F3600 X111.578 Y109.38
G0 X111.993 Y109.235
G0 X112.699 Y111.119
;TYPE:WALL-INNER
G1 F600 X113.457 Y111.267 E0.45551
G1 X113.58 Y111.291 E0.4578
G1 X113.685 Y111.35 E0.46
G1 X113.787 Y111.408 E0.46215
G1 X113.962 Y111.588 E0.46674
G1 X114.052 Y111.681 E0.46911
G1 X113.849 Y111.698 E0.47061
G1 X113.747 Y111.683 E0.47109
G1 X113.527 Y111.65 E0.47446
G1 X113.517 Y111.648 E0.47449
G1 X113.437 Y111.612 E0.47585
G1 X113.394 Y111.593 E0.47648
G1 X113.381 Y111.584 E0.47657
G1 X112.699 Y111.119 E0.48318
G0 F3600 X111.118 Y112.701
G1 F600 X111.548 Y113.34 E0.49727
G1 X111.62 Y113.446 E0.49962
G1 X111.65 Y113.558 E0.50174
G1 X111.682 Y113.672 E0.5039
G1 X111.678 Y113.927 E0.50857
G1 X111.676 Y114.053 E0.51087
G1 X111.523 Y113.925 E0.51234
G1 X111.458 Y113.837 E0.51288
G1 X111.329 Y113.66 E0.51619
G1 X111.321 Y113.649 E0.51627
G1 X111.292 Y113.575 E0.51749
G1 X111.273 Y113.526 E0.51822
G1 X111.271 Y113.512 E0.51838
G1 X111.118 Y112.701 E0.52502
G0 F3600 X108.881 Y112.699
G1 F600 X108.733 Y113.457 E0.53915
G1 X108.709 Y113.58 E0.54144
G1 X108.65 Y113.685 E0.54364
G1 X108.592 Y113.787 E0.54579
G1 X108.412 Y113.962 E0.55038
G1 X108.319 Y114.052 E0.55275
G1 X108.302 Y113.849 E0.55425
G1 X108.317 Y113.747 E0.55472
G1 X108.35 Y113.527 E0.5581
G1 X108.352 Y113.517 E0.55813
G1 X108.388 Y113.437 E0.55949
G1 X108.407 Y113.394 E0.56012
G1 X108.416 Y113.381 E0.56021
G1 X108.881 Y112.699 E0.56682
G0 F3600 X107.299 Y111.118
G1 F600 X106.659 Y111.549 E0.58094
G1 X106.554 Y111.62 E0.58325
G1 X106.442 Y111.65 E0.58538
G1 X106.328 Y111.682 E0.58754
G1 X106.073 Y111.678 E0.59221
G1 X105.947 Y111.676 E0.59451
G1 X106.075 Y111.523 E0.59598
G1 X106.163 Y111.458 E0.59652
G1 X106.34 Y111.329 E0.59983
G1 X106.351 Y111.321 E0.59991
G1 X106.423 Y111.293 E0.6011
G1 X106.472 Y111.273 E0.60183
G1 X106.488 Y111.27 E0.60194
G1 X107.299 Y111.118 E0.60859
G0 F3600 X107.301 Y108.881
G1 F600 X106.543 Y108.733 E0.62272
G1 X106.42 Y108.709 E0.62501
G1 X106.315 Y108.65 E0.62722
G1 X106.213 Y108.592 E0.62936
G1 X106.038 Y108.412 E0.63395
G1 X105.948 Y108.319 E0.63632
G1 X106.151 Y108.302 E0.63782
G1 X106.253 Y108.317 E0.6383
G1 X106.473 Y108.35 E0.64167
G1 X106.483 Y108.352 E0.6417
G1 X106.563 Y108.388 E0.64306
G1 X106.606 Y108.407 E0.64369
G1 X106.619 Y108.416 E0.64378
G1 X107.301 Y108.881 E0.65039
G0 F3600 X108.882 Y107.299
G1 F600 X108.451 Y106.659 E0.66451
G1 X108.38 Y106.554 E0.66683
G1 X108.35 Y106.442 E0.66895
G1 X108.318 Y106.328 E0.67111
G1 X108.322 Y106.073 E0.67578
G1 X108.324 Y105.947 E0.67808
G1 X108.477 Y106.075 E0.67955
G1 X108.542 Y106.163 E0.68009
G1 X108.671 Y106.34 E0.6834
G1 X108.679 Y106.351 E0.68349
G1 X108.707 Y106.423 E0.68467
G1 X108.727 Y106.472 E0.6854
G1 X108.73 Y106.488 E0.68551
G1 X108.882 Y107.299 E0.69216
G0 F3600 X111.119 Y107.301
G1 F600 X111.267 Y106.543 E0.70629
G1 X111.291 Y106.42 E0.70858
G1 X111.35 Y106.315 E0.71079
G1 X111.408 Y106.213 E0.71293
G1 X111.575 Y106.036 E0.71739
G1 X111.664 Y105.941 E0.71977
G1 X111.698 Y106.151 E0.72142
G1 X111.683 Y106.253 E0.72196
G1 X111.65 Y106.473 E0.72533
G1 X111.648 Y106.483 E0.72537
G1 X111.612 Y106.563 E0.72672
G1 X111.593 Y106.606 E0.72735
G1 X111.584 Y106.619 E0.72744
G1 X111.119 Y107.301 E0.73405
G0 F3600 X112.701 Y108.882
G1 F600 X113.341 Y108.451 E0.74817
G1 X113.446 Y108.38 E0.75049
G1 X113.558 Y108.35 E0.75261
G1 X113.672 Y108.318 E0.75477
G1 X113.919 Y108.311 E0.75929
G1 X114.046 Y108.306 E0.76162
G1 X113.925 Y108.477 E0.76324
G1 X113.837 Y108.542 E0.76385
G1 X113.66 Y108.671 E0.76716
G1 X113.649 Y108.679 E0.76724
G1 X113.577 Y108.707 E0.76843
G1 X113.528 Y108.727 E0.76916
G1 X113.512 Y108.73 E0.76927
G1 X112.701 Y108.882 E0.77592
G0 F3600 X112.032 Y109.466
G1 F600 X111.936 Y109.19 E0.77706
G1 X111.914 Y109.129 E0.77715
G1 X111.737 Y108.816 E0.77849
G1 X111.57 Y108.61 E0.77908
G1 X111.511 Y108.538 E0.77924
G1 X111.388 Y108.431 E0.77957
G1 X111.242 Y108.304 E0.77996
G1 X110.936 Y108.117 E0.78104
G1 X110.805 Y108.066 E0.78153
G1 X110.603 Y107.986 E0.78239
G1 X110.252 Y107.913 E0.78339
G1 X110.135 Y107.91 E0.78362
G1 X109.895 Y107.901 E0.78416
G1 X109.872 Y107.904
G1 X109.542 Y107.949 E0.78494
G1 X109.2 Y108.056 E0.78637
G1 X108.881 Y108.221 E0.788
G1 X108.606 Y108.427 E0.78879
G1 X108.4 Y108.582 E0.78909
G1 X108.4 Y109.144 E0.79464
G1 X108.402 Y110.86 E0.82603
G1 X108.402 Y111.421 E0.83161
G1 X108.605 Y111.572 E0.83185
G1 X108.887 Y111.782 E0.83268
G1 X109.205 Y111.947 E0.83419
G1 X109.549 Y112.052 E0.83575
G1 X109.87 Y112.095 E0.83652
G1 X109.903 Y112.1
G1 X110.132 Y112.091 E0.83702
G1 X110.261 Y112.085 E0.83728
G1 X110.609 Y112.011 E0.83823
G1 X110.804 Y111.934 E0.83905
G1 X110.942 Y111.879 E0.83959
G1 X111.247 Y111.692 E0.84071
G1 X111.387 Y111.57 E0.84109
G1 X111.516 Y111.456 E0.84145
G1 X111.571 Y111.388
G1 X111.741 Y111.179 E0.84204
G1 X111.916 Y110.864 E0.84332
G1 X111.934 Y110.81
G1 X112.033 Y110.527 E0.84452
G1 X112.095 Y110.177 E0.84544
G1 X112.095 Y110.136
G1 X112.095 Y109.865 E0.84606
G1 X112.095 Y109.815 E0.84612
G1 X112.032 Y109.466 E0.84697
G0 F3600 X112.481 Y109.33
;TYPE:WALL-OUTER
G1 F1500 X112.545 Y109.839 E0.85636
G1 X112.545 Y110.161 E0.86225
G1 X112.482 Y110.668 E0.87159
G1 X113.722 Y110.912 E0.89471
G1 X114.026 Y111.083 E0.90109
G1 X114.381 Y111.418 E0.91002
G1 X114.518 Y111.599 E0.91417
G1 X114.329 Y112.059 E0.92327
G1 X113.84 Y112.101 E0.93225
G1 X113.401 Y112.034 E0.94037
G1 X113.2 Y111.945 E0.94439
G1 X112.228 Y111.281 E0.96593
G1 X111.908 Y111.691 E0.97544
G1 X111.692 Y111.907 E0.98103
G1 X111.282 Y112.227 E0.99054
G1 X111.987 Y113.276 E1.01366
G1 X112.081 Y113.614 E1.02008
G1 X112.096 Y114.1 E1.02898
G1 X112.065 Y114.326 E1.03315
G1 X111.605 Y114.516 E1.04225
G1 X111.228 Y114.2 E1.05125
G1 X110.967 Y113.844 E1.05933
G1 X110.888 Y113.642 E1.06329
G1 X110.67 Y112.481 E1.0849
G1 X110.161 Y112.545 E1.09429
G1 X109.839 Y112.545 E1.10018
G1 X109.332 Y112.482 E1.10952
G1 X109.088 Y113.722 E1.13264
G1 X108.917 Y114.026 E1.13902
G1 X108.582 Y114.381 E1.14795
G1 X108.401 Y114.518 E1.15211
G1 X107.941 Y114.329 E1.1612
G1 X107.899 Y113.84 E1.17018
G1 X107.966 Y113.401 E1.1783
G1 X108.055 Y113.2 E1.18233
G1 X108.719 Y112.228 E1.20386
G1 X108.308 Y111.907 E1.2134
G1 X108.092 Y111.691 E1.21899
G1 X107.773 Y111.282 E1.22848
G1 X106.724 Y111.987 E1.2516
G1 X106.386 Y112.081 E1.25801
G1 X105.9 Y112.096 E1.26691
G1 X105.674 Y112.065 E1.27108
G1 X105.484 Y111.605 E1.28019
G1 X105.8 Y111.228 E1.28918
G1 X106.156 Y110.967 E1.29726
G1 X106.358 Y110.888 E1.30123
G1 X107.519 Y110.67 E1.32284
G1 X107.455 Y110.161 E1.33222
G1 X107.455 Y109.839 E1.33811
G1 X107.518 Y109.332 E1.34746
G1 X106.278 Y109.088 E1.37058
G1 X105.974 Y108.917 E1.37696
G1 X105.619 Y108.582 E1.38589
G1 X105.482 Y108.401 E1.39004
G1 X105.671 Y107.941 E1.39914
G1 X106.16 Y107.899 E1.40811
G1 X106.599 Y107.966 E1.41624
G1 X106.8 Y108.055 E1.42026
G1 X107.772 Y108.719 E1.44179
G1 X108.093 Y108.308 E1.45133
G1 X108.308 Y108.093 E1.45689
G1 X108.718 Y107.773 E1.46641
G1 X108.013 Y106.724 E1.48953
G1 X107.919 Y106.386 E1.49595
G1 X107.904 Y105.9 E1.50484
G1 X107.935 Y105.674 E1.50901
G1 X108.395 Y105.484 E1.51812
G1 X108.772 Y105.8 E1.52712
G1 X109.033 Y106.156 E1.53519
G1 X109.112 Y106.358 E1.53916
G1 X109.33 Y107.519 E1.56077
G1 X109.839 Y107.455 E1.57015
G1 X110.161 Y107.455 E1.57604
G1 X110.668 Y107.518 E1.58539
G1 X110.912 Y106.278 E1.60851
G1 X111.083 Y105.974 E1.61489
G1 X111.418 Y105.619 E1.62382
G1 X111.599 Y105.482 E1.62797
G1 X112.059 Y105.671 E1.63707
G1 X112.101 Y106.16 E1.64605
G1 X112.034 Y106.599 E1.65417
G1 X111.945 Y106.8 E1.65819
G1 X111.281 Y107.772 E1.67973
G1 X111.692 Y108.093 E1.68927
G1 X111.907 Y108.308 E1.69483
G1 X112.227 Y108.718 E1.70434
G1 X113.276 Y108.013 E1.72746
G1 X113.614 Y107.919 E1.73388
G1 X114.1 Y107.904 E1.74277
G1 X114.326 Y107.935 E1.74695
G1 X114.516 Y108.395 E1.75605
G1 X114.2 Y108.772 E1.76505
G1 X113.844 Y109.033 E1.77313
G1 X113.642 Y109.112 E1.77709
G1 X112.481 Y109.33 E1.7987
G0 F3600 X112.505 Y109.528
G0 X112.069 Y109.581
;;retract;;
G1 F6000 E-6.2013
G0 F3600 X110.804 Y109.804
G0 X109.67 Y109.799
G0 X108.104 Y109.801
;TYPE:SKIN
G1 F6000 E1.7987
G1 F600 X108.095 Y109.877 E1.8001
G1 X108.095 Y110.12 E1.80455
G1 X108.129 Y110.392 E1.80956
G0 F3600 X108.161 Y110.424
G1 F600 X108.161 Y110.652 E1.81373
G0 F3600 X108.161 Y109.858
G1 F600 X108.104 Y109.801 E1.81521
G1 X108.159 Y109.351 E1.8235
G0 F3600 X108.157 Y109.571
;TYPE:SKIN
G1 F600 X108.142 Y109.839 E1.82981
G1 X108.151 Y110.696 E1.84997
G1 X108.079 Y110.907 E1.85522
G0 F3600 X107.997 Y110.825
G0 X108.345 Y109.477
G1 F600 X108.014 Y109.146 E1.8595
G0 F3600 X108.161 Y109.01
G1 F600 X108.345 Y109.194 E1.86188
;;retract;;
G1 F6000 E-6.13812
;MESH:NONMESH
G0 F600 X108.345 Y109.194 Z0.2
G0 F3600 X109.664 Y109.238
G0 X110.801 Y109.789
G0 X112.092 Y109.45
;TIME_ELAPSED:17.003942

;LAYER:1
M140 S60
M106 S127.5
;TYPE:WALL-INNER
;MESH:
G1 F6000 E1.86188
G1 F600 X112.137 Y109.802 E1.86778
G1 X112.145 Y109.865 E1.86884
G1 X112.145 Y110.136 E1.87334
G1 X112.141 Y110.176 E1.87401
G1 X112.097 Y110.528 E1.87991
G1 X112.056 Y110.852 E1.88534
G1 X112.002 Y110.922 E1.88681
G1 X111.784 Y111.201 E1.8927
G1 X111.611 Y111.422 E1.89737
G1 X111.551 Y111.482 E1.89878
G1 X111.423 Y111.61 E1.90179
G1 X111.28 Y111.721 E1.9048
G1 X111 Y111.94 E1.91071
G1 X110.853 Y112.055 E1.91381
G1 X110.627 Y112.083 E1.9176
G1 X110.275 Y112.127 E1.9235
G1 X110.135 Y112.145 E1.92585
G1 X109.91 Y112.145 E1.92959
G1 X109.864 Y112.145 E1.93035
G1 X109.548 Y112.106 E1.93565
G1 X109.199 Y112.063 E1.9415
G1 X109.148 Y112.056 E1.94235
G1 X109.137 Y112.047 E1.94259
G1 X108.861 Y111.832 E1.94841
G1 X108.577 Y111.61 E1.9544
G1 X108.4 Y111.433 E1.95857
G1 X108.389 Y111.422 E1.95882
G1 X108.046 Y110.982 E1.9681
G1 X107.945 Y110.853 E1.97083
G1 X107.855 Y110.135 E1.98286
G1 X107.855 Y109.864 E1.98737
G1 X107.944 Y109.148 E1.99937
G1 X108.045 Y109.019 E2.00209
G1 X108.39 Y108.577 E2.01141
G1 X108.577 Y108.39 E2.01581
G1 X108.844 Y108.182 E2.02144
G1 X109.118 Y107.968 E2.02722
G1 X109.147 Y107.945 E2.02784
G1 X109.177 Y107.942 E2.02834
G1 X109.527 Y107.898 E2.03421
G1 X109.865 Y107.855 E2.03987
