;FLAVOR:Marlin
;TIME:2955
;Filament used:2.03838m
;Layer height: 0.2
;MINX:81.825
;MINY:89.5
;MINZ:0.24
;MAXX:138.175
;MAXY:130.5
;MAXZ:10.89
                                
;Creality Print GCode Generated by CXEngine:NO_MAGE_VERSION_GIT_HEAD_BRANCH
;CXEngine Release Time:2022-09-30 09:53:04
;Gcode Generated Time:2023-05-05 12:58:47
;----------Machine Config--------------
;Machine Name:Ender-3 V2
;Machine Height:250
;Machine Width:220
;Machine Depth:220
;Material name:PLA
;Number of Extruders:1
;ExtruderParams[0] Nozzle Diameter1000
;----------Profile Config---------------
;Engine Version:275f99b
;Engine Release Time:2022-09-30 09:42:18
;Layer Height:0.2
;Wall Thickness:0.8
;Top/Bottom Thickness:1
;Out Wall Line Width:0.4
;Inner Wall Line Width:0.4
;Inital Layer Height:200
;Wall Line Count:2
;Infill Line Distance:4
;Infill Pattern:grid
;Infill Sparse Density:20
;Infill Wipe Distance:0
;Print Temperature:200
;Bed Temperature:60
;Support Enable:true
;Support Density:0
;Support Angle:60
;Adhesion Type:simpleraft
;machine is belt:false
;machine belt offset:10
;machine belt offset Y:0
;Raft Base Line Spacing:1.6
;Wait Heatup Sync:true
;----------Shell Config----------------
;Outer Wall Wipe Distance:200
;Outer Inset First:false
;Infill Before Walls:false
;Infill Overlap:0.16
;Fill Gaps Between Walls:everywhere
;Minimum Infill Area:1
;Top Surface Skin Layer:0
;Top Layers:3
;Z Seam Alignment:sharpest_corner
;Seam Corner Preference:z_seam_corner_inner
;Z Seam X:110
;Z Seam Y:110
;Horizontal Expansion:0
;Top/Bottom Pattern:zigzag
;Ironing Pattern:zigzag
;Vase Model:false
;----------Support Config----------------
;Support Type:everywhere
;Support Pattern:zigzag
;Support Infill Layer Thickness:0.2
;Minimum Support Area:5
;Enable Support Roof:false
;Support Roof Thickness:0.8
;Support Roof Pattern:lines
;Connect Support Lines:0
;Connect Support ZigZags:1
;Minimum Support X/Y Distance:0.2
;Support Line Distance:0
; ---------PrintSpeed & Travel----------
;Enable Print Cool:true
;Avoid Printed Parts Traveling:true
;Enable Retraction:true
;Retraction Distance:8
;Retraction Speed:100
;Retraction Prime Speed:100
;Maximum Retraction Count:100
;Minimum Extrusion Distance Window:1
;Z Hop When Retracted:false
;Z Hop Height:0.2
;Retract Before Outer Wall:true
;Print Speed:50
;Infill Speed:50

;Prime Tower Speed:50
;Travel Speed:120
;Initial Layer Speed:25
;Skirt/Brim Speed:25
;Combing Mode:infill
; --------SpecialModel&Mesh Fixes--------
;Union Overlapping Volum:true
;Remove All Holes:false
;Maximum Travel Resolution:0.6
;Maximum Deviation:0.05
;Maximum Model Angle:0.872665
;IS Mold Print:false
;Make Overhang Printable:false
;Enable Coasting:false
;Coasting Volumes:0.06
;Coasting Speed:0.9
;Raft AirGap:0.25
;Layer0 ZOverLap:0.13
;---------------------End of Head--------------------------
M140 S60
M105
M104 S200
M105
M109 S200
M105
M190 S60
M82 ;absolute extrusion mode
M220 S100 ;Reset Feedrate
M221 S100 ;Reset Flowrate

G28 ;Home

G92 E0 ;Reset Extruder
G1 Z2.0 F3000 ;Move Z Axis up
G1 X10.1 Y20 Z0.28 F5000.0 ;Move to start position
G1 X10.1 Y145.0 Z0.28 F1500.0 E15 ;Draw the first line
G1 X10.4 Y145.0 Z0.28 F5000.0 ;Move to side a little
G1 X10.4 Y20 Z0.28 F1500.0 E30 ;Draw the second line
G92 E0  ;Reset Extruder
G1 E-1.0000 F1800 ;Retract a bit
G1 Z2.0 F3000 ;Move Z Axis up
G1 E0.0000 F1800 

G92 E0
G92 E0
G1 F6000 E-8

;LAYER_COUNT:50

;LAYER:-4
M107
G0 F7200 X83.2 Y95.756 Z0.24
;TYPE:SUPPORT-INTERFACE
G1 F6000 E0
G1 F1200 X83.2 Y124.26 E2.50284
G1 X82.912 Y123.518 E2.57273
G1 X82.686 Y122.734 E2.64438
G1 X82.529 Y121.927 E2.71656
G1 X82.445 Y121.132 E2.78676
G1 X82.425 Y99.513 E4.68505
G1 X82.474 Y98.508 E4.7734
G1 X82.597 Y97.676 E4.84725
G1 X82.785 Y96.885 E4.91864
G1 X83.042 Y96.116 E4.98984
G1 X83.371 Y95.367 E5.06167
G1 X83.782 Y94.618 E5.13669
G1 X84.244 Y93.935 E5.20909
G1 X84.744 Y93.317 E5.27889
G1 X84.8 Y93.257 E5.2861
G1 X84.8 Y126.728 E8.22508
G1 X85.128 Y127.095 E8.2683
G1 X85.642 Y127.581 E8.33041
G1 X86.26 Y128.081 E8.40021
G1 X86.4 Y128.175 E8.41502
G1 X86.4 Y91.825 E11.6068
G1 X86.587 Y91.686 E11.62726
G1 X87.28 Y91.26 E11.69868
G1 X88 Y90.9 E11.76937
G1 X88 Y129.088 E15.12253
G1 X88.433 Y129.279 E15.16409
G1 X89.206 Y129.538 E15.23567
G1 X89.6 Y129.632 E15.27124
G1 X89.6 Y90.359 E18.71967
G1 X90.398 Y90.204 E18.79105
G1 X91.186 Y90.121 E18.86062
G1 X91.2 Y90.12 E18.86186
G1 X91.2 Y129.87 E22.35218
G1 X91.695 Y129.897 E22.3957
G1 X92.8 Y129.897 E22.49273
G1 X92.8 Y90.101 E25.98709
G1 X94.4 Y90.101 E26.12758
G1 X94.4 Y129.897 E29.62194
G1 X96 Y129.897 E29.76243
G1 X96 Y90.101 E33.25679
G1 X97.6 Y90.101 E33.39728
G1 X97.6 Y129.897 E36.89163
G1 X99.2 Y129.897 E37.03213
G1 X99.2 Y90.101 E40.52648
G1 X100.8 Y90.101 E40.66697
G1 X100.8 Y129.897 E44.16133
G1 X102.4 Y129.897 E44.30182
G1 X102.4 Y90.101 E47.79618
G1 X104 Y90.102 E47.93667
G1 X104 Y129.898 E51.43103
G1 X105.6 Y129.898 E51.57152
G1 X105.6 Y90.102 E55.06588
G1 X107.2 Y90.102 E55.20637
G1 X107.2 Y129.898 E58.70073
G1 X108.8 Y129.898 E58.84122
G1 X108.8 Y90.102 E62.33558
G1 X110.4 Y90.102 E62.47607
G1 X110.4 Y129.898 E65.97042
G1 X112 Y129.898 E66.11092
G1 X112 Y90.102 E69.60527
G1 X113.6 Y90.102 E69.74576
G1 X113.6 Y129.898 E73.24012
G1 X115.2 Y129.898 E73.38061
G1 X115.2 Y90.102 E76.87497
G1 X116.8 Y90.103 E77.01546
G1 X116.8 Y129.899 E80.50982
G1 X118.4 Y129.899 E80.65031
G1 X118.4 Y90.103 E84.14467
G1 X120 Y90.103 E84.28516
G1 X120 Y129.899 E87.77952
G1 X121.6 Y129.899 E87.92001
G1 X121.6 Y90.103 E91.41437
G1 X123.2 Y90.103 E91.55486
G1 X123.2 Y129.899 E95.04921
G1 X124.8 Y129.899 E95.18971
G1 X124.8 Y90.103 E98.68406
G1 X126.4 Y90.103 E98.82455
G1 X126.4 Y129.899 E102.31891
G1 X128 Y129.899 E102.4594
G1 X128 Y90.103 E105.95376
G1 X128.305 Y90.103 E105.98054
G1 X129.163 Y90.149 E106.05599
G1 X129.6 Y90.214 E106.09478
G1 X129.6 Y129.797 E109.57044
G0 F7200 X129.602 Y129.796
G1 F1200 X130.415 Y129.638 E109.64316
G1 X131.197 Y129.412 E109.71463
G0 F7200 X131.2 Y129.411
G1 F1200 X131.2 Y90.598 E113.12268
G1 X131.562 Y90.719 E113.15619
G1 X132.308 Y91.046 E113.22771
G1 X132.8 Y91.316 E113.27699
G1 X132.8 Y128.691 E116.55877
G1 X133.412 Y128.314 E116.62188
G1 X134.069 Y127.824 E116.69385
G1 X134.765 Y127.202 E116.77581
G1 X135.256 Y126.683 E116.83855
G1 X135.756 Y126.065 E116.90835
G1 X136 Y125.705 E116.94653
G1 X136 Y94.28 E119.70586
G1 X135.989 Y94.262 E119.70771
G1 X135.503 Y93.61 E119.77912
G1 X134.878 Y92.911 E119.86145
G1 X134.4 Y92.459 E119.91922
G1 X134.4 Y127.529 E122.9986
;;retract;;
G1 F6000 E114.9986
G0 F600 X134.4 Y127.529 Z0.47
G0 F7200 X137.508 Y96.496
;TIME_ELAPSED:76.407123

;LAYER:-3
;TYPE:SUPPORT
G1 F6000 E122.9986
G1 F1800 X131.183 Y90.171 E123.68287
G1 X131.707 Y90.346 E123.72513
G1 X132.492 Y90.69 E123.7907
G1 X133.257 Y91.11 E123.85746
G1 X133.984 Y91.601 E123.92457
G1 X134.213 Y91.787 E123.94714
G1 X135.899 Y93.473 E124.12954
G1 X136.322 Y94.04 E124.18365
G1 X136.765 Y94.76 E124.24832
G1 X137.147 Y95.527 E124.31387
G1 X137.466 Y96.349 E124.38132
G1 X137.705 Y97.178 E124.44732
G1 X137.867 Y98.013 E124.51239
G1 X137.897 Y98.299 E124.53439
G1 X129.373 Y89.775 E125.45655
G1 X129.21 Y89.751 E125.46916
G1 X128.307 Y89.703 E125.53833
G1 X127.886 Y89.702 E125.57054
G1 X137.974 Y99.79 E126.66191
G1 X137.974 Y101.204 E126.77008
G1 X126.472 Y89.702 E128.01442
G1 X125.058 Y89.702 E128.12259
G1 X137.974 Y102.618 E129.51991
G1 X137.974 Y104.033 E129.62815
G1 X123.643 Y89.702 E131.17855
G1 X122.229 Y89.702 E131.28672
G1 X137.973 Y105.446 E132.98998
G1 X137.973 Y106.86 E133.09815
G1 X120.815 Y89.702 E134.95439
G1 X119.401 Y89.702 E135.06256
G1 X137.973 Y108.275 E137.07182
G1 X137.973 Y109.689 E137.17999
G1 X117.986 Y89.702 E139.34228
G1 X116.572 Y89.702 E139.45045
G1 X137.972 Y111.102 E141.76561
G1 X137.972 Y112.516 E141.87378
G1 X115.157 Y89.702 E144.34196
G1 X113.743 Y89.702 E144.45013
G1 X137.972 Y113.931 E147.07135
G1 X137.972 Y115.344 E147.17944
G1 X112.329 Y89.702 E149.95357
G1 X110.915 Y89.702 E150.06174
G1 X137.972 Y116.758 E152.98884
G1 X137.972 Y118.173 E153.09709
G1 X109.5 Y89.701 E156.17733
G1 X108.086 Y89.701 E156.2855
G1 X137.972 Y119.587 E159.51872
G1 X137.972 Y120.632 E159.59866
G1 X137.952 Y120.982 E159.62547
G1 X106.672 Y89.701 E163.00955
G1 X105.257 Y89.701 E163.1178
G1 X137.816 Y122.26 E166.64019
G1 X137.797 Y122.395 E166.65062
G1 X137.601 Y123.219 E166.71541
G1 X137.54 Y123.398 E166.72988
G1 X103.843 Y89.701 E170.37539
G1 X102.429 Y89.701 E170.48356
G1 X137.155 Y124.427 E174.24039
G1 X136.985 Y124.817 E174.27293
G1 X136.681 Y125.367 E174.32101
G1 X101.015 Y89.701 E178.17953
G1 X99.6 Y89.7 E178.28778
G1 X136.127 Y126.228 E182.2395
G1 X136.074 Y126.309 E182.24691
G1 X135.557 Y126.948 E182.30979
G1 X135.497 Y127.011 E182.31644
G1 X98.186 Y89.7 E186.35293
G1 X96.771 Y89.7 E186.46117
G1 X134.787 Y127.716 E190.57393
G1 X134.322 Y128.135 E190.62182
G1 X134.017 Y128.361 E190.65086
G1 X95.357 Y89.7 E194.83334
G1 X93.943 Y89.7 E194.94151
G1 X133.172 Y128.93 E199.18555
G1 X132.921 Y129.087 E199.2082
G1 X132.249 Y129.421 E199.2656
G1 X92.529 Y89.7 E203.56276
G1 X91.779 Y89.7 E203.62014
G1 X91.159 Y89.721 E203.66759
G1 X91.138 Y89.724 E203.66922
G1 X131.231 Y129.817 E208.00668
G1 X130.503 Y130.029 E208.06468
G1 X130.104 Y130.104 E208.09574
G1 X89.894 Y89.894 E212.44585
G1 X89.497 Y89.971 E212.47679
G1 X88.767 Y90.181 E212.5349
G1 X128.861 Y130.275 E216.87247
G1 X128.841 Y130.279 E216.87403
G1 X128.221 Y130.3 E216.92148
G1 X127.47 Y130.298 E216.97893
G1 X87.749 Y90.578 E221.27609
G1 X87.079 Y90.913 E221.3334
G1 X86.826 Y91.068 E221.35609
G1 X126.055 Y130.298 E225.60014
G1 X124.641 Y130.298 E225.7083
G1 X85.981 Y91.638 E229.89073
G1 X85.682 Y91.861 E229.91927
G1 X85.211 Y92.282 E229.96759
G1 X123.227 Y130.298 E234.08035
G1 X121.813 Y130.298 E234.18852
G1 X84.502 Y92.987 E238.22501
G1 X84.443 Y93.052 E238.23173
G1 X83.926 Y93.691 E238.2946
G1 X83.871 Y93.77 E238.30197
G1 X120.399 Y130.298 E242.25375
G1 X118.984 Y130.297 E242.36199
G1 X83.317 Y94.631 E246.22057
G1 X83.015 Y95.183 E246.2687
G1 X82.843 Y95.571 E246.30117
G1 X117.569 Y130.297 E250.058
G1 X116.155 Y130.297 E250.16617
G1 X82.458 Y96.6 E253.81168
G1 X82.399 Y96.781 E253.82624
G1 X82.203 Y97.603 E253.89089
G1 X82.182 Y97.739 E253.90141
G1 X114.741 Y130.297 E257.42375
G1 X113.327 Y130.297 E257.53192
G1 X82.047 Y99.018 E260.91589
G1 X82.025 Y99.493 E260.95227
G1 X82.025 Y100.41 E261.02242
G1 X111.913 Y130.297 E264.2558
G1 X110.498 Y130.297 E264.36404
G1 X82.027 Y101.826 E267.44417
G1 X82.028 Y103.241 E267.55242
G1 X109.083 Y130.297 E270.47942
G1 X107.669 Y130.297 E270.58759
G1 X82.029 Y104.656 E273.3615
G1 X82.03 Y106.072 E273.46982
G1 X106.255 Y130.297 E276.0906
G1 X104.841 Y130.297 E276.19877
G1 X82.032 Y107.488 E278.66636
G1 X82.033 Y108.903 E278.77461
G1 X103.427 Y130.297 E281.08912
G1 X102.012 Y130.297 E281.19736
G1 X82.034 Y110.319 E283.35868
G1 X82.036 Y111.734 E283.46693
G1 X100.597 Y130.296 E285.475
G1 X99.183 Y130.296 E285.58317
G1 X82.037 Y113.15 E287.43811
G1 X82.039 Y114.566 E287.54643
G1 X97.769 Y130.296 E289.24818
G1 X96.355 Y130.296 E289.35635
G1 X82.04 Y115.981 E290.90502
G1 X82.041 Y117.396 E291.01326
G1 X94.941 Y130.296 E292.40885
G1 X93.526 Y130.296 E292.51709
G1 X82.042 Y118.812 E293.75949
G1 X82.044 Y120.227 E293.86773
G1 X92.112 Y130.296 E294.95699
G1 X91.693 Y130.297 E294.98905
G1 X90.79 Y130.249 E295.05822
G1 X90.625 Y130.223 E295.071
G1 X82.102 Y121.7 E295.99306
G1 X82.133 Y121.987 E296.01514
G1 X82.295 Y122.822 E296.08021
G1 X82.534 Y123.651 E296.14621
G1 X82.853 Y124.473 E296.21366
G1 X83.235 Y125.24 E296.27921
G1 X83.678 Y125.96 E296.34388
G1 X84.099 Y126.526 E296.39784
G1 X85.785 Y128.211 E296.58019
G1 X86.016 Y128.399 E296.60297
G1 X86.743 Y128.89 E296.67008
G1 X87.504 Y129.308 E296.7365
G1 X88.287 Y129.652 E296.80192
G1 X88.816 Y129.828 E296.84457
G1 X82.491 Y123.503 E297.52884
G0 F600 X82.491 Y123.503 Z0.62
G0 F7200 X88.695 Y130
;TIME_ELAPSED:156.598074

;LAYER:-2
;TYPE:SUPPORT-INTERFACE
G1 F2400 X131.288 Y130 E298.59133
G1 X130.55 Y130.223 E298.61056
G1 X129.703 Y130.388 E298.63209
G1 X129.58 Y130.4 E298.63517
G1 X90.444 Y130.4 E299.61142
G1 X89.892 Y130.319 E299.62534
G1 X89.036 Y130.114 E299.64729
G1 X88.205 Y129.835 E299.66916
G1 X87.67 Y129.6 E299.68374
G1 X132.338 Y129.6 E300.79798
G1 X133.013 Y129.264 E300.81679
G1 X133.115 Y129.2 E300.8198
G1 X86.89 Y129.2 E301.97288
G1 X86.64 Y129.062 E301.98001
G1 X86.251 Y128.8 E301.99171
G1 X133.764 Y128.8 E303.17692
G1 X134.3 Y128.4 E303.19361
G1 X85.699 Y128.4 E304.40596
G1 X85.234 Y128.023 E304.4209
G1 X85.208 Y128 E304.42176
G1 X134.772 Y128 E305.65814
G1 X135.194 Y127.623 E305.67226
G1 X135.214 Y127.6 E305.67302
G1 X84.787 Y127.6 E306.93092
G1 X84.693 Y127.509 E306.93419
G1 X84.414 Y127.2 E306.94457
G1 X135.593 Y127.2 E308.22124
G1 X135.698 Y127.091 E308.22501
G1 X135.932 Y126.8 E308.23433
G1 X84.055 Y126.8 E309.52841
G1 X84.038 Y126.779 E309.52908
G1 X83.754 Y126.4 E309.54089
G1 X136.254 Y126.4 E310.85051
G1 X136.523 Y126 E310.86254
G1 X83.467 Y126 E312.18602
G1 X83.221 Y125.6 E312.19774
G1 X136.783 Y125.6 E313.53385
G1 X137.003 Y125.2 E313.54523
G1 X82.991 Y125.2 E314.89257
G1 X82.791 Y124.8 E314.90373
G1 X137.209 Y124.8 E316.26119
G1 X137.386 Y124.4 E316.2721
G1 X82.609 Y124.4 E317.63852
G1 X82.454 Y124 E317.64922
G1 X137.549 Y124 E319.02357
G1 X137.684 Y123.6 E319.0341
G1 X82.31 Y123.6 E320.41541
G1 X82.194 Y123.2 E320.4258
G1 X137.81 Y123.2 E321.81315
G1 X137.905 Y122.8 E321.8234
G1 X82.086 Y122.8 E323.21581
G1 X82.008 Y122.4 E323.22598
G1 X137.999 Y122.4 E324.62268
G1 X138.057 Y122 E324.63276
G1 X81.933 Y122 E326.03278
G1 X81.89 Y121.6 E326.04282
G1 X138.116 Y121.6 E327.44538
G1 X138.123 Y121.555 E327.44652
G1 X138.141 Y121.2 E327.45538
G1 X81.847 Y121.2 E328.85964
G1 X81.846 Y121.178 E328.86019
G1 X81.832 Y120.8 E328.86963
G1 X138.163 Y120.8 E330.27481
G1 X138.172 Y120.641 E330.27878
G1 X138.172 Y120.4 E330.28479
G1 X81.825 Y120.4 E331.69038
G1 X81.825 Y120 E331.70035
G1 X138.172 Y120 E333.10594
G1 X138.172 Y119.6 E333.11591
G1 X81.825 Y119.6 E334.5215
G1 X81.825 Y119.2 E334.53147
G1 X138.172 Y119.2 E335.93705
G1 X138.172 Y118.8 E335.94703
G1 X81.826 Y118.8 E337.35259
G1 X81.826 Y118.4 E337.36257
G1 X138.172 Y118.4 E338.76812
G1 X138.172 Y118 E338.7781
G1 X81.826 Y118 E340.18366
G1 X81.826 Y117.6 E340.19364
G1 X138.172 Y117.6 E341.59919
G1 X138.172 Y117.2 E341.60917
G1 X81.826 Y117.2 E343.01473
G1 X81.826 Y116.8 E343.02471
G1 X138.172 Y116.8 E344.43026
G1 X138.172 Y116.4 E344.44024
G1 X81.826 Y116.4 E345.8458
G1 X81.826 Y116 E345.85578
G1 X138.172 Y116 E347.26133
G1 X138.172 Y115.6 E347.27131
G1 X81.826 Y115.6 E348.67687
G1 X81.826 Y115.2 E348.68685
G1 X138.172 Y115.2 E350.0924
G1 X138.172 Y114.8 E350.10238
G1 X81.826 Y114.8 E351.50794
G1 X81.826 Y114.4 E351.51792
G1 X138.172 Y114.4 E352.92347
G1 X138.172 Y114 E352.93345
G1 X81.826 Y114 E354.33901
G1 X81.826 Y113.6 E354.34899
G1 X138.172 Y113.6 E355.75454
G1 X138.173 Y113.2 E355.76452
G1 X81.827 Y113.2 E357.17008
G1 X81.827 Y112.8 E357.18005
G1 X138.173 Y112.8 E358.58561
G1 X138.173 Y112.4 E358.59559
G1 X81.827 Y112.4 E360.00115
G1 X81.827 Y112 E360.01112
G1 X138.173 Y112 E361.41668
G1 X138.173 Y111.6 E361.42666
G1 X81.827 Y111.6 E362.83222
G1 X81.827 Y111.2 E362.84219
G1 X138.173 Y111.2 E364.24775
G1 X138.173 Y110.8 E364.25773
G1 X81.827 Y110.8 E365.66329
G1 X81.827 Y110.4 E365.67326
G1 X138.173 Y110.4 E367.07882
G1 X138.173 Y110 E367.0888
G1 X81.827 Y110 E368.49435
G1 X81.827 Y109.6 E368.50433
G1 X138.173 Y109.6 E369.90989
G1 X138.173 Y109.2 E369.91987
G1 X81.827 Y109.2 E371.32542
G1 X81.827 Y108.8 E371.3354
G1 X138.173 Y108.8 E372.74096
G1 X138.173 Y108.4 E372.75094
G1 X81.827 Y108.4 E374.15649
G1 X81.827 Y108 E374.16647
G1 X138.173 Y108 E375.57203
G1 X138.173 Y107.6 E375.58201
G1 X81.827 Y107.6 E376.98756
G1 X81.827 Y107.2 E376.99754
G1 X138.173 Y107.2 E378.4031
G1 X138.173 Y106.8 E378.41308
G1 X81.827 Y106.8 E379.81863
G1 X81.828 Y106.4 E379.82861
G1 X138.174 Y106.4 E381.23417
G1 X138.174 Y106 E381.24415
G1 X81.828 Y106 E382.6497
G1 X81.828 Y105.6 E382.65968
G1 X138.174 Y105.6 E384.06524
G1 X138.174 Y105.2 E384.07522
