; HEADER_BLOCK_START
; generated by OrcaSlicer 2.1.1 on 2025-01-04 at 16:06:22
; total layer number: 49
; filament_density: 1.27
; filament_diameter: 1.75
; max_z_height: 4.04
; HEADER_BLOCK_END

; THUMBNAIL_BLOCK_START

;
; THUMBNAIL_BLOCK_END







; external perimeters extrusion width = 0.40mm
; perimeters extrusion width = 0.45mm
; infill extrusion width = 0.45mm
; solid infill extrusion width = 0.45mm
; top infill extrusion width = 0.38mm
; first layer extrusion width = 0.42mm

; EXECUTABLE_BLOCK_START
EXCLUDE_OBJECT_DEFINE NAME=芯片固定架.STL_id_0_copy_0 CENTER=117.5,115 POLYGON=[[70.51,83.25],[164.49,83.25],[164.49,146.75],[70.51,146.75],[70.51,83.25]]
M73 P0 R50
;TYPE:Custom
;ELEGOO NEPTUNE 4 PRO
M220 S100 ;Set the feed speed to 100%
M221 S100 ;Set the flow rate to 100%
M104 S140
M190 S70
G90
G28 ;home
G1 Z10 F300
G1 X67.5 Y0 F6000
G1 Z0 F300
M109 S240
G92 E0 ;Reset Extruder
G1 X67.5 Y0 Z0.4 F300 ;Move to start position
G1 X167.5 E30 F400 ;Draw the first line
G1 Z0.6 F120.0 ;Move to side a little
G1 X162.5 F3000
G92 E0 ;Reset Extruder
G90
G21
M83 ; use relative distances for extrusion
; filament start gcode
M106 S0
;LAYER_CHANGE
;Z:0.2
;HEIGHT:0.2
;BEFORE_LAYER_CHANGE
G92 E0
;0.2


G1 E-.8 F3600
;AFTER_LAYER_CHANGE
;0.2
;_SET_FAN_SPEED_CHANGING_LAYER
SET_VELOCITY_LIMIT ACCEL=1000 ACCEL_TO_DECEL=500
SET_VELOCITY_LIMIT SQUARE_CORNER_VELOCITY=7
; printing object 芯片固定架.STL id:0 copy 0
EXCLUDE_OBJECT_START NAME=芯片固定架.STL_id_0_copy_0
G1 X162.258 Y145.992 F21000
G1 Z.4
G1 Z.2
G1 E.8 F2700
;TYPE:Inner wall
;WIDTH:0.561834
G1 F3000
G1 X162.409 Y145.917 E.0069
;WIDTH:0.514556
G1 X162.559 Y145.842 E.00627
;WIDTH:0.467278
G1 X162.71 Y145.766 E.00564
;WIDTH:0.419999
G1 X163.196 Y145.415 E.01788
G1 X163.519 Y144.944 E.01701
;WIDTH:0.459666
G1 X163.59 Y144.757 E.00656
;WIDTH:0.499333
G1 X163.661 Y144.571 E.00718
;WIDTH:0.538999
G1 X163.732 Y144.385 E.00781
G1 X163.756 Y144.519 E.00533
;WIDTH:0.499333
G1 X163.779 Y144.653 E.0049
;WIDTH:0.459666
G1 X163.803 Y144.787 E.00448
;WIDTH:0.419999
G1 X163.803 Y146.063 E.03801
G1 X162.761 Y146.063 E.03104
;WIDTH:0.467278
G1 X162.593 Y146.039 E.00567
;WIDTH:0.514556
G1 X162.426 Y146.016 E.00631
;WIDTH:0.561834
G1 X162.298 Y145.998 E.0053
G1 E-.68 F3600
;WIPE_START
G1 F3000
G1 X162.409 Y145.917 E-.01648
G1 X162.559 Y145.842 E-.0202
G1 X162.71 Y145.766 E-.0202
G1 X163.136 Y145.458 E-.06312
;WIPE_END
G1 X163.457 Y145.656 Z.6 F21000
G1 Z.2
G1 E.8 F2700
;WIDTH:0.401706
G1 F3000
G1 X163.39 Y145.695 E.0022
G1 X163.457 Y145.734 E.0022
G1 X163.48 Y145.695 E.00127
G1 E-.68 F3600
;WIPE_START
G1 F3000
G1 X163.457 Y145.734 E-.02688
G1 X163.39 Y145.695 E-.04656
G1 X163.457 Y145.656 E-.04656
;WIPE_END
G1 X156.719 Y142.071 Z.6 F21000
G1 X152.651 Y139.906 Z.6
G1 Z.2
G1 E.8 F2700
;WIDTH:0.419999
G1 F3000
G1 X152.252 Y139.649 E.01414
G1 X151.794 Y139.229 E.0185
G1 X151.414 Y138.738 E.0185
G1 X151.123 Y138.189 E.0185
G1 X150.947 Y137.661 E.0166
G1 X150.838 Y137.005 E.0198
G1 X150.848 Y136.364 E.01908
G1 X150.966 Y135.754 E.0185
G1 X151.185 Y135.173 E.0185
G1 X151.499 Y134.637 E.0185
G1 X151.899 Y134.162 E.0185
G1 X152.374 Y133.761 E.0185
G1 X152.909 Y133.447 E.0185
G1 X153.49 Y133.227 E.0185
G1 X154.1 Y133.109 E.0185
G1 X154.721 Y133.095 E.0185
G1 X155.335 Y133.187 E.0185
G1 X155.925 Y133.381 E.0185
G1 X156.474 Y133.672 E.0185
G1 X156.966 Y134.051 E.0185
G1 X157.386 Y134.509 E.0185
G1 X157.723 Y135.03 E.0185
G1 X157.967 Y135.601 E.0185
G1 X158.111 Y136.206 E.0185
G1 X158.151 Y136.826 E.0185
G1 X158.086 Y137.443 E.0185
G1 X157.917 Y138.041 E.0185
G1 X157.702 Y138.498 E.01505
G1 X157.303 Y139.093 E.02133
G1 X156.852 Y139.548 E.01908
G1 X156.345 Y139.907 E.0185
G1 X155.785 Y140.175 E.0185
G1 X155.188 Y140.345 E.0185
G1 X154.57 Y140.411 E.0185
G1 X153.95 Y140.372 E.0185
G1 X153.346 Y140.229 E.0185
G1 X152.774 Y139.985 E.0185
G1 X152.685 Y139.928 E.00317
G1 X152.851 Y139.59 F21000
G1 F3000
G1 X152.463 Y139.336 E.0138
G1 X152.055 Y138.957 E.0166
G1 X151.717 Y138.513 E.0166
G1 X151.459 Y138.02 E.0166
G1 X151.288 Y137.468 E.0172
G1 X151.211 Y136.949 E.01562
G1 X151.225 Y136.38 E.01695
G1 X151.334 Y135.834 E.0166
G1 X151.535 Y135.314 E.0166
G1 X151.82 Y134.835 E.0166
G1 X152.182 Y134.411 E.0166
G1 X152.61 Y134.055 E.0166
G1 X153.093 Y133.776 E.0166
G1 X153.616 Y133.583 E.0166
G1 X154.164 Y133.48 E.0166
G1 X154.721 Y133.472 E.0166
G1 X155.271 Y133.558 E.0166
G1 X155.8 Y133.736 E.0166
G1 X156.29 Y134.001 E.0166
G1 X156.729 Y134.345 E.0166
G1 X157.103 Y134.758 E.0166
G1 X157.402 Y135.228 E.0166
G1 X157.617 Y135.742 E.0166
G1 X157.743 Y136.285 E.0166
G1 X157.775 Y136.842 E.0166
G1 X157.712 Y137.395 E.0166
G1 X157.556 Y137.931 E.0166
G1 X157.315 Y138.422 E.01631
G1 X156.995 Y138.875 E.01652
G1 X156.591 Y139.276 E.01695
G1 X156.134 Y139.595 E.0166
G1 X155.63 Y139.832 E.0166
G1 X155.093 Y139.98 E.0166
G1 X154.538 Y140.035 E.0166
G1 X153.982 Y139.996 E.0166
G1 X153.441 Y139.864 E.0166
G1 X152.93 Y139.642 E.0166
G1 X152.884 Y139.612 E.00161
G1 X153.062 Y139.285 F21000
;TYPE:Outer wall
G1 F3000
G1 X153.057 Y139.282 E.00015
G1 X152.65 Y139.004 E.0147
G1 X152.295 Y138.66 E.0147
G1 X152.004 Y138.262 E.0147
G1 X151.784 Y137.82 E.0147
G1 X151.661 Y137.412 E.01268
G1 X151.584 Y136.894 E.01562
G1 X151.603 Y136.38 E.01532
G1 X151.712 Y135.883 E.01515
G1 X151.899 Y135.426 E.0147
G1 X152.16 Y135.007 E.0147
G1 X152.488 Y134.638 E.0147
G1 X152.874 Y134.33 E.0147
G1 X153.306 Y134.092 E.0147
G1 X153.772 Y133.93 E.0147
G1 X154.259 Y133.849 E.0147
G1 X154.753 Y133.852 E.0147
G1 X155.239 Y133.938 E.0147
G1 X155.703 Y134.105 E.0147
G1 X156.133 Y134.348 E.0147
G1 X156.515 Y134.66 E.0147
G1 X156.839 Y135.033 E.0147
G1 X157.095 Y135.454 E.0147
G1 X157.277 Y135.913 E.0147
G1 X157.378 Y136.396 E.0147
G1 X157.396 Y136.889 E.0147
G1 X157.331 Y137.379 E.0147
G1 X157.184 Y137.85 E.0147
G1 X156.99 Y138.229 E.01268
G1 X156.687 Y138.657 E.01562
G1 X156.324 Y139.01 E.0151
G1 X155.895 Y139.298 E.01538
G1 X155.444 Y139.499 E.0147
G1 X154.966 Y139.621 E.0147
G1 X154.474 Y139.66 E.0147
G1 X153.982 Y139.615 E.0147
G1 X153.506 Y139.488 E.0147
G1 X153.098 Y139.301 E.01336
G1 E-.68 F3600
;WIPE_START
G1 F3000
G1 X153.057 Y139.282 E-.0054
G1 X152.65 Y139.004 E-.05922
G1 X152.318 Y138.683 E-.05538
;WIPE_END
G1 X144.72 Y137.962 Z.6 F21000
M73 P0 R49
G1 X114.253 Y135.074 Z.6
G1 Z.2
G1 E.8 F2700
;TYPE:Inner wall
G1 F3000
G1 X114.509 Y134.637 E.01507
G1 X114.909 Y134.162 E.01851
G1 X115.384 Y133.761 E.0185
G1 X115.919 Y133.447 E.0185
G1 X116.5 Y133.227 E.0185
G1 X117.11 Y133.109 E.0185
G1 X117.731 Y133.095 E.0185
G1 X118.282 Y133.176 E.0166
G1 X118.917 Y133.374 E.0198
G1 X119.484 Y133.672 E.01908
G1 X119.976 Y134.051 E.0185
G1 X120.396 Y134.509 E.0185
G1 X120.733 Y135.03 E.0185
G1 X120.941 Y135.511 E.0156
G1 X121.121 Y136.206 E.02137
G1 X121.161 Y136.826 E.0185
G1 X121.096 Y137.443 E.0185
G1 X120.927 Y138.041 E.0185
G1 X120.66 Y138.602 E.0185
G1 X120.301 Y139.109 E.0185
G1 X119.862 Y139.548 E.0185
G1 X119.355 Y139.907 E.0185
G1 X118.795 Y140.175 E.0185
G1 X118.198 Y140.345 E.0185
G1 X117.58 Y140.411 E.0185
G1 X116.96 Y140.372 E.0185
G1 X116.356 Y140.229 E.0185
G1 X115.784 Y139.985 E.0185
G1 X115.262 Y139.649 E.0185
G1 X114.804 Y139.229 E.0185
G1 X114.424 Y138.738 E.0185
G1 X114.133 Y138.189 E.0185
G1 X113.938 Y137.6 E.0185
G1 X113.845 Y136.985 E.0185
G1 X113.858 Y136.364 E.0185
G1 X113.976 Y135.754 E.0185
G1 X114.195 Y135.173 E.0185
G1 X114.233 Y135.108 E.00224
G1 X114.577 Y135.26 F21000
G1 F3000
G1 X114.83 Y134.835 E.01473
G1 X115.192 Y134.411 E.0166
G1 X115.62 Y134.055 E.0166
G1 X116.103 Y133.776 E.0166
G1 X116.626 Y133.583 E.0166
G1 X117.174 Y133.48 E.0166
G1 X117.731 Y133.472 E.0166
G1 X118.24 Y133.552 E.01535
G1 X118.798 Y133.733 E.01748
G1 X119.3 Y134.001 E.01695
G1 X119.739 Y134.345 E.0166
G1 X120.113 Y134.758 E.0166
G1 X120.412 Y135.228 E.0166
G1 X120.627 Y135.742 E.0166
G1 X120.753 Y136.285 E.0166
G1 X120.785 Y136.842 E.0166
G1 X120.722 Y137.395 E.0166
G1 X120.566 Y137.931 E.0166
G1 X120.323 Y138.432 E.0166
G1 X119.998 Y138.885 E.0166
G1 X119.601 Y139.276 E.0166
G1 X119.144 Y139.595 E.0166
G1 X118.64 Y139.832 E.0166
G1 X118.103 Y139.98 E.0166
G1 X117.548 Y140.035 E.0166
G1 X116.992 Y139.996 E.0166
G1 X116.451 Y139.864 E.0166
G1 X115.94 Y139.642 E.0166
G1 X115.473 Y139.336 E.0166
G1 X115.065 Y138.957 E.0166
G1 X114.727 Y138.513 E.0166
G1 X114.469 Y138.02 E.0166
G1 X114.298 Y137.489 E.0166
G1 X114.22 Y136.937 E.0166
G1 X114.235 Y136.38 E.0166
G1 X114.344 Y135.834 E.0166
G1 X114.545 Y135.314 E.0166
G1 X114.556 Y135.294 E.00068
G1 X114.895 Y135.459 F21000
;TYPE:Outer wall
G1 F3000
G1 X114.909 Y135.426 E.00106
G1 X115.161 Y135.019 E.01426
G1 X115.492 Y134.643 E.01492
G1 X115.884 Y134.33 E.01493
G1 X116.316 Y134.092 E.0147
G1 X116.782 Y133.93 E.0147
G1 X117.269 Y133.849 E.0147
G1 X117.763 Y133.852 E.0147
G1 X118.182 Y133.926 E.01268
G1 X118.68 Y134.091 E.01562
G1 X119.119 Y134.332 E.01493
G1 X119.511 Y134.646 E.01495
G1 X119.843 Y135.023 E.01495
G1 X120.105 Y135.454 E.01505
G1 X120.287 Y135.913 E.0147
G1 X120.388 Y136.396 E.0147
G1 X120.406 Y136.889 E.0147
G1 X120.341 Y137.379 E.0147
G1 X120.194 Y137.85 E.0147
G1 X119.969 Y138.289 E.0147
G1 X119.674 Y138.684 E.0147
G1 X119.316 Y139.024 E.0147
G1 X118.905 Y139.298 E.0147
G1 X118.454 Y139.499 E.0147
G1 X117.976 Y139.621 E.0147
G1 X117.484 Y139.66 E.0147
G1 X116.992 Y139.615 E.0147
G1 X116.516 Y139.488 E.0147
G1 X116.067 Y139.282 E.0147
G1 X115.66 Y139.004 E.0147
G1 X115.305 Y138.66 E.0147
G1 X115.014 Y138.262 E.0147
G1 X114.794 Y137.82 E.0147
G1 X114.652 Y137.347 E.0147
G1 X114.592 Y136.858 E.0147
G1 X114.616 Y136.365 E.0147
G1 X114.759 Y135.792 E.01757
G1 X114.88 Y135.496 E.00955
G1 E-.68 F3600
;WIPE_START
G1 F3000
G1 X114.909 Y135.426 E-.00908
G1 X115.161 Y135.019 E-.05744
G1 X115.456 Y134.685 E-.05348
;WIPE_END
G1 X107.824 Y134.561 Z.6 F21000
G1 X83.085 Y134.16 Z.6
G1 Z.2
G1 E.8 F2700
;TYPE:Inner wall
G1 F3000
G1 X83.406 Y134.509 E.01412
G1 X83.743 Y135.03 E.0185
G1 X83.951 Y135.511 E.01561
G1 X84.131 Y136.206 E.02137
G1 X84.171 Y136.826 E.0185
G1 X84.106 Y137.443 E.0185
G1 X83.937 Y138.041 E.0185
G1 X83.67 Y138.602 E.0185
G1 X83.311 Y139.109 E.0185
G1 X82.872 Y139.548 E.0185
G1 X82.365 Y139.907 E.0185
G1 X81.805 Y140.175 E.0185
G1 X81.208 Y140.345 E.0185
G1 X80.59 Y140.411 E.0185
G1 X79.97 Y140.372 E.0185
G1 X79.366 Y140.229 E.0185
G1 X78.794 Y139.985 E.0185
G1 X78.272 Y139.649 E.0185
G1 X77.814 Y139.229 E.0185
G1 X77.434 Y138.738 E.0185
G1 X77.143 Y138.189 E.0185
G1 X76.948 Y137.6 E.0185
G1 X76.855 Y136.985 E.0185
G1 X76.868 Y136.364 E.0185
G1 X76.986 Y135.754 E.0185
G1 X77.205 Y135.173 E.0185
G1 X77.519 Y134.637 E.0185
G1 X77.919 Y134.162 E.0185
G1 X78.344 Y133.802 E.0166
G1 X78.912 Y133.456 E.0198
G1 X79.51 Y133.227 E.01908
G1 X80.12 Y133.109 E.0185
G1 X80.741 Y133.095 E.0185
G1 X81.355 Y133.187 E.0185
G1 X81.945 Y133.381 E.0185
G1 X82.494 Y133.672 E.0185
G1 X82.986 Y134.051 E.0185
G1 X83.058 Y134.13 E.00319
G1 X82.812 Y134.415 F21000
G1 F3000
G1 X83.123 Y134.758 E.01379
G1 X83.422 Y135.228 E.0166
G1 X83.637 Y135.742 E.0166
G1 X83.763 Y136.285 E.0166
G1 X83.795 Y136.842 E.0166
G1 X83.732 Y137.395 E.0166
G1 X83.576 Y137.931 E.0166
G1 X83.333 Y138.432 E.0166
G1 X83.008 Y138.885 E.0166
G1 X82.611 Y139.276 E.0166
G1 X82.154 Y139.595 E.0166
G1 X81.65 Y139.832 E.0166
G1 X81.113 Y139.98 E.0166
G1 X80.558 Y140.035 E.0166
G1 X80.002 Y139.996 E.0166
G1 X79.461 Y139.864 E.0166
G1 X78.95 Y139.642 E.0166
G1 X78.483 Y139.336 E.0166
G1 X78.075 Y138.957 E.0166
G1 X77.737 Y138.513 E.0166
G1 X77.479 Y138.02 E.0166
G1 X77.308 Y137.489 E.0166
G1 X77.23 Y136.937 E.0166
G1 X77.245 Y136.38 E.0166
G1 X77.354 Y135.834 E.0166
G1 X77.555 Y135.314 E.0166
G1 X77.84 Y134.835 E.0166
G1 X78.202 Y134.411 E.0166
G1 X78.65 Y134.047 E.0172
G1 X79.103 Y133.782 E.01562
G1 X79.636 Y133.583 E.01695
G1 X80.184 Y133.48 E.0166
G1 X80.741 Y133.472 E.0166
G1 X81.291 Y133.558 E.0166
G1 X81.82 Y133.736 E.0166
G1 X82.31 Y134.001 E.0166
G1 X82.749 Y134.345 E.0166
G1 X82.785 Y134.385 E.00162
G1 X82.538 Y134.664 F21000
;TYPE:Outer wall
G1 F3000
G1 X82.859 Y135.033 E.01454
G1 X83.115 Y135.454 E.0147
G1 X83.297 Y135.913 E.0147
G1 X83.398 Y136.396 E.0147
G1 X83.416 Y136.889 E.0147
G1 X83.351 Y137.379 E.0147
G1 X83.204 Y137.85 E.0147
G1 X82.979 Y138.289 E.0147
G1 X82.684 Y138.684 E.0147
G1 X82.326 Y139.024 E.0147
G1 X81.915 Y139.298 E.0147
G1 X81.464 Y139.499 E.0147
G1 X80.986 Y139.621 E.0147
G1 X80.494 Y139.66 E.0147
G1 X80.002 Y139.615 E.0147
G1 X79.383 Y139.424 E.01932
G1 X78.961 Y139.204 E.01418
G1 X78.682 Y139.015 E.01004
G1 X78.315 Y138.66 E.01518
G1 X77.971 Y138.158 E.01814
G1 X77.804 Y137.82 E.01122
G1 X77.662 Y137.347 E.0147
G1 X77.602 Y136.858 E.0147
G1 X77.626 Y136.365 E.0147
G1 X77.732 Y135.883 E.0147
G1 X77.919 Y135.426 E.0147
G1 X78.18 Y135.007 E.0147
G1 X78.508 Y134.638 E.0147
G1 X78.841 Y134.372 E.01268
G1 X79.293 Y134.107 E.01562
G1 X79.777 Y133.933 E.01531
G1 X80.279 Y133.849 E.01516
G1 X80.773 Y133.852 E.0147
G1 X81.259 Y133.938 E.0147
G1 X81.723 Y134.105 E.0147
G1 X82.153 Y134.348 E.0147
G1 X82.508 Y134.638 E.01367
G1 E-.68 F3600
;WIPE_START
G1 F3000
G1 X82.859 Y135.033 E-.06332
G1 X83.104 Y135.436 E-.05668
;WIPE_END
G1 X77.726 Y140.852 Z.6 F21000
G1 X72.635 Y145.978 Z.6
G1 Z.2
G1 E.8 F2700
;TYPE:Inner wall
;WIDTH:0.589404
G1 F3000
G1 X72.536 Y145.999 E.00437
;WIDTH:0.547053
G1 X72.437 Y146.021 E.00403
;WIDTH:0.504702
G1 X72.338 Y146.042 E.00369
;WIDTH:0.462351
G1 X72.239 Y146.063 E.00336
;WIDTH:0.419999
G1 X71.197 Y146.063 E.03104
G1 X71.197 Y145.024 E.03095
;WIDTH:0.46197
G1 X71.218 Y144.805 E.00727
;WIDTH:0.50394
G1 X71.239 Y144.587 E.00799
;WIDTH:0.54591
G1 X71.26 Y144.368 E.00872
G1 X71.31 Y144.501 E.00563
;WIDTH:0.50394
G1 X71.36 Y144.634 E.00516
;WIDTH:0.46197
G1 X71.41 Y144.766 E.00469
;WIDTH:0.419999
G1 X71.689 Y145.281 E.01744
G1 X72.123 Y145.673 E.01744
;WIDTH:0.462351
G1 X72.251 Y145.749 E.00494
;WIDTH:0.504702
G1 X72.379 Y145.826 E.00544
;WIDTH:0.547053
G1 X72.507 Y145.902 E.00593
;WIDTH:0.589404
G1 X72.601 Y145.958 E.00471
G1 E-.68 F3600
;WIPE_START
G1 F3000
G1 X72.536 Y145.999 E-.00923
G1 X72.437 Y146.021 E-.01215
G1 X72.338 Y146.042 E-.01215
G1 X72.239 Y146.063 E-.01215
G1 X71.62 Y146.063 E-.07432
;WIPE_END
G1 X71.587 Y145.656 Z.6 F21000
G1 Z.2
G1 E.8 F2700
;WIDTH:0.401712
G1 F3000
G1 X71.52 Y145.695 E.0022
G1 X71.587 Y145.734 E.0022
G1 X71.61 Y145.695 E.00127
G1 E-.68 F3600
;WIPE_START
G1 F3000
G1 X71.587 Y145.734 E-.02688
G1 X71.52 Y145.695 E-.04656
G1 X71.587 Y145.656 E-.04656
;WIPE_END
G1 X72.475 Y138.075 Z.6 F21000
G1 X78.039 Y90.56 Z.6
G1 Z.2
G1 E.8 F2700
;WIDTH:0.419999
G1 F3000
G1 X78.344 Y90.302 E.01189
G1 X78.912 Y89.956 E.0198
G1 X79.51 Y89.727 E.01908
G1 X80.12 Y89.609 E.0185
G1 X80.741 Y89.595 E.0185
G1 X81.355 Y89.687 E.0185
G1 X81.945 Y89.881 E.0185
G1 X82.494 Y90.172 E.0185
G1 X82.986 Y90.551 E.0185
G1 X83.406 Y91.009 E.0185
G1 X83.743 Y91.53 E.0185
G1 X83.987 Y92.101 E.0185
G1 X84.131 Y92.706 E.0185
G1 X84.171 Y93.326 E.0185
G1 X84.106 Y93.943 E.0185
G1 X83.937 Y94.541 E.0185
G1 X83.67 Y95.102 E.0185
G1 X83.311 Y95.609 E.0185
G1 X82.872 Y96.048 E.0185
G1 X82.365 Y96.407 E.0185
G1 X81.805 Y96.675 E.0185
G1 X81.208 Y96.845 E.0185
G1 X80.59 Y96.911 E.0185
G1 X79.97 Y96.872 E.0185
G1 X79.366 Y96.729 E.0185
G1 X78.794 Y96.485 E.0185
G1 X78.272 Y96.149 E.0185
G1 X77.814 Y95.729 E.0185
G1 X77.434 Y95.238 E.0185
G1 X77.143 Y94.689 E.0185
G1 X76.948 Y94.1 E.0185
G1 X76.848 Y93.366 E.02206
G1 X76.882 Y92.789 E.01722
G1 X76.982 Y92.274 E.01562
G1 X77.199 Y91.687 E.01862
G1 X77.519 Y91.137 E.01896
G1 X77.919 Y90.662 E.0185
G1 X78.009 Y90.586 E.00352
G1 X78.284 Y90.843 F21000
G1 F3000
G1 X78.587 Y90.59 E.01176
G1 X79.103 Y90.282 E.01789
G1 X79.636 Y90.083 E.01695
G1 X80.184 Y89.98 E.0166
G1 X80.741 Y89.972 E.0166
G1 X81.291 Y90.058 E.0166
G1 X81.82 Y90.236 E.0166
G1 X82.31 Y90.501 E.0166
G1 X82.749 Y90.845 E.0166
G1 X83.123 Y91.258 E.0166
G1 X83.422 Y91.728 E.0166
G1 X83.637 Y92.242 E.0166
G1 X83.763 Y92.785 E.0166
G1 X83.795 Y93.342 E.0166
G1 X83.732 Y93.895 E.0166
G1 X83.576 Y94.431 E.0166
G1 X83.333 Y94.932 E.0166
G1 X83.008 Y95.385 E.0166
G1 X82.611 Y95.776 E.0166
G1 X82.154 Y96.095 E.0166
