;FLAVOR:Marlin
;TIME:1398
;Filament used: 0.621975m
;Layer height: 0.2
;MINX:130.024
;MINY:130.027
;MINZ:0.2
;MAXX:169.975
;MAXY:169.977
;MAXZ:15
;Generated with Creality Slicer 4.8.2-191
M140 S50
M105
M190 S50
M104 S200
M105
M109 S200
M82 ;absolute extrusion mode

G28 ;Home

G92 E0 ;Reset Extruder
G1 Z2.0 F3000 ;Move Z Axis up
G1 X10.1 Y20 Z0.28 F5000.0 ;Move to start position
G1 X10.1 Y200.0 Z0.28 F1500.0 E15 ;Draw the first line
G1 X10.4 Y200.0 Z0.28 F5000.0 ;Move to side a little
G1 X10.4 Y20 Z0.28 F1500.0 E30 ;Draw the second line
G92 E0 ;Reset Extruder
G1 Z2.0 F3000 ;Move Z Axis up

G92 E0
G92 E0
G1 F2700 E-5
;LAYER_COUNT:75
;LAYER:0
M107
G0 F6000 X135.542 Y136.195 Z0.2
;TYPE:SKIRT
G1 F2700 E0
G1 F1200 X136.157 Y135.581 E0.0289
G1 X136.524 Y135.242 E0.04552
G1 X136.79 Y135.004 E0.05739
G1 X137.176 Y134.67 E0.07437
G1 X137.926 Y134.076 E0.10619
G1 X138.407 Y133.728 E0.12594
G1 X138.674 Y133.541 E0.13678
G1 X138.858 Y133.416 E0.14418
G1 X139.439 Y133.047 E0.16707
G1 X140.1 Y132.656 E0.19261
G1 X140.376 Y132.498 E0.20319
G1 X140.696 Y132.321 E0.21535
G1 X141.607 Y131.871 E0.24915
G1 X142.324 Y131.557 E0.27518
G1 X142.64 Y131.424 E0.28659
G1 X142.939 Y131.304 E0.2973
G1 X143.456 Y131.112 E0.31564
G1 X143.873 Y130.976 E0.33023
G1 X144.257 Y130.859 E0.34358
G1 X144.561 Y130.771 E0.35411
G1 X145.018 Y130.646 E0.36987
G1 X145.936 Y130.436 E0.40119
G1 X146.563 Y130.321 E0.42239
G1 X146.9 Y130.265 E0.43376
G1 X147.382 Y130.192 E0.44997
G1 X148.253 Y130.095 E0.47912
G1 X148.649 Y130.067 E0.49232
G1 X148.981 Y130.049 E0.50338
G1 X149.526 Y130.027 E0.52152
G1 X150.48 Y130.03 E0.55325
G1 X151.083 Y130.058 E0.57333
G1 X151.418 Y130.079 E0.58449
G1 X151.898 Y130.116 E0.60051
G1 X152.516 Y130.181 E0.62117
G1 X152.829 Y130.223 E0.63168
G1 X153.27 Y130.291 E0.64652
G1 X153.873 Y130.397 E0.66688
G1 X154.824 Y130.608 E0.69928
G1 X155.423 Y130.769 E0.71991
G1 X155.757 Y130.864 E0.73146
G1 X156.14 Y130.98 E0.74477
G1 X156.71 Y131.17 E0.76476
G1 X157.079 Y131.309 E0.77787
G1 X157.431 Y131.448 E0.79046
G1 X157.708 Y131.562 E0.80042
G1 X158.172 Y131.76 E0.8172
G1 X159.031 Y132.171 E0.84887
G1 X159.558 Y132.452 E0.86874
G1 X159.856 Y132.617 E0.88007
G1 X160.222 Y132.827 E0.8941
G1 X160.64 Y133.079 E0.91033
G1 X161.04 Y133.342 E0.92626
G1 X161.421 Y133.605 E0.94165
G1 X161.69 Y133.797 E0.95265
G1 X162.159 Y134.142 E0.97201
G1 X162.569 Y134.459 E0.98925
G1 X162.894 Y134.729 E1.0033
G1 X163.125 Y134.928 E1.01344
G1 X163.376 Y135.151 E1.02461
G1 X163.745 Y135.489 E1.04125
G1 X164.414 Y136.157 E1.0727
G1 X164.868 Y136.651 E1.09501
G1 X165.113 Y136.926 E1.10726
G1 X165.363 Y137.217 E1.12002
G1 X165.697 Y137.625 E1.13756
G1 X165.771 Y137.72 E1.14156
G1 X165.984 Y138.004 E1.15337
G1 X166.161 Y138.247 E1.16337
G1 X166.334 Y138.49 E1.17329
G1 X166.684 Y138.999 E1.19384
G1 X167.076 Y139.612 E1.21804
G1 X167.139 Y139.718 E1.22214
G1 X167.387 Y140.158 E1.23894
G1 X167.86 Y141.044 E1.27234
G1 X168.284 Y141.933 E1.3051
G1 X168.42 Y142.254 E1.3167
G1 X168.53 Y142.522 E1.32633
G1 X168.732 Y143.036 E1.3447
G1 X168.951 Y143.647 E1.36629
G1 X169.049 Y143.953 E1.37698
G1 X169.129 Y144.216 E1.38612
G1 X169.218 Y144.524 E1.39678
G1 X169.375 Y145.1 E1.41664
G1 X169.584 Y146.023 E1.44812
G1 X169.669 Y146.49 E1.4639
G1 X169.715 Y146.759 E1.47298
G1 X169.797 Y147.283 E1.49062
G1 X169.869 Y147.841 E1.50933
G1 X169.911 Y148.304 E1.5248
G1 X169.937 Y148.686 E1.53753
G1 X169.952 Y148.957 E1.54656
G1 X169.974 Y149.465 E1.56347
G1 X169.975 Y150.386 E1.5941
G1 X169.952 Y150.954 E1.61301
G1 X169.933 Y151.291 E1.62424
G1 X169.892 Y151.866 E1.64341
G1 X169.79 Y152.769 E1.67364
G1 X169.721 Y153.214 E1.68861
G1 X169.666 Y153.54 E1.69961
G1 X169.576 Y154.024 E1.71598
G1 X169.384 Y154.87 E1.74484
G1 X169.274 Y155.279 E1.75892
G1 X169.181 Y155.602 E1.7701
G1 X169.046 Y156.049 E1.78563
G1 X168.776 Y156.834 E1.81324
G1 X168.502 Y157.543 E1.83852
G1 X168.252 Y158.139 E1.86002
G1 X168.072 Y158.534 E1.87446
G1 X167.861 Y158.972 E1.89063
G1 X167.711 Y159.261 E1.90146
G1 X167.575 Y159.514 E1.91101
G1 X167.446 Y159.748 E1.9199
G1 X167.183 Y160.21 E1.93758
G1 X166.686 Y161.003 E1.96871
G1 X166.395 Y161.426 E1.98578
G1 X166.217 Y161.676 E1.99599
G1 X165.917 Y162.087 E2.01292
G1 X165.348 Y162.802 E2.04331
G1 X165.032 Y163.167 E2.05937
G1 X164.815 Y163.41 E2.0702
G1 X164.463 Y163.793 E2.0875
G1 X163.817 Y164.44 E2.11791
G1 X163.423 Y164.803 E2.13573
G1 X163.172 Y165.028 E2.14694
G1 X162.821 Y165.332 E2.16239
G1 X162.084 Y165.917 E2.19368
G1 X161.682 Y166.209 E2.21021
G1 X161.46 Y166.366 E2.21925
G1 X161.209 Y166.539 E2.22939
G1 X160.59 Y166.935 E2.25383
G1 X159.837 Y167.383 E2.28297
G1 X159.54 Y167.554 E2.29437
G1 X159.213 Y167.735 E2.3068
G1 X158.314 Y168.18 E2.34017
G1 X158.007 Y168.315 E2.35132
G1 X157.605 Y168.483 E2.36581
G1 X157.005 Y168.719 E2.38726
G1 X156.407 Y168.934 E2.40839
G1 X156.015 Y169.059 E2.42208
G1 X155.705 Y169.152 E2.43284
G1 X155.438 Y169.228 E2.44208
G1 X154.877 Y169.381 E2.46142
G1 X153.949 Y169.592 E2.49307
G1 X153.437 Y169.685 E2.51038
G1 X153.155 Y169.732 E2.51989
G1 X152.716 Y169.8 E2.53466
G1 X151.756 Y169.906 E2.56679
G1 X151.21 Y169.942 E2.58498
G1 X150.903 Y169.958 E2.59521
G1 X150.402 Y169.977 E2.61188
G1 X149.483 Y169.974 E2.64245
G1 X148.98 Y169.951 E2.6592
G1 X148.635 Y169.929 E2.6707
G1 X148.104 Y169.888 E2.68841
G1 X147.432 Y169.816 E2.71089
G1 X147.102 Y169.77 E2.72197
G1 X146.681 Y169.703 E2.73615
G1 X146.067 Y169.593 E2.7569
G1 X145.123 Y169.38 E2.78908
G1 X144.582 Y169.233 E2.80773
G1 X144.254 Y169.139 E2.81908
G1 X143.838 Y169.012 E2.83354
G1 X143.291 Y168.829 E2.85273
G1 X142.89 Y168.678 E2.86698
G1 X142.603 Y168.564 E2.87725
G1 X142.36 Y168.464 E2.88599
G1 X141.939 Y168.285 E2.90121
G1 X141.031 Y167.849 E2.93471
G1 X140.228 Y167.417 E2.96504
G1 X139.892 Y167.228 E2.97786
G1 X139.577 Y167.044 E2.98999
G1 X139.074 Y166.732 E3.00968
G1 X138.825 Y166.568 E3.0196
G1 X138.405 Y166.277 E3.03659
G1 X137.928 Y165.93 E3.05621
G1 X137.195 Y165.348 E3.08734
G1 X136.775 Y164.984 E3.10582
G1 X136.522 Y164.758 E3.11711
G1 X136.214 Y164.474 E3.13104
G1 X135.551 Y163.807 E3.16232
G1 X135.148 Y163.366 E3.18219
G1 X134.928 Y163.118 E3.19322
G1 X134.615 Y162.754 E3.20918
G1 X134.193 Y162.233 E3.23148
G1 X133.939 Y161.894 E3.24557
G1 X133.697 Y161.557 E3.25937
G1 X133.364 Y161.077 E3.2788
G1 X132.847 Y160.257 E3.31104
G1 X132.523 Y159.689 E3.33279
G1 X132.35 Y159.375 E3.34472
G1 X132.161 Y159.017 E3.35818
G1 X131.785 Y158.23 E3.38719
G1 X131.553 Y157.691 E3.40671
G1 X131.45 Y157.443 E3.41564
G1 X131.358 Y157.214 E3.42385
G1 X131.24 Y156.907 E3.43479
G1 X131.161 Y156.692 E3.44241
G1 X130.974 Y156.138 E3.46185
G1 X130.892 Y155.872 E3.47111
G1 X130.76 Y155.407 E3.48719
G1 X130.608 Y154.824 E3.50723
G1 X130.465 Y154.201 E3.52849
G1 X130.388 Y153.815 E3.54158
G1 X130.304 Y153.343 E3.55752
G1 X130.2 Y152.67 E3.58017
G1 X130.096 Y151.737 E3.6114
G1 X130.057 Y151.164 E3.6305
G1 X130.04 Y150.832 E3.64156
G1 X130.024 Y150.408 E3.65567
G1 X130.029 Y149.467 E3.68697
G1 X130.054 Y148.945 E3.70435
G1 X130.074 Y148.618 E3.71525
G1 X130.115 Y148.091 E3.73283
G1 X130.177 Y147.504 E3.75246
G1 X130.212 Y147.239 E3.76135
G1 X130.289 Y146.743 E3.77804
G1 X130.4 Y146.122 E3.79903
G1 X130.607 Y145.194 E3.83065
G1 X130.761 Y144.623 E3.85032
G1 X130.853 Y144.304 E3.86136
G1 X130.999 Y143.821 E3.87815
G1 X131.284 Y142.997 E3.90715
G1 X131.453 Y142.565 E3.92257
G1 X131.585 Y142.242 E3.93418
G1 X131.755 Y141.845 E3.94854
G1 X132.174 Y140.974 E3.98069
G1 X132.533 Y140.305 E4.00594
G1 X132.73 Y139.953 E4.01936
G1 X132.799 Y139.835 E4.02391
G1 X133.142 Y139.286 E4.04544
G1 X133.684 Y138.473 E4.07793
G1 X133.952 Y138.09 E4.09348
G1 X134.052 Y137.953 E4.09912
G1 X134.608 Y137.253 E4.12886
G1 X135.085 Y136.7 E4.15315
G1 X135.335 Y136.419 E4.16566
G1 X135.542 Y136.195 E4.1758
G0 F6000 X135.836 Y136.467
G1 F1200 X136.429 Y135.875 E4.20367
G1 X136.796 Y135.536 E4.22029
G1 X137.052 Y135.306 E4.23173
G1 X137.438 Y134.972 E4.24871
G1 X138.161 Y134.4 E4.27937
G1 X138.642 Y134.052 E4.29912
G1 X138.898 Y133.872 E4.30953
G1 X139.082 Y133.747 E4.31693
G1 X139.642 Y133.392 E4.33898
G1 X140.303 Y133.001 E4.36452
G1 X140.569 Y132.848 E4.37473
G1 X140.889 Y132.671 E4.38689
G1 X141.768 Y132.237 E4.4195
G1 X142.485 Y131.923 E4.44553
G1 X142.789 Y131.796 E4.45649
G1 X143.088 Y131.676 E4.4672
G1 X143.588 Y131.489 E4.48496
G1 X143.99 Y131.358 E4.49902
G1 X144.374 Y131.241 E4.51237
G1 X144.666 Y131.157 E4.52248
G1 X145.123 Y131.032 E4.53824
G1 X146.008 Y130.83 E4.56843
G1 X146.635 Y130.715 E4.58963
G1 X146.96 Y130.661 E4.60059
G1 X147.442 Y130.588 E4.6168
G1 X148.281 Y130.494 E4.64488
G1 X148.677 Y130.466 E4.65809
G1 X148.997 Y130.449 E4.66875
G1 X149.542 Y130.427 E4.68689
G1 X150.462 Y130.429 E4.71749
G1 X151.065 Y130.457 E4.73756
G1 X151.388 Y130.477 E4.74833
G1 X151.868 Y130.514 E4.76434
G1 X152.463 Y130.577 E4.78424
G1 X152.776 Y130.619 E4.79474
G1 X153.201 Y130.685 E4.80905
G1 X153.804 Y130.791 E4.82941
G1 X154.72 Y130.994 E4.86062
G1 X155.319 Y131.155 E4.88125
G1 X155.641 Y131.247 E4.89239
G1 X156.024 Y131.363 E4.9057
G1 X156.573 Y131.546 E4.92494
G1 X156.932 Y131.681 E4.9377
G1 X157.284 Y131.82 E4.95029
G1 X157.551 Y131.93 E4.95989
G1 X158.015 Y132.128 E4.97667
G1 X158.842 Y132.524 E5.00717
G1 X159.369 Y132.805 E5.02703
G1 X159.657 Y132.964 E5.03797
G1 X160.023 Y133.174 E5.05201
G1 X160.428 Y133.418 E5.06774
G1 X160.813 Y133.672 E5.08308
G1 X161.194 Y133.935 E5.09847
G1 X161.453 Y134.119 E5.10904
G1 X161.922 Y134.464 E5.12841
G1 X162.317 Y134.769 E5.145
G1 X162.633 Y135.032 E5.15868
G1 X162.864 Y135.231 E5.16882
G1 X163.106 Y135.446 E5.17959
G1 X163.475 Y135.784 E5.19623
G1 X164.12 Y136.427 E5.22652
G1 X164.574 Y136.921 E5.24884
G1 X164.809 Y137.187 E5.26064
G1 X165.059 Y137.478 E5.2734
G1 X165.381 Y137.871 E5.2903
G1 X165.661 Y138.239 E5.30568
G1 X165.838 Y138.482 E5.31568
G1 X166.004 Y138.717 E5.32525
G1 X166.354 Y139.226 E5.34579
G1 X166.732 Y139.816 E5.3691
G1 X166.795 Y139.922 E5.3732
G1 X167.034 Y140.346 E5.38939
G1 X167.507 Y141.232 E5.42279
G1 X167.916 Y142.089 E5.45438
G1 X168.052 Y142.41 E5.46597
G1 X168.157 Y142.668 E5.47524
G1 X168.359 Y143.182 E5.49361
G1 X168.571 Y143.771 E5.51443
G1 X168.666 Y144.069 E5.52483
G1 X168.746 Y144.332 E5.53397
G1 X168.832 Y144.629 E5.54426
G1 X168.989 Y145.205 E5.56411
G1 X169.191 Y146.095 E5.59447
G1 X169.276 Y146.562 E5.61026
G1 X169.32 Y146.821 E5.61899
G1 X169.402 Y147.345 E5.63663
G1 X169.472 Y147.883 E5.65468
G1 X169.512 Y148.331 E5.66964
G1 X169.538 Y148.713 E5.68237
G1 X169.552 Y148.974 E5.69107
G1 X169.574 Y149.482 E5.70798
G1 X169.575 Y150.37 E5.73751
G1 X169.552 Y150.938 E5.75642
G1 X169.534 Y151.263 E5.76725
G1 X169.493 Y151.838 E5.78642
G1 X169.395 Y152.708 E5.81554
G1 X169.326 Y153.153 E5.83052
G1 X169.272 Y153.467 E5.84111
G1 X169.182 Y153.951 E5.85749
G1 X168.997 Y154.766 E5.88529
G1 X168.887 Y155.175 E5.89937
G1 X168.798 Y155.487 E5.91016
G1 X168.663 Y155.934 E5.92569
G1 X168.403 Y156.69 E5.95228
G1 X168.129 Y157.399 E5.97756
G1 X167.888 Y157.974 E5.9983
G1 X167.708 Y158.369 E6.01274
G1 X167.503 Y158.793 E6.0284
G1 X167.359 Y159.072 E6.03885
G1 X167.223 Y159.325 E6.0484
G1 X167.098 Y159.55 E6.05696
G1 X166.835 Y160.012 E6.07464
G1 X166.356 Y160.776 E6.10463
G1 X166.065 Y161.199 E6.12171
G1 X165.894 Y161.44 E6.13154
G1 X165.594 Y161.851 E6.14846
G1 X165.046 Y162.54 E6.17774
G1 X164.73 Y162.905 E6.1938
G1 X164.521 Y163.14 E6.20426
G1 X164.169 Y163.523 E6.22156
G1 X163.546 Y164.146 E6.25087
G1 X163.152 Y164.509 E6.26869
G1 X162.91 Y164.726 E6.2795
G1 X162.559 Y165.03 E6.29494
G1 X161.849 Y165.593 E6.32508
G1 X161.447 Y165.885 E6.3416
G1 X161.233 Y166.037 E6.35033
G1 X160.982 Y166.21 E6.36047
G1 X160.386 Y166.592 E6.38402
G1 X159.633 Y167.04 E6.41316
G1 X159.346 Y167.204 E6.42416
G1 X159.019 Y167.385 E6.43659
G1 X158.153 Y167.814 E6.46873
G1 X157.846 Y167.949 E6.47988
G1 X157.459 Y168.11 E6.49383
G1 X156.859 Y168.346 E6.51527
G1 X156.283 Y168.554 E6.53564
G1 X155.9 Y168.676 E6.54901
G1 X155.59 Y168.769 E6.55977
G1 X155.333 Y168.842 E6.56866
G1 X154.772 Y168.995 E6.588
G1 X153.877 Y169.198 E6.61852
G1 X153.365 Y169.291 E6.63583
G1 X153.094 Y169.337 E6.64497
G1 X152.655 Y169.405 E6.65975
G1 X151.729 Y169.507 E6.69073
G1 X151.183 Y169.543 E6.70893
G1 X150.888 Y169.558 E6.71876
G1 X150.387 Y169.577 E6.73543
G1 X149.501 Y169.574 E6.7649
G1 X148.998 Y169.551 E6.78165
G1 X148.666 Y169.531 E6.79271
G1 X148.135 Y169.49 E6.81042
G1 X147.488 Y169.419 E6.83207
G1 X147.158 Y169.373 E6.84316
G1 X146.752 Y169.309 E6.85683
G1 X146.138 Y169.199 E6.87757
G1 X145.228 Y168.994 E6.9086
G1 X144.687 Y168.847 E6.92724
G1 X144.371 Y168.756 E6.93818
G1 X143.955 Y168.629 E6.95265
G1 X143.428 Y168.453 E6.97113
G1 X143.038 Y168.306 E6.98499
G1 X142.516 Y168.096 E7.0037
G1 X142.095 Y167.917 E7.01892
G1 X141.221 Y167.497 E7.05117
G1 X140.418 Y167.065 E7.0815
G1 X140.094 Y166.883 E7.09386
G1 X139.779 Y166.699 E7.10599
G1 X139.294 Y166.398 E7.12498
G1 X139.045 Y166.234 E7.13489
G1 X138.64 Y165.954 E7.15127
G1 X138.163 Y165.607 E7.17089
G1 X137.457 Y165.045 E7.2009
G1 X137.037 Y164.681 E7.21939
G1 X136.793 Y164.464 E7.23025
G1 X136.485 Y164.18 E7.24418
G1 X135.846 Y163.538 E7.27431
G1 X135.443 Y163.097 E7.29418
G1 X135.231 Y162.857 E7.30483
G1 X134.918 Y162.493 E7.3208
G1 X134.512 Y161.991 E7.34227
G1 X134.262 Y161.659 E7.35609
G1 X134.026 Y161.329 E7.36959
G1 X133.693 Y160.849 E7.38902
G1 X133.195 Y160.059 E7.42008
G1 X132.871 Y159.491 E7.44183
G1 X132.704 Y159.188 E7.45334
G1 X132.515 Y158.83 E7.4668
G1 X132.153 Y158.072 E7.49474
G1 X131.921 Y157.533 E7.51426
G1 X131.821 Y157.294 E7.52287
G1 X131.729 Y157.065 E7.53108
G1 X131.615 Y156.769 E7.54163
G1 X131.536 Y156.554 E7.54925
G1 X131.356 Y156.021 E7.56796
G1 X131.274 Y155.755 E7.57722
G1 X131.147 Y155.306 E7.59274
G1 X130.995 Y154.723 E7.61278
G1 X130.857 Y154.123 E7.63325
G1 X130.78 Y153.737 E7.64635
G1 X130.699 Y153.282 E7.66172
G1 X130.595 Y152.609 E7.68437
G1 X130.495 Y151.71 E7.71445
G1 X130.456 Y151.137 E7.73355
G1 X130.44 Y150.817 E7.74421
G1 X130.424 Y150.393 E7.75832
G1 X130.428 Y149.486 E7.78849
G1 X130.453 Y148.964 E7.80587
G1 X130.473 Y148.649 E7.81637
G1 X130.514 Y148.122 E7.83395
G1 X130.573 Y147.556 E7.85288
G1 X130.608 Y147.291 E7.86177
G1 X130.682 Y146.814 E7.87782
G1 X130.793 Y146.193 E7.89881
G1 X130.994 Y145.298 E7.92932
G1 X131.148 Y144.727 E7.94899
G1 X131.235 Y144.42 E7.9596
G1 X131.381 Y143.937 E7.97638
G1 X131.656 Y143.142 E8.00436
G1 X131.825 Y142.71 E8.01979
G1 X131.953 Y142.399 E8.03097
G1 X132.123 Y142.002 E8.04534
G1 X132.527 Y141.163 E8.07631
G1 X132.886 Y140.494 E8.10156
G1 X133.076 Y140.155 E8.11449
G1 X133.145 Y140.037 E8.11903
G1 X133.475 Y139.508 E8.13977
G1 X134.017 Y138.695 E8.17227
G1 X134.275 Y138.326 E8.18725
G1 X134.375 Y138.189 E8.19289
G1 X134.91 Y137.515 E8.22151
G1 X135.387 Y136.962 E8.2458
G1 X135.629 Y136.691 E8.25788
G1 X135.836 Y136.467 E8.26803
G0 F6000 X136.13 Y136.738
G1 F1200 X136.7 Y136.168 E8.29484
G1 X137.067 Y135.829 E8.31145
G1 X137.314 Y135.609 E8.32246
G1 X137.7 Y135.275 E8.33943
G1 X138.395 Y134.724 E8.36893
G1 X138.876 Y134.376 E8.38868
G1 X139.123 Y134.203 E8.39871
G1 X139.307 Y134.078 E8.40611
G1 X139.846 Y133.736 E8.42734
G1 X140.507 Y133.345 E8.45288
G1 X140.763 Y133.198 E8.4627
G1 X141.083 Y133.021 E8.47486
G1 X141.928 Y132.604 E8.5062
G1 X142.645 Y132.29 E8.53224
G1 X142.938 Y132.167 E8.54281
G1 X143.237 Y132.047 E8.55352
G1 X143.719 Y131.867 E8.57064
G1 X144.106 Y131.741 E8.58417
G1 X144.49 Y131.624 E8.59752
G1 X144.772 Y131.542 E8.60729
G1 X145.229 Y131.417 E8.62305
G1 X146.08 Y131.223 E8.65208
G1 X146.707 Y131.108 E8.67328
G1 X147.02 Y131.056 E8.68384
G1 X147.502 Y130.983 E8.70005
G1 X148.31 Y130.893 E8.72709
G1 X148.706 Y130.865 E8.74029
G1 X149.014 Y130.848 E8.75055
G1 X149.559 Y130.826 E8.7687
G1 X150.443 Y130.829 E8.7981
G1 X151.046 Y130.857 E8.81818
G1 X151.357 Y130.876 E8.82854
G1 X151.837 Y130.913 E8.84455
G1 X152.41 Y130.974 E8.86372
G1 X152.723 Y131.016 E8.87422
G1 X153.132 Y131.079 E8.88798
G1 X153.735 Y131.185 E8.90835
G1 X154.617 Y131.381 E8.9384
G1 X155.216 Y131.542 E8.95903
G1 X155.525 Y131.63 E8.96971
