;FLAVOR:Marlin
;TIME:245
;Filament used: 0.0662857m
;Layer height: 0.2
;MINX:134.777
;MINY:134.796
;MINZ:0.2
;MAXX:165.226
;MAXY:165.204
;MAXZ:5
;Generated with Creality Slicer 4.8.2-191
M140 S50
M105
M190 S50
M104 S200
M105
M109 S200
M82 ;absolute extrusion mode

G28 ;Home

G92 E0 ;Reset Extruder
G1 Z2.0 F3000 ;Move Z Axis up
G1 X10.1 Y20 Z0.28 F5000.0 ;Move to start position
G1 X10.1 Y200.0 Z0.28 F1500.0 E15 ;Draw the first line
G1 X10.4 Y200.0 Z0.28 F5000.0 ;Move to side a little
G1 X10.4 Y20 Z0.28 F1500.0 E30 ;Draw the second line
G92 E0 ;Reset Extruder
G1 Z2.0 F3000 ;Move Z Axis up

G92 E0
G92 E0
G1 F2700 E-5
;LAYER_COUNT:25
;LAYER:0
M107
G0 F6000 X139.356 Y139.135 Z0.2
;TYPE:SKIRT
G1 F2700 E0
G1 F1200 X140.305 Y138.332 E0.04135
G1 X140.564 Y138.14 E0.05207
G1 X141.72 Y137.302 E0.09956
G1 X142.502 Y136.784 E0.13076
G1 X143.593 Y136.208 E0.17179
G1 X143.785 Y136.12 E0.17882
G1 X144.653 Y135.766 E0.20999
G1 X145.932 Y135.393 E0.25431
G1 X146.548 Y135.255 E0.2753
G1 X147.657 Y135.025 E0.31297
G1 X148.583 Y134.874 E0.34418
G1 X149.891 Y134.796 E0.38776
G1 X150.101 Y134.796 E0.39474
G1 X151.038 Y134.836 E0.42594
G1 X152.258 Y135.01 E0.46692
G1 X152.769 Y135.113 E0.48426
G1 X153.965 Y135.372 E0.52496
G1 X154.872 Y135.61 E0.55615
G1 X155.756 Y135.923 E0.58734
G1 X156.209 Y136.118 E0.60375
G1 X156.395 Y136.203 E0.61055
G1 X157.231 Y136.629 E0.64176
G1 X158.211 Y137.253 E0.6804
G1 X158.645 Y137.564 E0.69816
G1 X159.576 Y138.245 E0.73652
G1 X160.309 Y138.83 E0.76771
G1 X161.286 Y139.796 E0.81341
G1 X161.428 Y139.955 E0.8205
G1 X162.023 Y140.68 E0.85169
G1 X162.706 Y141.706 E0.89269
G1 X162.902 Y142.041 E0.9056
G1 X163.53 Y143.131 E0.94744
G1 X163.963 Y143.962 E0.9786
G1 X164.474 Y145.264 E1.02513
G1 X164.541 Y145.473 E1.03242
G1 X164.789 Y146.378 E1.06364
G1 X165.01 Y147.719 E1.10884
G1 X165.056 Y148.144 E1.12306
G1 X165.17 Y149.264 E1.1605
G1 X165.226 Y150.2 E1.19169
G1 X165.167 Y151.521 E1.23567
G1 X165.146 Y151.722 E1.24239
G1 X165.009 Y152.65 E1.27359
G1 X164.67 Y153.97 E1.31892
G1 X164.191 Y155.448 E1.37059
G1 X163.864 Y156.327 E1.40179
G1 X163.275 Y157.52 E1.44604
G1 X163.168 Y157.707 E1.4532
G1 X162.667 Y158.5 E1.4844
G1 X161.802 Y159.597 E1.53087
G1 X160.773 Y160.742 E1.58207
G1 X160.116 Y161.412 E1.61328
G1 X159.208 Y162.176 E1.65275
G1 X159.042 Y162.301 E1.65966
G1 X158.269 Y162.833 E1.69087
G1 X157.264 Y163.393 E1.72914
G1 X156.952 Y163.542 E1.74064
G1 X156.533 Y163.735 E1.75598
G1 X155.444 Y164.217 E1.79559
G1 X154.571 Y164.559 E1.82677
G1 X153.253 Y164.923 E1.87225
G1 X153.034 Y164.969 E1.87969
G1 X152.109 Y165.123 E1.91088
G1 X150.773 Y165.204 E1.9554
G1 X149.23 Y165.204 E2.00672
G1 X148.293 Y165.164 E2.03791
G1 X146.959 Y164.967 E2.08276
G1 X146.741 Y164.921 E2.09017
G1 X145.832 Y164.688 E2.12138
G1 X144.536 Y164.206 E2.16737
G1 X143.115 Y163.573 E2.21911
G1 X142.275 Y163.155 E2.25032
G1 X141.474 Y162.668 E2.2815
G1 X141.075 Y162.387 E2.29773
G1 X140.905 Y162.262 E2.30475
G1 X140.173 Y161.675 E2.33596
G1 X139.249 Y160.763 E2.37914
G1 X138.212 Y159.612 E2.43067
G1 X137.614 Y158.889 E2.46187
G1 X136.853 Y157.74 E2.50771
G1 X136.747 Y157.556 E2.51477
G1 X136.313 Y156.724 E2.54598
G1 X135.908 Y155.734 E2.58156
G1 X135.833 Y155.522 E2.58904
G1 X135.728 Y155.21 E2.59999
G1 X135.322 Y153.943 E2.64424
G1 X135.074 Y153.038 E2.67545
G1 X134.865 Y151.806 E2.71701
G1 X134.841 Y151.591 E2.72421
G1 X134.777 Y150.656 E2.75538
G1 X134.823 Y149.319 E2.79987
G1 X134.885 Y148.692 E2.82083
G1 X135 Y147.635 E2.85619
G1 X135.141 Y146.708 E2.88738
G1 X135.494 Y145.363 E2.93363
G1 X135.558 Y145.17 E2.94039
G1 X135.827 Y144.445 E2.96611
G1 X136.219 Y143.593 E2.99731
G1 X136.523 Y143.039 E3.01832
G1 X136.671 Y142.787 E3.02804
G1 X137.221 Y141.831 E3.06473
G1 X137.72 Y141.037 E3.09592
G1 X138.557 Y139.972 E3.14097
G1 X138.703 Y139.808 E3.14827
G1 X139.356 Y139.135 E3.17946
G0 F6000 X139.643 Y139.413
G1 F1200 X140.546 Y138.652 E3.21874
G1 X140.799 Y138.464 E3.22922
G1 X141.955 Y137.626 E3.27671
G1 X142.723 Y137.118 E3.30734
G1 X143.759 Y136.572 E3.34629
G1 X143.951 Y136.484 E3.35331
G1 X144.804 Y136.137 E3.38394
G1 X146.021 Y135.783 E3.4261
G1 X146.629 Y135.647 E3.44682
G1 X147.738 Y135.417 E3.48449
G1 X148.647 Y135.269 E3.51512
G1 X149.891 Y135.196 E3.55657
G1 X150.101 Y135.196 E3.56355
G1 X151.021 Y135.236 E3.59418
G1 X152.18 Y135.402 E3.63312
G1 X152.684 Y135.504 E3.65022
G1 X153.88 Y135.763 E3.69093
G1 X154.771 Y135.997 E3.72157
G1 X156.043 Y136.482 E3.76684
G1 X156.229 Y136.567 E3.77365
G1 X157.049 Y136.986 E3.80427
G1 X157.979 Y137.579 E3.84096
G1 X158.409 Y137.887 E3.85855
G1 X159.34 Y138.568 E3.89692
G1 X160.059 Y139.143 E3.92754
G1 X160.988 Y140.062 E3.971
G1 X161.13 Y140.221 E3.97809
G1 X161.713 Y140.934 E4.00872
G1 X162.361 Y141.909 E4.04766
G1 X162.556 Y142.24 E4.06044
G1 X163.184 Y143.33 E4.10228
G1 X163.608 Y144.147 E4.13289
G1 X164.093 Y145.386 E4.17715
G1 X164.16 Y145.595 E4.18445
G1 X164.403 Y146.483 E4.21507
G1 X164.612 Y147.76 E4.25811
G1 X164.659 Y148.185 E4.27233
G1 X164.773 Y149.305 E4.30977
G1 X164.826 Y150.224 E4.34039
G1 X164.77 Y151.479 E4.38217
G1 X164.749 Y151.68 E4.38889
G1 X164.613 Y152.591 E4.41953
G1 X164.29 Y153.847 E4.46266
G1 X163.811 Y155.325 E4.51434
G1 X163.489 Y156.188 E4.54497
G1 X162.927 Y157.321 E4.58704
G1 X162.82 Y157.508 E4.5942
G1 X162.329 Y158.287 E4.62483
G1 X161.504 Y159.329 E4.66904
G1 X160.475 Y160.474 E4.72024
G1 X159.831 Y161.132 E4.75086
G1 X158.967 Y161.857 E4.78837
G1 X158.801 Y161.982 E4.79529
G1 X158.042 Y162.503 E4.82591
G1 X157.088 Y163.033 E4.8622
G1 X156.784 Y163.179 E4.87342
G1 X156.371 Y163.369 E4.88854
G1 X155.282 Y163.851 E4.92815
G1 X154.425 Y164.187 E4.95877
G1 X153.171 Y164.532 E5.00202
G1 X152.952 Y164.578 E5.00947
G1 X152.044 Y164.728 E5.04008
G1 X150.773 Y164.804 E5.08243
G1 X149.23 Y164.804 E5.13375
G1 X148.31 Y164.764 E5.16437
G1 X147.041 Y164.576 E5.20704
G1 X146.823 Y164.53 E5.21445
G1 X145.932 Y164.301 E5.24505
G1 X144.699 Y163.841 E5.28882
G1 X143.278 Y163.208 E5.34056
G1 X142.454 Y162.797 E5.37119
G1 X141.312 Y162.065 E5.4163
G1 X141.142 Y161.94 E5.42332
G1 X140.424 Y161.363 E5.45396
G1 X139.546 Y160.495 E5.49502
G1 X138.509 Y159.344 E5.54655
G1 X137.923 Y158.634 E5.57717
G1 X137.199 Y157.54 E5.6208
G1 X137.093 Y157.356 E5.62787
G1 X136.669 Y156.539 E5.65848
G1 X136.285 Y155.6 E5.69222
G1 X136.21 Y155.388 E5.6997
G1 X136.109 Y155.088 E5.71023
G1 X135.703 Y153.821 E5.75448
G1 X135.46 Y152.933 E5.7851
G1 X135.262 Y151.762 E5.8246
G1 X135.238 Y151.547 E5.8318
G1 X135.176 Y150.628 E5.86243
G1 X135.222 Y149.357 E5.90473
G1 X135.282 Y148.736 E5.92549
G1 X135.397 Y147.679 E5.96085
G1 X135.536 Y146.768 E5.9915
G1 X135.874 Y145.489 E6.0355
G1 X135.938 Y145.296 E6.04226
G1 X136.197 Y144.596 E6.06709
G1 X136.582 Y143.76 E6.0977
G1 X136.868 Y143.242 E6.11738
G1 X137.016 Y142.99 E6.1271
G1 X137.568 Y142.03 E6.16393
G1 X138.059 Y141.251 E6.19456
G1 X138.856 Y140.238 E6.23743
G1 X139.002 Y140.074 E6.24473
G1 X139.643 Y139.413 E6.27536
G0 F6000 X139.93 Y139.692
G1 F1200 X140.786 Y138.972 E6.31256
G1 X141.033 Y138.788 E6.3228
G1 X142.189 Y137.95 E6.37029
G1 X142.943 Y137.452 E6.40035
G1 X143.926 Y136.936 E6.43727
G1 X144.118 Y136.848 E6.4443
G1 X144.955 Y136.508 E6.47434
G1 X146.11 Y136.173 E6.51434
G1 X146.524 Y136.079 E6.52846
G1 X147.82 Y135.809 E6.57249
G1 X148.711 Y135.664 E6.60252
G1 X149.891 Y135.596 E6.64183
G1 X150.101 Y135.596 E6.64882
G1 X151.003 Y135.636 E6.67885
G1 X152.101 Y135.794 E6.71574
G1 X152.6 Y135.895 E6.73268
G1 X153.796 Y136.154 E6.77338
G1 X154.669 Y136.384 E6.8034
G1 X155.877 Y136.846 E6.84642
G1 X156.063 Y136.931 E6.85322
G1 X156.867 Y137.342 E6.88325
G1 X157.747 Y137.904 E6.91798
G1 X158.173 Y138.209 E6.93541
G1 X159.104 Y138.89 E6.97377
G1 X159.809 Y139.455 E7.00382
G1 X160.69 Y140.329 E7.0451
G1 X160.832 Y140.488 E7.05219
G1 X161.403 Y141.187 E7.08221
G1 X162.017 Y142.112 E7.11913
G1 X162.209 Y142.44 E7.13178
G1 X162.837 Y143.53 E7.17362
G1 X163.253 Y144.332 E7.20367
G1 X163.712 Y145.508 E7.24565
G1 X163.779 Y145.717 E7.25295
G1 X164.016 Y146.589 E7.28301
G1 X164.214 Y147.8 E7.32382
G1 X164.261 Y148.225 E7.33804
G1 X164.375 Y149.345 E7.37549
G1 X164.426 Y150.247 E7.40553
G1 X164.372 Y151.438 E7.44519
G1 X164.351 Y151.639 E7.45191
G1 X164.217 Y152.532 E7.48194
G1 X163.909 Y153.724 E7.52289
G1 X163.43 Y155.202 E7.57457
G1 X163.114 Y156.048 E7.6046
G1 X162.58 Y157.123 E7.64453
G1 X162.473 Y157.31 E7.65169
G1 X161.99 Y158.073 E7.68173
G1 X161.207 Y159.062 E7.72368
G1 X160.178 Y160.207 E7.77489
G1 X159.545 Y160.851 E7.80492
G1 X158.727 Y161.537 E7.84043
G1 X158.561 Y161.662 E7.84734
G1 X157.816 Y162.173 E7.87739
G1 X156.912 Y162.674 E7.91176
G1 X156.616 Y162.817 E7.9227
G1 X156.37 Y162.931 E7.93171
G1 X155.12 Y163.485 E7.97719
G1 X154.279 Y163.814 E8.00723
G1 X153.089 Y164.14 E8.04826
G1 X152.87 Y164.186 E8.05571
G1 X151.979 Y164.333 E8.08574
G1 X150.773 Y164.404 E8.12592
G1 X149.23 Y164.404 E8.17724
G1 X148.328 Y164.364 E8.20727
G1 X147.124 Y164.184 E8.24776
G1 X146.906 Y164.138 E8.25517
G1 X146.032 Y163.913 E8.28519
G1 X144.861 Y163.475 E8.32677
G1 X143.44 Y162.842 E8.37851
G1 X142.633 Y162.439 E8.40852
G1 X141.549 Y161.743 E8.45136
G1 X141.379 Y161.618 E8.45838
G1 X140.675 Y161.051 E8.48844
G1 X139.843 Y160.227 E8.52739
G1 X138.806 Y159.076 E8.57892
G1 X138.232 Y158.379 E8.60895
G1 X137.546 Y157.341 E8.65033
G1 X137.44 Y157.157 E8.6574
G1 X137.024 Y156.355 E8.68745
G1 X136.662 Y155.467 E8.71934
G1 X136.587 Y155.255 E8.72682
G1 X136.49 Y154.966 E8.73696
G1 X136.084 Y153.699 E8.78121
G1 X135.846 Y152.827 E8.81127
G1 X135.66 Y151.718 E8.84867
G1 X135.636 Y151.503 E8.85587
G1 X135.576 Y150.601 E8.88594
G1 X135.62 Y149.395 E8.92608
G1 X135.68 Y148.779 E8.94666
G1 X135.795 Y147.722 E8.98202
G1 X135.932 Y146.829 E9.01207
G1 X136.253 Y145.615 E9.05384
G1 X136.317 Y145.422 E9.0606
G1 X136.567 Y144.748 E9.08451
G1 X136.946 Y143.928 E9.11456
G1 X137.213 Y143.444 E9.13294
G1 X137.361 Y143.192 E9.14266
G1 X137.915 Y142.228 E9.17964
G1 X138.398 Y141.464 E9.20971
G1 X139.155 Y140.504 E9.25037
G1 X139.301 Y140.34 E9.25767
G1 X139.93 Y139.692 E9.28771
G1 F2700 E4.28771
;MESH:15???5X4_5M0_5.STL
G0 F6000 X146.237 Y147.904
G0 X146.397 Y148.862
G0 X147.299 Y149.214
G0 X147.473 Y150.604
G0 X147.745 Y151.308
G0 X148.208 Y151.904
G0 X148.822 Y152.341
G0 X149.896 Y152.682
G0 X149.917 Y152.484
;TYPE:WALL-OUTER
G1 F2700 E9.28771
G1 F1200 X150.275 Y152.47 E9.29962
G1 X150.626 Y152.404 E9.3115
G1 X150.965 Y152.287 E9.32343
G1 X151.282 Y152.123 E9.3353
G1 X151.572 Y151.914 E9.34719
G1 X151.83 Y151.664 E9.35914
G1 X152.047 Y151.381 E9.371
G1 X152.221 Y151.069 E9.38288
G1 X152.348 Y150.734 E9.3948
G1 X152.424 Y150.386 E9.40665
G1 X152.451 Y150.029 E9.41855
G1 X152.423 Y149.671 E9.4305
G1 X152.345 Y149.322 E9.44239
G1 X152.215 Y148.989 E9.45428
G1 X152.039 Y148.678 E9.46617
G1 X151.821 Y148.396 E9.47802
G1 X151.562 Y148.148 E9.48995
G1 X151.27 Y147.94 E9.50187
G1 X150.952 Y147.777 E9.51376
G1 X150.613 Y147.663 E9.52565
G1 X150.261 Y147.6 E9.53755
G1 X149.905 Y147.587 E9.54939
G1 X149.548 Y147.626 E9.56134
G1 X149.202 Y147.719 E9.57326
G1 X148.874 Y147.859 E9.58512
G1 X148.569 Y148.046 E9.59702
G1 X148.294 Y148.276 E9.60894
G1 X148.057 Y148.543 E9.62081
G1 X147.86 Y148.842 E9.63272
G1 X147.708 Y149.166 E9.64463
G1 X147.607 Y149.509 E9.65652
G1 X147.556 Y149.859 E9.66828
G1 X147.556 Y150.214 E9.68009
G1 X147.61 Y150.574 E9.6922
G1 X147.714 Y150.917 E9.70412
G1 X147.866 Y151.24 E9.71599
G1 X148.065 Y151.538 E9.72791
G1 X148.304 Y151.804 E9.7398
G1 X148.58 Y152.032 E9.75171
G1 X148.886 Y152.217 E9.7636
G1 X149.215 Y152.356 E9.77548
G1 X149.555 Y152.445 E9.78717
G1 X149.917 Y152.484 E9.79928
G1 F2700 E4.79928
G0 F6000 X149.896 Y152.682
G0 X150.554 Y152.807
G0 X150.764 Y153.667
G0 X150.845 Y153.984
G1 F2700 E9.79928
G1 F1200 X150.646 Y153.742 E9.8097
G1 X150.492 Y153.345 E9.82387
G1 X150.441 Y152.941 E9.83741
G1 X150 Y152.959 E9.85209
G1 X149.572 Y152.941 E9.86634
G1 X149.448 Y153.545 E9.88685
G1 X149.237 Y153.912 E9.90093
G1 X149.166 Y153.985 E9.90431
G1 X149.084 Y153.686 E9.91463
G1 X149.104 Y153.257 E9.92891
G1 X149.222 Y152.869 E9.9424
G1 X148.808 Y152.705 E9.95721
G1 X148.427 Y152.515 E9.97137
G1 X148.069 Y153.018 E9.9919
G1 X147.724 Y153.268 E10.00607
G1 X147.631 Y153.305 E10.0094
G1 X147.676 Y152.995 E10.01982
G1 X147.87 Y152.616 E10.03398
G1 X148.136 Y152.306 E10.04757
G1 X147.821 Y151.985 E10.06253
G1 X147.555 Y151.661 E10.07647
G1 X147.026 Y151.972 E10.09688
G1 X146.606 Y152.061 E10.11116
G1 X146.507 Y152.058 E10.11445
G1 X146.674 Y151.795 E10.12482
G1 X147.003 Y151.526 E10.13895
G1 X147.374 Y151.353 E10.15257
G1 X147.221 Y150.943 E10.16712
G1 X147.105 Y150.526 E10.18152
G1 X146.493 Y150.594 E10.202
G1 X146.075 Y150.506 E10.21621
G1 X145.986 Y150.463 E10.21949
G1 X146.246 Y150.29 E10.22988
G1 X146.656 Y150.179 E10.24401
G1 X147.066 Y150.17 E10.25765
G1 X147.093 Y149.726 E10.27244
G1 X147.155 Y149.305 E10.2866
G1 X146.568 Y149.121 E10.30706
G1 X146.22 Y148.867 E10.32139
G1 X146.158 Y148.793 E10.3246
G1 X146.464 Y148.742 E10.33492
G1 X146.889 Y148.806 E10.34921
G1 X147.262 Y148.965 E10.3627
G1 X147.468 Y148.574 E10.3774
G1 X147.697 Y148.213 E10.39161
G1 X147.237 Y147.804 E10.41209
G1 X147.024 Y147.433 E10.42632
G1 X146.996 Y147.339 E10.42958
G1 X147.3 Y147.416 E10.44001
G1 X147.654 Y147.645 E10.45403
G1 X147.935 Y147.944 E10.46768
G1 X148.275 Y147.675 E10.4821
G1 X148.637 Y147.433 E10.49658
G1 X148.384 Y146.874 E10.51699
G1 X148.339 Y146.447 E10.53127
G1 X148.353 Y146.349 E10.53456
G1 X148.597 Y146.542 E10.54491
G1 X148.83 Y146.9 E10.55912
G1 X148.965 Y147.286 E10.57272
G1 X149.398 Y147.173 E10.5876
G1 X149.814 Y147.104 E10.60163
G1 X149.809 Y146.487 E10.62215
G1 X149.94 Y146.084 E10.63624
G1 X149.994 Y145.997 E10.63965
G1 X150.138 Y146.275 E10.65006
G1 X150.206 Y146.695 E10.66421
G1 X150.173 Y147.102 E10.67779
G1 X150.602 Y147.173 E10.69226
G1 X151.022 Y147.283 E10.7067
G1 X151.267 Y146.719 E10.72715
G1 X151.555 Y146.4 E10.74144
G1 X151.637 Y146.345 E10.74473
G1 X151.657 Y146.657 E10.75513
G1 X151.548 Y147.066 E10.7692
G1 X151.352 Y147.426 E10.78284
G1 X151.725 Y147.675 E10.79775
G1 X152.055 Y147.935 E10.81173
G1 X152.509 Y147.52 E10.83219
G1 X152.899 Y147.347 E10.84638
G1 X152.997 Y147.329 E10.84969
G1 X152.888 Y147.621 E10.86006
G1 X152.62 Y147.954 E10.87427
G1 X152.296 Y148.201 E10.88782
G1 X152.532 Y148.574 E10.9025
G1 X152.731 Y148.952 E10.91671
G1 X153.316 Y148.759 E10.9372
G1 X153.741 Y148.758 E10.95134
G1 X153.838 Y148.782 E10.95466
G1 X153.621 Y149.003 E10.96496
G1 X153.241 Y149.198 E10.97917
G1 X152.843 Y149.293 E10.99278
G1 X152.907 Y149.726 E11.00734
G1 X152.934 Y150.157 E11.0217
G1 X153.547 Y150.216 E11.04218
G1 X153.937 Y150.39 E11.05639
G1 X154.013 Y150.449 E11.05959
G1 X153.727 Y150.565 E11.06985
G1 X153.297 Y150.59 E11.08418
G1 X152.899 Y150.513 E11.09766
G1 X152.779 Y150.943 E11.11251
G1 X152.631 Y151.34 E11.1266
G1 X153.166 Y151.644 E11.14707
G1 X153.454 Y151.964 E11.16139
G1 X153.499 Y152.048 E11.16455
G1 X153.187 Y152.035 E11.17494
G1 X152.788 Y151.883 E11.18914
G1 X152.454 Y151.651 E11.20267
G1 X152.179 Y151.985 E11.21706
G1 X151.873 Y152.296 E11.23157
G1 X152.239 Y152.793 E11.2521
G1 X152.371 Y153.201 E11.26636
G1 X152.378 Y153.298 E11.2696
G1 X152.1 Y153.16 E11.27992
G1 X151.796 Y152.857 E11.29419
G1 X151.584 Y152.509 E11.30775
G1 X151.192 Y152.705 E11.32232
G1 X150.791 Y152.864 E11.33667
G1 X150.924 Y153.463 E11.35708
G1 X150.879 Y153.89 E11.37136
G1 X150.845 Y153.984 E11.37468
G0 F6000 X150.764 Y153.667
G0 X150.499 Y152.738
G0 X150.433 Y152.695
;TYPE:SKIN
G1 F1200 X150.166 Y152.711 E11.37859
G1 X149.215 Y152.609 E11.39254
G1 X148.691 Y152.368 E11.40096
G0 F6000 X147.666 Y151.343
G1 F1200 X147.44 Y150.835 E11.40796
G1 X147.313 Y150.142 E11.41683
G1 X147.451 Y149.148 E11.42946
G1 X147.97 Y148.253 E11.44249
G1 X148.77 Y147.638 E11.45519
G1 X149.639 Y147.376 E11.46661
G1 X150.173 Y147.345 E11.47335
G1 X150.901 Y147.507 E11.48274
G0 F6000 X151.237 Y147.56
G1 F1200 X152.427 Y148.75 E11.51072
G0 F6000 X152.538 Y149.143
G1 F1200 X152.629 Y149.518 E11.51563
G1 X152.665 Y150.402 E11.52688
G1 X152.395 Y151.264 E11.53837
