;FLAVOR:Marlin
;TIME:167
;Filament used: 0.0438604m
;Layer height: 0.2
;MINX:136.02
;MINY:136.136
;MINZ:0.2
;MAXX:163.98
;MAXY:163.864
;MAXZ:5
;Generated with Creality Slicer 4.8.2-191
M140 S50
M105
M190 S50
M104 S200
M105
M109 S200
M82 ;absolute extrusion mode

G28 ;Home

G92 E0 ;Reset Extruder
G1 Z2.0 F3000 ;Move Z Axis up
G1 X10.1 Y20 Z0.28 F5000.0 ;Move to start position
G1 X10.1 Y200.0 Z0.28 F1500.0 E15 ;Draw the first line
G1 X10.4 Y200.0 Z0.28 F5000.0 ;Move to side a little
G1 X10.4 Y20 Z0.28 F1500.0 E30 ;Draw the second line
G92 E0 ;Reset Extruder
G1 Z2.0 F3000 ;Move Z Axis up

G92 E0
G92 E0
G1 F2700 E-5
;LAYER_COUNT:25
;LAYER:0
M107
G0 F6000 X139.588 Y140.678 Z0.2
;TYPE:SKIRT
G1 F2700 E0
G1 F1200 X140.257 Y140.021 E0.03119
G1 X141.056 Y139.365 E0.06557
G1 X141.499 Y139.037 E0.0839
G1 X142.412 Y138.378 E0.12135
G1 X142.738 Y138.151 E0.13457
G1 X143.53 Y137.648 E0.16577
G1 X144.362 Y137.215 E0.19697
G1 X145.227 Y136.854 E0.22814
G1 X146.121 Y136.568 E0.25936
G1 X146.945 Y136.376 E0.2875
G1 X147.158 Y136.335 E0.29472
G1 X148.085 Y136.197 E0.32589
G1 X149.229 Y136.137 E0.36399
G1 X150.599 Y136.136 E0.40956
G1 X151.029 Y136.142 E0.42386
G1 X151.965 Y136.198 E0.45505
G1 X152.893 Y136.333 E0.48624
G1 X153.843 Y136.558 E0.51871
G1 X153.991 Y136.6 E0.52383
G1 X154.882 Y136.894 E0.55503
G1 X155.744 Y137.263 E0.58622
G1 X156.571 Y137.704 E0.61739
G1 X157.365 Y138.219 E0.64887
G1 X158.093 Y138.737 E0.67859
G1 X158.278 Y138.872 E0.6862
G1 X158.917 Y139.347 E0.71269
G1 X159.646 Y139.938 E0.7439
G1 X160.321 Y140.589 E0.77509
G1 X161.002 Y141.376 E0.80971
G1 X161.105 Y141.507 E0.81525
G1 X161.653 Y142.268 E0.84644
G1 X162.134 Y143.074 E0.87766
G1 X162.544 Y143.917 E0.90884
G1 X162.876 Y144.776 E0.93947
G1 X163.115 Y145.485 E0.96435
G1 X163.344 Y146.199 E0.98929
G1 X163.492 Y146.678 E1.00596
G1 X163.73 Y147.585 E1.03715
G1 X163.89 Y148.509 E1.06834
G1 X163.975 Y149.524 E1.10222
G1 X163.98 Y149.661 E1.10678
G1 X163.974 Y150.599 E1.13798
G1 X163.888 Y151.533 E1.16917
G1 X163.723 Y152.456 E1.20036
G1 X163.496 Y153.312 E1.22982
G1 X163.286 Y153.989 E1.25339
G1 X163.057 Y154.689 E1.27789
G1 X162.875 Y155.224 E1.29668
G1 X162.535 Y156.098 E1.32787
G1 X162.122 Y156.94 E1.35907
G1 X161.635 Y157.75 E1.3905
G1 X161.549 Y157.88 E1.39569
G1 X160.999 Y158.64 E1.42689
G1 X160.386 Y159.349 E1.45806
G1 X159.715 Y160.004 E1.48925
G1 X158.953 Y160.628 E1.52201
G1 X158.509 Y160.958 E1.54041
G1 X157.769 Y161.494 E1.5708
G1 X157.266 Y161.846 E1.59122
G1 X156.475 Y162.349 E1.62239
G1 X155.643 Y162.783 E1.65361
G1 X154.778 Y163.144 E1.68478
G1 X153.885 Y163.43 E1.71597
G1 X153.055 Y163.624 E1.74432
G1 X152.842 Y163.665 E1.75153
G1 X151.915 Y163.803 E1.7827
G1 X150.771 Y163.863 E1.82081
G1 X149.401 Y163.864 E1.86637
G1 X148.971 Y163.858 E1.88068
G1 X148.035 Y163.802 E1.91186
G1 X147.107 Y163.667 E1.94305
G1 X146.157 Y163.442 E1.97552
G1 X146.009 Y163.4 E1.98064
G1 X145.118 Y163.106 E2.01185
G1 X144.256 Y162.737 E2.04303
G1 X143.429 Y162.296 E2.07421
G1 X142.632 Y161.779 E2.1058
G1 X141.889 Y161.25 E2.13614
G1 X141.705 Y161.116 E2.14371
G1 X141.081 Y160.652 E2.16957
G1 X140.353 Y160.061 E2.20076
G1 X139.678 Y159.41 E2.23195
G1 X138.998 Y158.624 E2.26652
G1 X138.895 Y158.493 E2.27206
G1 X138.347 Y157.732 E2.30325
G1 X137.866 Y156.926 E2.33447
G1 X137.456 Y156.083 E2.36565
G1 X137.124 Y155.224 E2.39628
G1 X136.886 Y154.519 E2.42103
G1 X136.646 Y153.77 E2.44719
G1 X136.505 Y153.312 E2.46313
G1 X136.267 Y152.404 E2.49435
G1 X136.108 Y151.48 E2.52553
G1 X136.025 Y150.473 E2.55914
G1 X136.02 Y150.335 E2.56373
G1 X136.026 Y149.397 E2.59493
G1 X136.112 Y148.464 E2.62609
G1 X136.277 Y147.54 E2.65731
G1 X136.504 Y146.686 E2.6867
G1 X136.722 Y145.985 E2.71112
G1 X136.943 Y145.311 E2.73471
G1 X137.125 Y144.776 E2.75351
G1 X137.465 Y143.902 E2.7847
G1 X137.878 Y143.06 E2.81589
G1 X138.343 Y142.282 E2.84604
G1 X138.429 Y142.151 E2.85125
G1 X138.977 Y141.39 E2.88244
G1 X139.588 Y140.678 E2.91364
G0 F6000 X139.903 Y140.926
G1 F1200 X140.562 Y140.284 E2.94424
G1 X141.295 Y139.686 E2.97571
G1 X141.733 Y139.361 E2.99385
G1 X142.641 Y138.706 E3.03109
G1 X142.967 Y138.479 E3.0443
G1 X143.744 Y137.986 E3.07491
G1 X144.562 Y137.563 E3.10553
G1 X145.413 Y137.212 E3.13615
G1 X146.292 Y136.936 E3.16679
G1 X147.02 Y136.769 E3.19164
G1 X147.233 Y136.728 E3.19885
G1 X148.144 Y136.593 E3.22948
G1 X149.229 Y136.537 E3.26562
G1 X150.599 Y136.536 E3.31118
G1 X151.022 Y136.542 E3.32525
G1 X151.941 Y136.597 E3.35588
G1 X152.852 Y136.733 E3.38651
G1 X153.734 Y136.943 E3.41667
G1 X153.882 Y136.985 E3.42178
G1 X154.756 Y137.274 E3.4524
G1 X155.601 Y137.639 E3.48302
G1 X156.412 Y138.075 E3.51364
G1 X157.133 Y138.545 E3.54227
G1 X157.861 Y139.063 E3.57198
G1 X158.04 Y139.193 E3.57934
G1 X158.679 Y139.668 E3.60582
G1 X159.393 Y140.249 E3.63644
G1 X160.054 Y140.889 E3.66704
G1 X160.688 Y141.623 E3.6993
G1 X160.791 Y141.754 E3.70484
G1 X161.328 Y142.502 E3.73547
G1 X161.798 Y143.294 E3.7661
G1 X162.198 Y144.123 E3.79671
G1 X162.497 Y144.904 E3.82453
G1 X162.734 Y145.607 E3.8492
G1 X162.962 Y146.317 E3.87401
G1 X163.11 Y146.796 E3.89068
G1 X163.343 Y147.686 E3.92128
G1 X163.498 Y148.594 E3.95192
G1 X163.575 Y149.538 E3.98342
G1 X163.58 Y149.675 E3.98798
G1 X163.574 Y150.596 E4.01861
G1 X163.487 Y151.513 E4.04925
G1 X163.322 Y152.418 E4.07985
G1 X163.114 Y153.194 E4.10657
G1 X162.905 Y153.865 E4.12994
G1 X162.678 Y154.56 E4.15426
G1 X162.496 Y155.095 E4.17305
G1 X162.162 Y155.953 E4.20368
G1 X161.755 Y156.778 E4.23428
G1 X161.302 Y157.529 E4.26345
G1 X161.216 Y157.659 E4.26863
G1 X160.675 Y158.404 E4.29925
G1 X160.071 Y159.1 E4.3299
G1 X159.41 Y159.74 E4.36051
G1 X158.714 Y160.307 E4.39036
G1 X158.274 Y160.634 E4.4086
G1 X157.378 Y161.281 E4.44536
G1 X157.038 Y161.518 E4.45914
G1 X156.26 Y162.011 E4.48977
G1 X155.443 Y162.435 E4.52039
G1 X154.592 Y162.786 E4.55101
G1 X153.714 Y163.062 E4.58162
G1 X152.98 Y163.231 E4.60667
G1 X152.767 Y163.272 E4.61388
G1 X151.856 Y163.407 E4.64451
G1 X150.771 Y163.463 E4.68065
G1 X149.401 Y163.464 E4.72622
G1 X148.978 Y163.458 E4.74029
G1 X148.059 Y163.403 E4.77091
G1 X147.148 Y163.267 E4.80154
G1 X146.266 Y163.057 E4.8317
G1 X146.118 Y163.015 E4.83682
G1 X145.244 Y162.726 E4.86743
G1 X144.399 Y162.361 E4.89805
G1 X143.588 Y161.925 E4.92867
G1 X142.864 Y161.453 E4.95742
G1 X142.121 Y160.924 E4.98775
G1 X141.944 Y160.795 E4.99504
G1 X141.32 Y160.331 E5.0209
G1 X140.606 Y159.75 E5.05152
G1 X139.945 Y159.109 E5.08214
G1 X139.312 Y158.377 E5.11433
G1 X139.209 Y158.246 E5.11987
G1 X138.672 Y157.498 E5.1505
G1 X138.202 Y156.706 E5.18113
G1 X137.802 Y155.877 E5.21174
G1 X137.503 Y155.096 E5.23956
G1 X137.267 Y154.396 E5.26413
G1 X137.028 Y153.652 E5.29012
G1 X136.887 Y153.194 E5.30606
G1 X136.655 Y152.303 E5.33668
G1 X136.501 Y151.395 E5.36731
G1 X136.425 Y150.459 E5.39855
G1 X136.42 Y150.321 E5.40314
G1 X136.427 Y149.4 E5.43377
G1 X136.513 Y148.484 E5.46437
G1 X136.679 Y147.578 E5.49501
G1 X136.887 Y146.804 E5.52167
G1 X137.103 Y146.109 E5.54587
G1 X137.322 Y145.44 E5.56929
G1 X137.504 Y144.905 E5.58808
G1 X137.838 Y144.047 E5.6187
G1 X138.245 Y143.222 E5.6493
G1 X138.678 Y142.502 E5.67725
G1 X138.764 Y142.371 E5.68246
G1 X139.302 Y141.624 E5.71308
G1 X139.903 Y140.926 E5.74371
G0 F6000 X140.218 Y141.175
G1 F1200 X140.867 Y140.548 E5.77373
G1 X141.534 Y140.007 E5.80229
G1 X141.968 Y139.685 E5.82026
G1 X142.869 Y139.034 E5.85723
G1 X143.195 Y138.807 E5.87045
G1 X143.959 Y138.325 E5.90049
G1 X144.762 Y137.911 E5.93054
G1 X145.598 Y137.571 E5.96056
G1 X146.461 Y137.305 E5.99059
G1 X147.096 Y137.162 E6.01224
G1 X147.309 Y137.121 E6.01946
G1 X148.203 Y136.99 E6.04951
G1 X149.23 Y136.937 E6.08371
G1 X150.6 Y136.936 E6.12928
G1 X151.015 Y136.942 E6.14308
G1 X151.916 Y136.997 E6.17311
G1 X152.809 Y137.132 E6.20315
G1 X153.625 Y137.327 E6.23105
G1 X153.773 Y137.369 E6.23617
G1 X154.63 Y137.654 E6.26621
G1 X155.458 Y138.014 E6.29624
G1 X156.252 Y138.445 E6.32628
G1 X156.902 Y138.871 E6.35213
G1 X157.63 Y139.389 E6.38185
G1 X158.44 Y139.989 E6.41538
G1 X159.14 Y140.559 E6.4454
G1 X159.787 Y141.189 E6.47544
G1 X160.373 Y141.871 E6.50534
G1 X160.476 Y142.002 E6.51089
G1 X161.003 Y142.735 E6.54091
G1 X161.462 Y143.513 E6.57096
G1 X161.85 Y144.328 E6.60098
G1 X162.119 Y145.033 E6.62608
G1 X162.304 Y145.579 E6.64525
G1 X162.579 Y146.435 E6.67515
G1 X162.727 Y146.914 E6.69183
G1 X162.956 Y147.788 E6.72188
G1 X163.106 Y148.678 E6.7519
G1 X163.175 Y149.553 E6.78109
G1 X163.18 Y149.69 E6.78565
G1 X163.173 Y150.593 E6.81569
G1 X163.086 Y151.492 E6.84573
G1 X162.92 Y152.38 E6.87577
G1 X162.732 Y153.076 E6.89975
G1 X162.525 Y153.741 E6.92292
G1 X162.3 Y154.431 E6.94706
G1 X162.118 Y154.966 E6.96585
G1 X161.789 Y155.807 E6.99589
G1 X161.388 Y156.616 E7.02592
G1 X160.968 Y157.309 E7.05287
G1 X160.882 Y157.439 E7.05806
G1 X160.351 Y158.169 E7.08808
G1 X159.757 Y158.85 E7.11814
G1 X159.106 Y159.475 E7.14815
G1 X158.474 Y159.986 E7.17518
G1 X158.039 Y160.31 E7.19322
G1 X157.149 Y160.953 E7.22974
G1 X156.809 Y161.19 E7.24353
G1 X156.046 Y161.673 E7.27356
G1 X155.243 Y162.087 E7.30361
G1 X154.407 Y162.428 E7.33364
G1 X153.544 Y162.694 E7.36368
G1 X152.904 Y162.838 E7.38549
G1 X152.691 Y162.879 E7.39271
G1 X151.797 Y163.01 E7.42276
G1 X150.77 Y163.063 E7.45696
G1 X149.4 Y163.064 E7.50253
G1 X148.985 Y163.058 E7.51634
G1 X148.084 Y163.003 E7.54636
G1 X147.191 Y162.868 E7.5764
G1 X146.375 Y162.673 E7.6043
G1 X146.227 Y162.631 E7.60942
G1 X145.37 Y162.346 E7.63946
G1 X144.542 Y161.986 E7.66949
G1 X143.748 Y161.555 E7.69954
G1 X143.096 Y161.127 E7.72548
G1 X142.353 Y160.598 E7.75581
G1 X142.183 Y160.474 E7.76281
G1 X141.559 Y160.01 E7.78867
G1 X140.858 Y159.44 E7.81872
G1 X140.212 Y158.81 E7.84874
G1 X139.627 Y158.129 E7.8786
G1 X139.524 Y157.998 E7.88414
G1 X138.997 Y157.265 E7.91417
G1 X138.538 Y156.487 E7.94421
G1 X138.15 Y155.672 E7.97423
G1 X137.881 Y154.967 E7.99933
G1 X137.648 Y154.274 E8.02365
G1 X137.411 Y153.534 E8.04949
G1 X137.27 Y153.076 E8.06543
G1 X137.042 Y152.202 E8.09547
G1 X136.893 Y151.311 E8.12552
G1 X136.825 Y150.444 E8.15444
G1 X136.82 Y150.306 E8.15904
G1 X136.827 Y149.403 E8.18907
G1 X136.914 Y148.504 E8.21911
G1 X137.08 Y147.617 E8.24912
G1 X137.269 Y146.922 E8.27308
G1 X137.483 Y146.233 E8.29708
G1 X137.7 Y145.569 E8.32031
G1 X137.882 Y145.034 E8.33911
G1 X138.211 Y144.193 E8.36914
G1 X138.612 Y143.384 E8.39917
G1 X139.012 Y142.721 E8.42493
G1 X139.098 Y142.59 E8.43014
G1 X139.627 Y141.858 E8.46018
G1 X140.218 Y141.175 E8.49022
G1 F2700 E3.49022
;MESH:10???5X2M0_5.STL
G0 F6000 X148.254 Y147.596
G0 X148.733 Y149.03
G0 X148.675 Y150.225
G0 X148.827 Y150.655
G0 X149.112 Y151.009
G0 X149.907 Y151.396
G0 X149.95 Y151.202
;TYPE:WALL-OUTER
G1 F2700 E8.49022
G1 F1200 X150.352 Y151.15 E8.5037
G1 X150.716 Y150.967 E8.51725
G1 X150.997 Y150.674 E8.53075
G1 X151.163 Y150.307 E8.54415
G1 X151.202 Y149.999 E8.55448
G1 X151.163 Y149.693 E8.56474
G1 X150.997 Y149.326 E8.57813
G1 X150.716 Y149.033 E8.59164
G1 X150.352 Y148.85 E8.60519
G1 X149.95 Y148.798 E8.61867
G1 X149.552 Y148.884 E8.63221
G1 X149.205 Y149.097 E8.64575
G1 X148.95 Y149.413 E8.65926
G1 X148.814 Y149.797 E8.67281
G1 X148.814 Y150.203 E8.68631
G1 X148.95 Y150.587 E8.69986
G1 X149.205 Y150.903 E8.71337
G1 X149.552 Y151.116 E8.72691
G1 X149.95 Y151.202 E8.74045
G1 F2700 E3.74045
G0 F6000 X149.907 Y151.396
G0 X149.473 Y151.506
G0 X149.092 Y152.739
G0 X149.15 Y152.616
G1 F2700 E8.74045
G1 F1200 X149.097 Y152.257 E8.75252
G1 X149.163 Y152.018 E8.76077
G1 X149.425 Y151.617 E8.7767
G1 X148.949 Y151.302 E8.79568
G1 X148.649 Y151.032 E8.80911
G1 X148.346 Y151.414 E8.82533
G1 X148.135 Y151.554 E8.83375
G1 X147.9 Y151.621 E8.84188
G1 X147.774 Y151.617 E8.84607
G1 X147.942 Y151.296 E8.85812
G1 X148.138 Y151.14 E8.86645
G1 X148.585 Y150.973 E8.88232
G1 X148.383 Y150.428 E8.90165
G1 X148.3 Y150.041 E8.91482
G1 X147.828 Y150.171 E8.9311
G1 X147.58 Y150.162 E8.93936
G1 X147.345 Y150.076 E8.94768
G1 X147.248 Y150 E8.95178
G1 X147.34 Y149.928 E8.95566
G1 X147.575 Y149.84 E8.96401
G1 X147.823 Y149.828 E8.97227
G1 X148.285 Y149.953 E8.98819
G1 X148.437 Y149.402 E9.0072
G1 X148.602 Y149.033 E9.02064
G1 X148.142 Y148.862 E9.03696
G1 X147.949 Y148.711 E9.04511
G1 X147.808 Y148.501 E9.05353
G1 X147.774 Y148.382 E9.05764
G1 X147.893 Y148.377 E9.0616
G1 X148.132 Y148.444 E9.06986
G1 X148.339 Y148.579 E9.07808
G1 X148.638 Y148.955 E9.09406
G1 X149.09 Y148.596 E9.11326
G1 X149.436 Y148.396 E9.12655
G1 X149.165 Y147.987 E9.14287
G1 X149.098 Y147.75 E9.15106
G1 X149.107 Y147.501 E9.15935
G1 X149.15 Y147.383 E9.16352
G1 X149.25 Y147.449 E9.16751
G1 X149.404 Y147.644 E9.17577
G1 X149.49 Y147.873 E9.18391
G1 X149.516 Y148.354 E9.19993
G1 X150.089 Y148.33 E9.219
G1 X150.487 Y148.371 E9.23231
G1 X150.508 Y147.882 E9.24859
G1 X150.593 Y147.649 E9.25684
G1 X150.746 Y147.453 E9.26511
G1 X150.85 Y147.384 E9.26926
G1 X150.903 Y147.743 E9.28133
G1 X150.837 Y147.982 E9.28958
G1 X150.575 Y148.383 E9.30551
G1 X151.051 Y148.698 E9.32449
G1 X151.351 Y148.968 E9.33792
G1 X151.654 Y148.586 E9.35414
G1 X151.865 Y148.446 E9.36256
G1 X152.1 Y148.379 E9.37068
G1 X152.226 Y148.383 E9.37488
G1 X152.058 Y148.704 E9.38693
G1 X151.862 Y148.86 E9.39526
G1 X151.415 Y149.027 E9.41113
G1 X151.617 Y149.572 E9.43046
G1 X151.7 Y149.959 E9.44363
G1 X152.172 Y149.829 E9.45991
G1 X152.42 Y149.838 E9.46816
G1 X152.655 Y149.924 E9.47649
G1 X152.752 Y150 E9.48059
G1 X152.66 Y150.072 E9.48447
G1 X152.425 Y150.16 E9.49282
G1 X152.177 Y150.172 E9.50108
G1 X151.715 Y150.047 E9.51699
G1 X151.563 Y150.598 E9.53601
G1 X151.398 Y150.967 E9.54945
G1 X151.858 Y151.138 E9.56577
G1 X152.051 Y151.289 E9.57392
G1 X152.192 Y151.499 E9.58234
G1 X152.226 Y151.618 E9.58645
G1 X152.107 Y151.623 E9.59041
G1 X151.868 Y151.556 E9.59867
G1 X151.661 Y151.421 E9.60689
G1 X151.362 Y151.045 E9.62287
G1 X150.91 Y151.404 E9.64206
G1 X150.564 Y151.604 E9.65536
G1 X150.835 Y152.013 E9.67168
G1 X150.902 Y152.25 E9.67987
G1 X150.893 Y152.499 E9.68815
G1 X150.85 Y152.617 E9.69233
G1 X150.75 Y152.551 E9.69632
G1 X150.596 Y152.356 E9.70458
G1 X150.51 Y152.127 E9.71272
G1 X150.484 Y151.646 E9.72874
G1 X149.911 Y151.67 E9.74781
G1 X149.513 Y151.629 E9.76112
G1 X149.492 Y152.118 E9.7774
G1 X149.407 Y152.351 E9.78565
G1 X149.254 Y152.547 E9.79392
G1 X149.15 Y152.616 E9.79807
G0 F6000 X149.105 Y152.757
G0 X149.473 Y151.506
G0 X149.035 Y151.015
;TYPE:SKIN
G1 F1200 X148.605 Y150.302 E9.81003
G1 X148.59 Y149.721 E9.81837
G1 X148.843 Y149.126 E9.82766
G1 X149.497 Y148.648 E9.83929
G1 X149.987 Y148.573 E9.84641
G1 X150.294 Y148.597 E9.85083
G1 X150.963 Y148.983 E9.86192
G1 X151.404 Y149.707 E9.8741
G1 X151.402 Y150.271 E9.8822
G1 X151.158 Y150.875 E9.89155
G1 X150.502 Y151.351 E9.90319
G1 X150.016 Y151.431 E9.91026
G0 F6000 X149.782 Y151.479
G1 F1200 X149.61 Y151.307 E9.91431
G1 F2700 E4.91431
;MESH:NONMESH
G0 F300 X149.61 Y151.307 Z0.4
G0 F6000 X150.153 Y151.193
;TIME_ELAPSED:22.120335
;LAYER:1
M106 S85
;TYPE:WALL-OUTER
;MESH:10???5X2M0_5.STL
G1 F2700 E9.91431
G1 F600 X150.541 Y151.074 E9.92781
G1 X150.869 Y150.832 E9.94136
G1 X151.092 Y150.502 E9.95461
G1 X151.166 Y150.283 E9.9623
G1 X151.198 Y149.898 E9.97515
G1 X151.096 Y149.505 E9.98865
G1 X150.869 Y149.168 E10.00217
G1 X150.541 Y148.926 E10.01573
G1 X150.153 Y148.807 E10.02922
G1 X149.746 Y148.824 E10.04277
G1 X149.369 Y148.975 E10.05628
G1 X149.064 Y149.245 E10.06983
G1 X148.866 Y149.599 E10.08332
G1 X148.797 Y150 E10.09685
G1 X148.866 Y150.401 E10.11038
G1 X149.064 Y150.755 E10.12388
G1 X149.369 Y151.025 E10.13742
G1 X149.746 Y151.176 E10.15093
G1 X150.153 Y151.193 E10.16448
G1 F2700 E5.16448
G0 F6600 X150.144 Y151.393
G0 X150.439 Y151.538
G0 X150.835 Y152.744
G0 X150.85 Y152.618
G1 F2700 E10.16448
G1 F600 X150.6 Y152.362 E10.17638
G1 X150.511 Y152.13 E10.18465
G1 X150.483 Y151.655 E10.20047
G1 X149.909 Y151.671 E10.21957
G1 X149.513 Y151.628 E10.23282
G1 X149.493 Y152.114 E10.249
G1 X149.41 Y152.346 E10.25719
G1 X149.257 Y152.543 E10.26549
G1 X149.149 Y152.617 E10.26984
G1 X149.11 Y152.513 E10.27354
G1 X149.097 Y152.261 E10.28193
G1 X149.161 Y152.023 E10.29013
G1 X149.418 Y151.624 E10.30591
G1 X148.942 Y151.297 E10.32512
G1 X148.649 Y151.031 E10.33828
