;FLAVOR:Marlin
;TIME:2743
;Filament used: 1.21129m
;Layer height: 0.2
;MINX:122.223
;MINY:127.098
;MINZ:0.2
;MAXX:177.854
;MAXY:172.902
;MAXZ:11.4
;Generated with Creality Slicer 4.8.2-191
M140 S50
M105
M190 S50
M104 S200
M105
M109 S200
M82 ;absolute extrusion mode

G28 ;Home

G92 E0 ;Reset Extruder
G1 Z2.0 F3000 ;Move Z Axis up
G1 X10.1 Y20 Z0.28 F5000.0 ;Move to start position
G1 X10.1 Y200.0 Z0.28 F1500.0 E15 ;Draw the first line
G1 X10.4 Y200.0 Z0.28 F5000.0 ;Move to side a little
G1 X10.4 Y20 Z0.28 F1500.0 E30 ;Draw the second line
G92 E0 ;Reset Extruder
G1 Z2.0 F3000 ;Move Z Axis up

G92 E0
G92 E0
G1 F2700 E-5
;LAYER_COUNT:57
;LAYER:0
M107
G0 F6000 X126.457 Y131.178 Z0.2
;TYPE:SKIRT
G1 F2700 E0
G1 F1200 X127.32 Y130.385 E0.03898
G1 X127.486 Y130.248 E0.04614
G1 X127.91 Y129.915 E0.06407
G1 X128.099 Y129.774 E0.07191
G1 X129.126 Y129.095 E0.11286
G1 X129.398 Y128.936 E0.12334
G1 X130.448 Y128.395 E0.16263
G1 X130.671 Y128.295 E0.17076
G1 X131.211 Y128.07 E0.19021
G1 X131.439 Y127.982 E0.19834
G1 X132.657 Y127.592 E0.24088
G1 X133.022 Y127.498 E0.25342
G1 X133.939 Y127.303 E0.2846
G1 X134.558 Y127.216 E0.30539
G1 X134.721 Y127.198 E0.31084
G1 X135.24 Y127.154 E0.32817
G1 X135.607 Y127.131 E0.3404
G1 X135.925 Y127.115 E0.35099
G1 X136.133 Y127.108 E0.35791
G1 X136.41 Y127.102 E0.36712
G1 X136.735 Y127.1 E0.37793
G1 X142.298 Y127.098 E0.56296
G1 X143.493 Y127.1 E0.60271
G1 X162.803 Y127.101 E1.24496
G1 X163.509 Y127.111 E1.26844
G1 X163.843 Y127.121 E1.27956
G1 X164 Y127.128 E1.28478
G1 X164.536 Y127.165 E1.30265
G1 X164.931 Y127.202 E1.31585
G1 X166.14 Y127.384 E1.35651
G1 X166.299 Y127.417 E1.36191
G1 X166.766 Y127.524 E1.37785
G1 X167.137 Y127.618 E1.39058
G1 X168.397 Y128.019 E1.43456
G1 X168.555 Y128.08 E1.44019
G1 X168.93 Y128.233 E1.45366
G1 X169.275 Y128.381 E1.46615
G1 X170.415 Y128.951 E1.50854
G1 X170.57 Y129.04 E1.51448
G1 X170.965 Y129.277 E1.52981
G1 X171.285 Y129.479 E1.54239
G1 X172.275 Y130.184 E1.58282
G1 X172.384 Y130.271 E1.58745
G1 X172.815 Y130.633 E1.60617
G1 X173.121 Y130.904 E1.61977
G1 X173.988 Y131.762 E1.66034
G1 X174.101 Y131.887 E1.66594
G1 X174.408 Y132.242 E1.68155
G1 X174.646 Y132.529 E1.69395
G1 X175.377 Y133.518 E1.73486
G1 X175.478 Y133.672 E1.74098
G1 X175.747 Y134.103 E1.75788
G1 X175.934 Y134.419 E1.7701
G1 X176.492 Y135.494 E1.81038
G1 X176.548 Y135.618 E1.8149
G1 X176.731 Y136.045 E1.83036
G1 X176.88 Y136.416 E1.84365
G1 X177.289 Y137.637 E1.88648
G1 X177.337 Y137.814 E1.89258
G1 X177.446 Y138.255 E1.90769
G1 X177.526 Y138.607 E1.9197
G1 X177.733 Y139.83 E1.96095
G1 X177.755 Y140.028 E1.96758
G1 X177.8 Y140.543 E1.98477
G1 X177.822 Y140.888 E1.99627
G1 X177.842 Y141.324 E2.01079
G1 X177.848 Y141.599 E2.01994
G1 X177.854 Y142.161 E2.03863
G1 X177.853 Y157.849 E2.56041
G1 X177.843 Y158.555 E2.5839
G1 X177.833 Y158.889 E2.59501
G1 X177.826 Y159.046 E2.60024
G1 X177.791 Y159.565 E2.61754
G1 X177.755 Y159.956 E2.6306
G1 X177.569 Y161.193 E2.67221
G1 X177.535 Y161.356 E2.67774
G1 X177.432 Y161.805 E2.69307
G1 X177.339 Y162.173 E2.70569
G1 X176.939 Y163.431 E2.7496
G1 X176.877 Y163.592 E2.75533
G1 X176.721 Y163.976 E2.76912
G1 X176.573 Y164.321 E2.78161
G1 X176.004 Y165.46 E2.82395
G1 X175.907 Y165.629 E2.83043
G1 X175.662 Y166.035 E2.84621
G1 X175.481 Y166.321 E2.85746
G1 X174.771 Y167.317 E2.89815
G1 X174.638 Y167.483 E2.90522
G1 X174.298 Y167.886 E2.92276
G1 X174.064 Y168.151 E2.93452
G1 X173.243 Y168.987 E2.97349
G1 X173.114 Y169.105 E2.9793
G1 X172.718 Y169.45 E2.99677
G1 X172.429 Y169.69 E3.00926
G1 X171.403 Y170.446 E3.05165
G1 X171.274 Y170.53 E3.05677
G1 X170.89 Y170.769 E3.07182
G1 X170.555 Y170.968 E3.08478
G1 X169.416 Y171.558 E3.12744
G1 X169.259 Y171.628 E3.13316
G1 X168.87 Y171.792 E3.1472
G1 X168.523 Y171.931 E3.15963
G1 X167.275 Y172.347 E3.20339
G1 X167.103 Y172.393 E3.20931
G1 X166.676 Y172.498 E3.22393
G1 X166.316 Y172.579 E3.23621
G1 X165.109 Y172.78 E3.2769
G1 X164.919 Y172.801 E3.28326
G1 X164.409 Y172.846 E3.30029
G1 X164.063 Y172.868 E3.31182
G1 X163.767 Y172.883 E3.32168
G1 X163.603 Y172.889 E3.32714
G1 X163.309 Y172.895 E3.33692
G1 X162.795 Y172.9 E3.35401
G1 X143.063 Y172.902 E4.0103
G1 X141.868 Y172.9 E4.05005
G1 X136.954 Y172.9 E4.21349
G1 X136.098 Y172.889 E4.24196
G1 X135.489 Y172.863 E4.26224
G1 X135.303 Y172.85 E4.26844
G1 X134.799 Y172.803 E4.28527
G1 X134.481 Y172.766 E4.29592
G1 X133.384 Y172.582 E4.33292
G1 X133.08 Y172.515 E4.34327
G1 X132.15 Y172.267 E4.37528
G1 X132.08 Y172.245 E4.37772
G1 X131.272 Y171.956 E4.40627
G1 X131.021 Y171.855 E4.41527
G1 X130.544 Y171.65 E4.43253
G1 X130.424 Y171.595 E4.43692
G1 X129.696 Y171.228 E4.46404
G1 X129.482 Y171.11 E4.47217
G1 X128.975 Y170.812 E4.49173
G1 X128.829 Y170.721 E4.49745
G1 X128.028 Y170.172 E4.52975
G1 X127.732 Y169.949 E4.54207
G1 X127.364 Y169.659 E4.55766
G1 X126.663 Y169.037 E4.58883
G1 X126.314 Y168.684 E4.60534
G1 X126.107 Y168.465 E4.61536
G1 X125.851 Y168.185 E4.62798
G1 X125.709 Y168.024 E4.63512
G1 X125.119 Y167.295 E4.66631
G1 X124.78 Y166.81 E4.68599
G1 X124.605 Y166.545 E4.69656
G1 X124.288 Y166.046 E4.71622
G1 X123.822 Y165.232 E4.74742
G1 X123.36 Y164.213 E4.78463
G1 X123.197 Y163.799 E4.79943
G1 X123.06 Y163.433 E4.81242
G1 X122.983 Y163.215 E4.82011
G1 X122.795 Y162.632 E4.84049
G1 X122.685 Y162.255 E4.85355
G1 X122.461 Y161.344 E4.88475
G1 X122.316 Y160.418 E4.91593
G1 X122.247 Y159.398 E4.94993
G1 X122.225 Y158.316 E4.98592
G1 X122.223 Y158.091 E4.99341
G1 X122.225 Y141.396 E5.54869
G1 X122.236 Y140.684 E5.57237
G1 X122.291 Y139.748 E5.60356
G1 X122.425 Y138.82 E5.63474
G1 X122.57 Y138.161 E5.65718
G1 X122.595 Y138.062 E5.66058
G1 X122.715 Y137.624 E5.67568
G1 X122.791 Y137.368 E5.68457
G1 X122.984 Y136.78 E5.70515
G1 X123.12 Y136.406 E5.71839
G1 X123.302 Y135.929 E5.73537
G1 X123.383 Y135.727 E5.74261
G1 X123.769 Y134.872 E5.77381
G1 X124.209 Y134.081 E5.80391
G1 X124.404 Y133.768 E5.81618
G1 X124.604 Y133.457 E5.82848
G1 X124.775 Y133.2 E5.83874
G1 X124.883 Y133.042 E5.84511
G1 X125.445 Y132.291 E5.87631
G1 X125.827 Y131.848 E5.89576
G1 X126.008 Y131.649 E5.90471
G1 X126.28 Y131.359 E5.91793
G1 X126.457 Y131.178 E5.92635
G0 F6000 X126.743 Y131.458
G1 F1200 X127.575 Y130.694 E5.96392
G1 X127.741 Y130.557 E5.97108
G1 X128.15 Y130.236 E5.98837
G1 X128.339 Y130.095 E5.99622
G1 X129.328 Y129.44 E6.03567
G1 X129.6 Y129.281 E6.04615
G1 X130.612 Y128.76 E6.08401
G1 X130.835 Y128.66 E6.09214
G1 X131.355 Y128.443 E6.11088
G1 X131.583 Y128.355 E6.11901
G1 X132.756 Y127.979 E6.15998
G1 X133.121 Y127.885 E6.17251
G1 X134.022 Y127.694 E6.20315
G1 X134.602 Y127.614 E6.22262
G1 X134.765 Y127.596 E6.22807
G1 X135.265 Y127.553 E6.24476
G1 X135.632 Y127.53 E6.25699
G1 X135.938 Y127.515 E6.26718
G1 X136.413 Y127.502 E6.28299
G1 X136.735 Y127.5 E6.2937
G1 X142.298 Y127.498 E6.47873
G1 X143.493 Y127.5 E6.51847
G1 X162.797 Y127.501 E7.16052
G1 X163.503 Y127.511 E7.18401
G1 X163.825 Y127.521 E7.19472
G1 X163.982 Y127.528 E7.19995
G1 X164.499 Y127.563 E7.21719
G1 X164.894 Y127.6 E7.23038
G1 X166.059 Y127.775 E7.26956
G1 X166.218 Y127.808 E7.27496
G1 X166.667 Y127.912 E7.29029
G1 X167.038 Y128.006 E7.30302
G1 X168.253 Y128.392 E7.34542
G1 X168.411 Y128.453 E7.35106
G1 X168.772 Y128.601 E7.36403
G1 X169.117 Y128.749 E7.37652
G1 X170.216 Y129.298 E7.41738
G1 X170.371 Y129.387 E7.42333
G1 X170.751 Y129.615 E7.43806
G1 X171.071 Y129.817 E7.45065
G1 X172.025 Y130.496 E7.4896
G1 X172.134 Y130.583 E7.49424
G1 X172.55 Y130.933 E7.51232
G1 X172.856 Y131.204 E7.52591
G1 X173.691 Y132.031 E7.565
G1 X173.804 Y132.156 E7.57061
G1 X174.1 Y132.498 E7.58565
G1 X174.338 Y132.785 E7.59805
G1 X175.043 Y133.738 E7.63748
G1 X175.144 Y133.892 E7.6436
G1 X175.402 Y134.307 E7.65986
G1 X175.589 Y134.623 E7.67207
G1 X176.128 Y135.658 E7.71088
G1 X176.184 Y135.782 E7.71541
G1 X176.359 Y136.195 E7.73033
G1 X176.508 Y136.566 E7.74362
G1 X176.902 Y137.742 E7.78487
G1 X176.95 Y137.919 E7.79097
G1 X177.056 Y138.344 E7.80554
G1 X177.136 Y138.696 E7.81755
G1 X177.335 Y139.874 E7.85728
G1 X177.357 Y140.072 E7.86391
G1 X177.401 Y140.568 E7.88047
G1 X177.423 Y140.913 E7.89197
G1 X177.442 Y141.338 E7.90612
G1 X177.448 Y141.603 E7.91494
G1 X177.454 Y142.161 E7.9335
G1 X177.453 Y157.843 E8.45508
G1 X177.443 Y158.549 E8.47856
G1 X177.433 Y158.871 E8.48928
G1 X177.426 Y159.028 E8.49451
G1 X177.392 Y159.528 E8.51118
G1 X177.356 Y159.919 E8.52423
G1 X177.178 Y161.111 E8.56432
G1 X177.144 Y161.274 E8.56986
G1 X177.044 Y161.707 E8.58464
G1 X176.951 Y162.075 E8.59726
G1 X176.566 Y163.287 E8.63956
G1 X176.504 Y163.448 E8.6453
G1 X176.353 Y163.818 E8.65859
G1 X176.205 Y164.163 E8.67108
G1 X175.657 Y165.261 E8.71189
G1 X175.56 Y165.43 E8.71837
G1 X175.324 Y165.822 E8.73359
G1 X175.143 Y166.108 E8.74485
G1 X174.458 Y167.067 E8.78405
G1 X174.325 Y167.233 E8.79112
G1 X173.999 Y167.621 E8.80798
G1 X173.765 Y167.886 E8.81973
G1 X172.973 Y168.691 E8.85729
G1 X172.844 Y168.809 E8.86311
G1 X172.462 Y169.143 E8.87999
G1 X172.173 Y169.383 E8.89248
G1 X171.185 Y170.111 E8.9333
G1 X171.056 Y170.195 E8.93842
G1 X170.686 Y170.425 E8.95291
G1 X170.351 Y170.624 E8.96587
G1 X169.254 Y171.192 E9.00696
G1 X169.097 Y171.262 E9.01267
G1 X168.722 Y171.421 E9.02622
G1 X168.375 Y171.56 E9.03865
G1 X167.172 Y171.96 E9.08082
G1 X167 Y172.006 E9.08674
G1 X166.588 Y172.107 E9.10085
G1 X166.228 Y172.188 E9.11312
G1 X165.065 Y172.383 E9.15234
G1 X164.875 Y172.404 E9.1587
G1 X164.384 Y172.447 E9.1751
G1 X164.038 Y172.469 E9.18663
G1 X163.589 Y172.489 E9.20158
G1 X163.305 Y172.495 E9.21102
G1 X162.795 Y172.5 E9.22799
G1 X143.063 Y172.502 E9.88428
G1 X141.868 Y172.5 E9.92402
G1 X136.954 Y172.5 E10.08746
G1 X136.104 Y172.489 E10.11574
G1 X135.517 Y172.464 E10.13528
G1 X135.331 Y172.451 E10.14148
G1 X134.845 Y172.406 E10.15771
G1 X134.527 Y172.369 E10.16836
G1 X133.471 Y172.192 E10.20397
G1 X133.167 Y172.125 E10.21433
G1 X132.27 Y171.885 E10.24521
G1 X132.2 Y171.863 E10.24765
G1 X131.421 Y171.585 E10.27516
G1 X131.17 Y171.484 E10.28416
G1 X130.71 Y171.286 E10.30082
G1 X130.59 Y171.231 E10.30521
G1 X129.889 Y170.877 E10.33133
G1 X129.675 Y170.759 E10.33945
G1 X129.186 Y170.473 E10.3583
G1 X129.04 Y170.382 E10.36402
G1 X128.269 Y169.852 E10.39514
G1 X127.973 Y169.629 E10.40746
G1 X127.617 Y169.349 E10.42253
G1 X126.928 Y168.737 E10.45318
G1 X126.605 Y168.409 E10.46849
G1 X126.398 Y168.19 E10.47851
G1 X126.151 Y167.921 E10.49066
G1 X126.009 Y167.76 E10.4978
G1 X125.431 Y167.043 E10.52843
G1 X125.114 Y166.589 E10.54685
G1 X124.815 Y166.133 E10.56498
G1 X124.626 Y165.833 E10.57678
G1 X124.17 Y165.034 E10.60737
G1 X123.732 Y164.066 E10.64271
G1 X123.569 Y163.652 E10.65751
G1 X123.437 Y163.299 E10.67005
G1 X123.36 Y163.081 E10.67774
G1 X123.179 Y162.52 E10.69734
G1 X123.069 Y162.143 E10.7104
G1 X122.85 Y161.249 E10.74102
G1 X122.709 Y160.339 E10.77165
G1 X122.647 Y159.389 E10.80331
G1 X122.625 Y158.307 E10.8393
G1 X122.623 Y158.091 E10.84649
G1 X122.625 Y141.402 E11.40157
G1 X122.636 Y140.69 E11.42525
G1 X122.69 Y139.771 E11.45587
G1 X122.824 Y138.86 E11.4865
G1 X122.958 Y138.259 E11.50698
G1 X122.983 Y138.16 E11.51037
G1 X123.098 Y137.738 E11.52492
G1 X123.174 Y137.482 E11.5338
G1 X123.36 Y136.915 E11.55365
G1 X123.494 Y136.547 E11.56668
G1 X123.596 Y136.277 E11.57627
G1 X123.755 Y135.876 E11.59062
G1 X124.134 Y135.037 E11.62124
G1 X124.55 Y134.29 E11.64968
G1 X124.74 Y133.985 E11.66163
G1 X124.94 Y133.674 E11.67393
G1 X125.105 Y133.425 E11.68387
G1 X125.213 Y133.267 E11.69023
G1 X125.765 Y132.531 E11.72083
G1 X126.122 Y132.117 E11.73901
G1 X126.303 Y131.918 E11.74796
G1 X126.566 Y131.639 E11.76071
G1 X126.743 Y131.458 E11.76913
G0 F6000 X127.029 Y131.738
G1 F1200 X127.829 Y131.002 E11.80529
G1 X127.995 Y130.865 E11.81245
G1 X128.389 Y130.556 E11.8291
G1 X128.578 Y130.415 E11.83694
G1 X129.529 Y129.785 E11.87488
G1 X129.801 Y129.626 E11.88536
G1 X130.775 Y129.125 E11.92179
G1 X130.998 Y129.025 E11.92992
G1 X131.499 Y128.816 E11.94798
G1 X131.727 Y128.728 E11.95611
G1 X132.856 Y128.366 E11.99554
G1 X133.221 Y128.272 E12.00808
G1 X134.105 Y128.086 E12.03812
G1 X134.645 Y128.012 E12.05625
G1 X134.808 Y127.994 E12.0617
G1 X135.29 Y127.952 E12.0778
G1 X135.657 Y127.929 E12.09003
G1 X135.952 Y127.915 E12.09985
G1 X136.417 Y127.902 E12.11532
G1 X136.735 Y127.9 E12.1259
G1 X142.297 Y127.898 E12.31089
G1 X143.492 Y127.9 E12.35064
G1 X162.791 Y127.901 E12.99252
G1 X163.497 Y127.911 E13.01601
G1 X163.807 Y127.92 E13.02632
G1 X163.964 Y127.927 E13.03155
G1 X164.461 Y127.961 E13.04812
G1 X164.856 Y127.998 E13.06131
G1 X165.978 Y128.167 E13.09905
G1 X166.137 Y128.2 E13.10445
G1 X166.569 Y128.299 E13.1192
G1 X166.94 Y128.393 E13.13193
G1 X168.109 Y128.766 E13.17274
G1 X168.267 Y128.827 E13.17837
G1 X168.614 Y128.968 E13.19083
G1 X168.959 Y129.116 E13.20331
G1 X170.017 Y129.644 E13.24264
G1 X170.172 Y129.733 E13.24859
G1 X170.538 Y129.954 E13.26281
G1 X170.858 Y130.156 E13.27539
G1 X171.776 Y130.809 E13.31286
G1 X171.885 Y130.896 E13.3175
G1 X172.285 Y131.232 E13.33488
G1 X172.591 Y131.503 E13.34847
G1 X173.395 Y132.299 E13.3861
G1 X173.508 Y132.424 E13.39171
G1 X173.793 Y132.753 E13.40618
G1 X174.031 Y133.04 E13.41858
G1 X174.708 Y133.957 E13.4565
G1 X174.809 Y134.111 E13.46262
G1 X175.058 Y134.51 E13.47826
G1 X175.245 Y134.826 E13.49048
G1 X175.763 Y135.823 E13.52785
G1 X175.819 Y135.947 E13.53237
G1 X175.988 Y136.344 E13.54672
G1 X176.137 Y136.715 E13.56002
G1 X176.516 Y137.846 E13.59969
G1 X176.564 Y138.023 E13.60579
G1 X176.666 Y138.432 E13.61981
G1 X176.746 Y138.784 E13.63182
G1 X176.938 Y139.919 E13.6701
G1 X176.96 Y140.117 E13.67673
G1 X177.001 Y140.594 E13.69265
G1 X177.023 Y140.939 E13.70415
G1 X177.042 Y141.353 E13.71794
G1 X177.048 Y141.608 E13.72642
G1 X177.054 Y142.161 E13.74481
G1 X177.053 Y157.837 E14.2662
G1 X177.043 Y158.543 E14.28968
G1 X177.034 Y158.853 E14.3
G1 X177.027 Y159.01 E14.30523
G1 X176.994 Y159.491 E14.32126
G1 X176.958 Y159.882 E14.33432
G1 X176.786 Y161.03 E14.37293
G1 X176.752 Y161.193 E14.37847
G1 X176.656 Y161.609 E14.39267
G1 X176.563 Y161.977 E14.40529
G1 X176.193 Y163.144 E14.44601
G1 X176.131 Y163.305 E14.45175
G1 X175.986 Y163.66 E14.4645
G1 X175.838 Y164.005 E14.47699
G1 X175.31 Y165.062 E14.51629
G1 X175.213 Y165.231 E14.52277
G1 X174.986 Y165.608 E14.53741
G1 X174.805 Y165.894 E14.54866
G1 X174.146 Y166.817 E14.58638
G1 X174.013 Y166.983 E14.59346
G1 X173.699 Y167.356 E14.60968
G1 X173.465 Y167.621 E14.62143
G1 X172.703 Y168.396 E14.65758
G1 X172.574 Y168.514 E14.6634
G1 X172.207 Y168.835 E14.67961
G1 X171.918 Y169.075 E14.69211
G1 X170.967 Y169.776 E14.7314
G1 X170.838 Y169.86 E14.73652
G1 X170.481 Y170.081 E14.75049
G1 X170.146 Y170.28 E14.76345
G1 X169.091 Y170.827 E14.80297
G1 X168.934 Y170.897 E14.80869
G1 X168.573 Y171.05 E14.82173
G1 X168.226 Y171.189 E14.83416
G1 X167.068 Y171.574 E14.87475
G1 X166.896 Y171.62 E14.88067
G1 X166.5 Y171.717 E14.89424
G1 X166.14 Y171.798 E14.90651
G1 X165.022 Y171.985 E14.94421
G1 X164.832 Y172.006 E14.95057
G1 X164.358 Y172.047 E14.96639
G1 X164.012 Y172.069 E14.97792
G1 X163.738 Y172.083 E14.98705
G1 X163.301 Y172.096 E15.00159
G1 X162.795 Y172.1 E15.01842
G1 X143.064 Y172.102 E15.67468
G1 X141.869 Y172.1 E15.71442
G1 X136.954 Y172.1 E15.87789
G1 X136.11 Y172.089 E15.90597
G1 X135.545 Y172.065 E15.92478
G1 X135.359 Y172.052 E15.93098
G1 X134.891 Y172.009 E15.94661
G1 X134.573 Y171.972 E15.95726
G1 X133.557 Y171.801 E15.99153
G1 X133.253 Y171.734 E16.00188
G1 X132.39 Y171.504 E16.03158
G1 X132.32 Y171.482 E16.03403
G1 X131.57 Y171.214 E16.06052
G1 X131.319 Y171.113 E16.06951
G1 X130.877 Y170.922 E16.08553
G1 X130.757 Y170.867 E16.08992
G1 X130.082 Y170.527 E16.11506
G1 X129.868 Y170.409 E16.12319
G1 X129.398 Y170.133 E16.14131
G1 X129.252 Y170.042 E16.14704
G1 X128.509 Y169.533 E16.17699
G1 X128.213 Y169.31 E16.18932
G1 X127.869 Y169.039 E16.20388
G1 X126.895 Y168.135 E16.24808
G1 X126.688 Y167.916 E16.2581
G1 X126.451 Y167.656 E16.2698
G1 X126.309 Y167.495 E16.27694
G1 X125.742 Y166.792 E16.30698
G1 X125.447 Y166.369 E16.32414
G1 X125.272 Y166.104 E16.3347
G1 X124.965 Y165.62 E16.35376
G1 X124.518 Y164.835 E16.38381
G1 X124.104 Y163.92 E16.41721
G1 X123.941 Y163.506 E16.43201
