; HEADER_BLOCK_START
; generated by OrcaSlicer 2.1.1 on 2024-08-24 at 09:26:46
; total layer number: 172
; filament_density: 1.24
; filament_diameter: 1.75
; max_z_height: 13.88
; HEADER_BLOCK_END

; THUMBNAIL_BLOCK_START

;
; THUMBNAIL_BLOCK_END







; external perimeters extrusion width = 0.40mm
; perimeters extrusion width = 0.45mm
; infill extrusion width = 0.45mm
; solid infill extrusion width = 0.45mm
; top infill extrusion width = 0.38mm
; first layer extrusion width = 0.42mm

; EXECUTABLE_BLOCK_START
EXCLUDE_OBJECT_DEFINE NAME=键托十字.STL_id_0_copy_0 CENTER=117.5,114.869 POLYGON=[[115.55,112.919],[119.45,112.919],[119.45,116.819],[115.55,116.819],[115.55,112.919]]
M73 P0 R9
;TYPE:Custom
;ELEGOO NEPTUNE 4 PRO
M220 S100 ;Set the feed speed to 100%
M221 S100 ;Set the flow rate to 100%
M104 S140
M190 S60
G90
G28 ;home
G1 Z10 F300
G1 X67.5 Y0 F6000
G1 Z0 F300
M109 S210
G92 E0 ;Reset Extruder
G1 X67.5 Y0 Z0.4 F300 ;Move to start position
G1 X167.5 E30 F400 ;Draw the first line
G1 Z0.6 F120.0 ;Move to side a little
M73 P3 R9
G1 X162.5 F3000
G92 E0 ;Reset Extruder
G90
G21
M83 ; use relative distances for extrusion
; filament start gcode
M106 S0
;LAYER_CHANGE
;Z:0.2
;HEIGHT:0.2
;BEFORE_LAYER_CHANGE
G92 E0
;0.2


G1 E-.8 F3600
;AFTER_LAYER_CHANGE
;0.2
;_SET_FAN_SPEED_CHANGING_LAYER
SET_VELOCITY_LIMIT ACCEL=1000 ACCEL_TO_DECEL=500
SET_VELOCITY_LIMIT SQUARE_CORNER_VELOCITY=7
; printing object 键托十字.STL id:0 copy 0
EXCLUDE_OBJECT_START NAME=键托十字.STL_id_0_copy_0
G1 X118.386 Y115.755 F21000
G1 Z.4
G1 Z.2
G1 E.8 F2700
;TYPE:Inner wall
;WIDTH:0.419999
G1 F600
G1 X116.614 Y115.755 E.05444
G1 X116.614 Y113.983 E.05444
G1 X118.386 Y113.983 E.05444
G1 X118.386 Y115.715 E.05321
G1 X118.763 Y116.132 F21000
G1 F600
G1 X116.237 Y116.132 E.07761
G1 X116.237 Y113.606 E.07761
G1 X118.763 Y113.606 E.07761
G1 X118.763 Y116.092 E.07638
G1 X119.14 Y116.509 F21000
;TYPE:Outer wall
G1 F600
G1 X115.86 Y116.509 E.10079
G1 X115.86 Y113.229 E.10079
G1 X119.14 Y113.229 E.10079
G1 X119.14 Y116.469 E.09956
G1 E-.68 F3600
;WIPE_START
M73 P4 R9
G1 F3000
G1 X118.14 Y116.481 E-.12
;WIPE_END
G1 X118.273 Y115.009 Z.6 F21000
G1 Z.2
G1 E.8 F2700
;TYPE:Bottom surface
;WIDTH:0.490701
G1 F600
G1 X117.53 Y114.266 E.03832
G1 X116.897 Y114.266 E.0231
G1 X118.103 Y115.472 E.06223
G1 X117.47 Y115.472 E.02311
G1 X116.727 Y114.73 E.03831
; stop printing object 键托十字.STL id:0 copy 0
M106 S255
;LAYER_CHANGE
;Z:0.28
;HEIGHT:0.08
;BEFORE_LAYER_CHANGE
G92 E0
;0.28


G1 E-.68 F3600
;WIPE_START
G1 F4800
G1 X117.434 Y115.437 E-.12
;WIPE_END
EXCLUDE_OBJECT_END NAME=键托十字.STL_id_0_copy_0
;AFTER_LAYER_CHANGE
;0.28
;_SET_FAN_SPEED_CHANGING_LAYER
SET_VELOCITY_LIMIT ACCEL=5000 ACCEL_TO_DECEL=2500
SET_VELOCITY_LIMIT SQUARE_CORNER_VELOCITY=9
M104 S205 ; set nozzle temperature
M140 S60 ; set bed temperature
; printing object 键托十字.STL id:0 copy 0
EXCLUDE_OBJECT_START NAME=键托十字.STL_id_0_copy_0
G1 X118.409 Y115.778 Z.6 F21000
G1 Z.28
G1 E.8 F2700
SET_VELOCITY_LIMIT ACCEL=3000 ACCEL_TO_DECEL=1500 SQUARE_CORNER_VELOCITY=7
;TYPE:Inner wall
;WIDTH:0.449999
G1 F600
G1 X116.591 Y115.778 E.02566
G1 X116.591 Y113.96 E.02566
G1 X118.409 Y113.96 E.02566
G1 X118.409 Y115.738 E.02509
SET_VELOCITY_LIMIT ACCEL=5000 ACCEL_TO_DECEL=2500 SQUARE_CORNER_VELOCITY=9
G1 X118.842 Y116.211 F21000
SET_VELOCITY_LIMIT ACCEL=3000 ACCEL_TO_DECEL=1500 SQUARE_CORNER_VELOCITY=7
G1 F600
G1 X116.158 Y116.211 E.03787
G1 X116.158 Y113.527 E.03787
G1 X118.842 Y113.527 E.03787
G1 X118.842 Y116.171 E.03731
SET_VELOCITY_LIMIT ACCEL=5000 ACCEL_TO_DECEL=2500 SQUARE_CORNER_VELOCITY=9
G1 X119.25 Y116.619 F21000
SET_VELOCITY_LIMIT ACCEL=3000 ACCEL_TO_DECEL=1500 SQUARE_CORNER_VELOCITY=7
;TYPE:Outer wall
;WIDTH:0.399999
G1 F600
G1 X115.75 Y116.619 E.04367
G1 X115.75 Y113.119 E.04367
G1 X119.25 Y113.119 E.04367
G1 X119.25 Y116.579 E.04318
SET_VELOCITY_LIMIT ACCEL=5000 ACCEL_TO_DECEL=2500 SQUARE_CORNER_VELOCITY=9
G1 E-.68 F3600
;WIPE_START
G1 F7200
G1 X118.25 Y116.59 E-.12
;WIPE_END
G1 X117.023 Y115.345 Z.68 F21000
G1 Z.28
G1 E.8 F2700
;TYPE:Internal solid infill
;WIDTH:0.449999
G1 F600
G1 X117.977 Y115.345 E.01345
G1 X117.977 Y114.392 E.01345
G1 X117.023 Y114.392 E.01345
G1 X117.023 Y115.305 E.01288
G1 X117.533 Y114.813 F21000
;WIDTH:0.537354
G1 F600
G1 X117.467 Y114.813 E.0011
G1 X117.435 Y114.869 E.0011
G1 X117.467 Y114.925 E.0011
G1 X117.533 Y114.925 E.0011
G1 X117.545 Y114.904 E.00042
; stop printing object 键托十字.STL id:0 copy 0
;LAYER_CHANGE
;Z:0.36
;HEIGHT:0.08
;BEFORE_LAYER_CHANGE
G92 E0
;0.36


G1 E-.71447 F3600
;WIPE_START
G1 F12000
G1 X117.533 Y114.925 E-.00751
G1 X117.467 Y114.925 E-.01951
G1 X117.435 Y114.869 E-.01951
G1 X117.467 Y114.813 E-.01951
G1 X117.533 Y114.813 E-.01951
;WIPE_END
EXCLUDE_OBJECT_END NAME=键托十字.STL_id_0_copy_0
;AFTER_LAYER_CHANGE
;0.36
;_SET_FAN_SPEED_CHANGING_LAYER
; printing object 键托十字.STL id:0 copy 0
EXCLUDE_OBJECT_START NAME=键托十字.STL_id_0_copy_0
G1 X118.409 Y115.778 Z.68 F21000
G1 Z.36
G1 E.8 F2700
SET_VELOCITY_LIMIT ACCEL=3000 ACCEL_TO_DECEL=1500 SQUARE_CORNER_VELOCITY=7
;TYPE:Inner wall
;WIDTH:0.449999
G1 F600
G1 X116.591 Y115.778 E.02566
G1 X116.591 Y113.96 E.02566
G1 X118.409 Y113.96 E.02566
G1 X118.409 Y115.738 E.02509
SET_VELOCITY_LIMIT ACCEL=5000 ACCEL_TO_DECEL=2500 SQUARE_CORNER_VELOCITY=9
G1 X118.842 Y116.211 F21000
SET_VELOCITY_LIMIT ACCEL=3000 ACCEL_TO_DECEL=1500 SQUARE_CORNER_VELOCITY=7
G1 F600
G1 X116.158 Y116.211 E.03787
G1 X116.158 Y113.527 E.03787
M73 P5 R9
G1 X118.842 Y113.527 E.03787
G1 X118.842 Y116.171 E.03731
SET_VELOCITY_LIMIT ACCEL=5000 ACCEL_TO_DECEL=2500 SQUARE_CORNER_VELOCITY=9
G1 X119.25 Y116.619 F21000
SET_VELOCITY_LIMIT ACCEL=3000 ACCEL_TO_DECEL=1500 SQUARE_CORNER_VELOCITY=7
;TYPE:Outer wall
;WIDTH:0.399999
G1 F600
G1 X115.75 Y116.619 E.04367
G1 X115.75 Y113.119 E.04367
G1 X119.25 Y113.119 E.04367
G1 X119.25 Y116.579 E.04318
SET_VELOCITY_LIMIT ACCEL=5000 ACCEL_TO_DECEL=2500 SQUARE_CORNER_VELOCITY=9
G1 E-.68 F3600
;WIPE_START
G1 F7200
G1 X118.25 Y116.59 E-.12
;WIPE_END
G1 X117.023 Y115.345 Z.76 F21000
G1 Z.36
G1 E.8 F2700
;TYPE:Internal solid infill
;WIDTH:0.449999
G1 F600
G1 X117.977 Y115.345 E.01345
G1 X117.977 Y114.392 E.01345
G1 X117.023 Y114.392 E.01345
G1 X117.023 Y115.305 E.01288
G1 X117.533 Y114.813 F21000
;WIDTH:0.537354
G1 F600
G1 X117.467 Y114.813 E.0011
G1 X117.435 Y114.869 E.0011
G1 X117.467 Y114.925 E.0011
G1 X117.533 Y114.925 E.0011
G1 X117.545 Y114.904 E.00042
; stop printing object 键托十字.STL id:0 copy 0
;LAYER_CHANGE
;Z:0.44
;HEIGHT:0.08
;BEFORE_LAYER_CHANGE
G92 E0
;0.44


G1 E-.71447 F3600
;WIPE_START
G1 F12000
G1 X117.533 Y114.925 E-.00751
G1 X117.467 Y114.925 E-.01951
G1 X117.435 Y114.869 E-.01951
G1 X117.467 Y114.813 E-.01951
G1 X117.533 Y114.813 E-.01951
;WIPE_END
EXCLUDE_OBJECT_END NAME=键托十字.STL_id_0_copy_0
;AFTER_LAYER_CHANGE
;0.44
;_SET_FAN_SPEED_CHANGING_LAYER
; printing object 键托十字.STL id:0 copy 0
EXCLUDE_OBJECT_START NAME=键托十字.STL_id_0_copy_0
G1 X118.409 Y115.778 Z.76 F21000
G1 Z.44
G1 E.8 F2700
SET_VELOCITY_LIMIT ACCEL=3000 ACCEL_TO_DECEL=1500 SQUARE_CORNER_VELOCITY=7
;TYPE:Inner wall
;WIDTH:0.449999
G1 F600
G1 X116.591 Y115.778 E.02566
G1 X116.591 Y113.96 E.02566
G1 X118.409 Y113.96 E.02566
G1 X118.409 Y115.738 E.02509
SET_VELOCITY_LIMIT ACCEL=5000 ACCEL_TO_DECEL=2500 SQUARE_CORNER_VELOCITY=9
G1 X118.842 Y116.211 F21000
SET_VELOCITY_LIMIT ACCEL=3000 ACCEL_TO_DECEL=1500 SQUARE_CORNER_VELOCITY=7
G1 F600
G1 X116.158 Y116.211 E.03787
G1 X116.158 Y113.527 E.03787
G1 X118.842 Y113.527 E.03787
G1 X118.842 Y116.171 E.03731
SET_VELOCITY_LIMIT ACCEL=5000 ACCEL_TO_DECEL=2500 SQUARE_CORNER_VELOCITY=9
G1 X119.25 Y116.619 F21000
SET_VELOCITY_LIMIT ACCEL=3000 ACCEL_TO_DECEL=1500 SQUARE_CORNER_VELOCITY=7
;TYPE:Outer wall
;WIDTH:0.399999
G1 F600
G1 X115.75 Y116.619 E.04367
G1 X115.75 Y113.119 E.04367
G1 X119.25 Y113.119 E.04367
G1 X119.25 Y116.579 E.04318
SET_VELOCITY_LIMIT ACCEL=5000 ACCEL_TO_DECEL=2500 SQUARE_CORNER_VELOCITY=9
M73 P6 R9
G1 E-.68 F3600
;WIPE_START
G1 F7200
G1 X118.25 Y116.59 E-.12
;WIPE_END
G1 X117.023 Y115.345 Z.84 F21000
G1 Z.44
G1 E.8 F2700
;TYPE:Internal solid infill
;WIDTH:0.449999
G1 F600
G1 X117.977 Y115.345 E.01345
G1 X117.977 Y114.392 E.01345
G1 X117.023 Y114.392 E.01345
G1 X117.023 Y115.305 E.01288
G1 X117.533 Y114.813 F21000
;WIDTH:0.537354
G1 F600
G1 X117.467 Y114.813 E.0011
G1 X117.435 Y114.869 E.0011
G1 X117.467 Y114.925 E.0011
G1 X117.533 Y114.925 E.0011
G1 X117.545 Y114.904 E.00042
; stop printing object 键托十字.STL id:0 copy 0
;LAYER_CHANGE
;Z:0.52
;HEIGHT:0.08
;BEFORE_LAYER_CHANGE
G92 E0
;0.52


G1 E-.71447 F3600
;WIPE_START
G1 F12000
G1 X117.533 Y114.925 E-.00751
G1 X117.467 Y114.925 E-.01951
G1 X117.435 Y114.869 E-.01951
G1 X117.467 Y114.813 E-.01951
G1 X117.533 Y114.813 E-.01951
;WIPE_END
EXCLUDE_OBJECT_END NAME=键托十字.STL_id_0_copy_0
;AFTER_LAYER_CHANGE
;0.52
;_SET_FAN_SPEED_CHANGING_LAYER
; printing object 键托十字.STL id:0 copy 0
EXCLUDE_OBJECT_START NAME=键托十字.STL_id_0_copy_0
G1 X118.409 Y115.778 Z.84 F21000
G1 Z.52
G1 E.8 F2700
SET_VELOCITY_LIMIT ACCEL=3000 ACCEL_TO_DECEL=1500 SQUARE_CORNER_VELOCITY=7
;TYPE:Inner wall
;WIDTH:0.449999
G1 F600
G1 X116.591 Y115.778 E.02566
G1 X116.591 Y113.96 E.02566
G1 X118.409 Y113.96 E.02566
G1 X118.409 Y115.738 E.02509
SET_VELOCITY_LIMIT ACCEL=5000 ACCEL_TO_DECEL=2500 SQUARE_CORNER_VELOCITY=9
G1 X118.842 Y116.211 F21000
SET_VELOCITY_LIMIT ACCEL=3000 ACCEL_TO_DECEL=1500 SQUARE_CORNER_VELOCITY=7
G1 F600
G1 X116.158 Y116.211 E.03787
G1 X116.158 Y113.527 E.03787
G1 X118.842 Y113.527 E.03787
G1 X118.842 Y116.171 E.03731
SET_VELOCITY_LIMIT ACCEL=5000 ACCEL_TO_DECEL=2500 SQUARE_CORNER_VELOCITY=9
G1 X119.25 Y116.619 F21000
SET_VELOCITY_LIMIT ACCEL=3000 ACCEL_TO_DECEL=1500 SQUARE_CORNER_VELOCITY=7
;TYPE:Outer wall
;WIDTH:0.399999
G1 F600
G1 X115.75 Y116.619 E.04367
G1 X115.75 Y113.119 E.04367
G1 X119.25 Y113.119 E.04367
G1 X119.25 Y116.579 E.04318
SET_VELOCITY_LIMIT ACCEL=5000 ACCEL_TO_DECEL=2500 SQUARE_CORNER_VELOCITY=9
G1 E-.68 F3600
;WIPE_START
G1 F7200
G1 X118.25 Y116.59 E-.12
;WIPE_END
G1 X117.023 Y115.345 Z.92 F21000
G1 Z.52
G1 E.8 F2700
;TYPE:Internal solid infill
;WIDTH:0.449999
G1 F600
G1 X117.977 Y115.345 E.01345
G1 X117.977 Y114.392 E.01345
G1 X117.023 Y114.392 E.01345
G1 X117.023 Y115.305 E.01288
G1 X117.533 Y114.813 F21000
;WIDTH:0.537354
G1 F600
G1 X117.467 Y114.813 E.0011
G1 X117.435 Y114.869 E.0011
G1 X117.467 Y114.925 E.0011
G1 X117.533 Y114.925 E.0011
G1 X117.545 Y114.904 E.00042
; stop printing object 键托十字.STL id:0 copy 0
;LAYER_CHANGE
;Z:0.6
;HEIGHT:0.08
;BEFORE_LAYER_CHANGE
G92 E0
;0.6


G1 E-.71447 F3600
;WIPE_START
G1 F12000
G1 X117.533 Y114.925 E-.00751
G1 X117.467 Y114.925 E-.01951
G1 X117.435 Y114.869 E-.01951
G1 X117.467 Y114.813 E-.01951
G1 X117.533 Y114.813 E-.01951
;WIPE_END
EXCLUDE_OBJECT_END NAME=键托十字.STL_id_0_copy_0
;AFTER_LAYER_CHANGE
;0.6
;_SET_FAN_SPEED_CHANGING_LAYER
; printing object 键托十字.STL id:0 copy 0
EXCLUDE_OBJECT_START NAME=键托十字.STL_id_0_copy_0
G1 X118.409 Y115.778 Z.92 F21000
G1 Z.6
G1 E.8 F2700
SET_VELOCITY_LIMIT ACCEL=3000 ACCEL_TO_DECEL=1500 SQUARE_CORNER_VELOCITY=7
;TYPE:Inner wall
;WIDTH:0.449999
G1 F600
G1 X116.591 Y115.778 E.02566
G1 X116.591 Y113.96 E.02566
G1 X118.409 Y113.96 E.02566
G1 X118.409 Y115.738 E.02509
SET_VELOCITY_LIMIT ACCEL=5000 ACCEL_TO_DECEL=2500 SQUARE_CORNER_VELOCITY=9
G1 X118.842 Y116.211 F21000
SET_VELOCITY_LIMIT ACCEL=3000 ACCEL_TO_DECEL=1500 SQUARE_CORNER_VELOCITY=7
M73 P7 R9
G1 F600
G1 X116.158 Y116.211 E.03787
G1 X116.158 Y113.527 E.03787
G1 X118.842 Y113.527 E.03787
G1 X118.842 Y116.171 E.03731
SET_VELOCITY_LIMIT ACCEL=5000 ACCEL_TO_DECEL=2500 SQUARE_CORNER_VELOCITY=9
G1 X119.25 Y116.619 F21000
SET_VELOCITY_LIMIT ACCEL=3000 ACCEL_TO_DECEL=1500 SQUARE_CORNER_VELOCITY=7
;TYPE:Outer wall
;WIDTH:0.399999
G1 F600
G1 X115.75 Y116.619 E.04367
G1 X115.75 Y113.119 E.04367
G1 X119.25 Y113.119 E.04367
G1 X119.25 Y116.579 E.04318
SET_VELOCITY_LIMIT ACCEL=5000 ACCEL_TO_DECEL=2500 SQUARE_CORNER_VELOCITY=9
G1 E-.68 F3600
;WIPE_START
G1 F7200
G1 X118.25 Y116.59 E-.12
;WIPE_END
G1 X117.023 Y115.345 Z1 F21000
G1 Z.6
G1 E.8 F2700
;TYPE:Internal solid infill
;WIDTH:0.449999
G1 F600
G1 X117.977 Y115.345 E.01345
G1 X117.977 Y114.392 E.01345
G1 X117.023 Y114.392 E.01345
G1 X117.023 Y115.305 E.01288
G1 X117.533 Y114.813 F21000
;WIDTH:0.537354
G1 F600
G1 X117.467 Y114.813 E.0011
G1 X117.435 Y114.869 E.0011
G1 X117.467 Y114.925 E.0011
G1 X117.533 Y114.925 E.0011
G1 X117.545 Y114.904 E.00042
; stop printing object 键托十字.STL id:0 copy 0
;LAYER_CHANGE
;Z:0.68
;HEIGHT:0.08
;BEFORE_LAYER_CHANGE
G92 E0
;0.68


G1 E-.71447 F3600
;WIPE_START
G1 F12000
G1 X117.533 Y114.925 E-.00751
G1 X117.467 Y114.925 E-.01951
G1 X117.435 Y114.869 E-.01951
G1 X117.467 Y114.813 E-.01951
G1 X117.533 Y114.813 E-.01951
;WIPE_END
EXCLUDE_OBJECT_END NAME=键托十字.STL_id_0_copy_0
;AFTER_LAYER_CHANGE
;0.68
;_SET_FAN_SPEED_CHANGING_LAYER
; printing object 键托十字.STL id:0 copy 0
EXCLUDE_OBJECT_START NAME=键托十字.STL_id_0_copy_0
G1 X118.409 Y115.778 Z1 F21000
G1 Z.68
G1 E.8 F2700
SET_VELOCITY_LIMIT ACCEL=3000 ACCEL_TO_DECEL=1500 SQUARE_CORNER_VELOCITY=7
;TYPE:Inner wall
;WIDTH:0.449999
G1 F600
G1 X116.591 Y115.778 E.02566
G1 X116.591 Y113.96 E.02566
G1 X118.409 Y113.96 E.02566
G1 X118.409 Y115.738 E.02509
SET_VELOCITY_LIMIT ACCEL=5000 ACCEL_TO_DECEL=2500 SQUARE_CORNER_VELOCITY=9
G1 X118.842 Y116.211 F21000
SET_VELOCITY_LIMIT ACCEL=3000 ACCEL_TO_DECEL=1500 SQUARE_CORNER_VELOCITY=7
G1 F600
G1 X116.158 Y116.211 E.03787
G1 X116.158 Y113.527 E.03787
G1 X118.842 Y113.527 E.03787
G1 X118.842 Y116.171 E.03731
SET_VELOCITY_LIMIT ACCEL=5000 ACCEL_TO_DECEL=2500 SQUARE_CORNER_VELOCITY=9
G1 X119.25 Y116.619 F21000
SET_VELOCITY_LIMIT ACCEL=3000 ACCEL_TO_DECEL=1500 SQUARE_CORNER_VELOCITY=7
;TYPE:Outer wall
;WIDTH:0.399999
G1 F600
G1 X115.75 Y116.619 E.04367
G1 X115.75 Y113.119 E.04367
G1 X119.25 Y113.119 E.04367
G1 X119.25 Y116.579 E.04318
SET_VELOCITY_LIMIT ACCEL=5000 ACCEL_TO_DECEL=2500 SQUARE_CORNER_VELOCITY=9
M73 P8 R9
G1 E-.68 F3600
;WIPE_START
G1 F7200
G1 X118.25 Y116.59 E-.12
;WIPE_END
G1 X117.023 Y115.345 Z1.08 F21000
G1 Z.68
G1 E.8 F2700
;TYPE:Internal solid infill
;WIDTH:0.449999
G1 F600
G1 X117.977 Y115.345 E.01345
G1 X117.977 Y114.392 E.01345
G1 X117.023 Y114.392 E.01345
G1 X117.023 Y115.305 E.01288
G1 X117.533 Y114.813 F21000
;WIDTH:0.537354
G1 F600
G1 X117.467 Y114.813 E.0011
G1 X117.435 Y114.869 E.0011
G1 X117.467 Y114.925 E.0011
G1 X117.533 Y114.925 E.0011
G1 X117.545 Y114.904 E.00042
; stop printing object 键托十字.STL id:0 copy 0
;LAYER_CHANGE
;Z:0.76
;HEIGHT:0.08
;BEFORE_LAYER_CHANGE
G92 E0
;0.76


G1 E-.71447 F3600
;WIPE_START
G1 F12000
G1 X117.533 Y114.925 E-.00751
G1 X117.467 Y114.925 E-.01951
G1 X117.435 Y114.869 E-.01951
G1 X117.467 Y114.813 E-.01951
G1 X117.533 Y114.813 E-.01951
;WIPE_END
EXCLUDE_OBJECT_END NAME=键托十字.STL_id_0_copy_0
;AFTER_LAYER_CHANGE
;0.76
;_SET_FAN_SPEED_CHANGING_LAYER
; printing object 键托十字.STL id:0 copy 0
EXCLUDE_OBJECT_START NAME=键托十字.STL_id_0_copy_0
G1 X118.409 Y115.778 Z1.08 F21000
G1 Z.76
G1 E.8 F2700
SET_VELOCITY_LIMIT ACCEL=3000 ACCEL_TO_DECEL=1500 SQUARE_CORNER_VELOCITY=7
;TYPE:Inner wall
;WIDTH:0.449999
G1 F600
G1 X116.591 Y115.778 E.02566
G1 X116.591 Y113.96 E.02566
G1 X118.409 Y113.96 E.02566
G1 X118.409 Y115.738 E.02509
SET_VELOCITY_LIMIT ACCEL=5000 ACCEL_TO_DECEL=2500 SQUARE_CORNER_VELOCITY=9
G1 X118.842 Y116.211 F21000
SET_VELOCITY_LIMIT ACCEL=3000 ACCEL_TO_DECEL=1500 SQUARE_CORNER_VELOCITY=7
G1 F600
G1 X116.158 Y116.211 E.03787
G1 X116.158 Y113.527 E.03787
G1 X118.842 Y113.527 E.03787
G1 X118.842 Y116.171 E.03731
SET_VELOCITY_LIMIT ACCEL=5000 ACCEL_TO_DECEL=2500 SQUARE_CORNER_VELOCITY=9
G1 X119.25 Y116.619 F21000
SET_VELOCITY_LIMIT ACCEL=3000 ACCEL_TO_DECEL=1500 SQUARE_CORNER_VELOCITY=7
;TYPE:Outer wall
;WIDTH:0.399999
G1 F600
G1 X115.75 Y116.619 E.04367
G1 X115.75 Y113.119 E.04367
G1 X119.25 Y113.119 E.04367
G1 X119.25 Y116.579 E.04318
SET_VELOCITY_LIMIT ACCEL=5000 ACCEL_TO_DECEL=2500 SQUARE_CORNER_VELOCITY=9
G1 E-.68 F3600
;WIPE_START
G1 F7200
G1 X118.25 Y116.59 E-.12
;WIPE_END
G1 X117.023 Y115.345 Z1.16 F21000
G1 Z.76
G1 E.8 F2700
;TYPE:Internal solid infill
;WIDTH:0.449999
G1 F600
G1 X117.977 Y115.345 E.01345
