;FLAVOR:Marlin
;TIME:230
;Filament used: 0.103393m
;Layer height: 0.2
;MINX:129.511
;MINY:129.511
;MINZ:0.2
;MAXX:170.489
;MAXY:170.489
;MAXZ:1.4
;Generated with Creality Slicer 4.8.2-191
M140 S50
M105
M190 S50
M104 S200
M105
M109 S200
M82 ;absolute extrusion mode

G28 ;Home

G92 E0 ;Reset Extruder
G1 Z2.0 F3000 ;Move Z Axis up
G1 X10.1 Y20 Z0.28 F5000.0 ;Move to start position
G1 X10.1 Y200.0 Z0.28 F1500.0 E15 ;Draw the first line
G1 X10.4 Y200.0 Z0.28 F5000.0 ;Move to side a little
G1 X10.4 Y20 Z0.28 F1500.0 E30 ;Draw the second line
G92 E0 ;Reset Extruder
G1 Z2.0 F3000 ;Move Z Axis up

G92 E0
G92 E0
G1 F2700 E-5
;LAYER_COUNT:7
;LAYER:0
M107
G0 F6000 X133.509 Y133.418 Z0.2
;TYPE:SKIRT
G1 F2700 E0
G1 F1200 X134.385 Y132.623 E0.03935
G1 X134.573 Y132.47 E0.04741
G1 X135.405 Y131.856 E0.0818
G1 X135.625 Y131.709 E0.0906
G1 X136.718 Y131.066 E0.13278
G1 X136.956 Y130.944 E0.14167
G1 X137.911 Y130.511 E0.17655
G1 X138.15 Y130.416 E0.1851
G1 X139.339 Y130.02 E0.22678
G1 X139.605 Y129.948 E0.23595
G1 X140.721 Y129.707 E0.27392
G1 X140.968 Y129.667 E0.28225
G1 X141.662 Y129.578 E0.30552
G1 X141.734 Y129.571 E0.30792
G1 X142.344 Y129.528 E0.32826
G1 X142.562 Y129.519 E0.33552
G1 X143.2 Y129.512 E0.35674
G1 X144.679 Y129.537 E0.40594
G1 X145.553 Y129.56 E0.43502
G1 X148.08 Y129.553 E0.51907
G1 X149.332 Y129.518 E0.56073
G1 X149.891 Y129.511 E0.57932
G1 X150.194 Y129.512 E0.5894
G1 X151.679 Y129.537 E0.6388
G1 X152.553 Y129.56 E0.66788
G1 X155.08 Y129.553 E0.75192
G1 X156.332 Y129.518 E0.79358
G1 X156.564 Y129.514 E0.8013
G1 X156.98 Y129.511 E0.81514
G1 X157.873 Y129.541 E0.84485
G1 X158.129 Y129.56 E0.85339
G1 X159.2 Y129.693 E0.88929
G1 X159.407 Y129.729 E0.89628
G1 X160.385 Y129.945 E0.92959
G1 X160.641 Y130.014 E0.93841
G1 X161.694 Y130.356 E0.97523
G1 X161.925 Y130.444 E0.98345
G1 X163.043 Y130.942 E1.02416
G1 X163.282 Y131.065 E1.0331
G1 X164.21 Y131.602 E1.06876
G1 X164.41 Y131.731 E1.07668
G1 X165.299 Y132.369 E1.11307
G1 X165.505 Y132.533 E1.12183
G1 X166.391 Y133.32 E1.16124
G1 X166.582 Y133.509 E1.17018
G1 X167.361 Y134.365 E1.20868
G1 X167.509 Y134.546 E1.21645
G1 X168.102 Y135.342 E1.24947
G1 X168.255 Y135.568 E1.25854
G1 X168.943 Y136.734 E1.30357
G1 X169.065 Y136.973 E1.3125
G1 X169.505 Y137.948 E1.34808
G1 X169.599 Y138.187 E1.35662
G1 X169.979 Y139.336 E1.39687
G1 X170.05 Y139.598 E1.4059
G1 X170.289 Y140.702 E1.44347
G1 X170.33 Y140.953 E1.45193
G1 X170.422 Y141.662 E1.4757
G1 X170.429 Y141.734 E1.47811
G1 X170.471 Y142.334 E1.49812
G1 X170.48 Y142.547 E1.50521
G1 X170.488 Y143.205 E1.52709
G1 X170.466 Y144.458 E1.56877
G1 X170.443 Y145.268 E1.59573
G1 X170.441 Y147.78 E1.67928
G1 X170.484 Y149.447 E1.73474
G1 X170.489 Y149.885 E1.74931
G1 X170.488 Y150.204 E1.75992
G1 X170.465 Y151.47 E1.80203
G1 X170.443 Y152.237 E1.82755
G1 X170.441 Y154.78 E1.91213
G1 X170.484 Y156.44 E1.96736
G1 X170.489 Y156.855 E1.98117
G1 X170.488 Y157.221 E1.99334
G1 X170.466 Y157.762 E2.01135
G1 X170.452 Y157.979 E2.01858
G1 X170.334 Y159.028 E2.05369
G1 X170.295 Y159.269 E2.06181
G1 X170.079 Y160.292 E2.09659
G1 X170.015 Y160.537 E2.10501
G1 X169.657 Y161.659 E2.14418
G1 X169.561 Y161.912 E2.15318
G1 X169.073 Y163.012 E2.19321
G1 X168.952 Y163.249 E2.20206
G1 X168.446 Y164.136 E2.23602
G1 X168.33 Y164.319 E2.24323
G1 X167.668 Y165.253 E2.2813
G1 X167.498 Y165.468 E2.29042
G1 X166.725 Y166.344 E2.32928
G1 X166.529 Y166.544 E2.33859
G1 X165.608 Y167.384 E2.38005
G1 X165.427 Y167.531 E2.38781
G1 X164.621 Y168.126 E2.42113
G1 X164.393 Y168.279 E2.43026
G1 X163.3 Y168.925 E2.47249
G1 X163.065 Y169.046 E2.48128
G1 X162.085 Y169.491 E2.51708
G1 X161.843 Y169.587 E2.52574
G1 X160.654 Y169.982 E2.56741
G1 X160.391 Y170.053 E2.57647
G1 X159.304 Y170.288 E2.61346
G1 X159.054 Y170.329 E2.62188
G1 X158.338 Y170.422 E2.6459
G1 X158.266 Y170.429 E2.6483
G1 X157.656 Y170.472 E2.66864
G1 X157.438 Y170.481 E2.6759
G1 X156.791 Y170.488 E2.69742
G1 X155.53 Y170.465 E2.73937
G1 X154.762 Y170.443 E2.76492
G1 X152.221 Y170.441 E2.84944
G1 X150.554 Y170.484 E2.9049
G1 X150.116 Y170.489 E2.91947
G1 X149.798 Y170.488 E2.93005
G1 X148.53 Y170.465 E2.97223
G1 X147.762 Y170.443 E2.99778
G1 X145.221 Y170.441 E3.0823
G1 X143.518 Y170.485 E3.13896
G1 X143.031 Y170.489 E3.15515
G1 X142.216 Y170.465 E3.18227
G1 X142.004 Y170.451 E3.18934
G1 X140.991 Y170.337 E3.22324
G1 X140.741 Y170.297 E3.23167
G1 X139.65 Y170.065 E3.26876
G1 X139.417 Y170.003 E3.27678
G1 X138.362 Y169.664 E3.31364
G1 X138.105 Y169.567 E3.32278
G1 X137.4 Y169.273 E3.34818
G1 X137.339 Y169.245 E3.35041
G1 X136.726 Y168.94 E3.37319
G1 X136.549 Y168.845 E3.37987
G1 X135.819 Y168.416 E3.40803
G1 X135.616 Y168.286 E3.41605
G1 X134.666 Y167.604 E3.45494
G1 X134.459 Y167.438 E3.46377
G1 X133.605 Y166.677 E3.50181
G1 X133.417 Y166.491 E3.51061
G1 X132.603 Y165.592 E3.55095
G1 X132.45 Y165.403 E3.55904
G1 X131.823 Y164.547 E3.59433
G1 X131.669 Y164.314 E3.60362
G1 X131.05 Y163.253 E3.64447
G1 X130.932 Y163.022 E3.6531
G1 X130.472 Y161.995 E3.69053
G1 X130.377 Y161.75 E3.69927
G1 X129.998 Y160.584 E3.74005
G1 X129.929 Y160.323 E3.74902
G1 X129.7 Y159.239 E3.78587
G1 X129.662 Y159 E3.79392
G1 X129.579 Y158.352 E3.81565
G1 X129.572 Y158.281 E3.81802
G1 X129.529 Y157.66 E3.83873
G1 X129.52 Y157.444 E3.84592
G1 X129.512 Y156.794 E3.86754
G1 X129.535 Y155.525 E3.90975
G1 X129.557 Y154.761 E3.93518
G1 X129.559 Y152.22 E4.01969
G1 X129.516 Y150.553 E4.07515
G1 X129.511 Y150.115 E4.08972
G1 X129.512 Y149.796 E4.10033
G1 X129.535 Y148.53 E4.14245
G1 X129.557 Y147.763 E4.16797
G1 X129.559 Y145.22 E4.25255
G1 X129.515 Y143.518 E4.30917
G1 X129.511 Y143.032 E4.32534
G1 X129.539 Y142.154 E4.35456
G1 X129.556 Y141.917 E4.36246
G1 X129.674 Y140.919 E4.39588
G1 X129.711 Y140.694 E4.40347
G1 X129.935 Y139.65 E4.43898
G1 X129.997 Y139.417 E4.447
G1 X130.358 Y138.302 E4.48598
G1 X130.459 Y138.039 E4.49535
G1 X130.915 Y137.013 E4.5327
G1 X131.033 Y136.78 E4.54138
G1 X131.631 Y135.742 E4.58123
G1 X131.764 Y135.538 E4.58933
G1 X132.389 Y134.674 E4.62479
G1 X132.549 Y134.474 E4.63331
G1 X133.32 Y133.609 E4.67185
G1 X133.509 Y133.418 E4.68079
G0 F6000 X133.793 Y133.699
G1 F1200 X134.637 Y132.934 E4.71868
G1 X134.825 Y132.781 E4.72674
G1 X135.627 Y132.188 E4.75991
G1 X135.847 Y132.041 E4.76871
G1 X136.901 Y131.422 E4.80937
G1 X137.139 Y131.3 E4.81826
G1 X138.059 Y130.883 E4.85186
G1 X138.298 Y130.788 E4.86041
G1 X139.443 Y130.406 E4.90056
G1 X139.709 Y130.334 E4.90972
G1 X140.784 Y130.102 E4.9463
G1 X141.031 Y130.062 E4.95462
G1 X141.7 Y129.976 E4.97706
G1 X141.772 Y129.969 E4.97946
G1 X142.361 Y129.928 E4.9991
G1 X142.579 Y129.919 E5.00636
G1 X143.193 Y129.911 E5.02678
G1 X144.669 Y129.937 E5.07588
G1 X145.544 Y129.96 E5.10499
G1 X148.093 Y129.953 E5.18978
G1 X149.344 Y129.918 E5.2314
G1 X149.896 Y129.911 E5.24976
G1 X150.187 Y129.911 E5.25944
G1 X151.669 Y129.937 E5.30874
G1 X152.544 Y129.96 E5.33785
G1 X155.093 Y129.953 E5.42263
G1 X156.344 Y129.918 E5.46426
G1 X156.567 Y129.914 E5.47167
G1 X156.983 Y129.911 E5.48551
G1 X157.844 Y129.94 E5.51416
G1 X158.1 Y129.959 E5.5227
G1 X159.131 Y130.087 E5.55726
G1 X159.338 Y130.123 E5.56425
G1 X160.281 Y130.331 E5.59636
G1 X160.537 Y130.4 E5.60518
G1 X161.552 Y130.729 E5.64067
G1 X161.783 Y130.817 E5.64889
G1 X162.86 Y131.298 E5.68812
G1 X163.099 Y131.421 E5.69706
G1 X163.994 Y131.938 E5.73144
G1 X164.194 Y132.067 E5.73936
G1 X165.05 Y132.682 E5.77441
G1 X165.256 Y132.846 E5.78317
G1 X166.11 Y133.604 E5.82115
G1 X166.301 Y133.793 E5.83009
G1 X167.051 Y134.618 E5.86717
G1 X167.199 Y134.799 E5.87495
G1 X167.771 Y135.567 E5.9068
G1 X167.924 Y135.793 E5.91587
G1 X168.587 Y136.916 E5.95925
G1 X168.709 Y137.155 E5.96817
G1 X169.132 Y138.094 E6.00243
G1 X169.226 Y138.333 E6.01097
G1 X169.593 Y139.44 E6.04976
G1 X169.664 Y139.702 E6.05879
G1 X169.894 Y140.766 E6.09499
G1 X169.935 Y141.017 E6.10345
G1 X170.024 Y141.7 E6.12636
G1 X170.031 Y141.772 E6.12877
G1 X170.072 Y142.351 E6.14807
G1 X170.081 Y142.564 E6.15516
G1 X170.088 Y143.198 E6.17625
G1 X170.066 Y144.446 E6.21777
G1 X170.043 Y145.256 E6.24472
G1 X170.041 Y147.79 E6.329
G1 X170.084 Y149.452 E6.3843
G1 X170.089 Y149.89 E6.39887
G1 X170.088 Y150.197 E6.40908
G1 X170.066 Y151.458 E6.45102
G1 X170.043 Y152.26 E6.47771
G1 X170.041 Y154.79 E6.56186
G1 X170.084 Y156.445 E6.61692
G1 X170.089 Y156.86 E6.63073
G1 X170.088 Y157.215 E6.64253
G1 X170.067 Y157.736 E6.65988
G1 X170.053 Y157.953 E6.66711
G1 X169.939 Y158.964 E6.70095
G1 X169.9 Y159.205 E6.70907
G1 X169.692 Y160.191 E6.74258
G1 X169.628 Y160.436 E6.75101
G1 X169.283 Y161.518 E6.78878
G1 X169.187 Y161.771 E6.79778
G1 X168.717 Y162.83 E6.83631
G1 X168.596 Y163.067 E6.84517
G1 X168.108 Y163.922 E6.87791
G1 X167.992 Y164.105 E6.88512
G1 X167.354 Y165.004 E6.92178
G1 X167.184 Y165.219 E6.9309
G1 X166.44 Y166.064 E6.96834
G1 X166.244 Y166.264 E6.97766
G1 X165.356 Y167.073 E7.01761
G1 X165.175 Y167.22 E7.02537
G1 X164.399 Y167.794 E7.05747
G1 X164.171 Y167.947 E7.0666
G1 X163.116 Y168.569 E7.10734
G1 X162.881 Y168.69 E7.11613
G1 X161.938 Y169.119 E7.15058
G1 X161.696 Y169.215 E7.15924
G1 X160.55 Y169.596 E7.19941
G1 X160.287 Y169.667 E7.20847
G1 X159.239 Y169.893 E7.24413
G1 X158.989 Y169.934 E7.25256
G1 X158.3 Y170.024 E7.27567
G1 X158.228 Y170.031 E7.27807
G1 X157.639 Y170.072 E7.29771
G1 X157.421 Y170.081 E7.30497
G1 X156.798 Y170.088 E7.32569
G1 X155.542 Y170.066 E7.36747
G1 X154.739 Y170.043 E7.39419
G1 X152.211 Y170.041 E7.47827
G1 X150.549 Y170.084 E7.53357
G1 X150.111 Y170.089 E7.54814
G1 X149.805 Y170.088 E7.55831
G1 X148.542 Y170.066 E7.60033
G1 X147.739 Y170.043 E7.62705
G1 X145.211 Y170.041 E7.71113
G1 X143.515 Y170.085 E7.76756
G1 X143.028 Y170.089 E7.78376
G1 X142.243 Y170.066 E7.80988
G1 X142.031 Y170.052 E7.81694
G1 X141.054 Y169.942 E7.84964
G1 X140.804 Y169.902 E7.85806
G1 X139.753 Y169.679 E7.8938
G1 X139.52 Y169.617 E7.90182
G1 X138.503 Y169.29 E7.93735
G1 X138.246 Y169.193 E7.94649
G1 X137.567 Y168.91 E7.97095
G1 X137.506 Y168.882 E7.97318
G1 X136.915 Y168.588 E7.99514
G1 X136.738 Y168.493 E8.00182
G1 X136.035 Y168.079 E8.02896
G1 X135.832 Y167.949 E8.03697
G1 X134.916 Y167.292 E8.07447
G1 X134.709 Y167.126 E8.08329
G1 X133.886 Y166.392 E8.11997
G1 X133.698 Y166.206 E8.12876
G1 X132.914 Y165.341 E8.16759
G1 X132.761 Y165.152 E8.17568
G1 X132.157 Y164.327 E8.20969
G1 X132.003 Y164.094 E8.21898
G1 X131.406 Y163.071 E8.25837
G1 X131.288 Y162.84 E8.267
G1 X130.845 Y161.85 E8.30307
G1 X130.75 Y161.605 E8.31181
G1 X130.385 Y160.482 E8.35109
G1 X130.316 Y160.221 E8.36007
G1 X130.095 Y159.176 E8.39559
G1 X130.057 Y158.937 E8.40364
G1 X129.977 Y158.313 E8.42457
G1 X129.97 Y158.242 E8.42694
G1 X129.928 Y157.643 E8.44691
G1 X129.919 Y157.427 E8.4541
G1 X129.912 Y156.801 E8.47492
G1 X129.934 Y155.536 E8.517
G1 X129.957 Y154.737 E8.54359
G1 X129.959 Y152.21 E8.62764
G1 X129.916 Y150.548 E8.68294
G1 X129.911 Y150.11 E8.6975
G1 X129.912 Y149.803 E8.70772
G1 X129.934 Y148.542 E8.74966
G1 X129.957 Y147.74 E8.77635
G1 X129.959 Y145.21 E8.8605
G1 X129.915 Y143.514 E8.91692
G1 X129.911 Y143.028 E8.93309
G1 X129.938 Y142.183 E8.96121
G1 X129.955 Y141.946 E8.96911
G1 X130.068 Y140.984 E9.00133
G1 X130.105 Y140.759 E9.00891
G1 X130.321 Y139.753 E9.04313
G1 X130.383 Y139.52 E9.05115
G1 X130.732 Y138.446 E9.08871
G1 X130.833 Y138.183 E9.09808
G1 X131.272 Y137.194 E9.13407
G1 X131.39 Y136.961 E9.14276
G1 X131.966 Y135.961 E9.18114
G1 X132.099 Y135.757 E9.18924
G1 X132.702 Y134.924 E9.22345
G1 X132.862 Y134.724 E9.23196
G1 X133.604 Y133.89 E9.26909
G1 X133.793 Y133.699 E9.27803
G0 F6000 X134.078 Y133.981
G1 F1200 X134.89 Y133.244 E9.3145
G1 X135.078 Y133.091 E9.32256
G1 X135.849 Y132.521 E9.35446
G1 X136.069 Y132.374 E9.36326
G1 X137.083 Y131.778 E9.40238
G1 X137.321 Y131.656 E9.41127
G1 X138.206 Y131.254 E9.4436
G1 X138.445 Y131.159 E9.45215
G1 X139.548 Y130.792 E9.49082
G1 X139.814 Y130.72 E9.49998
G1 X140.848 Y130.497 E9.53517
G1 X141.095 Y130.457 E9.54349
G1 X141.739 Y130.374 E9.56508
G1 X141.811 Y130.367 E9.56749
G1 X142.377 Y130.328 E9.58636
G1 X142.595 Y130.319 E9.59362
G1 X143.186 Y130.311 E9.61328
G1 X144.658 Y130.336 E9.66224
G1 X145.569 Y130.36 E9.69255
G1 X148.105 Y130.353 E9.7769
G1 X149.355 Y130.318 E9.81849
G1 X149.9 Y130.311 E9.83662
G1 X150.181 Y130.311 E9.84597
G1 X151.658 Y130.336 E9.8951
G1 X152.569 Y130.36 E9.92541
G1 X155.105 Y130.353 E10.00976
G1 X156.355 Y130.318 E10.05135
G1 X156.569 Y130.314 E10.05847
G1 X156.985 Y130.311 E10.0723
G1 X157.814 Y130.339 E10.09989
G1 X158.07 Y130.358 E10.10843
G1 X159.063 Y130.481 E10.14171
G1 X159.27 Y130.517 E10.1487
G1 X160.176 Y130.717 E10.17956
G1 X160.432 Y130.786 E10.18838
G1 X161.409 Y131.103 E10.22254
G1 X161.64 Y131.191 E10.23076
G1 X162.677 Y131.654 E10.26853
G1 X162.916 Y131.777 E10.27747
G1 X163.777 Y132.274 E10.31054
G1 X163.977 Y132.403 E10.31845
G1 X164.801 Y132.995 E10.3522
G1 X165.007 Y133.159 E10.36096
G1 X165.828 Y133.889 E10.3975
G1 X166.019 Y134.078 E10.40643
G1 X166.741 Y134.871 E10.4421
G1 X166.889 Y135.052 E10.44988
G1 X167.439 Y135.791 E10.48052
G1 X167.592 Y136.017 E10.4896
G1 X168.231 Y137.098 E10.53136
G1 X168.353 Y137.337 E10.54029
G1 X168.76 Y138.241 E10.57326
G1 X168.854 Y138.48 E10.5818
G1 X169.207 Y139.545 E10.61912
G1 X169.278 Y139.807 E10.62815
G1 X169.5 Y140.831 E10.663
G1 X169.541 Y141.082 E10.67146
G1 X169.626 Y141.739 E10.69349
G1 X169.633 Y141.811 E10.6959
G1 X169.672 Y142.367 E10.71444
G1 X169.681 Y142.58 E10.72153
G1 X169.688 Y143.191 E10.74185
G1 X169.666 Y144.435 E10.78323
G1 X169.643 Y145.245 E10.81018
G1 X169.641 Y147.801 E10.8952
G1 X169.684 Y149.457 E10.95029
G1 X169.689 Y149.895 E10.96486
G1 X169.688 Y150.19 E10.97468
G1 X169.666 Y151.447 E11.01649
G1 X169.643 Y152.249 E11.04318
G1 X169.641 Y154.801 E11.12806
G1 X169.684 Y156.45 E11.18292
G1 X169.689 Y156.865 E11.19672
G1 X169.688 Y157.209 E11.20817
G1 X169.668 Y157.711 E11.22488
G1 X169.654 Y157.928 E11.23211
G1 X169.544 Y158.9 E11.26464
G1 X169.505 Y159.141 E11.27276
G1 X169.305 Y160.09 E11.30502
G1 X169.241 Y160.335 E11.31344
G1 X168.909 Y161.376 E11.34978
G1 X168.813 Y161.629 E11.35878
G1 X168.361 Y162.648 E11.39586
G1 X168.24 Y162.885 E11.40471
G1 X167.77 Y163.708 E11.43623
G1 X167.654 Y163.891 E11.44344
G1 X167.04 Y164.756 E11.47872
G1 X166.87 Y164.971 E11.48784
G1 X166.154 Y165.784 E11.52387
G1 X165.958 Y165.984 E11.53318
G1 X165.103 Y166.763 E11.57165
G1 X164.922 Y166.91 E11.57941
G1 X164.176 Y167.462 E11.61028
G1 X163.948 Y167.615 E11.61941
G1 X162.933 Y168.213 E11.65859
G1 X162.698 Y168.334 E11.66738
G1 X161.79 Y168.747 E11.70056
G1 X161.548 Y168.843 E11.70922
G1 X160.445 Y169.209 E11.74787
G1 X160.182 Y169.28 E11.75693
G1 X159.175 Y169.499 E11.79121
G1 X158.925 Y169.54 E11.79963
G1 X158.261 Y169.626 E11.8219
G1 X158.189 Y169.633 E11.82431
G1 X157.623 Y169.672 E11.84318
G1 X157.405 Y169.681 E11.85044
G1 X156.805 Y169.688 E11.87039
G1 X155.554 Y169.666 E11.91201
G1 X154.751 Y169.643 E11.93873
G1 X152.2 Y169.641 E12.02357
G1 X150.544 Y169.684 E12.07867
G1 X150.106 Y169.689 E12.09324
G1 X149.812 Y169.688 E12.10302
G1 X148.554 Y169.666 E12.14487
G1 X147.751 Y169.643 E12.17158
G1 X145.2 Y169.641 E12.25643
G1 X143.512 Y169.685 E12.31259
G1 X143.025 Y169.689 E12.32879
G1 X142.269 Y169.667 E12.35395
G1 X142.057 Y169.653 E12.36101
G1 X141.117 Y169.547 E12.39248
G1 X140.867 Y169.507 E12.4009
G1 X139.856 Y169.292 E12.43528
G1 X139.623 Y169.23 E12.44329
G1 X138.644 Y168.916 E12.47749
G1 X138.387 Y168.819 E12.48663
G1 X137.734 Y168.546 E12.51017
G1 X137.673 Y168.518 E12.5124
G1 X137.104 Y168.235 E12.53354
G1 X136.927 Y168.14 E12.54022
G1 X136.25 Y167.743 E12.56632
G1 X136.047 Y167.613 E12.57434
G1 X135.167 Y166.98 E12.61039
G1 X134.96 Y166.814 E12.61922
G1 X134.167 Y166.108 E12.65453
G1 X133.979 Y165.922 E12.66333
G1 X133.225 Y165.089 E12.7007
G1 X133.072 Y164.9 E12.70879
G1 X132.491 Y164.106 E12.74151
G1 X132.337 Y163.873 E12.7508
G1 X131.763 Y162.889 E12.78869
G1 X131.645 Y162.658 E12.79731
G1 X131.218 Y161.706 E12.83202
G1 X131.123 Y161.461 E12.84076
G1 X130.772 Y160.38 E12.87856
G1 X130.703 Y160.119 E12.88754
G1 X130.491 Y159.114 E12.9217
G1 X130.453 Y158.875 E12.92975
G1 X130.375 Y158.274 E12.94991
