;FLAVOR:Marlin
;TIME:1555
;Filament used: 0.669692m
;Layer height: 0.2
;MINX:130.5
;MINY:131
;MINZ:0.2
;MAXX:169.5
;MAXY:169
;MAXZ:23.6
;Generated with Creality Slicer 4.8.2-191
M140 S50
M105
M190 S50
M104 S200
M105
M109 S200
M82 ;absolute extrusion mode

G28 ;Home

G92 E0 ;Reset Extruder
G1 Z2.0 F3000 ;Move Z Axis up
G1 X10.1 Y20 Z0.28 F5000.0 ;Move to start position
G1 X10.1 Y200.0 Z0.28 F1500.0 E15 ;Draw the first line
G1 X10.4 Y200.0 Z0.28 F5000.0 ;Move to side a little
G1 X10.4 Y20 Z0.28 F1500.0 E30 ;Draw the second line
G92 E0 ;Reset Extruder
G1 Z2.0 F3000 ;Move Z Axis up

G92 E0
G92 E0
G1 F2700 E-5
;LAYER_COUNT:118
;LAYER:0
M107
G0 F6000 X138.188 Y134.274 Z0.2
;TYPE:SKIRT
G1 F2700 E0
G1 F1200 X138.875 Y133.636 E0.03118
G1 X139.614 Y133.059 E0.06237
G1 X140.4 Y132.547 E0.09357
G1 X141.226 Y132.104 E0.12474
G1 X142.088 Y131.732 E0.15597
G1 X142.977 Y131.436 E0.18713
G1 X143.889 Y131.216 E0.21834
G1 X144.816 Y131.075 E0.24952
G1 X145.667 Y131.015 E0.2779
G1 X145.989 Y131.005 E0.28861
G1 X146.33 Y131 E0.29995
G1 X153.293 Y131 E0.53154
G1 X154.152 Y131.011 E0.56012
G1 X155.088 Y131.064 E0.5913
G1 X156.016 Y131.197 E0.62248
G1 X156.93 Y131.409 E0.65369
G1 X157.823 Y131.697 E0.68489
G1 X158.687 Y132.061 E0.71608
G1 X159.518 Y132.497 E0.74729
G1 X160.308 Y133.002 E0.77847
G1 X161.052 Y133.572 E0.80965
G1 X161.745 Y134.204 E0.84084
G1 X162.382 Y134.893 E0.87205
G1 X162.927 Y135.589 E0.90145
G1 X163.267 Y136.065 E0.92091
G1 X164.269 Y137.502 E0.97918
G1 X164.887 Y138.339 E1.01378
G1 X165.429 Y139.094 E1.04469
G1 X165.934 Y139.864 E1.07532
G1 X166.408 Y140.659 E1.10611
G1 X167.432 Y142.415 E1.17371
G1 X167.895 Y143.179 E1.20343
G1 X168.347 Y144.001 E1.23463
G1 X168.727 Y144.858 E1.26581
G1 X169.033 Y145.745 E1.29702
G1 X169.262 Y146.654 E1.32819
G1 X169.412 Y147.58 E1.3594
G1 X169.484 Y148.518 E1.39068
G1 X169.494 Y148.9 E1.40339
G1 X169.5 Y149.443 E1.42146
G1 X169.499 Y150.567 E1.45884
G1 X169.489 Y151.27 E1.48222
G1 X169.436 Y152.207 E1.51344
G1 X169.303 Y153.135 E1.54462
G1 X169.091 Y154.049 E1.57583
G1 X168.803 Y154.941 E1.607
G1 X168.439 Y155.806 E1.63822
G1 X168.171 Y156.336 E1.65797
G1 X167.725 Y157.163 E1.68922
G1 X166.46 Y159.589 E1.78022
G1 X166.31 Y159.886 E1.79129
G1 X165.852 Y160.704 E1.82247
G1 X165.326 Y161.48 E1.85365
G1 X164.96 Y161.947 E1.87338
G1 X164.143 Y162.932 E1.91595
G1 X162.63 Y164.808 E1.99611
G1 X162.382 Y165.105 E2.00898
G1 X162.304 Y165.195 E2.01294
G1 X161.66 Y165.877 E2.04414
G1 X160.96 Y166.502 E2.07535
G1 X160.21 Y167.064 E2.10652
G1 X159.414 Y167.561 E2.13773
G1 X158.579 Y167.988 E2.16892
G1 X157.711 Y168.343 E2.20011
G1 X156.816 Y168.622 E2.2313
G1 X155.9 Y168.824 E2.26249
G1 X154.97 Y168.947 E2.2937
G1 X154.299 Y168.987 E2.31605
G1 X153.978 Y168.996 E2.32673
G1 X153.67 Y169 E2.33698
G1 X146.55 Y168.999 E2.57379
G1 X145.849 Y168.989 E2.59711
G1 X144.913 Y168.936 E2.62829
G1 X143.984 Y168.803 E2.6595
G1 X143.071 Y168.591 E2.69068
G1 X142.178 Y168.303 E2.72189
G1 X141.314 Y167.939 E2.75307
G1 X140.483 Y167.503 E2.78428
G1 X139.693 Y166.998 E2.81547
G1 X138.949 Y166.428 E2.84664
G1 X138.256 Y165.796 E2.87783
G1 X137.46 Y164.915 E2.91732
G1 X136.494 Y163.722 E2.96838
G1 X136.297 Y163.472 E2.97897
G1 X135.882 Y162.975 E3.0005
G1 X135.006 Y161.908 E3.04642
G1 X134.443 Y161.158 E3.07761
G1 X133.778 Y160.06 E3.12031
G1 X133.596 Y159.713 E3.13334
G1 X132.606 Y157.784 E3.20545
G1 X132.281 Y157.19 E3.22797
G1 X131.798 Y156.281 E3.26221
G1 X131.394 Y155.435 E3.29339
G1 X131.063 Y154.558 E3.32457
G1 X130.808 Y153.655 E3.35578
G1 X130.631 Y152.734 E3.38697
G1 X130.523 Y151.619 E3.42423
G1 X130.516 Y151.465 E3.42936
G1 X130.506 Y151.1 E3.4415
G1 X130.5 Y150.557 E3.45956
G1 X130.501 Y149.433 E3.49695
G1 X130.511 Y148.728 E3.5204
G1 X130.564 Y147.792 E3.55158
G1 X130.697 Y146.863 E3.58279
G1 X130.909 Y145.949 E3.614
G1 X131.197 Y145.057 E3.64518
G1 X131.561 Y144.193 E3.67636
G1 X132.11 Y143.189 E3.71442
G1 X132.103 Y143.185 E3.71469
G1 X133.529 Y140.791 E3.80737
G1 X133.972 Y140.021 E3.83691
G1 X134.671 Y138.955 E3.87931
G1 X134.88 Y138.673 E3.89099
G1 X136.419 Y136.53 E3.97874
G1 X136.988 Y135.714 E4.01183
G1 X137.557 Y134.969 E4.043
G1 X138.188 Y134.274 E4.07423
G0 F6000 X138.496 Y134.532
G1 F1200 X139.173 Y133.908 E4.10485
G1 X139.902 Y133.345 E4.13548
G1 X140.677 Y132.848 E4.16611
G1 X141.492 Y132.42 E4.19672
G1 X142.341 Y132.064 E4.22734
G1 X143.218 Y131.784 E4.25796
G1 X144.116 Y131.58 E4.28859
G1 X145.028 Y131.455 E4.31921
G1 X145.679 Y131.415 E4.3409
G1 X146.001 Y131.405 E4.35162
G1 X146.33 Y131.4 E4.36256
G1 X153.293 Y131.4 E4.59415
G1 X154.146 Y131.411 E4.62252
G1 X155.065 Y131.464 E4.65314
G1 X155.976 Y131.597 E4.68376
G1 X156.872 Y131.808 E4.71438
G1 X157.747 Y132.096 E4.74502
G1 X158.593 Y132.459 E4.77564
G1 X159.404 Y132.894 E4.80625
G1 X160.175 Y133.398 E4.83688
G1 X160.899 Y133.966 E4.86749
G1 X161.571 Y134.596 E4.89813
G1 X162.185 Y135.281 E4.92872
G1 X162.602 Y135.823 E4.95147
G1 X162.939 Y136.294 E4.97073
G1 X163.952 Y137.747 E5.02964
G1 X164.562 Y138.572 E5.06377
G1 X165.104 Y139.327 E5.09468
G1 X165.591 Y140.069 E5.1242
G1 X166.063 Y140.86 E5.15484
G1 X167.102 Y142.643 E5.22347
G1 X167.553 Y143.386 E5.25238
G1 X167.996 Y144.193 E5.283
G1 X168.367 Y145.036 E5.31363
G1 X168.664 Y145.908 E5.34427
G1 X168.883 Y146.802 E5.37489
G1 X169.025 Y147.711 E5.40549
G1 X169.084 Y148.531 E5.43283
G1 X169.094 Y148.904 E5.44524
G1 X169.1 Y149.443 E5.46317
G1 X169.099 Y150.562 E5.50039
G1 X169.089 Y151.265 E5.52377
G1 X169.036 Y152.184 E5.55439
G1 X168.903 Y153.095 E5.58501
G1 X168.692 Y153.991 E5.61563
G1 X168.404 Y154.865 E5.64623
G1 X168.041 Y155.712 E5.67688
G1 X167.819 Y156.146 E5.6931
G1 X167.361 Y156.995 E5.72518
G1 X166.122 Y159.371 E5.81431
G1 X165.953 Y159.706 E5.82679
G1 X165.503 Y160.508 E5.85737
G1 X164.984 Y161.269 E5.88801
G1 X164.652 Y161.691 E5.90587
G1 X163.888 Y162.612 E5.94567
G1 X162.319 Y164.557 E6.02878
G1 X162.079 Y164.843 E6.0412
G1 X162.001 Y164.933 E6.04516
G1 X161.369 Y165.602 E6.07577
G1 X160.68 Y166.214 E6.10642
G1 X159.942 Y166.763 E6.13702
G1 X159.158 Y167.246 E6.16764
G1 X158.336 Y167.66 E6.19826
G1 X157.48 Y168 E6.22889
G1 X156.598 Y168.265 E6.25952
G1 X155.697 Y168.453 E6.29013
G1 X154.783 Y168.561 E6.32075
G1 X154.288 Y168.587 E6.33723
G1 X153.967 Y168.596 E6.34791
G1 X153.67 Y168.6 E6.35779
G1 X146.556 Y168.599 E6.5944
G1 X145.855 Y168.589 E6.61772
G1 X144.936 Y168.536 E6.64834
G1 X144.025 Y168.403 E6.67896
G1 X143.129 Y168.192 E6.70958
G1 X142.254 Y167.904 E6.74021
G1 X141.408 Y167.541 E6.77083
G1 X140.597 Y167.106 E6.80144
G1 X139.826 Y166.602 E6.83208
G1 X139.102 Y166.033 E6.86271
G1 X138.43 Y165.404 E6.89332
G1 X137.77 Y164.663 E6.92632
G1 X136.808 Y163.474 E6.97719
G1 X136.617 Y163.232 E6.98745
G1 X136.191 Y162.721 E7.00958
G1 X135.315 Y161.654 E7.05549
G1 X134.763 Y160.918 E7.08609
G1 X134.132 Y159.873 E7.12669
G1 X133.952 Y159.53 E7.13958
G1 X132.963 Y157.602 E7.21165
G1 X132.634 Y157.003 E7.23438
G1 X132.151 Y156.094 E7.26861
G1 X131.755 Y155.263 E7.29923
G1 X131.432 Y154.401 E7.32985
G1 X131.186 Y153.514 E7.36046
G1 X131.017 Y152.608 E7.39112
G1 X130.923 Y151.601 E7.42475
G1 X130.916 Y151.447 E7.42988
G1 X130.906 Y151.096 E7.44156
G1 X130.9 Y150.557 E7.45949
G1 X130.901 Y149.439 E7.49667
G1 X130.911 Y148.734 E7.52012
G1 X130.964 Y147.815 E7.55074
G1 X131.097 Y146.903 E7.5814
G1 X131.308 Y146.007 E7.61201
G1 X131.596 Y145.133 E7.64262
G1 X131.959 Y144.287 E7.67324
G1 X132.453 Y143.393 E7.70721
G1 X132.447 Y143.39 E7.70743
G1 X133.877 Y140.99 E7.80035
G1 X134.319 Y140.221 E7.82985
G1 X134.992 Y139.193 E7.87072
G1 X135.214 Y138.894 E7.88311
G1 X136.751 Y136.752 E7.97079
G1 X137.316 Y135.943 E8.00361
G1 X137.875 Y135.212 E8.03422
G1 X138.496 Y134.532 E8.06485
G0 F6000 X138.804 Y134.789
G1 F1200 X139.471 Y134.18 E8.09489
G1 X140.189 Y133.633 E8.12491
G1 X140.952 Y133.151 E8.15493
G1 X141.756 Y132.739 E8.18498
G1 X142.593 Y132.399 E8.21502
G1 X143.456 Y132.134 E8.24505
G1 X144.34 Y131.947 E8.2751
G1 X145.236 Y131.839 E8.30512
G1 X145.691 Y131.815 E8.32027
G1 X146.013 Y131.805 E8.33099
G1 X146.33 Y131.8 E8.34153
G1 X153.293 Y131.8 E8.57312
G1 X154.14 Y131.811 E8.6013
G1 X155.042 Y131.864 E8.63135
G1 X155.935 Y131.996 E8.66137
G1 X156.813 Y132.207 E8.69141
G1 X157.669 Y132.495 E8.72145
G1 X158.497 Y132.857 E8.7515
G1 X159.289 Y133.291 E8.78154
G1 X160.039 Y133.794 E8.81158
G1 X160.742 Y134.36 E8.8416
G1 X161.392 Y134.987 E8.87163
G1 X161.984 Y135.669 E8.90167
G1 X162.277 Y136.056 E8.91782
G1 X162.611 Y136.522 E8.93688
G1 X163.63 Y137.984 E8.99616
G1 X164.237 Y138.806 E9.03014
G1 X164.779 Y139.561 E9.06105
G1 X165.247 Y140.274 E9.08942
G1 X165.717 Y141.061 E9.11991
G1 X166.762 Y142.855 E9.18896
G1 X167.211 Y143.594 E9.21772
G1 X167.645 Y144.386 E9.24776
G1 X168.007 Y145.213 E9.27779
G1 X168.294 Y146.069 E9.30782
G1 X168.505 Y146.948 E9.33788
G1 X168.637 Y147.841 E9.36791
G1 X168.684 Y148.544 E9.39134
G1 X168.694 Y148.909 E9.40348
G1 X168.7 Y149.443 E9.42125
G1 X168.699 Y150.556 E9.45827
G1 X168.689 Y151.259 E9.48165
G1 X168.636 Y152.161 E9.5117
G1 X168.504 Y153.054 E9.54173
G1 X168.293 Y153.932 E9.57176
G1 X168.005 Y154.788 E9.6018
G1 X167.467 Y155.956 E9.64457
G1 X167.027 Y156.771 E9.67537
G1 X165.724 Y159.271 E9.76914
G1 X165.596 Y159.525 E9.7786
G1 X165.154 Y160.312 E9.80862
G1 X164.643 Y161.057 E9.83867
G1 X164.344 Y161.436 E9.85473
G1 X163.559 Y162.383 E9.89564
G1 X162.008 Y164.305 E9.97778
G1 X161.777 Y164.581 E9.98975
G1 X161.699 Y164.671 E9.99371
G1 X161.078 Y165.327 E10.02376
G1 X160.401 Y165.925 E10.0538
G1 X159.674 Y166.461 E10.08384
G1 X158.903 Y166.93 E10.11386
G1 X158.093 Y167.33 E10.14391
G1 X157.251 Y167.656 E10.17394
G1 X156.383 Y167.907 E10.20399
G1 X155.497 Y168.079 E10.23401
G1 X154.277 Y168.187 E10.27474
G1 X153.956 Y168.196 E10.28542
G1 X153.67 Y168.2 E10.29494
G1 X146.562 Y168.199 E10.53135
G1 X145.861 Y168.189 E10.55467
G1 X144.959 Y168.136 E10.58472
G1 X144.066 Y168.004 E10.61474
G1 X143.187 Y167.793 E10.64481
G1 X142.331 Y167.505 E10.67485
G1 X141.504 Y167.143 E10.70488
G1 X140.712 Y166.709 E10.73491
G1 X139.962 Y166.206 E10.76495
G1 X139.259 Y165.639 E10.79499
G1 X138.609 Y165.013 E10.825
G1 X138.081 Y164.412 E10.85161
G1 X137.122 Y163.227 E10.90231
G1 X136.922 Y162.974 E10.91304
G1 X136.501 Y162.467 E10.93496
G1 X135.625 Y161.4 E10.98088
G1 X135.083 Y160.678 E11.0109
G1 X134.486 Y159.686 E11.04941
G1 X134.308 Y159.348 E11.06212
G1 X133.318 Y157.419 E11.13423
G1 X132.988 Y156.815 E11.15712
G1 X132.505 Y155.906 E11.19136
G1 X132.117 Y155.091 E11.22138
G1 X131.802 Y154.244 E11.25144
G1 X131.564 Y153.373 E11.28147
G1 X131.404 Y152.484 E11.31151
G1 X131.323 Y151.583 E11.3416
G1 X131.316 Y151.429 E11.34673
G1 X131.306 Y151.091 E11.35798
G1 X131.3 Y150.557 E11.37574
G1 X131.301 Y149.444 E11.41276
G1 X131.311 Y148.739 E11.43621
G1 X131.364 Y147.838 E11.46623
G1 X131.496 Y146.944 E11.49628
G1 X131.707 Y146.066 E11.52632
G1 X131.995 Y145.21 E11.55636
G1 X132.357 Y144.383 E11.58638
G1 X132.796 Y143.597 E11.61633
G1 X132.791 Y143.594 E11.61652
G1 X134.195 Y141.237 E11.70777
G1 X134.665 Y140.42 E11.73912
G1 X135.314 Y139.431 E11.77846
G1 X135.518 Y139.157 E11.78982
G1 X137.084 Y136.975 E11.87915
G1 X137.644 Y136.172 E11.91171
G1 X138.193 Y135.455 E11.94175
G1 X138.804 Y134.789 E11.97181
G1 F2700 E6.97181
G0 F6000 X154.157 Y141.339
G0 X154.661 Y141.843
G0 X157.161 Y145.343
G0 X157.161 Y147.157
G0 X155.8 Y149.196
G1 F2700 E11.97181
G1 F1200 X156.075 Y149.471 E11.98475
G1 X156.301 Y149.64 E11.99413
G1 X156.565 Y149.74 E12.00352
G1 X156.782 Y149.764 E12.01078
G1 X157.5 Y149.764 E12.03466
G1 X157.5 Y150.235 E12.05033
G1 X156.782 Y150.235 E12.07421
G1 X156.503 Y150.275 E12.08358
G1 X156.246 Y150.391 E12.09296
G1 X156.075 Y150.528 E12.10025
G1 X155.8 Y150.803 E12.11319
G1 X155.8 Y149.196 E12.16663
G0 F6000 X156.076 Y148.906
G1 F1200 X156.358 Y149.188 E12.1799
G1 X156.537 Y149.312 E12.18714
G1 X156.782 Y149.364 E12.19547
G1 X157.9 Y149.364 E12.23266
G1 X157.9 Y150.635 E12.27493
G1 X156.782 Y150.635 E12.31212
G1 X156.567 Y150.675 E12.31939
G1 X156.358 Y150.811 E12.32768
G1 X156.076 Y151.093 E12.34095
G1 X155.952 Y151.272 E12.34819
G1 X155.9 Y151.517 E12.35652
G1 X155.9 Y154.45 E12.45407
G1 X155.4 Y154.45 E12.4707
G1 X155.4 Y148.4 E12.67193
G1 X155.9 Y148.4 E12.68856
G1 X155.94 Y148.697 E12.69852
G1 X156.076 Y148.906 E12.70682
G0 F6000 X156.359 Y148.623
G1 F1200 X156.641 Y148.905 E12.72008
G1 X156.782 Y148.964 E12.72516
G1 X158.3 Y148.964 E12.77565
G1 X158.3 Y151.035 E12.84454
G1 X156.782 Y151.035 E12.89502
G1 X156.641 Y151.094 E12.90011
G1 X156.359 Y151.376 E12.91337
G1 X156.3 Y151.517 E12.91846
G1 X156.3 Y154.85 E13.02931
G1 X155 Y154.85 E13.07255
G1 X155 Y148 E13.30038
G1 X156.3 Y148 E13.34362
G1 X156.3 Y148.482 E13.35965
G1 X156.359 Y148.623 E13.36474
G1 F2700 E8.36474
G0 F6000 X154.661 Y158.157
G0 X154.157 Y158.661
G0 X145.843 Y158.661
G0 X145.339 Y158.157
G0 X145 Y148
G1 F2700 E13.36474
G1 F1200 X145 Y154.85 E13.59257
G1 X143.7 Y154.85 E13.63581
G1 X143.7 Y151.518 E13.74663
G1 X143.641 Y151.377 E13.75171
G1 X143.359 Y151.095 E13.76498
G1 X143.218 Y151.036 E13.77006
G1 X141.7 Y151.036 E13.82055
G1 X141.7 Y148.965 E13.88943
G1 X143.23 Y148.965 E13.94032
G1 X143.371 Y148.906 E13.9454
G1 X143.653 Y148.624 E13.95867
G1 X143.712 Y148.483 E13.96375
G1 X143.713 Y148 E13.97982
G1 X145 Y148 E14.02262
G0 F6000 X144.6 Y148.4
G1 F1200 X144.6 Y154.45 E14.22384
G1 X144.1 Y154.45 E14.24047
G1 X144.1 Y151.518 E14.33799
G1 X144.06 Y151.303 E14.34527
G1 X143.924 Y151.094 E14.35356
G1 X143.642 Y150.812 E14.36683
G1 X143.463 Y150.688 E14.37407
G1 X143.218 Y150.636 E14.3824
G1 X142.1 Y150.636 E14.41958
G1 X142.1 Y149.365 E14.46186
G1 X143.23 Y149.365 E14.49944
G1 X143.445 Y149.325 E14.50671
G1 X143.654 Y149.189 E14.51501
G1 X143.936 Y148.907 E14.52827
G1 X144.06 Y148.728 E14.53551
G1 X144.112 Y148.4 E14.54656
G1 X144.6 Y148.4 E14.56279
G0 F6000 X144.2 Y149.209
G1 F1200 X144.2 Y150.804 E14.61584
G1 X143.925 Y150.529 E14.62878
G1 X143.699 Y150.36 E14.63816
G1 X143.435 Y150.26 E14.64755
G1 X143.218 Y150.236 E14.65481
G1 X142.5 Y150.236 E14.67869
G1 X142.5 Y149.765 E14.69436
G1 X143.23 Y149.765 E14.71864
G1 X143.509 Y149.725 E14.72801
G1 X143.766 Y149.609 E14.73739
G1 X143.937 Y149.472 E14.74468
G1 X144.2 Y149.209 E14.75705
G1 F2700 E9.75705
;MESH:????????????_2.STL
G0 F6000 X146.42 Y149.209
G0 X146.782 Y157.218
G0 X153.4 Y157.4
;TYPE:WALL-INNER
G1 F2700 E14.75705
G1 F1200 X146.6 Y157.4 E14.98322
G1 X146.6 Y146.4 E15.34908
G1 X144.1 Y146.4 E15.43223
G1 X144.1 Y146.1 E15.44221
G1 X146.6 Y146.1 E15.50473
G1 X146.6 Y142.6 E15.62114
G1 X153.4 Y142.6 E15.84731
G1 X153.4 Y146.1 E15.96372
G1 X155.9 Y146.1 E16.04687
G1 X155.9 Y146.4 E16.05685
G1 X153.4 Y146.4 E16.11937
G1 X153.4 Y157.4 E16.48523
G0 F6000 X153.8 Y157.8
;TYPE:WALL-OUTER
G1 F1200 X146.2 Y157.8 E16.738
G1 X146.2 Y146.8 E17.10387
G1 X143.7 Y146.8 E17.18702
G1 X143.7 Y145.7 E17.2236
G1 X146.2 Y145.7 E17.30675
G1 X146.2 Y142.2 E17.42316
G1 X153.8 Y142.2 E17.67594
G1 X153.8 Y145.7 E17.79235
G1 X156.3 Y145.7 E17.8755
G1 X156.3 Y146.8 E17.91209
G1 X153.8 Y146.8 E17.99524
G1 X153.8 Y157.8 E18.3611
G0 F6000 X153.53 Y157.53
G0 X153.29 Y157.01
G0 X153.01 Y157.01
;TYPE:SKIN
G1 F1200 X146.99 Y157.01 E18.56132
G1 X146.99 Y142.99 E19.02763
G1 X153.01 Y142.99 E19.22786
G1 X153.01 Y157.01 E19.69416
G0 F6000 X153.29 Y157.01
G0 X147.232 Y157.29
G0 X147.232 Y156.849
G1 F1200 X147.149 Y156.766 E19.69807
G0 F6000 X147.149 Y156.2
G1 F1200 X147.798 Y156.849 E19.7286
G0 F6000 X148.363 Y156.849
G1 F1200 X147.149 Y155.634 E19.78572
G0 F6000 X147.149 Y155.069
G1 F1200 X148.929 Y156.849 E19.86945
G0 F6000 X149.495 Y156.849
G1 F1200 X147.149 Y154.503 E19.9798
G0 F6000 X147.149 Y153.937
G1 F1200 X150.06 Y156.849 E20.11674
G0 F6000 X150.626 Y156.849
G1 F1200 X147.149 Y153.372 E20.28029
G0 F6000 X147.149 Y152.806
G1 F1200 X151.192 Y156.849 E20.47046
G0 F6000 X151.757 Y156.849
G1 F1200 X147.149 Y152.24 E20.68723
G0 F6000 X147.149 Y151.675
G1 F1200 X152.323 Y156.849 E20.9306
G0 F6000 X152.849 Y156.809
G1 F1200 X147.149 Y151.109 E21.19871
G0 F6000 X147.149 Y150.543
G1 F1200 X152.849 Y156.243 E21.46682
G0 F6000 X152.849 Y155.678
