;FLAVOR:Marlin
;TIME:1173
;Filament used: 0.689731m
;Layer height: 0.2
;MINX:135
;MINY:89
;MINZ:0.2
;MAXX:165
;MAXY:211
;MAXZ:2.8
;Generated with Creality Slicer 4.8.2-191
M140 S50
M105
M190 S50
M104 S200
M105
M109 S200
M82 ;absolute extrusion mode

G28 ;Home

G92 E0 ;Reset Extruder
G1 Z2.0 F3000 ;Move Z Axis up
G1 X10.1 Y20 Z0.28 F5000.0 ;Move to start position
G1 X10.1 Y200.0 Z0.28 F1500.0 E15 ;Draw the first line
G1 X10.4 Y200.0 Z0.28 F5000.0 ;Move to side a little
G1 X10.4 Y20 Z0.28 F1500.0 E30 ;Draw the second line
G92 E0 ;Reset Extruder
G1 Z2.0 F3000 ;Move Z Axis up

G92 E0
G92 E0
G1 F2700 E-5
;LAYER_COUNT:14
;LAYER:0
M107
G0 F6000 X136.996 Y93.703 Z0.2
;TYPE:SKIRT
G1 F2700 E0
G1 F1200 X137.566 Y92.958 E0.0312
G1 X138.198 Y92.264 E0.06242
G1 X138.886 Y91.627 E0.0936
G1 X139.626 Y91.051 E0.12479
G1 X140.412 Y90.539 E0.15599
G1 X141.239 Y90.097 E0.18718
G1 X142.101 Y89.727 E0.21838
G1 X142.991 Y89.431 E0.24958
G1 X143.903 Y89.213 E0.28077
G1 X144.83 Y89.072 E0.31195
G1 X145.701 Y89.013 E0.34099
G1 X146.022 Y89.004 E0.35167
G1 X146.33 Y89 E0.36191
G1 X153.293 Y89 E0.5935
G1 X154.149 Y89.011 E0.62198
G1 X155.085 Y89.065 E0.65316
G1 X156.013 Y89.197 E0.68434
G1 X156.927 Y89.409 E0.71554
G1 X157.819 Y89.698 E0.74673
G1 X158.684 Y90.061 E0.77793
G1 X159.514 Y90.497 E0.80911
G1 X160.305 Y91.002 E0.84033
G1 X161.049 Y91.573 E0.87152
G1 X161.742 Y92.205 E0.90271
G1 X162.379 Y92.893 E0.9339
G1 X162.954 Y93.634 E0.96509
G1 X163.465 Y94.42 E0.99628
G1 X163.907 Y95.248 E1.02749
G1 X164.276 Y96.11 E1.05868
G1 X164.571 Y97 E1.08987
G1 X164.789 Y97.912 E1.12105
G1 X164.929 Y98.84 E1.15227
G1 X164.987 Y99.701 E1.18097
G1 X164.996 Y100.021 E1.19162
G1 X165 Y100.33 E1.2019
G1 X164.999 Y199.4 E4.49698
G1 X164.99 Y200.127 E4.52116
G1 X164.939 Y201.064 E4.55237
G1 X164.807 Y201.992 E4.58355
G1 X164.598 Y202.906 E4.61473
G1 X164.311 Y203.799 E4.64593
G1 X163.949 Y204.665 E4.67715
G1 X163.515 Y205.496 E4.70833
G1 X163.011 Y206.287 E4.73952
G1 X162.442 Y207.032 E4.7707
G1 X161.811 Y207.727 E4.80193
G1 X161.124 Y208.365 E4.83311
G1 X160.385 Y208.942 E4.86429
G1 X159.599 Y209.454 E4.89549
G1 X158.773 Y209.897 E4.92667
G1 X157.911 Y210.269 E4.95789
G1 X157.022 Y210.565 E4.98906
G1 X156.11 Y210.785 E5.02026
G1 X155.183 Y210.926 E5.05145
G1 X154.299 Y210.987 E5.08092
G1 X153.978 Y210.996 E5.0916
G1 X153.67 Y211 E5.10184
G1 X146.565 Y210.999 E5.33816
G1 X145.867 Y210.99 E5.36138
G1 X144.931 Y210.938 E5.39255
G1 X144.002 Y210.806 E5.42376
G1 X143.088 Y210.596 E5.45496
G1 X142.195 Y210.309 E5.48615
G1 X141.33 Y209.946 E5.51735
G1 X140.499 Y209.512 E5.54854
G1 X139.708 Y209.008 E5.57973
G1 X138.963 Y208.438 E5.61093
G1 X138.269 Y207.807 E5.64213
G1 X137.632 Y207.12 E5.67329
G1 X137.055 Y206.38 E5.7045
G1 X136.543 Y205.594 E5.7357
G1 X136.1 Y204.767 E5.7669
G1 X135.729 Y203.906 E5.79808
G1 X135.433 Y203.016 E5.82928
G1 X135.214 Y202.104 E5.86048
G1 X135.073 Y201.177 E5.89166
G1 X135.013 Y200.288 E5.9213
G1 X135.004 Y199.955 E5.93238
G1 X135 Y199.658 E5.94226
G1 X135.001 Y100.525 E9.23943
G1 X135.01 Y99.86 E9.26155
G1 X135.063 Y98.924 E9.29273
G1 X135.195 Y97.995 E9.32394
G1 X135.406 Y97.081 E9.35514
G1 X135.694 Y96.189 E9.38632
G1 X136.057 Y95.324 E9.41752
G1 X136.492 Y94.493 E9.44872
G1 X136.996 Y93.703 E9.47988
G0 F6000 X137.392 Y93.835
G1 F1200 X137.961 Y93.111 E9.51051
G1 X138.589 Y92.439 E9.5411
G1 X139.274 Y91.823 E9.57174
G1 X140.01 Y91.27 E9.60236
G1 X140.791 Y90.782 E9.63299
G1 X141.611 Y90.364 E9.66361
G1 X142.465 Y90.019 E9.69424
G1 X143.345 Y89.749 E9.72486
G1 X144.245 Y89.557 E9.75546
G1 X145.159 Y89.443 E9.7861
G1 X145.712 Y89.413 E9.80452
G1 X146.033 Y89.404 E9.8152
G1 X146.33 Y89.4 E9.82508
G1 X153.293 Y89.4 E10.05667
G1 X154.143 Y89.411 E10.08494
G1 X155.062 Y89.464 E10.11556
G1 X155.973 Y89.597 E10.14618
G1 X156.869 Y89.808 E10.1768
G1 X157.743 Y90.096 E10.2074
G1 X158.59 Y90.459 E10.23805
G1 X159.401 Y90.894 E10.26866
G1 X160.171 Y91.398 E10.29927
G1 X160.895 Y91.967 E10.3299
G1 X161.567 Y92.597 E10.36053
G1 X162.182 Y93.282 E10.39115
G1 X162.735 Y94.018 E10.42177
G1 X163.222 Y94.799 E10.45238
G1 X163.639 Y95.62 E10.48301
G1 X163.984 Y96.474 E10.51365
G1 X164.253 Y97.354 E10.54425
G1 X164.445 Y98.255 E10.57489
G1 X164.558 Y99.168 E10.60549
G1 X164.587 Y99.712 E10.62361
G1 X164.596 Y100.032 E10.63426
G1 X164.6 Y100.33 E10.64417
G1 X164.599 Y199.395 E13.93908
G1 X164.59 Y200.122 E13.96327
G1 X164.539 Y201.041 E13.99388
G1 X164.408 Y201.953 E14.02452
G1 X164.198 Y202.849 E14.05513
G1 X163.912 Y203.724 E14.08575
G1 X163.551 Y204.571 E14.11637
G1 X163.117 Y205.383 E14.147
G1 X162.615 Y206.155 E14.17762
G1 X162.047 Y206.88 E14.20826
G1 X161.419 Y207.553 E14.23887
G1 X160.735 Y208.169 E14.26949
G1 X160 Y208.723 E14.3001
G1 X159.22 Y209.212 E14.33072
G1 X158.4 Y209.631 E14.36135
G1 X157.547 Y209.977 E14.39197
G1 X156.667 Y210.248 E14.42259
G1 X155.767 Y210.441 E14.45321
G1 X154.853 Y210.556 E14.48384
G1 X154.288 Y210.587 E14.50266
G1 X153.967 Y210.596 E14.51335
G1 X153.67 Y210.6 E14.52322
G1 X146.57 Y210.599 E14.75937
G1 X145.872 Y210.59 E14.78259
G1 X144.953 Y210.538 E14.8132
G1 X144.042 Y210.407 E14.84382
G1 X143.146 Y210.197 E14.87442
G1 X142.271 Y209.91 E14.90505
G1 X141.424 Y209.548 E14.93569
G1 X140.612 Y209.114 E14.96631
G1 X139.841 Y208.612 E14.99691
G1 X139.116 Y208.044 E15.02754
G1 X138.443 Y207.415 E15.05818
G1 X137.828 Y206.731 E15.08878
G1 X137.274 Y205.996 E15.11939
G1 X136.786 Y205.215 E15.15002
G1 X136.367 Y204.395 E15.18065
G1 X136.021 Y203.542 E15.21126
G1 X135.751 Y202.662 E15.24188
G1 X135.558 Y201.761 E15.27253
G1 X135.444 Y200.848 E15.30313
G1 X135.413 Y200.277 E15.32215
G1 X135.404 Y199.944 E15.33323
G1 X135.4 Y199.658 E15.34274
G1 X135.401 Y100.531 E18.63972
G1 X135.41 Y99.866 E18.66184
G1 X135.462 Y98.946 E18.69249
G1 X135.594 Y98.035 E18.7231
G1 X135.805 Y97.139 E18.75372
G1 X136.092 Y96.264 E18.78435
G1 X136.455 Y95.418 E18.81497
G1 X136.889 Y94.606 E18.84559
G1 X137.392 Y93.835 E18.87621
G0 F6000 X137.788 Y93.971
G1 F1200 X138.355 Y93.267 E18.90627
G1 X138.981 Y92.617 E18.93629
G1 X139.662 Y92.024 E18.96632
G1 X140.394 Y91.494 E18.99638
G1 X141.169 Y91.031 E19.02641
G1 X141.982 Y90.638 E19.05644
G1 X142.827 Y90.318 E19.08649
G1 X143.696 Y90.075 E19.1165
G1 X144.584 Y89.909 E19.14655
G1 X145.723 Y89.813 E19.18457
G1 X146.044 Y89.804 E19.19525
G1 X146.33 Y89.8 E19.20476
G1 X153.293 Y89.8 E19.43635
G1 X154.137 Y89.811 E19.46443
G1 X155.039 Y89.864 E19.49448
G1 X155.932 Y89.996 E19.5245
G1 X156.81 Y90.207 E19.55454
G1 X157.666 Y90.495 E19.58458
G1 X158.493 Y90.857 E19.6146
G1 X159.285 Y91.292 E19.64466
G1 X160.036 Y91.794 E19.6747
G1 X160.739 Y92.361 E19.70474
G1 X161.389 Y92.988 E19.73478
G1 X161.981 Y93.67 E19.76481
G1 X162.511 Y94.401 E19.79485
G1 X162.973 Y95.177 E19.82488
G1 X163.366 Y95.99 E19.85492
G1 X163.684 Y96.835 E19.88495
G1 X163.927 Y97.705 E19.91499
G1 X164.092 Y98.593 E19.94503
G1 X164.187 Y99.723 E19.98275
G1 X164.196 Y100.043 E19.99339
G1 X164.2 Y100.33 E20.00294
G1 X164.199 Y199.39 E23.29769
G1 X164.19 Y200.117 E23.32187
G1 X164.139 Y201.019 E23.35192
G1 X164.008 Y201.913 E23.38197
G1 X163.799 Y202.791 E23.41199
G1 X163.513 Y203.648 E23.44204
G1 X163.152 Y204.476 E23.47208
G1 X162.72 Y205.268 E23.50209
G1 X162.219 Y206.02 E23.53214
G1 X161.653 Y206.724 E23.56219
G1 X161.028 Y207.375 E23.5922
G1 X160.347 Y207.969 E23.62226
G1 X159.616 Y208.5 E23.65231
G1 X158.842 Y208.964 E23.68233
G1 X158.029 Y209.358 E23.71237
G1 X157.185 Y209.678 E23.7424
G1 X156.315 Y209.923 E23.77246
G1 X155.428 Y210.089 E23.80247
G1 X154.277 Y210.187 E23.84089
G1 X153.956 Y210.196 E23.85157
G1 X153.67 Y210.2 E23.86109
G1 X146.575 Y210.199 E24.09707
G1 X145.877 Y210.19 E24.12028
G1 X144.976 Y210.139 E24.1503
G1 X144.082 Y210.007 E24.18036
G1 X143.204 Y209.798 E24.21037
G1 X142.347 Y209.511 E24.24043
G1 X141.52 Y209.15 E24.27045
G1 X140.727 Y208.717 E24.3005
G1 X139.976 Y208.216 E24.33052
G1 X139.272 Y207.65 E24.36057
G1 X138.621 Y207.024 E24.39061
G1 X138.028 Y206.343 E24.42064
G1 X137.498 Y205.612 E24.45067
G1 X137.034 Y204.837 E24.48072
G1 X136.64 Y204.024 E24.51076
G1 X136.32 Y203.18 E24.54079
G1 X136.076 Y202.31 E24.57084
G1 X135.91 Y201.422 E24.60089
G1 X135.813 Y200.267 E24.63944
G1 X135.804 Y199.934 E24.65052
G1 X135.8 Y199.658 E24.6597
G1 X135.801 Y100.536 E27.95651
G1 X135.81 Y99.871 E27.97863
G1 X135.862 Y98.969 E28.00868
G1 X135.994 Y98.076 E28.0387
G1 X136.204 Y97.198 E28.06873
G1 X136.491 Y96.341 E28.09879
G1 X136.853 Y95.514 E28.12881
G1 X137.286 Y94.722 E28.15884
G1 X137.788 Y93.971 E28.18888
G1 F2700 E23.18888
;MESH:?????????B.STL
G0 F6000 X145.335 Y100.414
G0 X146.414 Y100.414
G0 X149.123 Y100.797
G0 X148.52 Y102.054
G0 X149.372 Y102.957
G0 X150.124 Y103.302
;TYPE:WALL-INNER
G1 F2700 E28.18888
G1 F1200 X150.553 Y103.186 E28.20366
G1 X150.915 Y102.934 E28.21833
G1 X151.175 Y102.575 E28.23307
G1 X151.298 Y102.151 E28.24776
G1 X151.276 Y101.71 E28.26244
G1 X151.105 Y101.302 E28.27716
G1 X150.829 Y100.994 E28.29091
G1 X150.811 Y100.974 E28.29181
G1 X150.399 Y100.75 E28.30741
G1 X149.79 Y100.704 E28.32772
G1 X149.349 Y100.865 E28.34333
G1 X149.207 Y100.983 E28.34947
G1 X149.008 Y101.148 E28.35807
G1 X148.781 Y101.526 E28.37274
G1 X148.692 Y101.96 E28.38747
G1 X148.754 Y102.396 E28.40212
G1 X148.956 Y102.788 E28.41679
G1 X149.281 Y103.093 E28.43161
G1 X149.686 Y103.269 E28.4463
G1 X150.124 Y103.302 E28.46091
G0 F6000 X150.086 Y102.898
;TYPE:WALL-OUTER
G1 F1200 X150.381 Y102.818 E28.47107
G1 X150.631 Y102.644 E28.48121
G1 X150.81 Y102.397 E28.49135
G1 X150.895 Y102.104 E28.5015
G1 X150.88 Y101.8 E28.51162
G1 X150.762 Y101.519 E28.52176
G1 X150.559 Y101.292 E28.53189
G1 X150.283 Y101.142 E28.54233
G1 X149.846 Y101.109 E28.55691
G1 X149.551 Y101.217 E28.56736
G1 X149.316 Y101.412 E28.57752
G1 X149.159 Y101.673 E28.58765
G1 X149.098 Y101.972 E28.5978
G1 X149.141 Y102.273 E28.60791
G1 X149.28 Y102.544 E28.61804
G1 X149.504 Y102.754 E28.62825
G1 X149.783 Y102.875 E28.63837
G1 X150.086 Y102.898 E28.64847
G0 F6000 X150.127 Y103.336
G1 F2700 E23.64847
G0 F6000 X150.002 Y102.026
G0 X149.978 Y107.983
G0 X149.915 Y106.521
G0 X150.709 Y107.102
G0 X150.966 Y107.39
G0 X151.117 Y107.747
G0 X151.135 Y108.132
G0 X151.027 Y108.503
G0 X150.845 Y108.756
G0 X150.124 Y109.302
;TYPE:WALL-INNER
G1 F2700 E28.64847
G1 F1200 X150.553 Y109.186 E28.66325
G1 X150.915 Y108.934 E28.67792
G1 X151.175 Y108.575 E28.69267
G1 X151.298 Y108.151 E28.70735
G1 X151.276 Y107.71 E28.72204
G1 X151.105 Y107.302 E28.73675
G1 X150.811 Y106.974 E28.7514
G1 X150.399 Y106.75 E28.767
G1 X149.79 Y106.704 E28.78731
G1 X149.349 Y106.865 E28.80293
G1 X149.008 Y107.148 E28.81766
G1 X148.781 Y107.526 E28.83233
G1 X148.692 Y107.96 E28.84707
G1 X148.754 Y108.396 E28.86171
G1 X148.956 Y108.788 E28.87638
G1 X149.281 Y109.093 E28.8912
G1 X149.686 Y109.269 E28.90589
G1 X150.124 Y109.302 E28.9205
G0 F6000 X150.086 Y108.898
;TYPE:WALL-OUTER
G1 F1200 X150.381 Y108.818 E28.93067
G1 X150.631 Y108.644 E28.9408
G1 X150.81 Y108.397 E28.95094
G1 X150.895 Y108.104 E28.96109
G1 X150.88 Y107.8 E28.97121
G1 X150.762 Y107.519 E28.98135
G1 X150.559 Y107.292 E28.99148
G1 X150.283 Y107.142 E29.00193
G1 X149.846 Y107.109 E29.0165
G1 X149.551 Y107.217 E29.02695
G1 X149.316 Y107.412 E29.03711
G1 X149.159 Y107.673 E29.04724
G1 X149.098 Y107.972 E29.05739
G1 X149.141 Y108.273 E29.0675
G1 X149.28 Y108.544 E29.07763
G1 X149.504 Y108.754 E29.08784
G1 X149.783 Y108.875 E29.09796
G1 X150.086 Y108.898 E29.10806
G0 F6000 X150.127 Y109.336
G1 F2700 E24.10806
G0 F6000 X150.002 Y108.026
G0 X149.978 Y191.983
G0 X149.763 Y190.51
G0 X149.132 Y191.254
G0 X148.933 Y191.585
G0 X148.856 Y191.965
G0 X148.91 Y192.346
G0 X149.087 Y192.69
G0 X149.317 Y192.906
G0 X150.124 Y193.302
;TYPE:WALL-INNER
G1 F2700 E29.10806
G1 F1200 X150.553 Y193.186 E29.12285
G1 X150.915 Y192.934 E29.13752
G1 X151.175 Y192.575 E29.15226
G1 X151.298 Y192.151 E29.16694
G1 X151.276 Y191.71 E29.18163
G1 X151.105 Y191.302 E29.19634
G1 X150.811 Y190.974 E29.21099
G1 X150.399 Y190.75 E29.22659
G1 X149.79 Y190.704 E29.2469
G1 X149.349 Y190.865 E29.26252
G1 X149.008 Y191.148 E29.27726
G1 X148.781 Y191.526 E29.29192
G1 X148.692 Y191.96 E29.30666
G1 X148.754 Y192.396 E29.3213
G1 X148.956 Y192.788 E29.33597
G1 X149.281 Y193.093 E29.3508
G1 X149.686 Y193.269 E29.36548
G1 X150.124 Y193.302 E29.38009
G0 F6000 X150.086 Y192.898
;TYPE:WALL-OUTER
G1 F1200 X150.381 Y192.818 E29.39026
G1 X150.631 Y192.644 E29.40039
G1 X150.81 Y192.397 E29.41054
G1 X150.895 Y192.104 E29.42068
G1 X150.88 Y191.8 E29.43081
G1 X150.762 Y191.519 E29.44094
G1 X150.559 Y191.292 E29.45107
G1 X150.283 Y191.142 E29.46152
G1 X149.846 Y191.109 E29.47609
G1 X149.551 Y191.217 E29.48654
G1 X149.316 Y191.412 E29.4967
G1 X149.159 Y191.673 E29.50683
G1 X149.098 Y191.972 E29.51698
G1 X149.141 Y192.273 E29.52709
G1 X149.28 Y192.544 E29.53722
G1 X149.504 Y192.754 E29.54744
G1 X149.783 Y192.875 E29.55755
G1 X150.086 Y192.898 E29.56766
G0 F6000 X150.127 Y193.336
G1 F2700 E24.56766
G0 F6000 X150.002 Y192.026
G0 X149.978 Y197.983
G0 X149.912 Y196.521
G0 X150.709 Y197.102
G0 X150.966 Y197.39
G0 X151.117 Y197.747
G0 X151.135 Y198.132
G0 X151.027 Y198.503
G0 X150.845 Y198.756
G0 X150.124 Y199.302
;TYPE:WALL-INNER
G1 F2700 E29.56766
G1 F1200 X150.553 Y199.186 E29.58244
G1 X150.794 Y199.018 E29.59221
G1 X150.915 Y198.934 E29.59711
G1 X151.175 Y198.575 E29.61185
G1 X151.298 Y198.151 E29.62653
G1 X151.276 Y197.71 E29.64122
G1 X151.105 Y197.302 E29.65593
G1 X150.811 Y196.974 E29.67058
G1 X150.399 Y196.75 E29.68618
G1 X149.79 Y196.704 E29.7065
G1 X149.349 Y196.865 E29.72211
G1 X149.008 Y197.148 E29.73685
G1 X148.781 Y197.526 E29.75151
G1 X148.692 Y197.96 E29.76625
G1 X148.754 Y198.396 E29.7809
G1 X148.956 Y198.788 E29.79556
G1 X149.197 Y199.014 E29.80655
G1 X149.281 Y199.093 E29.81039
G1 X149.686 Y199.269 E29.82508
G1 X150.124 Y199.302 E29.83968
G0 F6000 X150.086 Y198.898
;TYPE:WALL-OUTER
G1 F1200 X150.381 Y198.818 E29.84985
G1 X150.631 Y198.644 E29.85998
G1 X150.81 Y198.397 E29.87013
G1 X150.895 Y198.104 E29.88027
G1 X150.88 Y197.8 E29.8904
G1 X150.762 Y197.519 E29.90053
G1 X150.559 Y197.292 E29.91066
G1 X150.283 Y197.142 E29.92111
G1 X149.846 Y197.109 E29.93569
G1 X149.551 Y197.217 E29.94614
G1 X149.316 Y197.412 E29.95629
G1 X149.159 Y197.673 E29.96642
G1 X149.098 Y197.972 E29.97657
G1 X149.141 Y198.273 E29.98669
G1 X149.28 Y198.544 E29.99682
G1 X149.504 Y198.754 E30.00703
G1 X149.783 Y198.875 E30.01714
G1 X150.086 Y198.898 E30.02725
G0 F6000 X150.127 Y199.336
G0 X153.4 Y199.4
;TYPE:WALL-INNER
G1 F1200 X150.847 Y199.4 E30.11216
G1 X150.553 Y199.4 E30.11978
G1 X150.124 Y199.4 E30.12529
G1 X149.686 Y199.4 E30.12947
G1 X149.281 Y199.4 E30.13673
G1 X149.165 Y199.4 E30.14017
G1 X146.6 Y199.4 E30.22549
G1 X146.6 Y100.6 E33.51159
G1 X149.164 Y100.6 E33.59687
G1 X149.349 Y100.6 E33.60205
G1 X149.79 Y100.6 E33.60871
G1 X150.399 Y100.6 E33.61516
G1 X150.811 Y100.6 E33.62399
G1 X150.838 Y100.6 E33.62486
G1 X153.4 Y100.6 E33.71007
G1 X153.4 Y199.4 E36.99617
G0 F6000 X153.8 Y199.8
;TYPE:WALL-OUTER
G1 F1200 X146.2 Y199.8 E37.24895
G1 X146.2 Y100.2 E40.56166
G1 X153.8 Y100.2 E40.81444
G1 X153.8 Y199.8 E44.12715
G0 F6000 X153.53 Y199.53
G0 X153.29 Y199.01
G0 X153.01 Y199.01
;TYPE:SKIN
G1 F1200 X151.342 Y199.01 E44.18263
G1 X151.53 Y198.749 E44.19332
G1 X151.69 Y198.197 E44.21244
G1 X151.662 Y197.622 E44.23159
G1 X151.439 Y197.091 E44.25074
G1 X151.057 Y196.664 E44.2698
G1 X150.512 Y196.368 E44.29043
G1 X149.735 Y196.308 E44.31635
G1 X149.152 Y196.522 E44.337
G1 X148.708 Y196.89 E44.35618
G1 X148.412 Y197.382 E44.37528
G1 X148.296 Y197.948 E44.3945
G1 X148.377 Y198.517 E44.41361
G1 X148.632 Y199.01 E44.43207
G1 X146.99 Y199.01 E44.48669
G1 X146.99 Y100.99 E47.74684
G1 X148.648 Y100.99 E47.80199
G1 X148.412 Y101.382 E47.81721
G1 X148.296 Y101.948 E47.83642
G1 X148.377 Y102.517 E47.85554
G1 X148.64 Y103.026 E47.8746
G1 X149.063 Y103.424 E47.89391
G1 X149.591 Y103.653 E47.91305
G1 X150.161 Y103.696 E47.93207
G1 X150.72 Y103.545 E47.95133
G1 X151.192 Y103.216 E47.97046
G1 X151.53 Y102.749 E47.98964
G1 X151.69 Y102.197 E48.00875
G1 X151.662 Y101.622 E48.0279
G1 X151.439 Y101.091 E48.04705
