;FLAVOR:Marlin
;TIME:850
;Filament used:0.116094m
;Layer height: 0.15
;MINX:104.721
;MINY:104.719
;MINZ:0.15
;MAXX:115.247
;MAXY:115.279
;MAXZ:13.8
                           
;Creality Print GCode Generated by CXEngine:NO_MAGE_VERSION_GIT_HEAD_BRANCH
;CXEngine Release Time:2022-09-30 09:53:04
;Gcode Generated Time:2023-03-05 05:36:02
;----------Machine Config--------------
;Machine Name:Creality Ender-3
;Machine Height:250
;Machine Width:220
;Machine Depth:220
;Material name:PLA
;Number of Extruders:1
;ExtruderParams[0] Nozzle Diameter1000
;----------Profile Config---------------
;Engine Version:275f99b
;Engine Release Time:2022-09-30 09:42:18
;Layer Height:0.15
;Wall Thickness:0.8
;Top/Bottom Thickness:1
;Out Wall Line Width:0.4
;Inner Wall Line Width:0.4
;Inital Layer Height:150
;Wall Line Count:2
;Infill Line Distance:4
;Infill Pattern:grid
;Infill Sparse Density:20
;Infill Wipe Distance:0
;Print Temperature:200
;Bed Temperature:60
;Support Enable:true
;Support Density:30
;Support Angle:60
;Adhesion Type:none
;machine is belt:false
;machine belt offset:10
;machine belt offset Y:0
;Raft Base Line Spacing:1.6
;Wait Heatup Sync:true
;----------Shell Config----------------
;Outer Wall Wipe Distance:200
;Outer Inset First:false
;Infill Before Walls:false
;Infill Overlap:0.16
;Fill Gaps Between Walls:everywhere
;Minimum Infill Area:1
;Top Surface Skin Layer:0
;Top Layers:4
;Z Seam Alignment:sharpest_corner
;Seam Corner Preference:z_seam_corner_inner
;Z Seam X:110
;Z Seam Y:110
;Horizontal Expansion:0
;Top/Bottom Pattern:zigzag
;Ironing Pattern:zigzag
;Vase Model:false
;----------Support Config----------------
;Support Type:everywhere
;Support Pattern:zigzag
;Support Infill Layer Thickness:0.15
;Minimum Support Area:5
;Enable Support Roof:false
;Support Roof Thickness:0.8
;Support Roof Pattern:lines
;Connect Support Lines:0
;Connect Support ZigZags:1
;Minimum Support X/Y Distance:0.2
;Support Line Distance:1.33
; ---------PrintSpeed & Travel----------
;Enable Print Cool:true
;Avoid Printed Parts Traveling:true
;Enable Retraction:true
;Retraction Distance:8
;Retraction Speed:100
;Retraction Prime Speed:100
;Maximum Retraction Count:100
;Minimum Extrusion Distance Window:1
;Z Hop When Retracted:false
;Z Hop Height:0.2
;Retract Before Outer Wall:true
;Print Speed:50
;Infill Speed:50

;Prime Tower Speed:50
;Travel Speed:120
;Initial Layer Speed:25
;Skirt/Brim Speed:25
;Combing Mode:infill
; --------SpecialModel&Mesh Fixes--------
;Union Overlapping Volum:true
;Remove All Holes:false
;Maximum Travel Resolution:0.6
;Maximum Deviation:0.05
;Maximum Model Angle:0.872665
;IS Mold Print:false
;Make Overhang Printable:false
;Enable Coasting:false
;Coasting Volumes:0.06
;Coasting Speed:0.9
;Raft AirGap:0.25
;Layer0 ZOverLap:0.13
;---------------------End of Head--------------------------
M140 S60
M105
M104 S200
M105
M109 S200
M105
M190 S60
M82 ;absolute extrusion mode
M220 S100 ;Reset Feedrate
M221 S100 ;Reset Flowrate

G28 ;Home

G92 E0 ;Reset Extruder
G1 Z2.0 F3000 ;Move Z Axis up
G1 X10.1 Y20 Z0.28 F5000.0 ;Move to start position
G1 X10.1 Y145.0 Z0.28 F1500.0 E15 ;Draw the first line
G1 X10.4 Y145.0 Z0.28 F5000.0 ;Move to side a little
G1 X10.4 Y20 Z0.28 F1500.0 E30 ;Draw the second line
G92 E0  ;Reset Extruder
G1 E-1.0000 F1800 ;Retract a bit
G1 Z2.0 F3000 ;Move Z Axis up
G1 E0.0000 F1800 

G92 E0
G92 E0
G1 F6000 E-8

;LAYER_COUNT:92

;LAYER:0
M107
G0 F3600 X113.104 Y106.775 Z0.15
;TYPE:SUPPORT
G1 F6000 E0
G1 F1500 X113.442 Y107.537 E0.0183
G1 X113.21 Y107.225 E0.02683
G1 X112.776 Y106.79 E0.04032
G1 X112.334 Y106.461 E0.05242
G1 X113.104 Y106.775 E0.07067
;;retract;;
G1 F6000 E-7.92933
G0 F3600 X113.523 Y105.747
G0 X111.724 Y105.012
G0 X110.746 Y104.773
G0 X110.042 Y104.719
G0 X109.208 Y104.785
G0 X108.488 Y104.955
G0 X107.095 Y105.537
G0 X107.545 Y106.552
G1 F6000 E0.07067
G1 F1500 X107.225 Y106.79 E0.07943
G1 X106.79 Y107.224 E0.09292
G1 X106.509 Y107.6 E0.10322
G1 X106.81 Y106.877 E0.12041
G1 X107.545 Y106.552 E0.13805
;;retract;;
G1 F6000 E-7.86195
G0 F3600 X107.095 Y105.537
G0 X105.956 Y106.045
G0 X104.967 Y108.42
G0 X104.776 Y109.197
G0 X104.721 Y109.967
G0 X104.785 Y110.776
G0 X104.968 Y111.545
G0 X105.53 Y112.895
G0 X106.544 Y112.445
G1 F6000 E0.13805
G1 F1500 X106.79 Y112.775 E0.14709
G1 X107.224 Y113.21 E0.16058
G1 X107.624 Y113.509 E0.17154
G1 X106.879 Y113.199 E0.18925
G1 X106.544 Y112.445 E0.20736
;;retract;;
G1 F6000 E-7.79264
G0 F3600 X105.53 Y112.895
G0 X106.047 Y114.054
G0 X108.363 Y115.016
G0 X109.204 Y115.215
G0 X110.004 Y115.279
G0 X110.791 Y115.216
G0 X111.663 Y115.008
G0 X114.06 Y113.941
G0 X114.533 Y112.8
G0 X113.506 Y112.379
G1 F6000 E0.20736
G1 F1500 X113.206 Y113.11 E0.22471
G1 X112.472 Y113.436 E0.24234
G1 X112.775 Y113.21 E0.25064
G1 X113.21 Y112.776 E0.26413
G1 X113.506 Y112.379 E0.275
;;retract;;
G1 F6000 E-7.725
;MESH:
G0 F3600 X114.533 Y112.8
G0 X111.878 Y109.816
G0 X110.468 Y108.229
G0 X110.39 Y107.33
;TYPE:WALL-OUTER
G1 F6000 E0.275
G1 F1500 X109.996 Y107.299 E0.28584
G1 X109.612 Y107.33 E0.29641
G1 X109.574 Y107.334 E0.29746
G1 X109.235 Y107.414 E0.30702
G1 X109.166 Y107.431 E0.30897
G1 X108.883 Y107.548 E0.31737
G1 X108.671 Y107.636 E0.32367
G1 X108.671 Y107.648 E0.324
G1 X108.669 Y107.863 E0.3299
G1 X108.661 Y108.67 E0.35204
G1 X107.86 Y108.672 E0.37402
G1 X107.648 Y108.672 E0.37984
G1 X107.635 Y108.673 E0.3802
G1 X107.549 Y108.882 E0.3864
G1 X107.429 Y109.174 E0.39506
G1 X107.415 Y109.234 E0.39675
G1 X107.332 Y109.584 E0.40662
G1 X107.331 Y109.606 E0.40723
G1 X107.299 Y110.004 E0.41818
G1 X107.33 Y110.388 E0.42875
G1 X107.333 Y110.424 E0.42975
G1 X107.414 Y110.764 E0.43934
G1 X107.431 Y110.834 E0.44131
G1 X107.548 Y111.117 E0.44972
G1 X107.636 Y111.329 E0.45601
G1 X107.648 Y111.329 E0.45634
G1 X107.863 Y111.331 E0.46224
G1 X108.67 Y111.339 E0.48439
G1 X108.672 Y112.14 E0.50637
G1 X108.672 Y112.352 E0.51218
G1 X108.673 Y112.365 E0.51254
G1 X108.882 Y112.451 E0.51874
G1 X109.174 Y112.571 E0.52741
G1 X109.234 Y112.585 E0.5291
G1 X109.583 Y112.667 E0.53893
G1 X109.611 Y112.669 E0.5397
G1 X110.004 Y112.701 E0.55052
G1 X110.388 Y112.67 E0.5611
G1 X110.425 Y112.667 E0.56211
G1 X110.764 Y112.586 E0.57168
G1 X110.833 Y112.569 E0.57363
G1 X111.117 Y112.451 E0.58207
G1 X111.326 Y112.364 E0.58828
G1 X111.326 Y112.351 E0.58863
G1 X111.328 Y112.139 E0.59445
G1 X111.339 Y111.33 E0.61665
G1 X112.14 Y111.328 E0.63863
G1 X112.352 Y111.328 E0.64445
G1 X112.365 Y111.327 E0.64481
G1 X112.451 Y111.118 E0.65101
G1 X112.571 Y110.826 E0.65967
G1 X112.585 Y110.766 E0.66136
G1 X112.668 Y110.416 E0.67123
G1 X112.67 Y110.39 E0.67195
G1 X112.701 Y109.996 E0.68279
G1 X112.67 Y109.612 E0.69336
G1 X112.667 Y109.576 E0.69435
G1 X112.586 Y109.236 E0.70395
G1 X112.569 Y109.166 E0.70592
G1 X112.452 Y108.883 E0.71432
G1 X112.364 Y108.671 E0.72062
G1 X112.352 Y108.671 E0.72095
G1 X112.137 Y108.669 E0.72685
G1 X111.33 Y108.661 E0.749
G1 X111.329 Y107.86 E0.77098
G1 X111.329 Y107.648 E0.77679
G1 X111.328 Y107.636 E0.77712
G1 X111.118 Y107.55 E0.78335
G1 X110.826 Y107.429 E0.79202
G1 X110.766 Y107.415 E0.79371
G1 X110.416 Y107.332 E0.80358
G1 X110.39 Y107.33 E0.8043
G0 F3600 X110.191 Y107.315
G0 X110.397 Y107.229
G1 F697.8 X110.436 Y107.237
G1 X110.789 Y107.314 E0.8068
G1 X110.859 Y107.34 E0.80743
G1 X111.158 Y107.451 E0.80964
G1 X111.366 Y107.565 E0.81127
G1 X111.516 Y107.647 E0.81347
G1 X111.686 Y107.774 E0.8179
G1 X111.837 Y107.887 E0.82308
G1 X112.113 Y108.163 E0.83379
G1 X112.224 Y108.312 E0.83889
G1 X112.353 Y108.484 E0.84338
G1 X112.434 Y108.632 E0.84641
G1 X112.549 Y108.842 E0.84804
G1 X112.657 Y109.133 E0.85019
G1 X112.686 Y109.211
G1 X112.76 Y109.555 E0.85259
G1 X112.771 Y109.603
G1 X112.8 Y109.996 E0.85538
G1 X112.771 Y110.397 E0.8583
G1 X112.763 Y110.436
G1 X112.686 Y110.789 E0.8608
G1 X112.66 Y110.859 E0.86143
G1 X112.549 Y111.158 E0.86363
G1 X112.436 Y111.365 E0.86522
G1 X112.353 Y111.516 E0.86747
G1 X112.226 Y111.686 E0.87191
G1 X112.113 Y111.837 E0.87709
G1 X111.837 Y112.113 E0.8878
G1 X111.686 Y112.226 E0.89297
G1 X111.516 Y112.353 E0.89742
G1 X111.366 Y112.435 E0.9005
G1 X111.158 Y112.549 E0.90215
G1 X110.866 Y112.657 E0.90431
G1 X110.789 Y112.686
G1 X110.446 Y112.76 E0.90671
G1 X110.397 Y112.771
G1 X110.012 Y112.799 E0.90937
G1 X110 Y112.8
G1 X109.603 Y112.771 E0.91216
G1 X109.563 Y112.763
G1 X109.211 Y112.686 E0.91466
G1 X109.141 Y112.66 E0.91529
G1 X108.842 Y112.549 E0.91749
G1 X108.635 Y112.436 E0.91908
G1 X108.484 Y112.353 E0.92133
G1 X108.314 Y112.226 E0.92577
G1 X108.163 Y112.113 E0.93095
G1 X107.887 Y111.837 E0.94166
G1 X107.776 Y111.688 E0.94676
G1 X107.647 Y111.516 E0.95125
G1 X107.566 Y111.368 E0.95428
G1 X107.451 Y111.158 E0.95591
G1 X107.343 Y110.867 E0.95806
G1 X107.314 Y110.789
G1 X107.24 Y110.445 E0.96046
G1 X107.229 Y110.397
G1 X107.201 Y110.007 E0.96319
G1 X107.229 Y109.599 E0.96607
G1 X107.236 Y109.564
G1 X107.314 Y109.211 E0.96858
G1 X107.34 Y109.141 E0.96921
G1 X107.451 Y108.842 E0.9714
G1 X107.564 Y108.635 E0.973
G1 X107.647 Y108.484 E0.97524
G1 X107.774 Y108.314 E0.97968
G1 X107.887 Y108.163 E0.98486
G1 X108.163 Y107.887 E0.99557
G1 X108.312 Y107.776 E1.00067
G1 X108.484 Y107.647 E1.00516
G1 X108.632 Y107.566 E1.00819
G1 X108.842 Y107.451 E1.00982
G1 X109.133 Y107.343 E1.01197
G1 X109.211 Y107.314
G1 X109.553 Y107.24 E1.01434
G1 X109.603 Y107.229
G1 X109.988 Y107.201 E1.01701
G1 X110 Y107.2
G1 X110.397 Y107.229 E1.01982
G0 F3600 X110.436 Y107.237
G0 X110.593 Y107.271
G0 X111.47 Y107.793
;TYPE:SKIN
G1 F697.8 X112.203 Y108.526 E1.03405
G0 F3600 X112.006 Y108.612
G1 F697.8 X111.383 Y107.989 E1.04613
G0 F3600 X111.552 Y108.44
G1 F697.8 X111.409 Y108.58 E1.05362
;;retract;;
G1 F6000 E-6.94638
G0 F3600 X111.384 Y108.555
G0 X108.606 Y108.606
G1 F6000 E1.05362
G1 F697.8 X108.063 Y108.063 E1.06415
G0 F3600 X108.127 Y108.41
G1 F697.8 X107.925 Y108.491 E1.06991
G1 X108.407 Y108.124 E1.08594
G1 X108.489 Y107.923 E1.09168
;;retract;;
G1 F6000 E-6.90832
G0 F3600 X109.527 Y108.231
G0 X109.523 Y109.033
G0 X108.287 Y110.464
G0 X108.447 Y111.558
G1 F6000 E1.09168
G1 F697.8 X108.59 Y111.418 E1.09924
G0 F3600 X107.992 Y111.386
G1 F697.8 X108.617 Y112.011 E1.11136
G0 F3600 X108.528 Y112.205
G1 F697.8 X107.795 Y111.472 E1.12558
;;retract;;
G1 F6000 E-6.87442
G0 F3600 X108.23 Y110.473
G0 X109.033 Y110.477
G0 X110.468 Y111.381
G0 X111.391 Y111.391
G1 F6000 E1.12558
G1 F697.8 X111.935 Y111.935 E1.13614
G0 F3600 X111.871 Y111.588
G1 F697.8 X112.073 Y111.507 E1.14214
G1 X111.59 Y111.873 E1.15885
G0 F3600 X111.386 Y111.951
G1 F697.8 X111.63 Y112.196 E1.1636
;;retract;;
G1 F6000 E-6.8364
;MESH:NONMESH
G0 F600 X111.63 Y112.196 Z0.3
G0 F3600 X110.472 Y111.77
G0 X105.597 Y106.902
G0 X106.4 Y107.234
;TIME_ELAPSED:15.897921

;LAYER:1
M140 S60
M106 S127.5
;TYPE:SUPPORT
G1 F6000 E1.1636
G1 F2217.1 X105.797 Y108.689 E1.19503
G1 X105.638 Y109.337 E1.20834
G1 X105.593 Y109.964 E1.22089
G1 X105.645 Y110.638 E1.23438
G1 X105.838 Y111.446 E1.25096
G1 X106.4 Y112.713 E1.27862
G1 X106.4 Y111.735 E1.29813
G1 X106.353 Y111.648 E1.30011
G1 X106.157 Y111.117 E1.3114
G1 X106.037 Y110.558 E1.32281
G1 X105.999 Y110.001 E1.33395
G1 X106.039 Y109.425 E1.34548
G1 X106.163 Y108.864 E1.35694
G1 X106.361 Y108.333 E1.36825
G1 X106.4 Y108.263 E1.36985
G1 X106.4 Y107.234 E1.39039
G1 X106.623 Y106.696 E1.40201
G1 X107.73 Y106.206 E1.42617
G1 X107.73 Y106.714 E1.4363
G1 X107.842 Y106.63 E1.4391
G1 X108.352 Y106.353 E1.45068
G1 X108.883 Y106.157 E1.46198
G1 X109.06 Y106.119 E1.46559
G1 X109.06 Y105.713 E1.47369
G1 X109.346 Y105.645 E1.47956
G1 X110.041 Y105.591 E1.49347
G1 X110.39 Y105.618 E1.50045
G1 X110.39 Y106.025 E1.50858
G1 X110.578 Y106.04 E1.51234
G1 X111.136 Y106.163 E1.52374
G1 X111.667 Y106.361 E1.53505
G1 X111.72 Y106.39 E1.53626
G1 X111.72 Y105.95 E1.54504
G1 X113.05 Y106.494 E1.57371
G1 X113.05 Y107.411 E1.59201
G1 X113.37 Y107.842 E1.60273
G1 X113.647 Y108.352 E1.61431
G1 X113.843 Y108.883 E1.6256
G1 X113.963 Y109.44 E1.63697
G1 X114.003 Y110.009 E1.64836
G1 X113.96 Y110.578 E1.65974
G1 X113.837 Y111.136 E1.67115
G1 X113.639 Y111.667 E1.68246
G1 X113.36 Y112.173 E1.69399
G1 X113.05 Y112.589 E1.70434
G1 X113.028 Y112.619 E1.70508
G1 X112.618 Y113.028 E1.71664
G1 X112.158 Y113.37 E1.72808
G1 X111.72 Y113.607 E1.73802
G1 X111.72 Y114.034 E1.74654
G1 X111.387 Y114.181 E1.7538
G1 X110.651 Y114.356 E1.7689
G1 X110.39 Y114.377 E1.77413
G1 X110.39 Y113.974 E1.78217
G1 X109.991 Y114.003 E1.79015
G1 X109.422 Y113.96 E1.80154
G1 X109.06 Y113.881 E1.80893
G1 X109.06 Y114.287 E1.81703
G1 X108.631 Y114.186 E1.82583
G1 X107.73 Y113.812 E1.8453
G1 X107.73 Y113.288 E1.85575
G1 X107.381 Y113.028 E1.86444
G1 X106.972 Y112.618 E1.876
G1 X106.63 Y112.158 E1.88744
G1 X106.4 Y111.735 E1.89704
;;retract;;
G1 F6000 E-6.10296
G0 F5400 X105.243 Y112.248
G0 X106.047 Y114.054
G0 X108.363 Y115.016
G0 X109.204 Y115.215
G0 X110.003 Y115.279
G0 X110.791 Y115.216
G0 X111.664 Y115.009
G0 X114.06 Y113.942
G0 X114.394 Y113.14
G0 X113.05 Y112.589
G1 F6000 E1.89704
G1 F2217.1 X113.05 Y113.444 E1.91411
G1 X113.391 Y113.292 E1.92156
G1 X114.182 Y111.363 E1.96316
G1 X114.356 Y110.627 E1.97826
G1 X114.38 Y110.319 E1.98442
G1 X114.407 Y109.972 E1.99137
G1 X114.38 Y109.633 E1.99815
G1 X114.38 Y110.319 E2.01184
;;retract;;
G1 F6000 E-5.98816
;MESH:
G0 F5400 X115.246 Y110.387
G0 X110.468 Y108.229
G0 X110.39 Y107.33
;TYPE:WALL-OUTER
G1 F6000 E2.01184
G1 F1478.1 X109.988 Y107.3 E2.0219
G1 X109.612 Y107.332 E2.03131
G1 X109.567 Y107.336 E2.03244
G1 X109.236 Y107.415 E2.04093
G1 X109.159 Y107.434 E2.04291
G1 X108.883 Y107.548 E2.05036
G1 X108.67 Y107.636 E2.0561
G1 X108.67 Y107.647 E2.05638
G1 X108.67 Y107.86 E2.06169
G1 X108.67 Y108.672 E2.08195
G1 X107.854 Y108.679 E2.1023
G1 X107.649 Y108.68 E2.10742
G1 X107.631 Y108.681 E2.10787
G1 X107.549 Y108.881 E2.11326
G1 X107.427 Y109.181 E2.12134
G1 X107.415 Y109.234 E2.12269
G1 X107.331 Y109.592 E2.13187
G1 X107.33 Y109.611 E2.13234
G1 X107.3 Y110.012 E2.14237
G1 X107.331 Y110.388 E2.15178
G1 X107.335 Y110.432 E2.15288
G1 X107.415 Y110.764 E2.1614
G1 X107.434 Y110.841 E2.16338
G1 X107.548 Y111.117 E2.17083
G1 X107.636 Y111.33 E2.17658
G1 X107.647 Y111.33 E2.17685
G1 X107.86 Y111.33 E2.18217
G1 X108.672 Y111.33 E2.20242
G1 X108.679 Y112.146 E2.22278
G1 X108.68 Y112.351 E2.22789
G1 X108.681 Y112.369 E2.22834
G1 X108.881 Y112.451 E2.23373
G1 X109.181 Y112.573 E2.24181
G1 X109.234 Y112.585 E2.24317
G1 X109.591 Y112.668 E2.25231
G1 X109.61 Y112.669 E2.25279
G1 X110.012 Y112.7 E2.26284
G1 X110.388 Y112.669 E2.27226
G1 X110.432 Y112.665 E2.27336
G1 X110.764 Y112.585 E2.28188
G1 X110.84 Y112.566 E2.28383
G1 X111.117 Y112.452 E2.2913
G1 X111.328 Y112.364 E2.29701
G1 X111.328 Y112.353 E2.29728
G1 X111.328 Y112.141 E2.30257
G1 X111.33 Y111.328 E2.32285
G1 X112.146 Y111.321 E2.3432
G1 X112.351 Y111.32 E2.34832
G1 X112.369 Y111.319 E2.34877
G1 X112.451 Y111.119 E2.35416
G1 X112.573 Y110.819 E2.36224
G1 X112.585 Y110.766 E2.36359
G1 X112.669 Y110.408 E2.37277
G1 X112.67 Y110.39 E2.37322
G1 X112.7 Y109.988 E2.38327
G1 X112.669 Y109.612 E2.39268
G1 X112.665 Y109.568 E2.39379
G1 X112.585 Y109.236 E2.4023
G1 X112.566 Y109.159 E2.40428
G1 X112.452 Y108.883 E2.41173
G1 X112.364 Y108.67 E2.41748
G1 X112.353 Y108.67 E2.41776
G1 X112.14 Y108.67 E2.42307
G1 X111.33 Y108.67 E2.44327
G1 X111.329 Y107.86 E2.46348
G1 X111.329 Y107.648 E2.46877
G1 X111.328 Y107.636 E2.46907
G1 X111.118 Y107.55 E2.47473
G1 X110.818 Y107.427 E2.48282
G1 X110.766 Y107.415 E2.48415
G1 X110.408 Y107.331 E2.49332
G1 X110.39 Y107.33 E2.49377
G0 F5400 X110.191 Y107.316
G0 X110.397 Y107.229
G1 F687.5 X110.428 Y107.235
G1 X110.789 Y107.314 E2.4961
G1 X110.851 Y107.337 E2.49663
G1 X111.158 Y107.451 E2.49871
G1 X111.366 Y107.565 E2.50019
G1 X111.516 Y107.647 E2.50219
G1 X111.686 Y107.774 E2.50622
G1 X111.837 Y107.887 E2.51093
G1 X112.113 Y108.163 E2.52066
G1 X112.226 Y108.314 E2.52537
G1 X112.353 Y108.484 E2.52939
G1 X112.433 Y108.631 E2.53213
G1 X112.549 Y108.842 E2.53361
G1 X112.654 Y109.126 E2.5355
G1 X112.686 Y109.211 E2.53564
G1 X112.758 Y109.547 E2.53778
G1 X112.771 Y109.603
G1 X112.798 Y109.98 E2.54013
G1 X112.8 Y110 E2.54063
G1 X112.771 Y110.397 E2.54308
