;FLAVOR:Marlin
;TIME:3497
;Filament used:0.773032m
;Layer height: 0.15
;MINX:96.092
;MINY:96.075
;MINZ:0.15
;MAXX:123.929
;MAXY:123.925
;MAXZ:11.7
                            
;Creality Print GCode Generated by CXEngine:NO_MAGE_VERSION_GIT_HEAD_BRANCH
;CXEngine Release Time:2022-09-30 09:53:04
;Gcode Generated Time:2023-03-05 05:34:12
;----------Machine Config--------------
;Machine Name:Creality Ender-3
;Machine Height:250
;Machine Width:220
;Machine Depth:220
;Material name:PLA
;Number of Extruders:1
;ExtruderParams[0] Nozzle Diameter1000
;----------Profile Config---------------
;Engine Version:275f99b
;Engine Release Time:2022-09-30 09:42:18
;Layer Height:0.15
;Wall Thickness:0.8
;Top/Bottom Thickness:1
;Out Wall Line Width:0.4
;Inner Wall Line Width:0.4
;Inital Layer Height:150
;Wall Line Count:2
;Infill Line Distance:4
;Infill Pattern:grid
;Infill Sparse Density:20
;Infill Wipe Distance:0
;Print Temperature:200
;Bed Temperature:60
;Support Enable:true
;Support Density:30
;Support Angle:60
;Adhesion Type:none
;machine is belt:false
;machine belt offset:10
;machine belt offset Y:0
;Raft Base Line Spacing:1.6
;Wait Heatup Sync:true
;----------Shell Config----------------
;Outer Wall Wipe Distance:200
;Outer Inset First:false
;Infill Before Walls:false
;Infill Overlap:0.16
;Fill Gaps Between Walls:everywhere
;Minimum Infill Area:1
;Top Surface Skin Layer:0
;Top Layers:4
;Z Seam Alignment:sharpest_corner
;Seam Corner Preference:z_seam_corner_inner
;Z Seam X:110
;Z Seam Y:110
;Horizontal Expansion:0
;Top/Bottom Pattern:zigzag
;Ironing Pattern:zigzag
;Vase Model:false
;----------Support Config----------------
;Support Type:everywhere
;Support Pattern:zigzag
;Support Infill Layer Thickness:0.15
;Minimum Support Area:5
;Enable Support Roof:false
;Support Roof Thickness:0.8
;Support Roof Pattern:lines
;Connect Support Lines:0
;Connect Support ZigZags:1
;Minimum Support X/Y Distance:0.2
;Support Line Distance:1.33
; ---------PrintSpeed & Travel----------
;Enable Print Cool:true
;Avoid Printed Parts Traveling:true
;Enable Retraction:true
;Retraction Distance:8
;Retraction Speed:100
;Retraction Prime Speed:100
;Maximum Retraction Count:100
;Minimum Extrusion Distance Window:1
;Z Hop When Retracted:false
;Z Hop Height:0.2
;Retract Before Outer Wall:true
;Print Speed:50
;Infill Speed:50

;Prime Tower Speed:50
;Travel Speed:120
;Initial Layer Speed:25
;Skirt/Brim Speed:25
;Combing Mode:infill
; --------SpecialModel&Mesh Fixes--------
;Union Overlapping Volum:true
;Remove All Holes:false
;Maximum Travel Resolution:0.6
;Maximum Deviation:0.05
;Maximum Model Angle:0.872665
;IS Mold Print:false
;Make Overhang Printable:false
;Enable Coasting:false
;Coasting Volumes:0.06
;Coasting Speed:0.9
;Raft AirGap:0.25
;Layer0 ZOverLap:0.13
;---------------------End of Head--------------------------
M140 S60
M105
M104 S200
M105
M109 S200
M105
M190 S60
M82 ;absolute extrusion mode
M220 S100 ;Reset Feedrate
M221 S100 ;Reset Flowrate

G28 ;Home

G92 E0 ;Reset Extruder
G1 Z2.0 F3000 ;Move Z Axis up
G1 X10.1 Y20 Z0.28 F5000.0 ;Move to start position
G1 X10.1 Y145.0 Z0.28 F1500.0 E15 ;Draw the first line
G1 X10.4 Y145.0 Z0.28 F5000.0 ;Move to side a little
G1 X10.4 Y20 Z0.28 F1500.0 E30 ;Draw the second line
G92 E0  ;Reset Extruder
G1 E-1.0000 F1800 ;Retract a bit
G1 Z2.0 F3000 ;Move Z Axis up
G1 E0.0000 F1800 

G92 E0
G92 E0
G1 F6000 E-8

;LAYER_COUNT:78

;LAYER:0
M107
G0 F3600 X103.86 Y103.86 Z0.15
;TYPE:SUPPORT
G1 F6000 E0
G1 F1500 X102.44 Y103.86 E0.03117
G1 X102.44 Y103.767 E0.03321
G1 X102.767 Y103.44 E0.04336
G1 X103.86 Y103.44 E0.06736
G1 X103.86 Y103.86 E0.07658
G0 F3600 X104.26 Y104.26
G1 F1500 X102.04 Y104.26 E0.12531
G1 X102.04 Y103.601 E0.13978
G1 X102.601 Y103.04 E0.15719
G1 X104.26 Y103.04 E0.19361
G1 X104.26 Y104.26 E0.22039
G0 F3600 X104.66 Y104.66
G1 F1500 X101.926 Y104.66 E0.28041
G1 X101.295 Y104.711 E0.2943
G1 X101.64 Y104.367 E0.305
G1 X101.64 Y103.435 E0.32546
G1 X102.435 Y102.64 E0.35014
G1 X104.359 Y102.64 E0.39237
G1 X104.66 Y102.347 E0.40159
G1 X104.66 Y104.66 E0.45237
G0 F3600 X104.196 Y102.24
G1 F1500 X104.65 Y101.798 E0.46628
G1 X105.084 Y101.492 E0.47793
G1 X105.117 Y101.401 E0.48006
G1 X105.06 Y101.936 E0.49187
G1 X105.06 Y105.06 E0.56045
G1 X101.942 Y105.06 E0.62889
G1 X101.198 Y105.12 E0.64528
G1 X100.479 Y105.301 E0.66155
G1 X100.575 Y105.242 E0.66403
G1 X100.882 Y104.692 E0.67785
G1 X100.882 Y104.557 E0.68082
G1 X101.24 Y104.201 E0.6919
G1 X101.24 Y103.269 E0.71236
G1 X102.269 Y102.24 E0.7443
G1 X104.196 Y102.24 E0.7866
;;retract;;
G1 F6000 E-7.2134
G0 F3600 X103.656 Y101.142
G0 X105.085 Y98.685
G0 X105.721 Y97.89
G0 X106.483 Y97.228
G0 X107.326 Y96.709
G0 X108.265 Y96.328
G0 X109.25 Y96.12
G0 X110.25 Y96.075
G0 X111.251 Y96.203
G0 X112.21 Y96.498
G0 X113.105 Y96.951
G0 X113.914 Y97.545
G0 X114.61 Y98.272
G0 X115.071 Y98.953
G0 X116.095 Y101.132
G0 X114.94 Y105.06
G1 F6000 E0.7866
G1 F1500 X114.94 Y101.989 E0.85402
G1 X114.881 Y101.203 E0.87132
G1 X114.846 Y101.065 E0.87445
G1 X115.217 Y101.884 E0.89418
G1 X115.769 Y102.24 E0.9086
G1 X117.718 Y102.24 E0.95139
G1 X118.733 Y103.244 E0.98273
G1 X118.738 Y104.147 E1.00255
G1 X119.121 Y104.605 E1.01565
G1 X119.124 Y104.816 E1.02029
G1 X119.419 Y105.276 E1.03228
G1 X118.822 Y105.123 E1.04581
G1 X118.06 Y105.06 E1.06259
G1 X114.94 Y105.06 E1.13108
G0 F3600 X115.34 Y104.66
G1 F1500 X115.34 Y102.439 E1.17984
G1 X115.651 Y102.64 E1.18797
G1 X117.554 Y102.64 E1.22974
G1 X118.334 Y103.411 E1.25382
G1 X118.339 Y104.293 E1.27318
G1 X118.687 Y104.71 E1.2851
G1 X118.077 Y104.66 E1.29854
G1 X115.34 Y104.66 E1.35862
G0 F3600 X115.74 Y104.26
G1 F1500 X115.74 Y103.04 E1.3854
G1 X117.39 Y103.04 E1.42162
G1 X117.935 Y103.578 E1.43843
G1 X117.939 Y104.26 E1.4534
G1 X115.74 Y104.26 E1.50167
G0 F3600 X116.14 Y103.86
G1 F1500 X116.14 Y103.44 E1.51089
G1 X117.225 Y103.44 E1.53471
G1 X117.536 Y103.746 E1.54429
G1 X117.537 Y103.86 E1.54679
G1 X116.14 Y103.86 E1.57746
;;retract;;
G1 F6000 E-6.42254
G0 F3600 X116.095 Y101.132
G0 X118.172 Y101.133
G0 X119.838 Y102.78
G0 X122.611 Y106.274
G0 X123.18 Y107.113
G0 X123.59 Y108.025
G0 X123.841 Y108.991
G0 X123.927 Y109.997
G0 X123.839 Y111.012
G0 X123.589 Y111.976
G0 X123.187 Y112.874
G0 X122.606 Y113.733
G0 X119.866 Y117.187
G0 X118.187 Y118.866
G0 X116.096 Y118.868
G0 X114.94 Y114.94
G1 F6000 E1.57746
G1 F1500 X118.008 Y114.94 E1.64481
G1 X118.797 Y114.881 E1.66217
G1 X119.402 Y114.729 E1.67587
G1 X119.118 Y115.187 E1.6877
G1 X119.118 Y115.443 E1.69332
G1 X118.76 Y115.799 E1.7044
G1 X118.76 Y116.731 E1.72486
G1 X117.731 Y117.76 E1.7568
G1 X115.77 Y117.76 E1.79985
G1 X115.216 Y118.117 E1.81432
G1 X114.85 Y118.929 E1.83387
G1 X114.877 Y118.823 E1.83627
G1 X114.94 Y118.064 E1.85299
G1 X114.94 Y114.94 E1.92157
G0 F3600 X115.34 Y115.34
G1 F1500 X118.023 Y115.34 E1.98046
G1 X118.706 Y115.289 E1.9955
G1 X118.36 Y115.633 E2.00621
G1 X118.36 Y116.565 E2.02667
G1 X117.565 Y117.36 E2.05135
G1 X115.652 Y117.36 E2.09334
G1 X115.34 Y117.561 E2.10149
G1 X115.34 Y115.34 E2.15024
G0 F3600 X115.74 Y115.74
G1 F1500 X117.96 Y115.74 E2.19898
G1 X117.96 Y116.399 E2.21344
G1 X117.399 Y116.96 E2.23086
G1 X115.74 Y116.96 E2.26728
G1 X115.74 Y115.74 E2.29406
G0 F3600 X116.14 Y116.14
G1 F1500 X117.56 Y116.14 E2.32523
G1 X117.56 Y116.233 E2.32727
G1 X117.233 Y116.56 E2.33742
G1 X116.14 Y116.56 E2.36141
G1 X116.14 Y116.14 E2.37063
;;retract;;
G1 F6000 E-5.62937
G0 F3600 X116.096 Y118.868
G0 X115.185 Y120.878
G0 X114.609 Y121.729
G0 X113.916 Y122.453
G0 X113.106 Y123.05
G0 X112.208 Y123.503
G0 X111.251 Y123.797
G0 X110.25 Y123.925
G0 X109.25 Y123.88
G0 X108.265 Y123.672
G0 X107.326 Y123.291
G0 X106.644 Y122.871
G0 X101.489 Y118.553
G0 X105.06 Y114.94
G1 F6000 E2.37063
G1 F1500 X105.06 Y118.011 E2.43805
G1 X105.101 Y118.555 E2.45002
G1 X105.084 Y118.508 E2.45112
G1 X104.619 Y118.18 E2.46361
G1 X104.201 Y117.76 E2.47662
G1 X102.264 Y117.76 E2.51914
G1 X101.247 Y116.756 E2.55051
G1 X101.24 Y115.839 E2.57064
G1 X100.878 Y115.46 E2.58215
G1 X100.876 Y115.303 E2.58559
G1 X100.571 Y114.757 E2.59932
G1 X100.471 Y114.695 E2.6019
G1 X101.178 Y114.877 E2.61793
G1 X101.94 Y114.94 E2.63471
G1 X105.06 Y114.94 E2.7032
G0 F3600 X104.66 Y115.34
G1 F1500 X104.66 Y117.654 E2.754
G1 X104.367 Y117.36 E2.76311
G1 X102.429 Y117.36 E2.80565
G1 X101.646 Y116.587 E2.82981
G1 X101.639 Y115.677 E2.84978
G1 X101.276 Y115.287 E2.86148
G1 X101.923 Y115.34 E2.87573
G1 X104.66 Y115.34 E2.93581
G0 F3600 X104.26 Y115.74
G1 F1500 X104.26 Y116.96 E2.96259
G1 X102.594 Y116.96 E2.99916
G1 X102.045 Y116.418 E3.0161
G1 X102.04 Y115.74 E3.03098
G1 X104.26 Y115.74 E3.07972
G0 F3600 X103.86 Y116.14
G1 F1500 X103.86 Y116.56 E3.08894
G1 X102.759 Y116.56 E3.1131
G1 X102.444 Y116.249 E3.12282
G1 X102.443 Y116.14 E3.12521
G1 X103.86 Y116.14 E3.15632
;;retract;;
G1 F6000 E-4.84368
G0 F3600 X103.642 Y118.858
G0 X101.81 Y118.866
G0 X100.145 Y117.22
G0 X97.091 Y113.323
G0 X96.6 Y112.445
G0 X96.261 Y111.488
G0 X96.092 Y110.496
G0 X96.092 Y109.504
G0 X96.261 Y108.512
G0 X96.6 Y107.555
G0 X97.09 Y106.679
G0 X100.134 Y102.813
G0 X101.813 Y101.134
G0 X106.483 Y97.228
G0 X107.326 Y96.709
G0 X108.265 Y96.328
G0 X109.25 Y96.12
G0 X110.25 Y96.075
G0 X111.558 Y96.297
G0 X110.379 Y100.137
G1 F6000 E3.15632
G1 F1500 X110.667 Y100.221 E3.16291
G1 X110.994 Y100.381 E3.1709
G1 X111.243 Y100.56 E3.17763
G1 X111.471 Y100.79 E3.18474
G1 X111.648 Y101.048 E3.19161
G1 X111.784 Y101.336 E3.1986
G1 X111.875 Y101.667 E3.20613
G1 X111.903 Y101.973 E3.21288
G1 X111.876 Y102.305 E3.22019
G1 X111.805 Y102.594 E3.22672
G1 X111.663 Y102.92 E3.23453
G1 X111.494 Y103.178 E3.2413
G1 X111.285 Y103.403 E3.24804
G1 X111.007 Y103.613 E3.25569
G1 X110.738 Y103.751 E3.26232
G1 X110.415 Y103.855 E3.26977
G1 X110.122 Y103.898 E3.27627
G1 X109.745 Y103.885 E3.28456
G1 X109.486 Y103.833 E3.29035
G1 X109.171 Y103.709 E3.29779
G1 X108.878 Y103.537 E3.30524
G1 X108.648 Y103.34 E3.31189
G1 X108.44 Y103.088 E3.31906
G1 X108.279 Y102.809 E3.32614
G1 X108.161 Y102.487 E3.33366
G1 X108.11 Y102.202 E3.34002
G1 X108.104 Y101.842 E3.34792
G1 X108.155 Y101.527 E3.35493
G1 X108.256 Y101.232 E3.36177
G1 X108.401 Y100.963 E3.36848
G1 X108.605 Y100.703 E3.37574
G1 X108.84 Y100.492 E3.38267
G1 X109.112 Y100.321 E3.38972
G1 X109.421 Y100.193 E3.39706
G1 X109.771 Y100.111 E3.40495
G1 X110.033 Y100.098 E3.41071
G1 X110.379 Y100.137 E3.41836
G0 F3600 X110.297 Y100.53
G1 F1500 X109.822 Y100.509 E3.42879
G1 X109.549 Y100.573 E3.43495
G1 X109.296 Y100.678 E3.44096
G1 X109.081 Y100.814 E3.44655
G1 X108.899 Y100.977 E3.45191
G1 X108.736 Y101.184 E3.45769
G1 X108.545 Y101.622 E3.46818
G1 X108.505 Y101.871 E3.47372
G1 X108.509 Y102.163 E3.48013
G1 X108.548 Y102.38 E3.48497
G1 X108.645 Y102.644 E3.49114
G1 X108.769 Y102.858 E3.49657
G1 X108.934 Y103.058 E3.50226
G1 X109.112 Y103.211 E3.50742
G1 X109.345 Y103.348 E3.51335
G1 X109.6 Y103.448 E3.51936
G1 X110.1 Y103.497 E3.53039
G1 X110.323 Y103.464 E3.53534
G1 X110.585 Y103.38 E3.54138
G1 X110.796 Y103.271 E3.54659
G1 X111.016 Y103.105 E3.55264
G1 X111.176 Y102.933 E3.5578
G1 X111.309 Y102.73 E3.56313
G1 X111.426 Y102.46 E3.56959
G1 X111.502 Y101.971 E3.58045
G1 X111.481 Y101.742 E3.5855
G1 X111.407 Y101.476 E3.59156
G1 X111.299 Y101.246 E3.59714
G1 X111.162 Y101.047 E3.60244
G1 X110.981 Y100.864 E3.60809
G1 X110.788 Y100.725 E3.61331
G1 X110.523 Y100.596 E3.61978
G1 X110.297 Y100.53 E3.62495
G0 F3600 X110.233 Y100.928
G1 F1500 X110.581 Y101.069 E3.63319
G1 X110.852 Y101.302 E3.64104
G1 X111.032 Y101.617 E3.649
G1 X111.099 Y101.959 E3.65665
G1 X111.039 Y102.347 E3.66527
G1 X110.858 Y102.687 E3.67372
G1 X110.583 Y102.931 E3.68179
G1 X110.234 Y103.072 E3.69006
G1 X110.088 Y103.094 E3.6933
G1 X109.693 Y103.055 E3.70201
G1 X109.344 Y102.883 E3.71055
G1 X109.097 Y102.626 E3.71838
G1 X108.937 Y102.279 E3.72677
G1 X108.905 Y101.9 E3.73511
G1 X108.932 Y101.737 E3.73874
G1 X109.084 Y101.388 E3.7471
G1 X109.323 Y101.134 E3.75475
G1 X109.672 Y100.955 E3.76336
G1 X109.856 Y100.911 E3.76752
G1 X110.233 Y100.928 E3.7758
G0 F3600 X110.147 Y101.325
G1 F1500 X109.893 Y101.313 E3.78138
G1 X109.566 Y101.459 E3.78924
G1 X109.424 Y101.61 E3.79379
G1 X109.319 Y101.852 E3.79959
G1 X109.33 Y102.178 E3.80675
G1 X109.432 Y102.398 E3.81207
G1 X109.582 Y102.554 E3.81682
G1 X109.806 Y102.664 E3.8223
G1 X110.075 Y102.691 E3.82823
G1 X110.371 Y102.585 E3.83513
G1 X110.538 Y102.437 E3.84003
G1 X110.654 Y102.218 E3.84547
G1 X110.693 Y101.969 E3.851
G1 X110.651 Y101.756 E3.85577
G1 X110.54 Y101.561 E3.8607
G1 X110.371 Y101.416 E3.86558
G1 X110.147 Y101.325 E3.87089
G0 F3600 X109.968 Y101.717
G1 F1500 X110.161 Y101.763 E3.87525
G1 X110.272 Y101.9 E3.87912
G1 X110.269 Y102.091 E3.88331
G1 X110.166 Y102.233 E3.88716
G1 X110.024 Y102.284 E3.89047
G1 X109.821 Y102.226 E3.89511
G1 X109.727 Y102.084 E3.89885
G1 X109.722 Y101.928 E3.90227
G1 X109.802 Y101.791 E3.90576
G1 X109.968 Y101.717 E3.90975
G0 F3600 X110.313 Y107.768
G1 F1500 X110.66 Y107.841 E3.91753
G1 X111.016 Y107.985 E3.92596
G1 X111.333 Y108.179 E3.93412
G1 X111.613 Y108.425 E3.9423
G1 X111.87 Y108.745 E3.95131
G1 X112.056 Y109.078 E3.95968
G1 X112.145 Y109.308 E3.9651
G1 X112.245 Y109.809 E3.97631
G1 X112.248 Y110.193 E3.98474
G1 X112.187 Y110.538 E3.99243
G1 X112.041 Y110.955 E4.00213
G1 X111.874 Y111.255 E4.00967
G1 X111.625 Y111.565 E4.01839
G1 X111.355 Y111.803 E4.0263
G1 X111.024 Y112.007 E4.03483
G1 X110.648 Y112.16 E4.04374
G1 X110.318 Y112.23 E4.05115
G1 X109.895 Y112.249 E4.06044
G1 X109.521 Y112.201 E4.06872
G1 X109.143 Y112.087 E4.07739
G1 X108.852 Y111.941 E4.08453
G1 X108.483 Y111.667 E4.09462
G1 X108.25 Y111.423 E4.10203
G1 X108.035 Y111.108 E4.1104
G1 X107.868 Y110.74 E4.11927
G1 X107.773 Y110.372 E4.12761
G1 X107.737 Y109.994 E4.13595
G1 X107.769 Y109.649 E4.14356
G1 X107.868 Y109.264 E4.15228
G1 X108.034 Y108.899 E4.16108
G1 X108.248 Y108.58 E4.16952
G1 X108.492 Y108.325 E4.17726
G1 X108.831 Y108.076 E4.1865
G1 X109.166 Y107.902 E4.19478
G1 X109.498 Y107.802 E4.20239
G1 X109.897 Y107.75 E4.21123
G1 X110.313 Y107.768 E4.22037
G0 F3600 X110.268 Y108.167
G1 F1500 X109.915 Y108.151 E4.22813
G1 X109.579 Y108.195 E4.23556
G1 X109.317 Y108.274 E4.24157
G1 X109.043 Y108.417 E4.24836
G1 X108.759 Y108.625 E4.25608
G1 X108.56 Y108.833 E4.2624
G1 X108.385 Y109.094 E4.2693
G1 X108.246 Y109.399 E4.27666
G1 X108.164 Y109.718 E4.28389
G1 X108.139 Y109.993 E4.28995
G1 X108.168 Y110.303 E4.29678
G1 X108.246 Y110.607 E4.30367
G1 X108.385 Y110.913 E4.31105
G1 X108.561 Y111.17 E4.31789
G1 X108.749 Y111.366 E4.32385
G1 X109.059 Y111.597 E4.33234
G1 X109.294 Y111.715 E4.33811
G1 X109.603 Y111.808 E4.34519
G1 X109.911 Y111.847 E4.35201
G1 X110.271 Y111.831 E4.35992
G1 X110.526 Y111.777 E4.36564
G1 X110.843 Y111.648 E4.37315
G1 X111.117 Y111.479 E4.38022
G1 X111.337 Y111.286 E4.38665
G1 X111.541 Y111.031 E4.39381
G1 X111.673 Y110.794 E4.39977
G1 X111.799 Y110.435 E4.40812
G1 X111.848 Y110.159 E4.41427
G1 X111.845 Y109.848 E4.4211
G1 X111.76 Y109.421 E4.43066
G1 X111.537 Y108.969 E4.44172
G1 X111.322 Y108.702 E4.44925
G1 X111.097 Y108.503 E4.45584
G1 X110.837 Y108.344 E4.46253
G1 X110.539 Y108.224 E4.46958
G1 X110.268 Y108.167 E4.47566
G0 F3600 X110.421 Y108.607
G1 F1500 X110.656 Y108.702 E4.48123
G1 X110.857 Y108.825 E4.4864
G1 X111.031 Y108.979 E4.4915
G1 X111.198 Y109.186 E4.49734
G1 X111.379 Y109.553 E4.50632
G1 X111.445 Y109.888 E4.51382
G1 X111.448 Y110.125 E4.51902
G1 X111.41 Y110.338 E4.52377
G1 X111.308 Y110.628 E4.53052
G1 X111.049 Y111.006 E4.54058
G1 X110.875 Y111.159 E4.54566
G1 X110.662 Y111.29 E4.55115
G1 X110.225 Y111.432 E4.56124
G1 X109.926 Y111.446 E4.56781
G1 X109.685 Y111.415 E4.57314
G1 X109.274 Y111.258 E4.5828
G1 X109.015 Y111.065 E4.58989
G1 X108.734 Y110.714 E4.59976
G1 X108.624 Y110.473 E4.60558
G1 X108.54 Y109.992 E4.6163
G1 X108.624 Y109.535 E4.6265
G1 X108.736 Y109.289 E4.63243
G1 X108.872 Y109.086 E4.63779
G1 X109.025 Y108.926 E4.64265
G1 X109.471 Y108.645 E4.65422
G1 X109.932 Y108.553 E4.66454
G1 X110.421 Y108.607 E4.67534
G0 F3600 X110.323 Y108.999
G1 F1500 X109.947 Y108.958 E4.68365
G1 X109.621 Y109.023 E4.69094
G1 X109.28 Y109.238 E4.69979
G1 X109.186 Y109.336 E4.70277
