;FLAVOR:Marlin
;TIME:1116
;Filament used:0.247243m
;Layer height: 0.15
;MINX:102.13
;MINY:103.13
;MINZ:0.15
;MAXX:117.87
;MAXY:116.87
;MAXZ:5.4
                               
;Creality Print GCode Generated by CXEngine:NO_MAGE_VERSION_GIT_HEAD_BRANCH
;CXEngine Release Time:2022-09-30 09:53:04
;Gcode Generated Time:2023-03-05 05:35:13
;----------Machine Config--------------
;Machine Name:Creality Ender-3
;Machine Height:250
;Machine Width:220
;Machine Depth:220
;Material name:PLA
;Number of Extruders:1
;ExtruderParams[0] Nozzle Diameter1000
;----------Profile Config---------------
;Engine Version:275f99b
;Engine Release Time:2022-09-30 09:42:18
;Layer Height:0.15
;Wall Thickness:0.8
;Top/Bottom Thickness:1
;Out Wall Line Width:0.4
;Inner Wall Line Width:0.4
;Inital Layer Height:150
;Wall Line Count:2
;Infill Line Distance:4
;Infill Pattern:grid
;Infill Sparse Density:20
;Infill Wipe Distance:0
;Print Temperature:200
;Bed Temperature:60
;Support Enable:true
;Support Density:30
;Support Angle:60
;Adhesion Type:none
;machine is belt:false
;machine belt offset:10
;machine belt offset Y:0
;Raft Base Line Spacing:1.6
;Wait Heatup Sync:true
;----------Shell Config----------------
;Outer Wall Wipe Distance:200
;Outer Inset First:false
;Infill Before Walls:false
;Infill Overlap:0.16
;Fill Gaps Between Walls:everywhere
;Minimum Infill Area:1
;Top Surface Skin Layer:0
;Top Layers:4
;Z Seam Alignment:sharpest_corner
;Seam Corner Preference:z_seam_corner_inner
;Z Seam X:110
;Z Seam Y:110
;Horizontal Expansion:0
;Top/Bottom Pattern:zigzag
;Ironing Pattern:zigzag
;Vase Model:false
;----------Support Config----------------
;Support Type:everywhere
;Support Pattern:zigzag
;Support Infill Layer Thickness:0.15
;Minimum Support Area:5
;Enable Support Roof:false
;Support Roof Thickness:0.8
;Support Roof Pattern:lines
;Connect Support Lines:0
;Connect Support ZigZags:1
;Minimum Support X/Y Distance:0.2
;Support Line Distance:1.33
; ---------PrintSpeed & Travel----------
;Enable Print Cool:true
;Avoid Printed Parts Traveling:true
;Enable Retraction:true
;Retraction Distance:8
;Retraction Speed:100
;Retraction Prime Speed:100
;Maximum Retraction Count:100
;Minimum Extrusion Distance Window:1
;Z Hop When Retracted:false
;Z Hop Height:0.2
;Retract Before Outer Wall:true
;Print Speed:50
;Infill Speed:50

;Prime Tower Speed:50
;Travel Speed:120
;Initial Layer Speed:25
;Skirt/Brim Speed:25
;Combing Mode:infill
; --------SpecialModel&Mesh Fixes--------
;Union Overlapping Volum:true
;Remove All Holes:false
;Maximum Travel Resolution:0.6
;Maximum Deviation:0.05
;Maximum Model Angle:0.872665
;IS Mold Print:false
;Make Overhang Printable:false
;Enable Coasting:false
;Coasting Volumes:0.06
;Coasting Speed:0.9
;Raft AirGap:0.25
;Layer0 ZOverLap:0.13
;---------------------End of Head--------------------------
M140 S60
M105
M104 S200
M105
M109 S200
M105
M190 S60
M82 ;absolute extrusion mode
M220 S100 ;Reset Feedrate
M221 S100 ;Reset Flowrate

G28 ;Home

G92 E0 ;Reset Extruder
G1 Z2.0 F3000 ;Move Z Axis up
G1 X10.1 Y20 Z0.28 F5000.0 ;Move to start position
G1 X10.1 Y145.0 Z0.28 F1500.0 E15 ;Draw the first line
G1 X10.4 Y145.0 Z0.28 F5000.0 ;Move to side a little
G1 X10.4 Y20 Z0.28 F1500.0 E30 ;Draw the second line
G92 E0  ;Reset Extruder
G1 E-1.0000 F1800 ;Retract a bit
G1 Z2.0 F3000 ;Move Z Axis up
G1 E0.0000 F1800 

G92 E0
G92 E0
G1 F6000 E-8

;LAYER_COUNT:36

;LAYER:0
M107
G0 F3600 X111.345 Y109.959 Z0.15
;TYPE:SUPPORT
G1 F6000 E0
G1 F1500 X111.288 Y110.348 E0.00863
G1 X108.705 Y110.343 E0.06533
G1 X108.659 Y109.996 E0.07302
G1 X108.707 Y109.65 E0.08068
G1 X111.285 Y109.645 E0.13728
G1 X111.345 Y109.959 E0.14429
G0 F3600 X111.749 Y109.943
G1 F1500 X111.7 Y110.399 E0.15436
G1 X111.555 Y110.749 E0.16268
G1 X108.42 Y110.742 E0.2315
G1 X108.3 Y110.398 E0.23949
G1 X108.256 Y109.998 E0.24833
G1 X108.296 Y109.615 E0.25678
G1 X108.424 Y109.251 E0.26525
G1 X111.556 Y109.244 E0.334
G1 X111.648 Y109.415 E0.33827
G1 X111.749 Y109.943 E0.35007
G0 F3600 X112.151 Y109.953
G1 F1500 X112.092 Y110.498 E0.3621
G1 X111.831 Y111.126 E0.37703
G1 X111.816 Y111.148 E0.37761
G1 X108.209 Y111.157 E0.45679
G1 X108.057 Y110.917 E0.46303
G1 X107.907 Y110.485 E0.47307
G1 X107.854 Y110 E0.48378
G1 X107.903 Y109.53 E0.49415
G1 X108.056 Y109.086 E0.50446
G1 X108.202 Y108.852 E0.51051
G1 X111.794 Y108.843 E0.58936
G1 X112.026 Y109.273 E0.60009
G1 X112.138 Y109.766 E0.61119
G1 X112.151 Y109.953 E0.6153
G0 F3600 X112.552 Y109.964
G1 F1500 X112.487 Y110.571 E0.6287
G1 X112.426 Y110.789 E0.63367
G1 X112.179 Y111.325 E0.64663
G1 X112.026 Y111.547 E0.65255
G1 X107.989 Y111.558 E0.74117
G1 X107.693 Y111.088 E0.75336
G1 X107.514 Y110.574 E0.76531
G1 X107.452 Y110.002 E0.77794
G1 X107.51 Y109.443 E0.79027
G1 X107.693 Y108.913 E0.80258
G1 X107.979 Y108.453 E0.81447
G1 X112.014 Y108.442 E0.90305
G1 X112.308 Y108.907 E0.91512
G1 X112.409 Y109.152 E0.92094
G1 X112.535 Y109.707 E0.93344
G1 X112.552 Y109.964 E0.93909
G0 F3600 X112.953 Y109.974
G1 F1500 X112.882 Y110.645 E0.9539
G1 X112.802 Y110.929 E0.96038
G1 X112.528 Y111.522 E0.97472
G1 X112.327 Y111.814 E0.9825
G1 X112.199 Y111.946 E0.98654
G1 X107.799 Y111.959 E1.08312
G1 X107.695 Y111.843 E1.08654
G1 X107.33 Y111.263 E1.10159
G1 X107.121 Y110.663 E1.11553
G1 X107.049 Y110.003 E1.13011
G1 X107.117 Y109.356 E1.14439
G1 X107.33 Y108.74 E1.1587
G1 X107.684 Y108.17 E1.17343
G1 X107.79 Y108.054 E1.17688
G1 X112.186 Y108.041 E1.27338
G1 X112.325 Y108.185 E1.27777
G1 X112.667 Y108.727 E1.29184
G1 X112.791 Y109.027 E1.29896
G1 X112.932 Y109.65 E1.31298
G1 X112.953 Y109.974 E1.32011
G0 F3600 X113.354 Y109.984
G1 F1500 X113.277 Y110.72 E1.33636
G1 X113.179 Y111.067 E1.34427
G1 X112.875 Y111.724 E1.36016
G1 X112.641 Y112.064 E1.36922
G1 X112.368 Y112.346 E1.37784
G1 X107.621 Y112.359 E1.48204
G1 X107.373 Y112.084 E1.49017
G1 X106.974 Y111.449 E1.50664
G1 X106.832 Y111.104 E1.51483
G1 X106.726 Y110.735 E1.52325
G1 X106.646 Y110.005 E1.53937
G1 X106.723 Y109.28 E1.55538
G1 X106.821 Y108.933 E1.56329
G1 X106.967 Y108.571 E1.57186
G1 X107.129 Y108.27 E1.57937
G1 X107.367 Y107.924 E1.58859
G1 X107.612 Y107.654 E1.59659
G1 X112.355 Y107.641 E1.70071
G1 X112.642 Y107.936 E1.70974
G1 X113.021 Y108.538 E1.72536
G1 X113.174 Y108.907 E1.73413
G1 X113.329 Y109.593 E1.74956
G1 X113.354 Y109.984 E1.75816
G0 F3600 X113.754 Y109.981
G1 F1500 X113.732 Y110.4 E1.76737
G1 X113.668 Y110.808 E1.77644
G1 X113.558 Y111.197 E1.78531
G1 X113.398 Y111.594 E1.79471
G1 X113.212 Y111.94 E1.80333
G1 X112.953 Y112.317 E1.81337
G1 X112.539 Y112.746 E1.82646
G1 X107.474 Y112.759 E1.93765
G1 X107.309 Y112.619 E1.9424
G1 X107.059 Y112.334 E1.95072
G1 X106.805 Y111.97 E1.96046
G1 X106.612 Y111.621 E1.96922
G1 X106.453 Y111.236 E1.97836
G1 X106.337 Y110.831 E1.98761
G1 X106.272 Y110.444 E1.99622
G1 X106.246 Y110.008 E2.00581
G1 X106.268 Y109.599 E2.0148
G1 X106.332 Y109.192 E2.02385
G1 X106.442 Y108.803 E2.03272
G1 X106.602 Y108.406 E2.04212
G1 X106.788 Y108.06 E2.05074
G1 X107.051 Y107.678 E2.06092
G1 X107.289 Y107.404 E2.06889
G1 X107.463 Y107.254 E2.07393
G1 X112.523 Y107.241 E2.18501
G1 X112.949 Y107.677 E2.19839
G1 X113.199 Y108.032 E2.20792
G1 X113.382 Y108.363 E2.21622
G1 X113.55 Y108.771 E2.22591
G1 X113.661 Y109.158 E2.23475
G1 X113.727 Y109.55 E2.24347
G1 X113.754 Y109.981 E2.25295
G0 F3600 X114.154 Y109.977
G1 F1500 X114.13 Y110.444 E2.26322
G1 X114.059 Y110.896 E2.27326
G1 X113.938 Y111.324 E2.28302
G1 X113.76 Y111.766 E2.29348
G1 X113.551 Y112.153 E2.30314
G1 X113.27 Y112.562 E2.31403
G1 X112.995 Y112.88 E2.32326
G1 X112.688 Y113.146 E2.33218
G1 X107.328 Y113.159 E2.44984
G1 X107.027 Y112.904 E2.4585
G1 X106.746 Y112.584 E2.46785
G1 X106.464 Y112.181 E2.47864
G1 X106.251 Y111.796 E2.4883
G1 X106.073 Y111.364 E2.49856
G1 X105.948 Y110.928 E2.50852
G1 X105.875 Y110.495 E2.51815
G1 X105.846 Y110.011 E2.5288
G1 X105.87 Y109.555 E2.53882
G1 X105.941 Y109.104 E2.54884
G1 X106.062 Y108.676 E2.55861
G1 X106.24 Y108.234 E2.56907
G1 X106.449 Y107.847 E2.57872
G1 X106.73 Y107.438 E2.58962
G1 X107.009 Y107.117 E2.59895
G1 X107.313 Y106.854 E2.60778
G1 X112.67 Y106.841 E2.72537
G1 X112.973 Y107.099 E2.73411
G1 X113.261 Y107.425 E2.74366
G1 X113.538 Y107.819 E2.75423
G1 X113.744 Y108.192 E2.76358
G1 X113.927 Y108.637 E2.77415
G1 X114.051 Y109.067 E2.78397
G1 X114.125 Y109.507 E2.79376
G1 X114.154 Y109.977 E2.8041
G0 F3600 X114.554 Y109.977
G1 F1500 X114.528 Y110.489 E2.81535
G1 X114.45 Y110.984 E2.82635
G1 X114.318 Y111.45 E2.83699
G1 X114.122 Y111.938 E2.84853
G1 X113.893 Y112.362 E2.85911
G1 X113.588 Y112.806 E2.87093
G1 X113.279 Y113.163 E2.8813
G1 X112.837 Y113.546 E2.89414
G1 X107.183 Y113.559 E3.01825
G1 X106.746 Y113.189 E3.03082
G1 X106.429 Y112.829 E3.04135
G1 X106.123 Y112.392 E3.05306
G1 X105.89 Y111.971 E3.06362
G1 X105.696 Y111.498 E3.07485
G1 X105.558 Y111.019 E3.08579
G1 X105.477 Y110.538 E3.0965
G1 X105.446 Y110.014 E3.10802
G1 X105.472 Y109.511 E3.11908
G1 X105.55 Y109.016 E3.13008
G1 X105.682 Y108.55 E3.14071
G1 X105.878 Y108.062 E3.15225
G1 X106.107 Y107.638 E3.16283
G1 X106.414 Y107.191 E3.17473
G1 X106.722 Y106.837 E3.18503
G1 X107.163 Y106.454 E3.19786
G1 X112.816 Y106.441 E3.32195
G1 X113.255 Y106.813 E3.33458
G1 X113.573 Y107.173 E3.34513
G1 X113.877 Y107.606 E3.35674
G1 X114.106 Y108.021 E3.36714
G1 X114.304 Y108.503 E3.37858
G1 X114.441 Y108.976 E3.38939
G1 X114.523 Y109.464 E3.40026
G1 X114.554 Y109.977 E3.41154
G0 F3600 X114.954 Y109.977
G1 F1500 X114.926 Y110.535 E3.4238
G1 X114.842 Y111.065 E3.43558
G1 X114.843 Y111.065 E3.4356
G1 X114.698 Y111.576 E3.44726
G1 X114.484 Y112.109 E3.45987
G1 X114.233 Y112.575 E3.47149
G1 X113.909 Y113.046 E3.48404
G1 X113.562 Y113.446 E3.49566
G1 X112.986 Y113.946 E3.51241
G1 X107.038 Y113.959 E3.64298
G1 X106.462 Y113.472 E3.65953
G1 X106.115 Y113.079 E3.67104
G1 X105.785 Y112.607 E3.68369
G1 X105.528 Y112.142 E3.69535
G1 X105.319 Y111.632 E3.70745
G1 X105.168 Y111.11 E3.71938
G1 X105.079 Y110.581 E3.73115
G1 X105.046 Y110.017 E3.74355
G1 X105.074 Y109.465 E3.75569
G1 X105.158 Y108.935 E3.76747
G1 X105.157 Y108.935 E3.76749
G1 X105.302 Y108.424 E3.77915
G1 X105.516 Y107.891 E3.79176
G1 X105.767 Y107.425 E3.80337
G1 X106.093 Y106.951 E3.816
G1 X106.439 Y106.553 E3.82758
G1 X107.014 Y106.054 E3.84429
G1 X112.962 Y106.041 E3.97486
G1 X113.536 Y106.526 E3.99136
G1 X113.885 Y106.921 E4.00293
G1 X114.216 Y107.393 E4.01558
G1 X114.468 Y107.85 E4.02704
G1 X114.681 Y108.368 E4.03933
G1 X114.831 Y108.886 E4.05117
G1 X114.921 Y109.419 E4.06304
G1 X114.954 Y109.977 E4.07531
;;retract;;
G1 F6000 E-3.92469
;MESH:
G0 F3600 X117.87 Y109.977
G0 X117.866 Y116.359
G0 X117.359 Y116.866
G0 X105.281 Y116.87
G0 X105.281 Y115.6
G0 X106.155 Y115.6
;TYPE:WALL-INNER
G1 F6000 E4.07531
G1 F600 X105.476 Y115.6 E4.09394
G1 X105.281 Y115.6 E4.09929
G1 X105.476 Y115.358 E4.10343
G1 X105.537 Y115.119 E4.1102
G1 X105.614 Y115.179
G1 X106.155 Y115.6 E4.12901
G0 F3600 X104.492 Y113.969
G1 F600 X104.247 Y113.959 E4.13574
G1 X103.777 Y114.307 E4.15178
G1 X103.693 Y114.369 E4.15465
G1 X103.516 Y115.037 E4.17361
G1 X103.707 Y115.46 E4.18635
G1 X103.771 Y115.6 E4.19057
G1 X103.4 Y115.6 E4.19713
G1 X103.4 Y115.037 E4.20663
G1 X103.4 Y114.369 E4.21595
G1 X103.4 Y114.264 E4.21849
G1 X103.4 Y112.793 E4.25886
G1 X103.4 Y112.241 E4.274
G1 X103.4 Y111.614 E4.29121
G1 X103.581 Y112.241 E4.29567
G1 X103.79 Y112.751 E4.30674
G1 X103.866 Y112.935 E4.3122
G1 X104.228 Y113.594 E4.33283
G1 X104.406 Y113.846 E4.33888
G1 X104.492 Y113.969 E4.3393
;;retract;;
G1 F6000 E-3.6607
G0 F3600 X103.939 Y115.002
;TYPE:WALL-OUTER
G1 F6000 E4.3393
G1 F600 X104.108 Y115.374 E4.35051
G1 X104.472 Y115.557 E4.36169
G1 X104.871 Y115.472 E4.37289
G1 X105.11 Y115.175 E4.38335
G1 X105.148 Y115.025 E4.38759
G1 X105.086 Y114.664 E4.39764
G1 X105.084 Y114.652 E4.39798
G1 X104.931 Y114.517 E4.40358
G1 X104.778 Y114.382 E4.40918
G1 X104.371 Y114.365 E4.42035
G1 X104.044 Y114.607 E4.43152
G1 X103.939 Y115.002 E4.44273
G0 F3600 X104.021 Y115.184
G0 X103.62 Y115.365
;;retract;;
G1 F6000 E-3.55727
G0 F3600 X102.13 Y115.365
G0 X102.134 Y103.641
G0 X102.641 Y103.134
G0 X105.515 Y103.13
G0 X105.515 Y104.9
G0 X106.154 Y104.4
;TYPE:WALL-INNER
G1 F6000 E4.44273
G1 F600 X105.65 Y104.794 E4.46028
G1 X105.515 Y104.9 E4.46499
G1 X105.454 Y104.545 E4.47101
G1 X105.29 Y104.4 E4.47702
G1 X105.454 Y104.4 E4.4775
G1 X106.154 Y104.4 E4.49671
;;retract;;
G1 F6000 E-3.50329
G0 F3600 X106.154 Y103.13
G0 X102.641 Y103.134
G0 X102.134 Y103.641
G0 X102.13 Y108.393
G0 X103.4 Y108.393
G1 F6000 E4.49671
G1 F600 X103.4 Y107.813 E4.51262
G1 X103.4 Y107.201 E4.52942
G1 X103.4 Y105.791 E4.56811
G1 X103.4 Y105.137 E4.58605
G1 X103.4 Y104.469 E4.60438
G1 X103.4 Y104.4 E4.60628
G1 X103.693 Y104.4 E4.61216
G1 X103.786 Y104.4 E4.61449
G1 X103.693 Y104.469 E4.61517
G1 X103.516 Y105.137 E4.62512
G1 X103.786 Y105.733 E4.63685
G1 X103.802 Y105.768 E4.63791
G1 X104.231 Y105.984 E4.65109
G1 X104.418 Y106.078 E4.65683
G1 X104.465 Y106.068 E4.65815
G1 X104.446 Y106.096
G1 X104.327 Y106.268 E4.66191
G1 X104.198 Y106.454 E4.66812
G1 X103.842 Y107.116 E4.68874
G1 X103.79 Y107.246 E4.69258
G1 X103.562 Y107.813 E4.70446
G1 X103.4 Y108.393 E4.70818
;;retract;;
G1 F6000 E-3.29182
G0 F3600 X104.871 Y105.572
;TYPE:WALL-OUTER
G1 F6000 E4.70818
G1 F600 X105.092 Y105.297 E4.71786
G1 X105.096 Y105.292 E4.71803
G1 X105.11 Y105.275 E4.71864
G1 X105.148 Y105.125 E4.72288
G1 X105.084 Y104.752 E4.73327
G1 X104.778 Y104.482 E4.74447
G1 X104.371 Y104.465 E4.75564
G1 X104.044 Y104.707 E4.76681
G1 X103.939 Y105.102 E4.77802
G1 X104.108 Y105.474 E4.78923
G1 X104.472 Y105.657 E4.80041
G1 X104.853 Y105.575 E4.81111
G1 X104.871 Y105.572 E4.81161
G0 F3600 X104.996 Y105.416
;;retract;;
G1 F6000 E-3.18839
G0 F3600 X104.996 Y103.13
G0 X113.845 Y103.13
G0 X113.845 Y104.4
G0 X114.48 Y104.897
;TYPE:WALL-INNER
G1 F6000 E4.81161
G1 F600 X113.845 Y104.4 E4.83373
G1 X114.593 Y104.4 E4.85426
G1 X114.686 Y104.4 E4.85681
G1 X114.593 Y104.469 E4.85749
G1 X114.48 Y104.897 E4.86964
G0 F3600 X115.512 Y106.037
G1 F600 X115.806 Y105.974 E4.87789
G1 X115.993 Y105.934 E4.88313
G1 X116.221 Y105.651 E4.89311
G1 X116.376 Y105.458 E4.8999
G1 X116.457 Y105.141 E4.90888
G1 X116.354 Y104.545 E4.92547
G1 X116.19 Y104.4 E4.93148
G1 X116.354 Y104.4 E4.93196
G1 X116.6 Y104.4 E4.93715
G1 X116.6 Y104.545 E4.93958
G1 X116.6 Y105.141 E4.94752
G1 X116.6 Y105.458 E4.95148
G1 X116.6 Y105.706 E4.95688
G1 X116.6 Y107.207 E4.99807
G1 X116.6 Y107.759 E5.01322
G1 X116.6 Y108.386 E5.03042
G1 X116.419 Y107.759 E5.03489
G1 X116.21 Y107.249 E5.04595
G1 X116.134 Y107.065 E5.05142
G1 X115.772 Y106.406 E5.07205
G1 X115.685 Y106.283 E5.07618
G1 X115.512 Y106.037 E5.08099
;;retract;;
G1 F6000 E-2.91901
G0 F3600 X117.87 Y106.037
G0 X117.866 Y116.359
G0 X117.359 Y116.866
G0 X114.671 Y116.87
G0 X114.671 Y115.6
G1 F6000 E5.08099
G1 F600 X113.846 Y115.6 E5.10363
G1 X114.456 Y115.126 E5.12482
G1 X114.671 Y115.6 E5.13911
G0 F3600 X116.6 Y115.6
G1 F600 X116.376 Y115.6 E5.14525
G1 X116.181 Y115.6 E5.1506
G1 X116.345 Y115.396 E5.15358
G1 X116.376 Y115.358 E5.15376
G1 X116.457 Y115.041 E5.16274
G1 X116.354 Y114.445 E5.17934
G1 X115.836 Y113.988 E5.19829
G1 X115.506 Y113.974 E5.20735
G1 X115.606 Y113.83 E5.20815
G1 X115.802 Y113.546 E5.21762
G1 X116.158 Y112.884 E5.23824
G1 X116.21 Y112.754 E5.24209
G1 X116.438 Y112.187 E5.25886
G1 X116.6 Y111.607 E5.27538
G1 X116.6 Y112.187 E5.27849
G1 X116.6 Y112.799 E5.29039
G1 X116.6 Y114.445 E5.33556
G1 X116.6 Y115.041 E5.3435
G1 X116.6 Y115.358 E5.34747
G1 X116.6 Y115.6 E5.35291
;;retract;;
G1 F6000 E-2.64709
G0 F3600 X117.87 Y115.6
G0 X117.866 Y103.641
G0 X117.359 Y103.134
G0 X106.537 Y103.13
G0 X106.537 Y104.615
;TYPE:WALL-OUTER
G1 F6000 E5.35291
G1 F1500 X105.924 Y105.067 E5.37381
G1 X105.409 Y105.543 E5.39305
G1 X105.404 Y105.547 E5.39323
G1 X105.164 Y105.825 E5.40313
G1 X105.152 Y105.839 E5.40363
G1 X104.942 Y106.081 E5.41242
G1 X104.54 Y106.663 E5.43183
G1 X104.205 Y107.286 E5.45124
G1 X103.941 Y107.942 E5.47064
G1 X103.751 Y108.622 E5.49002
G1 X103.638 Y109.321 E5.50945
G1 X103.601 Y110.027 E5.52884
G1 X103.643 Y110.732 E5.54822
G1 X103.763 Y111.43 E5.56766
