; HEADER_BLOCK_START
; generated by OrcaSlicer 2.1.1 on 2024-08-24 at 18:14:37
; total layer number: 89
; filament_density: 1.24
; filament_diameter: 1.75
; max_z_height: 24.84
; HEADER_BLOCK_END

; THUMBNAIL_BLOCK_START

;
; THUMBNAIL_BLOCK_END







; external perimeters extrusion width = 0.40mm
; perimeters extrusion width = 0.45mm
; infill extrusion width = 0.45mm
; solid infill extrusion width = 0.45mm
; top infill extrusion width = 0.45mm
; first layer extrusion width = 0.42mm

; EXECUTABLE_BLOCK_START
EXCLUDE_OBJECT_DEFINE NAME=吊架.STL_id_0_copy_0 CENTER=117.5,112.002 POLYGON=[[105.005,111.645],[105.127,110.224],[105.411,108.825],[105.852,107.467],[106.445,106.169],[107.182,104.947],[108.053,103.817],[109.048,102.793],[110.153,101.89],[111.353,101.118],[112.634,100.488],[113.494,100.162],[113.978,100.009],[115.368,99.6855],[116.786,99.5228],[117.5,99.5024],[118.214,99.5228],[119.632,99.6855],[121.022,100.009],[122.366,100.488],[123.647,101.118],[124.847,101.89],[125.952,102.793],[126.947,103.817],[127.818,104.947],[128.555,106.169],[129.148,107.467],[129.589,108.825],[129.873,110.224],[129.995,111.645],[129.954,113.072],[129.796,114.254],[129.751,114.485],[129.388,115.865],[128.87,117.195],[128.204,118.457],[127.399,119.636],[126.464,120.714],[125.413,121.679],[124.258,122.518],[123.015,123.22],[121.701,123.776],[120.331,124.178],[118.925,124.421],[117.5,124.502],[116.075,124.421],[114.669,124.178],[113.299,123.776],[111.985,123.22],[110.742,122.518],[109.587,121.679],[108.536,120.714],[107.601,119.636],[106.796,118.457],[106.13,117.195],[105.612,115.865],[105.249,114.485],[105.046,113.072],[105.005,111.645]]
M73 P0 R14
;TYPE:Custom
;ELEGOO NEPTUNE 4 PRO
M220 S100 ;Set the feed speed to 100%
M221 S100 ;Set the flow rate to 100%
M104 S140
M190 S60
G90
G28 ;home
G1 Z10 F300
G1 X67.5 Y0 F6000
G1 Z0 F300
M109 S210
G92 E0 ;Reset Extruder
G1 X67.5 Y0 Z0.4 F300 ;Move to start position
G1 X167.5 E30 F400 ;Draw the first line
G1 Z0.6 F120.0 ;Move to side a little
M73 P2 R14
G1 X162.5 F3000
G92 E0 ;Reset Extruder
G90
G21
M83 ; use relative distances for extrusion
; filament start gcode
M106 S0
;LAYER_CHANGE
;Z:0.2
;HEIGHT:0.2
;BEFORE_LAYER_CHANGE
G92 E0
;0.2


G1 E-.8 F3600
;AFTER_LAYER_CHANGE
;0.2
;_SET_FAN_SPEED_CHANGING_LAYER
SET_VELOCITY_LIMIT ACCEL=1000 ACCEL_TO_DECEL=500
SET_VELOCITY_LIMIT SQUARE_CORNER_VELOCITY=7
; printing object 吊架.STL id:0 copy 0
EXCLUDE_OBJECT_START NAME=吊架.STL_id_0_copy_0
G1 X127.429 Y109.896 F21000
G1 Z.4
G1 Z.2
G1 E.8 F2700
;TYPE:Inner wall
;WIDTH:0.419999
G1 F3000
G1 X127.063 Y109.841 E.01138
G1 X126.432 Y109.922 E.01954
G1 X126.133 Y110.027 E.00973
G1 X125.636 Y110.322 E.01775
G1 X125.244 Y110.752 E.01789
G1 X125.049 Y111.098 E.01221
G1 X124.874 Y111.6 E.01632
G1 X124.846 Y112.118 E.01594
G1 X124.887 Y112.434 E.00979
G1 X125.075 Y112.993 E.01814
G1 X125.397 Y113.445 E.01704
G1 X125.627 Y113.666 E.00979
G1 X126.095 Y113.969 E.01715
G1 X126.652 Y114.13 E.01781
G1 X126.982 Y114.159 E.01017
G1 X127.254 Y114.134 E.0084
G1 X127.707 Y114.04 E.01422
G1 X128.13 Y113.845 E.01431
G1 X128.635 Y113.41 E.02048
G1 X128.885 Y113.033 E.01389
G1 X128.706 Y114.273 E.0385
G1 X128.374 Y115.536 E.04012
G1 X127.901 Y116.752 E.04011
G1 X127.292 Y117.907 E.04012
G1 X126.555 Y118.985 E.04012
G1 X125.7 Y119.971 E.04011
G1 X124.738 Y120.854 E.04012
G1 X123.682 Y121.621 E.04012
G1 X122.545 Y122.263 E.04011
G1 X121.342 Y122.772 E.04011
G1 X120.09 Y123.139 E.04012
G1 X119.318 Y123.273 E.02406
G1 X118.573 Y123.374 E.02312
G1 X118.762 Y123.26 E.00679
G1 X119.135 Y122.91 E.01572
G1 X119.324 Y122.653 E.00979
G1 X119.474 Y122.356 E.01025
G1 X119.603 Y121.98 E.01221
G1 X119.662 Y121.508 E.01463
G1 X119.555 Y120.848 E.02052
G1 X119.437 Y120.553 E.00979
G1 X119.092 Y120.037 E.01904
G1 X118.688 Y119.702 E.01613
G1 X118.41 Y119.547 E.00979
G1 X117.778 Y119.358 E.02025
G1 X117.295 Y119.358 E.01485
G1 X116.744 Y119.475 E.01731
G1 X116.273 Y119.729 E.01645
G1 X116.025 Y119.929 E.00979
G1 X115.617 Y120.44 E.02008
G1 X115.402 Y120.981 E.0179
G1 X115.346 Y121.62 E.01969
G1 X115.387 Y121.934 E.00973
G1 X115.535 Y122.407 E.01524
G1 X115.897 Y122.945 E.01992
G1 X116.127 Y123.166 E.00979
G1 X116.438 Y123.376 E.01153
G1 X116.197 Y123.362 E.00742
G1 X114.91 Y123.139 E.04011
G1 X113.658 Y122.772 E.04012
G1 X112.455 Y122.263 E.04011
G1 X111.318 Y121.621 E.04011
G1 X110.262 Y120.854 E.04012
G1 X109.3 Y119.971 E.04012
G1 X108.445 Y118.985 E.04011
G1 X107.708 Y117.907 E.04012
G1 X107.099 Y116.752 E.04012
G1 X106.626 Y115.536 E.04011
G1 X106.294 Y114.273 E.04011
G1 X106.12 Y113.062 E.03759
G1 X106.398 Y113.447 E.01458
G1 X106.627 Y113.666 E.00973
G1 X106.914 Y113.86 E.01065
G1 X107.259 Y114.028 E.0118
G1 X107.659 Y114.132 E.01269
G1 X107.982 Y114.159 E.00996
G1 X108.484 Y114.109 E.01551
G1 X109.074 Y113.873 E.01953
G1 X109.337 Y113.695 E.00973
G1 X109.727 Y113.307 E.01692
G1 X110.01 Y112.785 E.01825
G1 X110.103 Y112.48 E.00979
G1 X110.163 Y111.956 E.0162
G1 X110.072 Y111.425 E.01658
G1 X109.937 Y111.053 E.01216
G1 X109.63 Y110.578 E.01736
G1 X109.188 Y110.202 E.01783
G1 X108.91 Y110.047 E.00979
G1 X108.278 Y109.858 E.02025
G1 X107.829 Y109.853 E.01381
G1 X107.312 Y109.951 E.01618
G1 X106.773 Y110.229 E.01863
G1 X106.461 Y110.503 E.01275
G1 X106.135 Y110.931 E.01654
G1 X106.182 Y110.375 E.01714
G1 X106.437 Y109.117 E.03944
G1 X106.845 Y107.853 E.04081
G1 X107.387 Y106.667 E.04009
G1 X108.061 Y105.549 E.04012
G1 X108.859 Y104.515 E.04011
G1 X109.769 Y103.578 E.04012
G1 X110.779 Y102.752 E.04012
G1 X111.877 Y102.046 E.04011
G1 X113.049 Y101.47 E.04012
G1 X114.279 Y101.032 E.04011
G1 X115.55 Y100.736 E.04011
G1 X116.444 Y100.633 E.02763
G1 X116.025 Y100.929 E.01575
G1 X115.801 Y101.184 E.01042
G1 X115.585 Y101.51 E.01203
G1 X115.431 Y101.894 E.01269
G1 X115.364 Y102.205 E.00979
G1 X115.354 Y102.785 E.01782
G1 X115.525 Y103.381 E.01907
G1 X115.897 Y103.945 E.02074
G1 X116.127 Y104.166 E.00979
G1 X116.638 Y104.488 E.01856
G1 X117.159 Y104.632 E.01661
G1 X117.509 Y104.656 E.0108
G1 X118.078 Y104.588 E.0176
G1 X118.573 Y104.374 E.01656
G1 X118.905 Y104.129 E.01269
G1 X119.284 Y103.726 E.01701
G1 X119.531 Y103.241 E.01671
G1 X119.656 Y102.57 E.02097
G1 X119.604 Y102.077 E.01524
G1 X119.431 Y101.542 E.01728
G1 X119.219 Y101.199 E.01239
G1 X119.009 Y100.962 E.00973
G1 X118.567 Y100.635 E.01691
G1 X119.45 Y100.736 E.02731
G1 X120.721 Y101.032 E.04011
G1 X121.951 Y101.47 E.04011
G1 X123.123 Y102.046 E.04012
G1 X124.221 Y102.752 E.04011
G1 X125.231 Y103.578 E.04011
G1 X126.141 Y104.515 E.04011
G1 X126.939 Y105.549 E.04012
G1 X127.613 Y106.667 E.04012
G1 X128.155 Y107.854 E.04011
G1 X128.558 Y109.096 E.04012
G1 X128.818 Y110.375 E.04012
G1 X128.866 Y110.937 E.01732
G1 X128.563 Y110.508 E.01615
G1 X128.188 Y110.202 E.01485
G1 X127.91 Y110.047 E.00979
G1 X127.52 Y109.909 E.01271
G1 X127.469 Y109.902 E.0016
G1 E-.68 F3600
;WIPE_START
G1 F3000
G1 X127.063 Y109.841 E-.04925
G1 X126.478 Y109.916 E-.07075
;WIPE_END
G1 X129.17 Y110.328 Z.6 F21000
G1 Z.2
G1 E.8 F2700
G1 F3000
G1 X129.218 Y110.626 E.00927
;WIDTH:0.457887
G1 X129.219 Y110.861 E.00792
;WIDTH:0.495774
G1 X129.22 Y111.095 E.00865
;WIDTH:0.533661
G1 X129.221 Y111.329 E.00937
G1 X129.264 Y111.777 E.01798
;WIDTH:0.509139
G1 X129.238 Y112.474 E.02651
G1 X129.252 Y112.755 E.01069
;WIDTH:0.464569
G1 X129.265 Y113.036 E.00966
;WIDTH:0.419999
G1 X129.077 Y114.348 E.04072
G1 X128.734 Y115.652 E.04144
G1 X128.244 Y116.909 E.04144
G1 X127.615 Y118.102 E.04144
G1 X126.854 Y119.215 E.04144
G1 X125.971 Y120.235 E.04144
G1 X124.977 Y121.146 E.04144
G1 X123.886 Y121.939 E.04144
G1 X122.712 Y122.602 E.04144
G1 X121.469 Y123.127 E.04144
G1 X120.175 Y123.507 E.04144
G1 X119.383 Y123.644 E.02472
G1 X118.594 Y123.752 E.02444
;WIDTH:0.461882
G1 X118.243 Y123.751 E.01199
;WIDTH:0.503765
G1 X117.336 Y123.769 E.03406
;WIDTH:0.49195
G1 X117.047 Y123.77 E.01057
;WIDTH:0.455975
G1 X116.759 Y123.772 E.00973
;WIDTH:0.419999
G1 X116.154 Y123.737 E.01862
G1 X114.825 Y123.507 E.04144
G1 X113.531 Y123.127 E.04144
G1 X112.288 Y122.602 E.04144
G1 X111.114 Y121.939 E.04144
G1 X110.023 Y121.146 E.04144
G1 X109.029 Y120.235 E.04144
G1 X108.146 Y119.215 E.04144
G1 X107.385 Y118.102 E.04144
G1 X106.756 Y116.909 E.04144
G1 X106.266 Y115.652 E.04144
G1 X105.923 Y114.348 E.04144
G1 X105.727 Y112.838 E.04679
;WIDTH:0.454962
G1 X105.734 Y112.484 E.01191
;WIDTH:0.489924
G1 X105.741 Y112.129 E.01292
;WIDTH:0.524751
G1 X105.762 Y111.27 E.03372
;WIDTH:0.489834
G1 X105.756 Y111.135 E.00494
;WIDTH:0.454917
G1 X105.75 Y111 E.00455
;WIDTH:0.419999
G1 X105.808 Y110.321 E.02091
G1 X106.072 Y109.022 E.04076
G1 X106.493 Y107.717 E.04214
G1 X107.053 Y106.49 E.04142
G1 X107.75 Y105.335 E.04144
G1 X108.573 Y104.267 E.04144
G1 X109.513 Y103.3 E.04144
G1 X110.557 Y102.446 E.04144
G1 X111.692 Y101.717 E.04144
G1 X112.902 Y101.122 E.04144
G1 X114.172 Y100.669 E.04144
G1 X115.486 Y100.364 E.04144
G1 X116.206 Y100.281 E.02228
;WIDTH:0.455738
G1 X116.45 Y100.274 E.00822
;WIDTH:0.491476
G1 X116.695 Y100.267 E.00893
;WIDTH:0.527214
G1 X117.461 Y100.229 E.03029
;WIDTH:0.493709
G1 X117.998 Y100.222 E.01972
;WIDTH:0.455625
G1 X118.437 Y100.24 E.01477
;WIDTH:0.419999
G1 X119.514 Y100.364 E.03331
G1 X120.828 Y100.669 E.04144
G1 X122.098 Y101.122 E.04144
G1 X123.308 Y101.717 E.04144
G1 X124.443 Y102.447 E.04144
G1 X125.487 Y103.3 E.04144
G1 X126.427 Y104.267 E.04144
G1 X127.25 Y105.335 E.04144
G1 X127.947 Y106.49 E.04144
G1 X128.507 Y107.717 E.04144
G1 X128.924 Y109 E.04144
G1 X129.087 Y109.806 E.02528
G1 X129.164 Y110.289 E.01502
G1 X129.565 Y110.268 F21000
;TYPE:Outer wall
G1 F3000
G1 X129.683 Y111.692 E.04392
G1 X129.642 Y113.069 E.04232
G1 X129.447 Y114.423 E.04204
G1 X129.093 Y115.769 E.04277
G1 X128.588 Y117.066 E.04276
G1 X127.938 Y118.297 E.04277
G1 X127.153 Y119.446 E.04277
G1 X126.241 Y120.498 E.04276
G1 X125.216 Y121.439 E.04277
G1 X124.09 Y122.257 E.04277
G1 X122.878 Y122.941 E.04277
G1 X121.596 Y123.483 E.04276
G1 X120.261 Y123.875 E.04277
G1 X118.89 Y124.112 E.04276
G1 X117.5 Y124.192 E.04277
G1 X116.11 Y124.112 E.04277
G1 X114.739 Y123.875 E.04276
G1 X113.404 Y123.483 E.04277
G1 X112.122 Y122.941 E.04276
G1 X110.91 Y122.257 E.04276
G1 X109.784 Y121.439 E.04277
G1 X108.759 Y120.498 E.04277
G1 X107.847 Y119.446 E.04276
G1 X107.062 Y118.297 E.04277
G1 X106.412 Y117.066 E.04277
G1 X105.907 Y115.769 E.04276
G1 X105.553 Y114.423 E.04276
G1 X105.355 Y113.046 E.04277
G1 X105.315 Y111.654 E.04277
G1 X105.435 Y110.268 E.04276
G1 X105.706 Y108.926 E.04207
G1 X106.141 Y107.58 E.04346
G1 X106.719 Y106.314 E.04276
M73 P3 R14
G1 X107.438 Y105.122 E.04277
G1 X108.288 Y104.02 E.04276
G1 X109.258 Y103.022 E.04277
G1 X110.335 Y102.141 E.04277
G1 X111.506 Y101.389 E.04276
G1 X112.755 Y100.774 E.04277
G1 X114.066 Y100.307 E.04276
G1 X115.421 Y99.991 E.04276
G1 X116.808 Y99.832 E.0429
G1 X117.514 Y99.813 E.02169
G1 X118.191 Y99.832 E.02082
G1 X119.579 Y99.991 E.0429
G1 X120.934 Y100.307 E.04277
G1 X122.245 Y100.774 E.04276
G1 X123.494 Y101.389 E.04277
G1 X124.665 Y102.141 E.04276
G1 X125.742 Y103.022 E.04277
G1 X126.712 Y104.02 E.04276
G1 X127.562 Y105.122 E.04277
G1 X128.281 Y106.314 E.04277
G1 X128.859 Y107.58 E.04276
G1 X129.289 Y108.904 E.04277
G1 X129.557 Y110.229 E.04154
G1 E-.68 F3600
;WIPE_START
G1 F3000
G1 X129.643 Y111.225 E-.12
;WIPE_END
G1 X127.489 Y110.304 Z.6 F21000
G1 Z.2
G1 E.8 F2700
;TYPE:Inner wall
G1 F3000
G1 X127.951 Y110.496 E.01537
G1 X128.398 Y110.898 E.01847
;WIDTH:0.457887
G1 X128.511 Y111.066 E.00686
;WIDTH:0.495774
G1 X128.624 Y111.235 E.00749
;WIDTH:0.533661
G1 X128.737 Y111.403 E.00811
G1 X128.82 Y111.969 E.02285
;WIDTH:0.513526
G1 X128.768 Y112.484 E.01987
G1 X128.628 Y112.734 E.01098
;WIDTH:0.466763
G1 X128.487 Y112.984 E.00989
;WIDTH:0.419999
G1 X128.076 Y113.423 E.01851
G1 X127.551 Y113.697 E.01817
G1 X126.948 Y113.783 E.01874
G1 X126.354 Y113.663 E.0186
G1 X125.913 Y113.404 E.01574
G1 X125.7 Y113.221 E.00862
G1 X125.377 Y112.746 E.01765
G1 X125.232 Y112.26 E.01556
G1 X125.239 Y111.754 E.01556
G1 X125.43 Y111.161 E.01915
G1 X125.743 Y110.752 E.01581
G1 X125.957 Y110.558 E.00887
G1 X126.413 Y110.314 E.0159
G1 X126.943 Y110.218 E.01656
G1 X127.394 Y110.265 E.01394
G1 X127.452 Y110.289 E.00192
G1 X127.321 Y110.649 F21000
;TYPE:Outer wall
G1 F3000
G1 X127.38 Y110.66 E.00186
G1 X127.714 Y110.789 E.01101
G1 X128.078 Y111.096 E.01461
G1 X128.313 Y111.497 E.0143
G1 X128.408 Y111.975 E.01495
G1 X128.337 Y112.445 E.01462
G1 X128.113 Y112.865 E.01462
G1 X127.762 Y113.186 E.01461
G1 X127.334 Y113.369 E.0143
G1 X126.842 Y113.401 E.01516
G1 X126.391 Y113.272 E.01441
G1 X126.003 Y112.997 E.01462
G1 X125.729 Y112.608 E.01462
G1 X125.6 Y112.15 E.01462
G1 X125.618 Y111.728 E.01298
G1 X125.811 Y111.249 E.01587
G1 X126.14 Y110.887 E.01502
G1 X126.561 Y110.665 E.01461
G1 X127.005 Y110.593 E.01382
G1 X127.281 Y110.642 E.00863
G1 E-.68 F3600
;WIPE_START
G1 F3000
G1 X127.38 Y110.66 E-.01207
G1 X127.714 Y110.789 E-.043
G1 X128.078 Y111.096 E-.05707
G1 X128.111 Y111.153 E-.00787
;WIPE_END
G1 X122.778 Y105.692 Z.6 F21000
G1 X117.985 Y100.785 Z.6
G1 Z.2
G1 E.8 F2700
;TYPE:Inner wall
;WIDTH:0.500064
G1 F3000
G1 X118.018 Y100.798 E.00135
;WIDTH:0.460032
G1 X118.284 Y100.902 E.00971
;WIDTH:0.419999
G1 X118.773 Y101.255 E.01851
G1 X119.11 Y101.741 E.01817
G1 X119.273 Y102.328 E.01874
G1 X119.229 Y102.932 E.0186
G1 X118.987 Y103.484 E.01851
G1 X118.644 Y103.857 E.01558
G1 X118.417 Y104.03 E.00877
G1 X117.929 Y104.237 E.0163
G1 X117.444 Y104.284 E.01496
G1 X117.178 Y104.248 E.00825
G1 X116.68 Y104.085 E.01611
G1 X116.243 Y103.772 E.01651
G1 X115.879 Y103.25 E.01956
G1 X115.728 Y102.734 E.01652
G1 X115.74 Y102.221 E.01577
G1 X115.935 Y101.651 E.01851
G1 X116.308 Y101.178 E.01851
;WIDTH:0.44957
G1 X116.555 Y101.004 E.01002
;WIDTH:0.479141
G1 X116.803 Y100.831 E.01075
;WIDTH:0.527214
G1 X116.987 Y100.74 E.0081
G1 X117.507 Y100.679 E.02068
;WIDTH:0.500064
G1 X117.753 Y100.694 E.00915
G1 X117.948 Y100.77 E.0078
G1 X117.841 Y101.148 F21000
;TYPE:Outer wall
;WIDTH:0.419999
G1 F3000
G1 X118.214 Y101.289 E.01226
G1 X118.578 Y101.596 E.01461
G1 X118.813 Y101.997 E.0143
G1 X118.908 Y102.475 E.01495
G1 X118.837 Y102.945 E.01462
G1 X118.613 Y103.365 E.01462
G1 X118.262 Y103.687 E.01462
G1 X117.824 Y103.873 E.01462
G1 X117.412 Y103.908 E.01269
G1 X116.925 Y103.79 E.01541
G1 X116.51 Y103.506 E.01546
G1 X116.229 Y103.108 E.01497
G1 X116.1 Y102.65 E.01462
G1 X116.131 Y102.175 E.01462
G1 X116.318 Y101.737 E.01462
G1 X116.64 Y101.387 E.01462
G1 X117.061 Y101.165 E.01461
G1 X117.505 Y101.093 E.01382
G1 X117.769 Y101.12 E.00816
G1 X117.804 Y101.133 E.00115
G1 E-.68 F3600
;WIPE_START
G1 F3000
G1 X118.214 Y101.289 E-.05269
G1 X118.578 Y101.596 E-.05707
G1 X118.621 Y101.67 E-.01025
;WIPE_END
G1 X112.757 Y106.555 Z.6 F21000
G1 X108.316 Y110.254 Z.6
G1 Z.2
G1 E.8 F2700
;TYPE:Inner wall
G1 F3000
G1 X108.394 Y110.265 E.00244
G1 X108.885 Y110.449 E.0161
G1 X109.301 Y110.78 E.01633
G1 X109.615 Y111.25 E.01739
G1 X109.687 Y111.428 E.00587
G1 X109.786 Y111.927 E.01565
G1 X109.729 Y112.432 E.01561
G1 X109.539 Y112.881 E.01498
G1 X109.374 Y113.137 E.00937
G1 X108.918 Y113.53 E.01847
G1 X108.417 Y113.738 E.01667
G1 X107.823 Y113.781 E.01831
G1 X107.354 Y113.663 E.01485
G1 X106.838 Y113.353 E.01851
G1 X106.46 Y112.898 E.01817
;WIDTH:0.449618
G1 X106.34 Y112.617 E.01014
;WIDTH:0.479237
G1 X106.22 Y112.335 E.01088
;WIDTH:0.489924
G1 X106.188 Y112.132 E.00749
;WIDTH:0.524751
G1 X106.232 Y111.516 E.02426
G1 X106.331 Y111.344 E.00779
;WIDTH:0.489834
G1 X106.429 Y111.172 E.00723
;WIDTH:0.454917
G1 X106.528 Y110.999 E.00666
;WIDTH:0.419999
G1 X106.957 Y110.558 E.0189
G1 X107.424 Y110.311 E.01625
G1 X108.034 Y110.217 E.01895
G1 X108.276 Y110.249 E.00751
G1 X108.297 Y110.631 F21000
;TYPE:Outer wall
G1 F3000
G1 X108.714 Y110.789 E.01372
G1 X109.078 Y111.096 E.01462
G1 X109.318 Y111.507 E.01462
G1 X109.408 Y111.975 E.01462
G1 X109.337 Y112.445 E.01462
G1 X109.113 Y112.865 E.01462
G1 X108.762 Y113.186 E.01461
G1 X108.334 Y113.369 E.0143
G1 X107.849 Y113.402 E.01495
G1 X107.391 Y113.272 E.01462
G1 X107.003 Y112.997 E.01461
G1 X106.734 Y112.617 E.0143
G1 X106.6 Y112.15 E.01495
G1 X106.63 Y111.675 E.01461
