; HEADER_BLOCK_START
; generated by OrcaSlicer 2.1.1 on 2024-08-24 at 16:23:36
; total layer number: 18
; filament_density: 1.24
; filament_diameter: 1.75
; max_z_height: 4.96
; HEADER_BLOCK_END

; THUMBNAIL_BLOCK_START

;
; THUMBNAIL_BLOCK_END







; external perimeters extrusion width = 0.40mm
; perimeters extrusion width = 0.45mm
; infill extrusion width = 0.45mm
; solid infill extrusion width = 0.45mm
; top infill extrusion width = 0.45mm
; first layer extrusion width = 0.42mm

; EXECUTABLE_BLOCK_START
EXCLUDE_OBJECT_DEFINE NAME=吊梁.STL_id_0_copy_0 CENTER=117.5,115 POLYGON=[[111,97.5],[119,97.5],[124,129.5],[124,132.5],[116,132.5],[111,99.5],[111,97.5]]
M73 P0 R3
;TYPE:Custom
;ELEGOO NEPTUNE 4 PRO
M220 S100 ;Set the feed speed to 100%
M221 S100 ;Set the flow rate to 100%
M104 S140
M190 S60
G90
G28 ;home
G1 Z10 F300
G1 X67.5 Y0 F6000
M73 P1 R3
G1 Z0 F300
M109 S210
G92 E0 ;Reset Extruder
G1 X67.5 Y0 Z0.4 F300 ;Move to start position
M73 P2 R3
G1 X167.5 E30 F400 ;Draw the first line
G1 Z0.6 F120.0 ;Move to side a little
M73 P10 R2
G1 X162.5 F3000
G92 E0 ;Reset Extruder
G90
G21
M83 ; use relative distances for extrusion
; filament start gcode
M106 S0
;LAYER_CHANGE
;Z:0.2
;HEIGHT:0.2
;BEFORE_LAYER_CHANGE
G92 E0
;0.2


G1 E-.8 F3600
;AFTER_LAYER_CHANGE
;0.2
;_SET_FAN_SPEED_CHANGING_LAYER
SET_VELOCITY_LIMIT ACCEL=1000 ACCEL_TO_DECEL=500
SET_VELOCITY_LIMIT SQUARE_CORNER_VELOCITY=7
; printing object 吊梁.STL id:0 copy 0
EXCLUDE_OBJECT_START NAME=吊梁.STL_id_0_copy_0
G1 X116.793 Y98.744 F21000
G1 Z.4
M73 P11 R2
G1 Z.2
G1 E.8 F2700
;TYPE:Inner wall
;WIDTH:0.419999
G1 F2656
G1 X116.755 Y98.68 E.0023
G1 X116.454 Y98.564 E.0099
G1 X117.936 Y98.564 E.04553
G1 X117.936 Y129.757 E.95847
G1 X118.212 Y130.288 E.01839
G1 X118.879 Y130.564 E.02217
G1 X122.936 Y130.564 E.12467
G1 X122.936 Y131.436 E.02678
G1 X117.064 Y131.436 E.18042
G1 X117.064 Y99.379 E.98503
G1 X117.033 Y99.139 E.00741
M73 P12 R2
G1 X116.814 Y98.778 E.01298
G1 X116.52 Y98.99 F21000
G1 F2656
G1 X116.501 Y98.959 E.00109
;WIDTH:0.46146
G1 X116.375 Y98.89 E.00493
;WIDTH:0.502921
G1 X116.248 Y98.82 E.00542
;WIDTH:0.544381
G1 X116.121 Y98.751 E.0059
G1 X111.749 Y98.751 E.17866
G1 X111.749 Y98.249 E.02049
G1 X116.121 Y98.249 E.17866
G1 X116.347 Y98.229 E.00927
;WIDTH:0.502921
G1 X116.573 Y98.208 E.0085
;WIDTH:0.46146
G1 X116.799 Y98.187 E.00774
;WIDTH:0.419999
G1 X118.313 Y98.187 E.04651
G1 X118.313 Y129.703 E.96839
G1 X118.479 Y130.021 E.01103
G1 X118.879 Y130.187 E.0133
G1 X123.313 Y130.187 E.13626
G1 X123.313 Y131.813 E.04996
G1 X116.687 Y131.813 E.20359
G1 X116.687 Y99.266 E1.00009
G1 X116.541 Y99.024 E.00868
M73 P13 R2
G1 X116.248 Y99.239 F21000
;TYPE:Outer wall
G1 F2656
G1 X116.121 Y99.19 E.00417
G1 X111.31 Y99.19 E.14784
G1 X111.31 Y97.81 E.0424
G1 X118.69 Y97.81 E.22677
G1 X118.69 Y129.621 E.97748
G1 X118.745 Y129.755 E.00443
M73 P14 R2
G1 X118.879 Y129.81 E.00443
G1 X123.69 Y129.81 E.14784
G1 X123.69 Y132.19 E.07313
G1 X116.31 Y132.19 E.22677
G1 X116.31 Y99.379 E1.0082
G1 X116.264 Y99.275 E.00347
G1 X117.053 Y98.677 F21000
;TYPE:Bottom surface
;WIDTH:0.42346
G1 F2656
G1 X117.653 Y99.277 E.02631
G1 X117.653 Y99.815 E.01669
G1 X117.347 Y99.509 E.01342
G1 X117.347 Y100.047 E.01669
G1 X117.653 Y100.354 E.01342
G1 X117.653 Y100.892 E.01669
G1 X117.347 Y100.586 E.01342
G1 X117.347 Y101.124 E.01669
G1 X117.653 Y101.43 E.01342
G1 X117.653 Y101.968 E.01669
G1 X117.347 Y101.662 E.01342
G1 X117.347 Y102.2 E.01669
G1 X117.653 Y102.506 E.01342
G1 X117.653 Y103.044 E.01669
G1 X117.347 Y102.738 E.01342
G1 X117.347 Y103.276 E.01669
G1 X117.653 Y103.583 E.01342
G1 X117.653 Y104.121 E.01669
G1 X117.347 Y103.815 E.01342
G1 X117.347 Y104.353 E.01669
M73 P15 R2
G1 X117.653 Y104.659 E.01342
G1 X117.653 Y105.197 E.01669
G1 X117.347 Y104.891 E.01342
G1 X117.347 Y105.429 E.01669
G1 X117.653 Y105.735 E.01342
G1 X117.653 Y106.273 E.01669
G1 X117.347 Y105.967 E.01342
G1 X117.347 Y106.505 E.01669
G1 X117.653 Y106.812 E.01342
G1 X117.653 Y107.35 E.01669
G1 X117.347 Y107.044 E.01342
G1 X117.347 Y107.582 E.01669
G1 X117.653 Y107.888 E.01342
G1 X117.653 Y108.426 E.01669
G1 X117.347 Y108.12 E.01342
G1 X117.347 Y108.658 E.01669
G1 X117.653 Y108.964 E.01342
G1 X117.653 Y109.502 E.01669
G1 X117.347 Y109.196 E.01342
G1 X117.347 Y109.734 E.01669
G1 X117.653 Y110.041 E.01342
G1 X117.653 Y110.579 E.01669
G1 X117.347 Y110.273 E.01342
G1 X117.347 Y110.811 E.01669
G1 X117.653 Y111.117 E.01342
G1 X117.653 Y111.655 E.01669
G1 X117.347 Y111.349 E.01342
G1 X117.347 Y111.887 E.01669
G1 X117.653 Y112.193 E.01342
G1 X117.653 Y112.731 E.01669
G1 X117.347 Y112.425 E.01342
G1 X117.347 Y112.963 E.01669
G1 X117.653 Y113.269 E.01342
G1 X117.653 Y113.808 E.01669
G1 X117.347 Y113.502 E.01342
G1 X117.347 Y114.04 E.01669
G1 X117.653 Y114.346 E.01342
G1 X117.653 Y114.884 E.01669
G1 X117.347 Y114.578 E.01342
G1 X117.347 Y115.116 E.01669
G1 X117.653 Y115.422 E.01342
G1 X117.653 Y115.96 E.01669
G1 X117.347 Y115.654 E.01342
G1 X117.347 Y116.192 E.01669
G1 X117.653 Y116.498 E.01342
G1 X117.653 Y117.037 E.01669
G1 X117.347 Y116.731 E.01342
G1 X117.347 Y117.269 E.01669
G1 X117.653 Y117.575 E.01342
G1 X117.653 Y118.113 E.01669
G1 X117.347 Y117.807 E.01342
G1 X117.347 Y118.345 E.01669
G1 X117.653 Y118.651 E.01342
G1 X117.653 Y119.189 E.01669
G1 X117.347 Y118.883 E.01342
G1 X117.347 Y119.421 E.01669
G1 X117.653 Y119.727 E.01342
G1 X117.653 Y120.266 E.01669
G1 X117.347 Y119.96 E.01342
G1 X117.347 Y120.498 E.01669
G1 X117.653 Y120.804 E.01342
G1 X117.653 Y121.342 E.01669
M73 P16 R2
G1 X117.347 Y121.036 E.01342
G1 X117.347 Y121.574 E.01669
G1 X117.653 Y121.88 E.01342
G1 X117.653 Y122.418 E.01669
G1 X117.347 Y122.112 E.01342
G1 X117.347 Y122.65 E.01669
G1 X117.653 Y122.956 E.01342
G1 X117.653 Y123.495 E.01669
G1 X117.347 Y123.189 E.01342
G1 X117.347 Y123.727 E.01669
G1 X117.653 Y124.033 E.01342
G1 X117.653 Y124.571 E.01669
G1 X117.347 Y124.265 E.01342
G1 X117.347 Y124.803 E.01669
G1 X117.653 Y125.109 E.01342
G1 X117.653 Y125.647 E.01669
G1 X117.347 Y125.341 E.01342
G1 X117.347 Y125.879 E.01669
G1 X117.653 Y126.185 E.01342
G1 X117.653 Y126.724 E.01669
G1 X117.347 Y126.418 E.01342
G1 X117.347 Y126.956 E.01669
G1 X117.653 Y127.262 E.01342
G1 X117.653 Y127.8 E.01669
G1 X117.347 Y127.494 E.01342
G1 X117.347 Y128.032 E.01669
G1 X117.653 Y128.338 E.01342
G1 X117.653 Y128.876 E.01669
G1 X117.347 Y128.57 E.01342
G1 X117.347 Y129.108 E.01669
G1 X117.823 Y129.584 E.02086
G1 E-.68 F3600
;WIPE_START
G1 F4800
G1 X117.347 Y129.108 E-.08074
G1 X117.347 Y128.781 E-.03926
;WIPE_END
G1 X122.145 Y130.677 Z.6 F21000
G1 Z.2
G1 E.8 F2700
G1 F2656
G1 X122.621 Y131.153 E.02086
G1 X122.082 Y131.153 E.01669
G1 X121.776 Y130.847 E.01342
G1 X121.238 Y130.847 E.01669
G1 X121.544 Y131.153 E.01342
G1 X121.006 Y131.153 E.01669
G1 X120.7 Y130.847 E.01342
G1 X120.162 Y130.847 E.01669
G1 X120.468 Y131.153 E.01342
G1 X119.93 Y131.153 E.01669
G1 X119.624 Y130.847 E.01342
G1 X119.086 Y130.847 E.01669
G1 X119.392 Y131.153 E.01342
G1 X118.853 Y131.153 E.01669
G1 X117.347 Y129.647 E.06607
G1 X117.347 Y130.185 E.01669
G1 X118.315 Y131.153 E.04247
G1 X117.777 Y131.153 E.01669
M73 P17 R2
G1 X117.177 Y130.553 E.02631
; stop printing object 吊梁.STL id:0 copy 0
M106 S255
;LAYER_CHANGE
;Z:0.48
;HEIGHT:0.28
;BEFORE_LAYER_CHANGE
G92 E0
;0.48


G1 E-.68 F3600
;WIPE_START
G1 F4800
G1 X117.777 Y131.153 E-.1018
G1 X117.929 Y131.153 E-.0182
;WIPE_END
EXCLUDE_OBJECT_END NAME=吊梁.STL_id_0_copy_0
;AFTER_LAYER_CHANGE
;0.48
;_SET_FAN_SPEED_CHANGING_LAYER
SET_VELOCITY_LIMIT ACCEL=5000 ACCEL_TO_DECEL=2500
SET_VELOCITY_LIMIT SQUARE_CORNER_VELOCITY=9
M104 S205 ; set nozzle temperature
M140 S60 ; set bed temperature
; printing object 吊梁.STL id:0 copy 0
EXCLUDE_OBJECT_START NAME=吊梁.STL_id_0_copy_0
G1 X117.633 Y123.526 Z.6 F21000
G1 X116.675 Y98.833 Z.6
G1 Z.48
G1 E.8 F2700
SET_VELOCITY_LIMIT ACCEL=3000 ACCEL_TO_DECEL=1500 SQUARE_CORNER_VELOCITY=7
;TYPE:Inner wall
;WIDTH:0.45
G1 F2693
G1 X116.633 Y98.768 E.00343
;WIDTH:0.495178
G1 X116.331 Y98.634 E.01637
;WIDTH:0.540357
G1 X116.03 Y98.5 E.01807
G1 X116.389 Y98.477 E.01973
;WIDTH:0.495178
G1 X116.749 Y98.455 E.01787
;WIDTH:0.45
G1 X118.045 Y98.455 E.05767
G1 X118.045 Y129.53 E1.38229
G1 X118.121 Y129.897 E.01668
G1 X118.316 Y130.184 E.01541
G1 X118.603 Y130.379 E.01541
G1 X118.97 Y130.455 E.01668
G1 X123.045 Y130.455 E.18127
G1 X123.045 Y131.545 E.0485
G1 X116.955 Y131.545 E.27091
G1 X116.955 Y99.47 E1.42677
G1 X116.915 Y99.201 E.01211
M73 P18 R2
G1 X116.697 Y98.866 E.01776
SET_VELOCITY_LIMIT ACCEL=5000 ACCEL_TO_DECEL=2500 SQUARE_CORNER_VELOCITY=9
G1 X116.4 Y99.097 F21000
SET_VELOCITY_LIMIT ACCEL=3000 ACCEL_TO_DECEL=1500 SQUARE_CORNER_VELOCITY=7
G1 F2693
G1 X116.379 Y99.064 E.00172
G1 X116.03 Y98.935 E.01653
G1 X111.565 Y98.935 E.19862
G1 X111.565 Y98.065 E.03871
G1 X118.435 Y98.065 E.3056
G1 X118.435 Y129.607 E1.40305
G1 X118.592 Y129.908 E.0151
G1 X118.758 Y130.021 E.00892
G1 X118.97 Y130.065 E.00965
G1 X123.435 Y130.065 E.19862
G1 X123.435 Y131.935 E.08319
G1 X116.565 Y131.935 E.3056
G1 X116.565 Y99.35 E1.44946
G1 X116.422 Y99.13 E.01167
SET_VELOCITY_LIMIT ACCEL=5000 ACCEL_TO_DECEL=2500 SQUARE_CORNER_VELOCITY=9
M73 P19 R2
G1 X116.141 Y99.341 F21000
SET_VELOCITY_LIMIT ACCEL=3000 ACCEL_TO_DECEL=1500 SQUARE_CORNER_VELOCITY=7
;TYPE:Outer wall
;WIDTH:0.4
G1 F2693
G1 X116.03 Y99.3 E.00458
G1 X111.2 Y99.3 E.1873
G1 X111.2 Y97.7 E.06204
G1 X118.8 Y97.7 E.29471
G1 X118.8 Y129.53 E1.2343
G1 X118.85 Y129.65 E.00504
G1 X118.97 Y129.7 E.00504
G1 X123.8 Y129.7 E.1873
G1 X123.8 Y132.3 E.10082
M73 P20 R2
G1 X116.2 Y132.3 E.29471
G1 X116.2 Y99.47 E1.27308
G1 X116.157 Y99.377 E.00395
SET_VELOCITY_LIMIT ACCEL=5000 ACCEL_TO_DECEL=2500 SQUARE_CORNER_VELOCITY=9
G1 X116.03 Y98.5 F21000
SET_VELOCITY_LIMIT ACCEL=3000 ACCEL_TO_DECEL=1500 SQUARE_CORNER_VELOCITY=7
;TYPE:Inner wall
;WIDTH:0.540357
G1 F2693
G1 X112 Y98.5 E.22081
SET_VELOCITY_LIMIT ACCEL=5000 ACCEL_TO_DECEL=2500 SQUARE_CORNER_VELOCITY=9
G1 E-.68 F3600
;WIPE_START
G1 F6692.692
G1 X113 Y98.5 E-.12
;WIPE_END
G1 X114.054 Y106.059 Z.88 F21000
G1 X117.325 Y129.53 Z.88
G1 Z.48
G1 E.8 F2700
;TYPE:Internal solid infill
;WIDTH:0.413027
G1 F2693
G1 X117.345 Y130.056 E.02119
G1 X117.345 Y131.155 E.04426
G1 X118.444 Y131.155 E.04426
G1 X118.97 Y131.175 E.02119
G1 X122.675 Y131.175 E.14918
G1 X122.675 Y130.825 E.0141
G1 X118.97 Y130.825 E.14918
G1 X118.416 Y130.719 E.02272
G1 X118.017 Y130.431 E.01979
G1 X117.751 Y130.014 E.01991
G1 X117.675 Y129.53 E.01974
G1 X117.675 Y99.47 E1.21034
G1 X117.659 Y98.841 E.02533
M73 P21 R2
G1 X117.132 Y98.841 E.02121
G1 X117.287 Y99.116 E.01272
G1 X117.325 Y99.47 E.01432
G1 X117.325 Y129.49 E1.20873
G1 X117.779 Y130.702 F21000
;WIDTH:0.485123
G1 F2693
G1 X117.726 Y130.702 E.00258
G1 X117.699 Y130.748 E.00258
G1 X117.726 Y130.794 E.00258
G1 X117.785 Y130.782 E.00295
; stop printing object 吊梁.STL id:0 copy 0
;LAYER_CHANGE
;Z:0.76
;HEIGHT:0.28
;BEFORE_LAYER_CHANGE
G92 E0
;0.76


G1 E-.6952 F3600
;WIPE_START
G1 F7562.42
G1 X117.726 Y130.794 E-.02893
G1 X117.699 Y130.748 E-.02529
G1 X117.726 Y130.702 E-.02529
G1 X117.779 Y130.702 E-.02529
;WIPE_END
EXCLUDE_OBJECT_END NAME=吊梁.STL_id_0_copy_0
;AFTER_LAYER_CHANGE
;0.76
;_SET_FAN_SPEED_CHANGING_LAYER
; printing object 吊梁.STL id:0 copy 0
EXCLUDE_OBJECT_START NAME=吊梁.STL_id_0_copy_0
G1 X117.515 Y123.074 Z.88 F21000
G1 X116.675 Y98.833 Z.88
G1 Z.76
G1 E.8 F2700
SET_VELOCITY_LIMIT ACCEL=3000 ACCEL_TO_DECEL=1500 SQUARE_CORNER_VELOCITY=7
;TYPE:Inner wall
;WIDTH:0.45
G1 F2688
G1 X116.633 Y98.768 E.00343
;WIDTH:0.495178
G1 X116.331 Y98.634 E.01637
;WIDTH:0.540357
G1 X116.03 Y98.5 E.01807
G1 X116.389 Y98.477 E.01973
;WIDTH:0.495178
G1 X116.749 Y98.455 E.01787
;WIDTH:0.45
G1 X118.045 Y98.455 E.05767
G1 X118.045 Y129.53 E1.38229
G1 X118.121 Y129.897 E.01668
M73 P22 R2
G1 X118.316 Y130.184 E.01541
G1 X118.603 Y130.379 E.01541
G1 X118.97 Y130.455 E.01668
G1 X123.045 Y130.455 E.18127
G1 X123.045 Y131.545 E.0485
G1 X116.955 Y131.545 E.27091
G1 X116.955 Y99.47 E1.42677
G1 X116.915 Y99.201 E.01211
G1 X116.697 Y98.866 E.01776
SET_VELOCITY_LIMIT ACCEL=5000 ACCEL_TO_DECEL=2500 SQUARE_CORNER_VELOCITY=9
G1 X116.4 Y99.097 F21000
SET_VELOCITY_LIMIT ACCEL=3000 ACCEL_TO_DECEL=1500 SQUARE_CORNER_VELOCITY=7
G1 F2688
G1 X116.379 Y99.064 E.00172
G1 X116.03 Y98.935 E.01653
G1 X111.565 Y98.935 E.19862
G1 X111.565 Y98.065 E.03871
G1 X118.435 Y98.065 E.3056
G1 X118.435 Y129.607 E1.40305
M73 P23 R2
G1 X118.592 Y129.908 E.0151
G1 X118.758 Y130.021 E.00892
G1 X118.97 Y130.065 E.00965
G1 X123.435 Y130.065 E.19862
G1 X123.435 Y131.935 E.08319
G1 X116.565 Y131.935 E.3056
G1 X116.565 Y99.35 E1.44946
G1 X116.422 Y99.13 E.01167
SET_VELOCITY_LIMIT ACCEL=5000 ACCEL_TO_DECEL=2500 SQUARE_CORNER_VELOCITY=9
M73 P24 R2
G1 X116.141 Y99.341 F21000
SET_VELOCITY_LIMIT ACCEL=3000 ACCEL_TO_DECEL=1500 SQUARE_CORNER_VELOCITY=7
;TYPE:Outer wall
;WIDTH:0.4
G1 F2688
G1 X116.03 Y99.3 E.00458
G1 X111.2 Y99.3 E.1873
G1 X111.2 Y97.7 E.06204
G1 X118.8 Y97.7 E.29471
G1 X118.8 Y129.53 E1.2343
G1 X118.85 Y129.65 E.00504
G1 X118.97 Y129.7 E.00504
G1 X123.8 Y129.7 E.1873
G1 X123.8 Y132.3 E.10082
G1 X116.2 Y132.3 E.29471
G1 X116.2 Y99.47 E1.27308
G1 X116.157 Y99.377 E.00395
SET_VELOCITY_LIMIT ACCEL=5000 ACCEL_TO_DECEL=2500 SQUARE_CORNER_VELOCITY=9
M73 P25 R2
G1 X116.03 Y98.5 F21000
SET_VELOCITY_LIMIT ACCEL=3000 ACCEL_TO_DECEL=1500 SQUARE_CORNER_VELOCITY=7
;TYPE:Inner wall
;WIDTH:0.540357
G1 F2688
G1 X112 Y98.5 E.22081
SET_VELOCITY_LIMIT ACCEL=5000 ACCEL_TO_DECEL=2500 SQUARE_CORNER_VELOCITY=9
G1 E-.68 F3600
;WIPE_START
G1 F6692.692
G1 X113 Y98.5 E-.12
;WIPE_END
G1 X114.054 Y106.059 Z1.16 F21000
G1 X117.325 Y129.53 Z1.16
G1 Z.76
G1 E.8 F2700
;TYPE:Internal solid infill
;WIDTH:0.413027
G1 F2688
G1 X117.345 Y130.056 E.02119
G1 X117.345 Y131.155 E.04426
G1 X118.444 Y131.155 E.04426
G1 X118.97 Y131.175 E.02119
G1 X122.675 Y131.175 E.14918
G1 X122.675 Y130.825 E.0141
G1 X118.97 Y130.825 E.14918
G1 X118.416 Y130.719 E.02272
G1 X118.017 Y130.431 E.01979
G1 X117.751 Y130.014 E.01991
G1 X117.675 Y129.53 E.01974
G1 X117.675 Y99.47 E1.21034
G1 X117.659 Y98.841 E.02533
G1 X117.132 Y98.841 E.02121
G1 X117.287 Y99.116 E.01272
G1 X117.325 Y99.47 E.01432
G1 X117.325 Y129.49 E1.20873
G1 X117.779 Y130.702 F21000
;WIDTH:0.485123
M73 P26 R2
G1 F2688
G1 X117.726 Y130.702 E.00258
G1 X117.699 Y130.748 E.00258
G1 X117.726 Y130.794 E.00258
G1 X117.785 Y130.782 E.00295
; stop printing object 吊梁.STL id:0 copy 0
;LAYER_CHANGE
;Z:1.04
;HEIGHT:0.28
;BEFORE_LAYER_CHANGE
G92 E0
;1.04


G1 E-.6952 F3600
;WIPE_START
G1 F7562.42
G1 X117.726 Y130.794 E-.02893
G1 X117.699 Y130.748 E-.02529
G1 X117.726 Y130.702 E-.02529
G1 X117.779 Y130.702 E-.02529
;WIPE_END
EXCLUDE_OBJECT_END NAME=吊梁.STL_id_0_copy_0
;AFTER_LAYER_CHANGE
;1.04
;_SET_FAN_SPEED_CHANGING_LAYER
; printing object 吊梁.STL id:0 copy 0
EXCLUDE_OBJECT_START NAME=吊梁.STL_id_0_copy_0
G1 X117.515 Y123.074 Z1.16 F21000
G1 X116.675 Y98.833 Z1.16
G1 Z1.04
G1 E.8 F2700
SET_VELOCITY_LIMIT ACCEL=3000 ACCEL_TO_DECEL=1500 SQUARE_CORNER_VELOCITY=7
;TYPE:Inner wall
;WIDTH:0.45
G1 F2428
G1 X116.633 Y98.768 E.00343
;WIDTH:0.495178
G1 X116.331 Y98.634 E.01637
;WIDTH:0.540357
G1 X116.03 Y98.5 E.01807
G1 X116.389 Y98.477 E.01973
;WIDTH:0.495178
G1 X116.749 Y98.455 E.01787
;WIDTH:0.45
G1 X118.045 Y98.455 E.05767
G1 X118.045 Y129.53 E1.38229
G1 X118.121 Y129.897 E.01668
G1 X118.316 Y130.184 E.01541
G1 X118.603 Y130.379 E.01541
M73 P27 R2
G1 X118.97 Y130.455 E.01668
G1 X123.045 Y130.455 E.18127
G1 X123.045 Y131.545 E.0485
G1 X116.955 Y131.545 E.27091
G1 X116.955 Y99.47 E1.42677
G1 X116.915 Y99.201 E.01211
G1 X116.697 Y98.866 E.01776
SET_VELOCITY_LIMIT ACCEL=5000 ACCEL_TO_DECEL=2500 SQUARE_CORNER_VELOCITY=9
G1 X116.4 Y99.097 F21000
SET_VELOCITY_LIMIT ACCEL=3000 ACCEL_TO_DECEL=1500 SQUARE_CORNER_VELOCITY=7
G1 F2428
G1 X116.379 Y99.064 E.00172
G1 X116.03 Y98.935 E.01653
G1 X111.565 Y98.935 E.19862
G1 X111.565 Y98.065 E.03871
G1 X118.435 Y98.065 E.3056
G1 X118.435 Y129.607 E1.40305
G1 X118.592 Y129.908 E.0151
M73 P28 R2
G1 X118.758 Y130.021 E.00892
G1 X118.97 Y130.065 E.00965
G1 X123.435 Y130.065 E.19862
G1 X123.435 Y131.935 E.08319
G1 X116.565 Y131.935 E.3056
G1 X116.565 Y99.35 E1.44946
