; HEADER_BLOCK_START
; generated by OrcaSlicer 2.1.1 on 2024-08-24 at 16:04:04
; total layer number: 18
; filament_density: 1.24
; filament_diameter: 1.75
; max_z_height: 4.96
; HEADER_BLOCK_END

; THUMBNAIL_BLOCK_START

;
; THUMBNAIL_BLOCK_END







; external perimeters extrusion width = 0.40mm
; perimeters extrusion width = 0.45mm
; infill extrusion width = 0.45mm
; solid infill extrusion width = 0.45mm
; top infill extrusion width = 0.45mm
; first layer extrusion width = 0.42mm

; EXECUTABLE_BLOCK_START
EXCLUDE_OBJECT_DEFINE NAME=固定板.STL_id_0_copy_0 CENTER=117.5,114.987 POLYGON=[[97.5066,114.485],[97.6655,112.432],[98.0347,110.406],[98.6102,108.429],[99.386,106.522],[100.354,104.704],[101.503,102.996],[102.822,101.415],[104.297,99.9774],[105.912,98.6994],[107.649,97.5943],[109.491,96.6737],[111.418,95.9473],[113.409,95.4229],[115.444,95.106],[117.5,95],[119.556,95.106],[121.591,95.4229],[123.582,95.9473],[125.509,96.6737],[127.351,97.5943],[129.088,98.6994],[130.703,99.9774],[132.178,101.415],[133.497,102.996],[134.646,104.704],[135.614,106.522],[136.39,108.429],[136.965,110.406],[137.334,112.432],[137.493,114.485],[137.44,116.544],[137.176,118.586],[136.703,120.59],[136.026,122.535],[135.154,124.4],[134.094,126.165],[132.858,127.812],[131.459,129.323],[129.912,130.682],[128.234,131.876],[126.442,132.89],[124.555,133.714],[122.593,134.341],[120.578,134.762],[118.53,134.973],[116.47,134.973],[114.422,134.762],[112.407,134.341],[110.445,133.714],[108.558,132.89],[106.766,131.876],[105.088,130.682],[103.541,129.323],[102.142,127.812],[100.906,126.165],[99.8464,124.4],[98.9735,122.535],[98.297,120.59],[97.824,118.586],[97.5596,116.544],[97.5066,114.485]]
M73 P0 R10
;TYPE:Custom
;ELEGOO NEPTUNE 4 PRO
M220 S100 ;Set the feed speed to 100%
M221 S100 ;Set the flow rate to 100%
M104 S140
M190 S60
G90
G28 ;home
G1 Z10 F300
G1 X67.5 Y0 F6000
G1 Z0 F300
M109 S210
G92 E0 ;Reset Extruder
G1 X67.5 Y0 Z0.4 F300 ;Move to start position
M73 P0 R9
G1 X167.5 E30 F400 ;Draw the first line
G1 Z0.6 F120.0 ;Move to side a little
M73 P3 R9
G1 X162.5 F3000
G92 E0 ;Reset Extruder
G90
G21
M83 ; use relative distances for extrusion
; filament start gcode
M106 S0
;LAYER_CHANGE
;Z:0.2
;HEIGHT:0.2
;BEFORE_LAYER_CHANGE
G92 E0
;0.2


G1 E-.8 F3600
;AFTER_LAYER_CHANGE
;0.2
;_SET_FAN_SPEED_CHANGING_LAYER
SET_VELOCITY_LIMIT ACCEL=1000 ACCEL_TO_DECEL=500
SET_VELOCITY_LIMIT SQUARE_CORNER_VELOCITY=7
; printing object 固定板.STL id:0 copy 0
EXCLUDE_OBJECT_START NAME=固定板.STL_id_0_copy_0
G1 X136.376 Y113.837 F21000
G1 Z.4
G1 Z.2
G1 E.8 F2700
;TYPE:Inner wall
;WIDTH:0.419999
G1 F3000
G1 X136.017 Y113.505 E.01501
G1 X135.739 Y113.35 E.00979
G1 X135.461 Y113.252 E.00906
G1 X135.067 Y113.201 E.01221
G1 X134.63 Y113.239 E.0135
G1 X134.25 Y113.355 E.0122
G1 X133.839 Y113.605 E.01478
G1 X133.496 Y113.987 E.01578
G1 X133.277 Y114.454 E.01584
G1 X133.206 Y114.776 E.01014
G1 X133.207 Y115.274 E.01531
G1 X133.383 Y115.824 E.01773
G1 X133.688 Y116.251 E.01613
G1 X134.113 Y116.576 E.01643
G1 X134.403 Y116.707 E.00979
G1 X134.875 Y116.81 E.01484
G1 X135.3 Y116.783 E.01307
G1 X135.608 Y116.703 E.00979
G1 X135.877 Y116.581 E.00906
G1 X136.141 Y116.403 E.00979
G1 X136.386 Y116.155 E.01072
G1 X136.378 Y116.461 E.00941
G1 X136.128 Y118.395 E.0599
G1 X135.68 Y120.292 E.0599
G1 X135.039 Y122.133 E.0599
G1 X134.213 Y123.899 E.0599
G1 X133.209 Y125.57 E.0599
G1 X132.039 Y127.129 E.0599
G1 X130.715 Y128.56 E.0599
G1 X129.251 Y129.847 E.0599
G1 X127.662 Y130.976 E.0599
G1 X125.965 Y131.937 E.0599
G1 X124.179 Y132.717 E.0599
G1 X122.356 Y133.299 E.05882
G1 X120.413 Y133.709 E.061
G1 X118.653 Y133.891 E.05436
G1 X118.853 Y133.699 E.00852
G1 X119.043 Y133.443 E.00979
G1 X119.175 Y133.18 E.00906
G1 X119.301 Y132.626 E.01744
G1 X119.293 Y132.264 E.01112
G1 X119.167 Y131.785 E.01524
G1 X118.836 Y131.272 E.01875
G1 X118.428 Y130.941 E.01615
G1 X117.961 Y130.752 E.01546
G1 X117.632 Y130.698 E.01026
G1 X117.13 Y130.739 E.01549
G1 X116.75 Y130.855 E.01221
G1 X116.314 Y131.128 E.01579
G1 X115.964 Y131.534 E.01648
G1 X115.773 Y131.965 E.01449
G1 X115.706 Y132.276 E.00979
G1 X115.695 Y132.682 E.01248
G1 X115.82 Y133.169 E.01542
G1 X115.964 Y133.453 E.00979
G1 X116.349 Y133.891 E.01792
G1 X114.586 Y133.709 E.05444
G1 X112.678 Y133.31 E.0599
G1 X110.821 Y132.717 E.0599
G1 X109.035 Y131.937 E.0599
G1 X107.338 Y130.976 E.0599
G1 X105.749 Y129.847 E.0599
G1 X104.285 Y128.56 E.0599
G1 X102.961 Y127.129 E.0599
G1 X101.791 Y125.57 E.0599
G1 X100.787 Y123.899 E.0599
G1 X99.961 Y122.133 E.0599
G1 X99.332 Y120.325 E.05882
G1 X98.872 Y118.394 E.061
G1 X98.672 Y116.847 E.04791
G1 X98.614 Y116.157 E.0213
G1 X98.806 Y116.364 E.00868
G1 X99.113 Y116.576 E.01145
G1 X99.403 Y116.707 E.00979
G1 X99.689 Y116.781 E.00906
G1 X100.091 Y116.801 E.01237
G1 X100.608 Y116.703 E.01618
G1 X100.877 Y116.581 E.00906
G1 X101.141 Y116.403 E.00979
G1 X101.515 Y115.994 E.01704
G1 X101.739 Y115.518 E.01617
G1 X101.813 Y114.998 E.01613
G1 X101.731 Y114.476 E.01624
G1 X101.612 Y114.181 E.00979
G1 X101.331 Y113.767 E.01536
G1 X100.893 Y113.42 E.01718
G1 X100.502 Y113.266 E.0129
G1 X100.067 Y113.201 E.0135
G1 X99.491 Y113.261 E.01779
G1 X98.993 Y113.499 E.01698
G1 X98.624 Y113.836 E.01534
G1 X98.722 Y112.569 E.03904
G1 X99.072 Y110.651 E.0599
G1 X99.617 Y108.779 E.0599
G1 X100.351 Y106.973 E.0599
G1 X101.267 Y105.253 E.0599
G1 X102.355 Y103.635 E.0599
G1 X103.604 Y102.138 E.0599
G1 X105 Y100.778 E.0599
G1 X106.529 Y99.568 E.0599
G1 X108.174 Y98.522 E.0599
G1 X109.918 Y97.65 E.0599
G1 X111.742 Y96.962 E.0599
G1 X113.627 Y96.466 E.0599
G1 X115.553 Y96.166 E.0599
G1 X116.335 Y96.126 E.02406
G1 X116.245 Y96.199 E.00358
G1 X115.9 Y96.65 E.01745
G1 X115.773 Y96.965 E.01042
G1 X115.706 Y97.276 E.00979
G1 X115.693 Y97.571 E.00906
G1 X115.734 Y97.887 E.00979
G1 X115.941 Y98.421 E.0176
G1 X116.202 Y98.766 E.0133
G1 X116.613 Y99.076 E.01581
G1 X116.903 Y99.207 E.00979
G1 X117.399 Y99.311 E.01556
G1 X117.908 Y99.268 E.01569
G1 X118.417 Y99.062 E.01688
G1 X118.795 Y98.755 E.01494
G1 X119.043 Y98.443 E.01226
G1 X119.264 Y97.91 E.01771
G1 X119.306 Y97.583 E.01015
G1 X119.293 Y97.264 E.00979
G1 X119.116 Y96.688 E.01853
G1 X118.957 Y96.43 E.00931
G1 X118.666 Y96.126 E.01293
G1 X119.447 Y96.166 E.02401
G1 X121.373 Y96.466 E.0599
G1 X123.258 Y96.962 E.0599
G1 X125.082 Y97.65 E.0599
G1 X126.826 Y98.522 E.0599
G1 X128.471 Y99.568 E.0599
G1 X130 Y100.778 E.0599
G1 X131.396 Y102.138 E.0599
G1 X132.644 Y103.635 E.0599
G1 X133.733 Y105.253 E.0599
M73 P4 R9
G1 X134.649 Y106.973 E.0599
G1 X135.383 Y108.779 E.0599
G1 X135.928 Y110.651 E.0599
G1 X136.278 Y112.569 E.0599
G1 X136.373 Y113.797 E.03786
G1 E-.68 F3600
;WIPE_START
G1 F3000
G1 X136.017 Y113.505 E-.05519
G1 X135.739 Y113.35 E-.03824
G1 X135.53 Y113.276 E-.02657
;WIPE_END
G1 X129.782 Y108.255 Z.6 F21000
G1 X115.514 Y95.79 Z.6
G1 Z.2
G1 E.8 F2700
G1 F3000
G1 X116.193 Y95.755 E.02088
;WIDTH:0.429181
G1 X116.801 Y95.729 E.01917
;WIDTH:0.429732
G1 X117.49 Y95.693 E.02174
;WIDTH:0.436435
G1 X118.495 Y95.739 E.03225
;WIDTH:0.419999
G1 X119.486 Y95.79 E.03049
G1 X121.45 Y96.096 E.0611
G1 X123.373 Y96.603 E.0611
G1 X125.234 Y97.304 E.0611
G1 X127.012 Y98.193 E.0611
G1 X128.69 Y99.26 E.06109
G1 X130.249 Y100.494 E.0611
G1 X131.673 Y101.882 E.0611
G1 X132.947 Y103.409 E.0611
G1 X134.056 Y105.058 E.0611
G1 X134.991 Y106.813 E.0611
G1 X135.74 Y108.655 E.0611
G1 X136.296 Y110.564 E.0611
G1 X136.652 Y112.52 E.06109
G1 X136.761 Y113.924 E.04326
;WIDTH:0.455685
G1 X136.797 Y114.809 E.02978
;WIDTH:0.430513
G1 X136.769 Y115.915 E.03494
;WIDTH:0.419999
G1 X136.754 Y116.49 E.0177
G1 X136.499 Y118.462 E.0611
G1 X136.042 Y120.397 E.0611
G1 X135.389 Y122.275 E.0611
G1 X134.546 Y124.076 E.06109
G1 X133.523 Y125.781 E.0611
G1 X132.329 Y127.371 E.0611
G1 X130.979 Y128.83 E.0611
G1 X129.485 Y130.143 E.06109
G1 X127.865 Y131.295 E.0611
G1 X126.134 Y132.274 E.0611
G1 X124.312 Y133.071 E.0611
G1 X122.452 Y133.664 E.06
G1 X120.471 Y134.082 E.0622
G1 X118.339 Y134.286 E.06581
;WIDTH:0.421328
G1 X117.236 Y134.287 E.03402
;WIDTH:0.419999
G1 X116.506 Y134.286 E.02244
G1 X114.528 Y134.082 E.0611
G1 X112.582 Y133.675 E.0611
G1 X110.688 Y133.071 E.0611
G1 X108.866 Y132.274 E.0611
G1 X107.135 Y131.295 E.0611
G1 X105.515 Y130.143 E.0611
G1 X104.021 Y128.83 E.06109
G1 X102.671 Y127.371 E.0611
G1 X101.477 Y125.781 E.0611
G1 X100.454 Y124.076 E.0611
G1 X99.611 Y122.275 E.06109
G1 X98.969 Y120.431 E.06
G1 X98.501 Y118.462 E.0622
G1 X98.246 Y116.49 E.06108
G1 X98.215 Y115.338 E.03542
;WIDTH:0.421971
G1 X98.203 Y114.789 E.01696
G1 X98.217 Y114.211 E.01785
;WIDTH:0.419999
G1 X98.348 Y112.52 E.05212
G1 X98.704 Y110.564 E.06109
G1 X99.26 Y108.655 E.0611
G1 X100.009 Y106.813 E.0611
G1 X100.944 Y105.058 E.0611
G1 X102.053 Y103.409 E.06109
G1 X103.327 Y101.882 E.0611
G1 X104.751 Y100.494 E.0611
G1 X106.31 Y99.26 E.0611
G1 X107.988 Y98.193 E.06109
G1 X109.766 Y97.304 E.0611
G1 X111.627 Y96.603 E.0611
G1 X113.55 Y96.096 E.0611
G1 X115.475 Y95.797 E.05987
G1 X115.475 Y95.415 F21000
;TYPE:Outer wall
G1 F3000
G1 X117.5 Y95.31 E.06229
G1 X119.525 Y95.415 E.06229
G1 X121.528 Y95.727 E.06229
G1 X123.488 Y96.243 E.06229
G1 X125.385 Y96.958 E.06229
G1 X127.198 Y97.864 E.06229
G1 X128.909 Y98.952 E.06229
G1 X130.498 Y100.211 E.06229
G1 X131.95 Y101.625 E.06229
G1 X133.249 Y103.182 E.06229
G1 X134.38 Y104.864 E.06229
G1 X135.333 Y106.653 E.06229
G1 X136.097 Y108.531 E.06229
G1 X136.663 Y110.478 E.06229
G1 X137.027 Y112.472 E.06229
G1 X137.182 Y114.524 E.06324
G1 X137.131 Y116.52 E.06134
G1 X136.871 Y118.53 E.06229
G1 X136.405 Y120.503 E.06229
G1 X135.739 Y122.418 E.06229
G1 X134.88 Y124.254 E.06229
G1 X133.836 Y125.992 E.06229
G1 X132.619 Y127.613 E.06229
G1 X131.242 Y129.101 E.06229
G1 X129.72 Y130.439 E.06229
G1 X128.067 Y131.614 E.06229
G1 X126.303 Y132.612 E.06229
G1 X124.446 Y133.424 E.06229
G1 X122.549 Y134.029 E.06119
G1 X120.53 Y134.455 E.06339
G1 X118.514 Y134.663 E.06228
G1 X116.486 Y134.663 E.06229
G1 X114.47 Y134.455 E.06229
G1 X112.486 Y134.04 E.06229
G1 X110.554 Y133.424 E.06229
G1 X108.697 Y132.612 E.06229
G1 X106.933 Y131.614 E.06229
G1 X105.28 Y130.439 E.06229
G1 X103.758 Y129.101 E.06229
G1 X102.381 Y127.613 E.06229
G1 X101.164 Y125.992 E.06229
G1 X100.12 Y124.254 E.06229
G1 X99.261 Y122.418 E.06229
G1 X98.607 Y120.537 E.06119
G1 X98.129 Y118.53 E.06339
G1 X97.869 Y116.52 E.06228
G1 X97.817 Y114.493 E.06229
G1 X97.973 Y112.472 E.06229
G1 X98.337 Y110.478 E.06229
G1 X98.903 Y108.531 E.06229
G1 X99.667 Y106.653 E.06229
G1 X100.62 Y104.864 E.06229
G1 X101.751 Y103.182 E.06229
G1 X103.05 Y101.625 E.06229
G1 X104.502 Y100.211 E.06229
G1 X106.091 Y98.952 E.06229
G1 X107.802 Y97.864 E.06229
G1 X109.615 Y96.958 E.06229
G1 X111.512 Y96.243 E.06229
G1 X113.472 Y95.727 E.06229
G1 X115.436 Y95.421 E.06106
G1 E-.68 F3600
;WIPE_START
G1 F3000
G1 X116.435 Y95.367 E-.12
;WIPE_END
G1 X121.947 Y100.647 Z.6 F21000
G1 X136.274 Y114.368 Z.6
M73 P5 R9
G1 Z.2
G1 E.8 F2700
;TYPE:Inner wall
;WIDTH:0.455685
G1 F3000
G1 X136.379 Y114.552 E.00713
G1 X136.428 Y115.034 E.0163
;WIDTH:0.430513
G1 X136.393 Y115.368 E.01061
G1 X136.206 Y115.773 E.01408
;WIDTH:0.419999
G1 X135.88 Y116.131 E.01488
G1 X135.453 Y116.359 E.01488
G1 X134.974 Y116.432 E.01488
G1 X134.498 Y116.342 E.01488
G1 X134.08 Y116.098 E.01488
G1 X133.767 Y115.729 E.01488
G1 X133.572 Y115.162 E.01843
G1 X133.607 Y114.649 E.01578
G1 X133.816 Y114.189 E.01553
G1 X134.176 Y113.828 E.01567
G1 X134.541 Y113.638 E.01262
G1 X135.099 Y113.577 E.01727
G1 X135.336 Y113.607 E.00732
G1 X135.781 Y113.799 E.01488
G1 X136.136 Y114.127 E.01488
;WIDTH:0.455685
G1 X136.254 Y114.333 E.00798
G1 X135.947 Y114.555 F21000
;TYPE:Outer wall
;WIDTH:0.419999
G1 F3000
G1 X135.993 Y114.635 E.00284
G1 X136.058 Y114.987 E.01099
G1 X136.002 Y115.34 E.01099
G1 X135.831 Y115.655 E.01099
G1 X135.566 Y115.894 E.01099
G1 X135.236 Y116.032 E.01099
G1 X134.879 Y116.051 E.01099
G1 X134.535 Y115.951 E.01099
G1 X134.216 Y115.702 E.01242
G1 X134.054 Y115.479 E.00849
G1 X133.947 Y115.103 E.01201
G1 X133.977 Y114.735 E.01133
G1 X134.116 Y114.418 E.01064
G1 X134.36 Y114.157 E.01099
G1 X134.694 Y113.99 E.01145
G1 X135.208 Y113.962 E.01582
G1 X135.544 Y114.092 E.01107
G1 X135.815 Y114.325 E.01099
G1 X135.927 Y114.52 E.00692
G1 E-.68 F3600
;WIPE_START
G1 F3000
G1 X135.993 Y114.635 E-.01589
G1 X136.058 Y114.987 E-.04292
G1 X136.002 Y115.34 E-.04292
G1 X135.929 Y115.474 E-.01827
;WIPE_END
G1 X130.698 Y109.917 Z.6 F21000
G1 X118.912 Y97.397 Z.6
G1 Z.2
G1 E.8 F2700
;TYPE:Inner wall
G1 F3000
G1 X118.932 Y97.535 E.00427
G1 X118.839 Y98.01 E.01488
G1 X118.592 Y98.427 E.01488
G1 X118.221 Y98.738 E.01488
G1 X117.768 Y98.907 E.01488
G1 X117.41 Y98.934 E.01103
G1 X116.869 Y98.79 E.01719
G1 X116.46 Y98.489 E.0156
G1 X116.181 Y98.058 E.01579
G1 X116.07 Y97.587 E.01488
G1 X116.123 Y97.105 E.01488
G1 X116.333 Y96.669 E.01488
G1 X116.676 Y96.328 E.01488
;WIDTH:0.441307
G1 X117.081 Y96.116 E.01482
G1 X117.599 Y96.075 E.01688
;WIDTH:0.436435
G1 X117.839 Y96.1 E.00771
G1 X118.281 Y96.299 E.01555
;WIDTH:0.419999
G1 X118.636 Y96.627 E.01488
G1 X118.862 Y97.056 E.01488
G1 X118.906 Y97.358 E.00938
G1 X118.551 Y97.448 F21000
;TYPE:Outer wall
G1 F3000
G1 X118.558 Y97.487 E.00121
G1 X118.502 Y97.84 E.01099
G1 X118.331 Y98.155 E.01099
G1 X118.066 Y98.394 E.01099
G1 X117.736 Y98.532 E.01099
G1 X117.421 Y98.557 E.00971
G1 X117.035 Y98.451 E.01228
G1 X116.745 Y98.242 E.01099
G1 X116.541 Y97.948 E.01099
G1 X116.447 Y97.603 E.01099
G1 X116.473 Y97.246 E.01099
G1 X116.616 Y96.918 E.01099
G1 X116.86 Y96.657 E.01099
G1 X117.194 Y96.49 E.01145
G1 X117.71 Y96.463 E.0159
G1 X118.044 Y96.592 E.01099
G1 X118.315 Y96.825 E.01099
G1 X118.493 Y97.135 E.01099
G1 X118.544 Y97.409 E.00856
G1 E-.68 F3600
;WIPE_START
G1 F3000
G1 X118.558 Y97.487 E-.00951
G1 X118.502 Y97.84 E-.04292
G1 X118.331 Y98.155 E-.04292
G1 X118.179 Y98.292 E-.02465
;WIPE_END
G1 X115.482 Y105.432 Z.6 F21000
G1 X108.911 Y122.829 Z.6
G1 Z.2
G1 E.8 F2700
;TYPE:Inner wall
G1 F3000
G1 X108.818 Y122.682 E.00535
G1 X108.707 Y122.236 E.01412
G1 X108.694 Y121.917 E.00979
G1 X108.782 Y121.417 E.0156
G1 X108.957 Y121.057 E.0123
G1 X109.152 Y120.796 E.01002
G1 X109.359 Y120.597 E.00882
G1 X109.852 Y120.315 E.01743
G1 X110.017 Y120.251 E.00546
G1 X110.72 Y120.214 E.02161
G1 X110.252 Y119.557 E.02478
G1 X109.715 Y118.523 E.0358
G1 X109.526 Y118.118 E.01372
G1 X109.148 Y116.882 E.03972
G1 X108.94 Y115.364 E.04709
G1 X109.018 Y113.833 E.04709
G1 X109.308 Y112.491 E.04219
G1 X109.777 Y111.322 E.03871
G1 X110.131 Y110.692 E.02221
G1 X110.567 Y109.977 E.02572
G1 X110.712 Y109.791 E.00724
G1 X110.353 Y109.802 E.01104
G1 X110.039 Y109.748 E.00979
G1 X109.541 Y109.538 E.0166
G1 X109.253 Y109.31 E.01129
G1 X109.043 Y109.07 E.00979
G1 X108.79 Y108.603 E.01631
G1 X108.686 Y108.051 E.01728
G1 X108.757 Y107.497 E.01714
G1 X108.982 Y107.012 E.01644
G1 X109.359 Y106.597 E.01724
G1 X109.623 Y106.419 E.00979
G1 X110.12 Y106.227 E.01634
G1 X110.72 Y106.214 E.01844
G1 X111.108 Y106.297 E.01221
G1 X111.449 Y106.455 E.01155
G1 X111.853 Y106.801 E.01635
G1 X112.043 Y107.057 E.00979
G1 X112.267 Y107.612 E.01839
G1 X112.306 Y107.917 E.00946
G1 X112.293 Y108.232 E.00967
G1 X112.761 Y107.869 E.0182
G1 X113.971 Y107.193 E.04259
G1 X115.42 Y106.695 E.04709
G1 X116.692 Y106.477 E.03964
G1 X117.447 Y106.437 E.02324
G1 X118.308 Y106.477 E.02648
G1 X119.659 Y106.708 E.04211
G1 X120.865 Y107.135 E.03931
G1 X121.555 Y107.486 E.0238
G1 X122.228 Y107.862 E.02367
G1 X122.707 Y108.232 E.0186
G1 X122.707 Y107.812 E.01289
G1 X122.825 Y107.32 E.01554
G1 X123.079 Y106.872 E.01583
G1 X123.551 Y106.455 E.01934
G1 X124.106 Y106.23 E.01841
G1 X124.72 Y106.214 E.01886
G1 X125.027 Y106.265 E.00957
G1 X125.525 Y106.503 E.01696
G1 X125.932 Y106.886 E.01717
G1 X126.199 Y107.372 E.01704
G1 X126.306 Y107.917 E.01708
G1 X126.293 Y108.236 E.00979
G1 X126.162 Y108.726 E.01559
G1 X125.955 Y109.074 E.01245
G1 X125.659 Y109.381 E.0131
G1 X125.445 Y109.547 E.00832
G1 X124.961 Y109.748 E.0161
G1 X124.526 Y109.802 E.01347
G1 X124.288 Y109.791 E.00733
G1 X124.717 Y110.439 E.02388
G1 X125.151 Y111.143 E.02539
G1 X125.692 Y112.491 E.04465
G1 X126.002 Y113.992 E.04709
