; HEADER_BLOCK_START
; generated by OrcaSlicer 2.1.1 on 2024-08-24 at 17:52:10
; total layer number: 124
; filament_density: 1.24
; filament_diameter: 1.75
; max_z_height: 10.04
; HEADER_BLOCK_END

; THUMBNAIL_BLOCK_START

;
; THUMBNAIL_BLOCK_END







; external perimeters extrusion width = 0.40mm
; perimeters extrusion width = 0.45mm
; infill extrusion width = 0.45mm
; solid infill extrusion width = 0.45mm
; top infill extrusion width = 0.38mm
; first layer extrusion width = 0.42mm

; EXECUTABLE_BLOCK_START
EXCLUDE_OBJECT_DEFINE NAME=旋转固定板.STL_id_0_copy_0 CENTER=117.5,112.5 POLYGON=[[97.5,112.5],[97.6096,110.409],[97.937,108.342],[98.4789,106.32],[99.2291,104.365],[100.179,102.5],[101.32,100.744],[102.637,99.1174],[104.117,97.6371],[105.744,96.3197],[107.5,95.1795],[109.365,94.2291],[111.32,93.4789],[113.342,92.9371],[115.409,92.6096],[117.5,92.5],[119.591,92.6096],[121.658,92.9371],[123.68,93.4789],[125.635,94.2291],[127.5,95.1795],[129.256,96.3197],[130.883,97.6371],[132.363,99.1174],[133.68,100.744],[134.821,102.5],[135.771,104.365],[136.521,106.32],[137.063,108.342],[137.39,110.409],[137.5,112.5],[137.39,114.591],[137.063,116.658],[136.521,118.68],[135.771,120.635],[134.821,122.5],[133.68,124.256],[132.363,125.883],[130.883,127.363],[129.256,128.68],[127.5,129.821],[125.635,130.771],[123.68,131.521],[121.658,132.063],[119.591,132.39],[117.5,132.5],[115.409,132.39],[113.342,132.063],[111.32,131.521],[109.365,130.771],[107.5,129.821],[105.744,128.68],[104.117,127.363],[102.637,125.883],[101.32,124.256],[100.179,122.5],[99.2291,120.635],[98.4789,118.68],[97.937,116.658],[97.6096,114.591],[97.5,112.5]]
M73 P0 R37
;TYPE:Custom
;ELEGOO NEPTUNE 4 PRO
M220 S100 ;Set the feed speed to 100%
M221 S100 ;Set the flow rate to 100%
M104 S140
M190 S60
G90
G28 ;home
G1 Z10 F300
G1 X67.5 Y0 F6000
G1 Z0 F300
M109 S210
G92 E0 ;Reset Extruder
G1 X67.5 Y0 Z0.4 F300 ;Move to start position
G1 X167.5 E30 F400 ;Draw the first line
G1 Z0.6 F120.0 ;Move to side a little
G1 X162.5 F3000
G92 E0 ;Reset Extruder
G90
G21
M83 ; use relative distances for extrusion
; filament start gcode
M106 S0
;LAYER_CHANGE
;Z:0.2
;HEIGHT:0.2
;BEFORE_LAYER_CHANGE
G92 E0
;0.2


G1 E-.8 F3600
;AFTER_LAYER_CHANGE
;0.2
;_SET_FAN_SPEED_CHANGING_LAYER
SET_VELOCITY_LIMIT ACCEL=1000 ACCEL_TO_DECEL=500
SET_VELOCITY_LIMIT SQUARE_CORNER_VELOCITY=7
; printing object 旋转固定板.STL id:0 copy 0
EXCLUDE_OBJECT_START NAME=旋转固定板.STL_id_0_copy_0
G1 X102.182 Y101.371 F21000
G1 Z.4
G1 Z.2
G1 E.8 F2700
;TYPE:Inner wall
;WIDTH:0.419999
G1 F3000
G1 X103.429 Y99.83 E.0609
G1 X104.83 Y98.429 E.0609
G1 X106.371 Y97.182 E.0609
G1 X108.033 Y96.102 E.0609
G1 X109.799 Y95.203 E.0609
G1 X111.649 Y94.492 E.0609
G1 X113.563 Y93.979 E.0609
G1 X115.521 Y93.669 E.0609
G1 X116.55 Y93.615 E.03166
;WIDTH:0.457558
G1 X116.675 Y93.628 E.00426
;WIDTH:0.495117
G1 X116.801 Y93.64 E.00465
;WIDTH:0.532676
G1 X116.927 Y93.652 E.00504
;WIDTH:0.570234
G1 X117.052 Y93.664 E.00542
G1 X116.965 Y93.714 E.00433
;WIDTH:0.531469
G1 X116.877 Y93.764 E.00401
;WIDTH:0.492703
G1 X116.618 Y93.931 E.01128
;WIDTH:0.456351
G1 X116.359 Y94.097 E.01037
;WIDTH:0.419999
G1 X116.009 Y94.467 E.01567
G1 X115.825 Y94.82 E.01224
G1 X115.731 Y95.125 E.00979
G1 X115.694 Y95.417 E.00906
G1 X115.707 Y95.736 E.00979
G1 X115.849 Y96.249 E.01635
G1 X116.043 Y96.57 E.01154
G1 X116.253 Y96.81 E.00979
G1 X116.674 Y97.114 E.01596
G1 X117.181 Y97.286 E.01646
G1 X117.819 Y97.286 E.0196
G1 X118.326 Y97.114 E.01646
G1 X118.814 Y96.75 E.01871
G1 X119.112 Y96.319 E.01608
G1 X119.231 Y96.024 E.00979
G1 X119.312 Y95.595 E.01339
G1 X119.269 Y95.125 E.01452
G1 X119.175 Y94.82 E.00979
G1 X118.991 Y94.467 E.01224
G1 X118.641 Y94.097 E.01567
G1 X118.377 Y93.919 E.00979
;WIDTH:0.464974
G1 X118.175 Y93.828 E.00759
;WIDTH:0.509949
G1 X117.974 Y93.738 E.0084
;WIDTH:0.554924
G1 X117.773 Y93.647 E.00921
G1 X117.9 Y93.633 E.00537
;WIDTH:0.511969
G1 X118.028 Y93.618 E.00491
;WIDTH:0.469014
G1 X118.156 Y93.603 E.00446
;WIDTH:0.426058
G1 X118.45 Y93.615 E.0092
;WIDTH:0.419999
G1 X119.479 Y93.669 E.03166
G1 X121.437 Y93.979 E.0609
G1 X123.351 Y94.492 E.0609
G1 X125.201 Y95.203 E.0609
G1 X126.967 Y96.102 E.0609
G1 X128.629 Y97.182 E.0609
G1 X130.17 Y98.429 E.0609
G1 X131.571 Y99.83 E.0609
G1 X132.818 Y101.371 E.0609
G1 X133.327 Y102.154 E.02868
;WIDTH:0.460376
G1 X133.356 Y102.236 E.00298
;WIDTH:0.500753
G1 X133.386 Y102.319 E.00327
;WIDTH:0.541129
G1 X133.415 Y102.401 E.00356
;WIDTH:0.581506
G1 X133.445 Y102.484 E.00385
;WIDTH:0.621882
G1 X133.474 Y102.566 E.00414
G1 X133.346 Y102.512 E.00658
;WIDTH:0.581506
G1 X133.217 Y102.459 E.00613
;WIDTH:0.541129
G1 X133.088 Y102.405 E.00567
;WIDTH:0.500753
G1 X132.959 Y102.351 E.00521
;WIDTH:0.460376
G1 X132.83 Y102.297 E.00475
;WIDTH:0.419999
G1 X132.455 Y102.202 E.01189
G1 X131.923 Y102.217 E.01638
G1 X131.614 Y102.297 E.00978
G1 X131.346 Y102.419 E.00906
G1 X131.082 Y102.597 E.00979
G1 X130.737 Y102.959 E.01538
G1 X130.505 Y103.416 E.01573
G1 X130.416 Y103.917 E.01564
G1 X130.43 Y104.236 E.00979
G1 X130.56 Y104.725 E.01556
G1 X130.891 Y105.232 E.01862
G1 X131.363 Y105.598 E.01836
G1 X131.835 Y105.771 E.01544
G1 X132.37 Y105.802 E.01646
G1 X132.684 Y105.748 E.00979
G1 X133.06 Y105.609 E.01231
G1 X133.469 Y105.31 E.0156
G1 X133.68 Y105.07 E.00979
G1 X133.864 Y104.767 E.01091
G1 X134.015 Y104.236 E.01697
;WIDTH:0.468498
G1 X134.019 Y103.973 E.00912
;WIDTH:0.516996
G1 X134.023 Y103.71 E.01016
;WIDTH:0.565494
G1 X134.027 Y103.447 E.0112
G1 X134.12 Y103.575 E.00674
;WIDTH:0.516996
G1 X134.212 Y103.703 E.00612
;WIDTH:0.468498
G1 X134.305 Y103.832 E.00549
;WIDTH:0.419999
G1 X134.797 Y104.799 E.03334
G1 X135.508 Y106.649 E.0609
G1 X136.021 Y108.563 E.0609
G1 X136.331 Y110.521 E.0609
G1 X136.418 Y112.189 E.05133
G1 X136.418 Y112.811 E.01912
G1 X136.331 Y114.479 E.05133
G1 X136.021 Y116.437 E.0609
G1 X135.508 Y118.351 E.0609
G1 X134.797 Y120.201 E.0609
M73 P1 R37
G1 X134.198 Y121.378 E.04059
;WIDTH:0.465434
G1 X134.115 Y121.491 E.00482
;WIDTH:0.510868
G1 X134.032 Y121.604 E.00533
;WIDTH:0.556302
G1 X133.949 Y121.716 E.00585
G1 X133.976 Y121.45 E.0112
;WIDTH:0.510868
G1 X134.002 Y121.184 E.01021
;WIDTH:0.465434
G1 X134.029 Y120.917 E.00922
;WIDTH:0.419999
G1 X133.991 Y120.625 E.00906
G1 X133.849 Y120.224 E.01307
G1 X133.576 Y119.801 E.01547
G1 X133.363 Y119.597 E.00906
G1 X133.099 Y119.419 E.00979
G1 X132.83 Y119.297 E.00906
G1 X132.361 Y119.191 E.01478
G1 X131.815 Y119.232 E.01683
G1 X131.346 Y119.419 E.01551
G1 X131.082 Y119.597 E.00979
G1 X130.747 Y119.945 E.01484
G1 X130.486 Y120.472 E.01808
G1 X130.409 Y121.075 E.01868
G1 X130.526 Y121.644 E.01783
G1 X130.857 Y122.195 E.01976
G1 X131.261 Y122.537 E.01627
G1 X131.761 Y122.748 E.01668
G1 X132.075 Y122.802 E.00979
G1 X132.387 Y122.802 E.00958
G1 X132.962 Y122.65 E.01827
;WIDTH:0.467128
G1 X133.181 Y122.522 E.00878
;WIDTH:0.514257
G1 X133.4 Y122.394 E.00975
;WIDTH:0.561386
G1 X133.619 Y122.266 E.01073
G1 X133.559 Y122.402 E.00628
;WIDTH:0.514257
G1 X133.499 Y122.538 E.00571
;WIDTH:0.467128
G1 X133.439 Y122.674 E.00514
;WIDTH:0.419999
G1 X132.818 Y123.629 E.03501
G1 X131.571 Y125.17 E.0609
G1 X130.17 Y126.571 E.0609
G1 X128.629 Y127.818 E.0609
G1 X126.967 Y128.898 E.0609
G1 X125.201 Y129.797 E.0609
G1 X123.351 Y130.508 E.0609
G1 X121.437 Y131.021 E.0609
G1 X119.479 Y131.331 E.0609
G1 X118.288 Y131.393 E.03667
;WIDTH:0.466119
G1 X118.15 Y131.377 E.00478
;WIDTH:0.512239
G1 X118.012 Y131.361 E.00531
;WIDTH:0.558358
G1 X117.874 Y131.346 E.00583
G1 X117.978 Y131.294 E.00485
;WIDTH:0.518078
G1 X118.248 Y131.145 E.01195
;WIDTH:0.469039
G1 X118.517 Y130.995 E.01072
;WIDTH:0.419999
G1 X118.747 Y130.809 E.00906
G1 X118.979 Y130.535 E.01104
G1 X119.231 Y130.024 E.01752
G1 X119.31 Y129.451 E.01776
G1 X119.231 Y128.955 E.01544
G1 X118.981 Y128.452 E.01725
G1 X118.57 Y128.035 E.018
G1 X118.077 Y127.784 E.017
G1 X117.59 Y127.689 E.01523
G1 X117.087 Y127.734 E.01554
G1 X116.623 Y127.919 E.01533
G1 X116.392 Y128.067 E.00846
G1 X116.019 Y128.452 E.01648
G1 X115.769 Y128.955 E.01725
G1 X115.69 Y129.451 E.01544
G1 X115.769 Y130.024 E.01776
G1 X116.021 Y130.535 E.01752
G1 X116.253 Y130.809 E.01104
G1 X116.483 Y130.995 E.00906
;WIDTH:0.461289
G1 X116.615 Y131.077 E.00532
;WIDTH:0.502578
G1 X116.747 Y131.16 E.00584
;WIDTH:0.543867
G1 X116.879 Y131.243 E.00637
;WIDTH:0.585156
G1 X117.011 Y131.326 E.00689
G1 X116.843 Y131.338 E.00746
;WIDTH:0.543867
G1 X116.674 Y131.35 E.00689
;WIDTH:0.502578
G1 X116.506 Y131.362 E.00632
;WIDTH:0.461289
G1 X116.337 Y131.373 E.00576
;WIDTH:0.419999
G1 X115.521 Y131.331 E.02513
G1 X113.563 Y131.021 E.0609
G1 X111.649 Y130.508 E.0609
G1 X109.799 Y129.797 E.0609
G1 X108.033 Y128.898 E.0609
G1 X106.371 Y127.818 E.0609
G1 X104.83 Y126.571 E.0609
G1 X103.429 Y125.17 E.0609
G1 X102.484 Y124.003 E.04613
G1 X101.967 Y123.299 E.02684
;WIDTH:0.449451
G1 X101.593 Y122.696 E.02351
;WIDTH:0.498198
G1 X101.554 Y122.591 E.00416
;WIDTH:0.546944
G1 X101.515 Y122.486 E.00461
;WIDTH:0.59569
G1 X101.476 Y122.381 E.00505
G1 X101.571 Y122.425 E.00476
;WIDTH:0.546944
G1 X101.667 Y122.47 E.00434
;WIDTH:0.498198
G1 X101.763 Y122.514 E.00392
;WIDTH:0.449451
G1 X102.328 Y122.751 E.02029
;WIDTH:0.419999
G1 X102.665 Y122.808 E.0105
G1 X103.227 Y122.751 E.01737
G1 X103.528 Y122.645 E.00979
G1 X103.819 Y122.482 E.01026
G1 X104.228 Y122.08 E.01761
G1 X104.395 Y121.809 E.00979
G1 X104.565 Y121.304 E.01635
G1 X104.577 Y120.763 E.01665
G1 X104.386 Y120.16 E.01941
G1 X104.036 Y119.692 E.01796
G1 X103.591 Y119.38 E.0167
G1 X103.089 Y119.219 E.01621
G1 X102.708 Y119.197 E.01171
G1 X102.17 Y119.297 E.01683
G1 X101.907 Y119.416 E.00886
G1 X101.637 Y119.597 E.00998
G1 X101.424 Y119.801 E.00906
G1 X101.151 Y120.224 E.01547
G1 X101.009 Y120.625 E.01307
G1 X100.971 Y120.917 E.00906
;WIDTH:0.465354
G1 X100.998 Y121.185 E.00926
;WIDTH:0.510709
G1 X101.026 Y121.452 E.01025
;WIDTH:0.556064
G1 X101.053 Y121.72 E.01124
G1 X100.969 Y121.606 E.00589
;WIDTH:0.510709
G1 X100.886 Y121.493 E.00537
;WIDTH:0.465354
G1 X100.803 Y121.379 E.00484
;WIDTH:0.419999
G1 X100.203 Y120.201 E.04063
G1 X99.492 Y118.351 E.0609
G1 X98.979 Y116.437 E.0609
G1 X98.669 Y114.479 E.0609
G1 X98.566 Y112.5 E.0609
G1 X98.669 Y110.521 E.0609
G1 X98.979 Y108.563 E.0609
G1 X99.492 Y106.649 E.0609
G1 X100.203 Y104.799 E.0609
G1 X100.695 Y103.832 E.03334
;WIDTH:0.468526
G1 X100.788 Y103.704 E.00549
;WIDTH:0.517052
G1 X100.88 Y103.575 E.00612
;WIDTH:0.565578
G1 X100.973 Y103.447 E.00674
G1 X100.971 Y103.533 E.00368
;WIDTH:0.533541
G1 X100.968 Y103.62 E.00346
;WIDTH:0.501504
G1 X100.977 Y103.928 E.01151
;WIDTH:0.460752
G1 X100.985 Y104.236 E.01049
;WIDTH:0.419999
G1 X101.136 Y104.767 E.01697
G1 X101.32 Y105.07 E.01091
G1 X101.531 Y105.309 E.00979
G1 X101.76 Y105.495 E.00906
G1 X102.038 Y105.65 E.00979
G1 X102.582 Y105.801 E.01733
G1 X103.123 Y105.781 E.01665
G1 X103.612 Y105.61 E.01591
G1 X104.024 Y105.31 E.01569
G1 X104.235 Y105.07 E.00979
G1 X104.479 Y104.628 E.01554
G1 X104.59 Y104.082 E.01713
G1 X104.529 Y103.528 E.01712
G1 X104.32 Y103.057 E.01582
G1 X104.131 Y102.801 E.00979
G1 X103.78 Y102.487 E.01447
G1 X103.386 Y102.297 E.01344
G1 X103.011 Y102.202 E.01189
G1 X102.651 Y102.202 E.01104
G1 X102.17 Y102.297 E.01509
G1 X101.901 Y102.419 E.00906
;WIDTH:0.468646
G1 X101.726 Y102.528 E.00717
;WIDTH:0.517292
G1 X101.55 Y102.638 E.00799
;WIDTH:0.565938
G1 X101.375 Y102.747 E.00881
G1 X101.474 Y102.549 E.00944
;WIDTH:0.517292
G1 X101.574 Y102.351 E.00856
;WIDTH:0.468646
G1 X101.673 Y102.154 E.00768
;WIDTH:0.419999
G1 X102.16 Y101.404 E.02745
G1 X101.876 Y101.149 F21000
G1 F3000
G1 X103.148 Y99.578 E.06211
G1 X104.578 Y98.148 E.06211
G1 X106.149 Y96.876 E.06211
G1 X107.844 Y95.775 E.06211
G1 X109.645 Y94.858 E.06211
G1 X111.532 Y94.133 E.06211
G1 X113.485 Y93.61 E.06211
G1 X115.481 Y93.294 E.06211
G1 X117.5 Y93.188 E.06211
G1 X119.519 Y93.294 E.06211
G1 X121.515 Y93.61 E.06211
G1 X123.468 Y94.133 E.06211
G1 X125.355 Y94.858 E.06211
G1 X127.156 Y95.775 E.06211
G1 X128.851 Y96.876 E.06211
G1 X130.422 Y98.148 E.06211
G1 X131.852 Y99.578 E.06211
G1 X133.124 Y101.149 E.06211
G1 X134.225 Y102.844 E.06211
G1 X135.142 Y104.645 E.06211
G1 X135.867 Y106.532 E.06211
G1 X136.39 Y108.485 E.06211
G1 X136.706 Y110.481 E.06211
G1 X136.795 Y112.169 E.05193
G1 X136.795 Y112.831 E.02033
G1 X136.706 Y114.519 E.05193
G1 X136.39 Y116.515 E.06211
G1 X135.867 Y118.468 E.06211
G1 X135.142 Y120.355 E.06211
G1 X134.225 Y122.156 E.06211
G1 X133.124 Y123.851 E.06211
G1 X131.852 Y125.422 E.06211
G1 X130.422 Y126.852 E.06211
G1 X128.851 Y128.124 E.06211
G1 X127.156 Y129.225 E.06211
G1 X125.355 Y130.142 E.06211
G1 X123.468 Y130.867 E.06211
G1 X121.515 Y131.39 E.06211
G1 X119.519 Y131.706 E.06211
G1 X117.5 Y131.812 E.06211
G1 X115.481 Y131.706 E.06211
G1 X113.485 Y131.39 E.06211
G1 X111.532 Y130.867 E.06211
G1 X109.645 Y130.142 E.06211
G1 X107.844 Y129.225 E.06211
G1 X106.149 Y128.124 E.06211
G1 X104.578 Y126.852 E.06211
G1 X103.148 Y125.422 E.06211
G1 X101.876 Y123.851 E.06211
G1 X100.775 Y122.156 E.06211
G1 X99.858 Y120.355 E.06211
G1 X99.133 Y118.468 E.06211
G1 X98.61 Y116.515 E.06211
G1 X98.294 Y114.519 E.06211
G1 X98.188 Y112.5 E.06211
G1 X98.294 Y110.481 E.06211
G1 X98.61 Y108.485 E.06211
G1 X99.133 Y106.532 E.06211
G1 X99.858 Y104.645 E.06211
G1 X100.775 Y102.844 E.06211
G1 X101.854 Y101.182 E.06088
G1 X101.571 Y100.927 F21000
;TYPE:Outer wall
G1 F3000
G1 X102.868 Y99.325 E.06333
G1 X104.325 Y97.868 E.06333
G1 X105.927 Y96.571 E.06333
G1 X107.655 Y95.448 E.06333
G1 X109.492 Y94.513 E.06333
G1 X111.416 Y93.774 E.06333
G1 X113.406 Y93.241 E.06333
G1 X115.442 Y92.918 E.06333
G1 X117.5 Y92.81 E.06333
G1 X119.558 Y92.918 E.06333
G1 X121.594 Y93.241 E.06333
G1 X123.584 Y93.774 E.06333
G1 X125.508 Y94.513 E.06333
G1 X127.345 Y95.448 E.06333
G1 X129.073 Y96.571 E.06333
G1 X130.675 Y97.868 E.06333
G1 X132.132 Y99.325 E.06333
G1 X133.429 Y100.927 E.06333
G1 X134.552 Y102.655 E.06333
G1 X135.487 Y104.492 E.06333
G1 X136.226 Y106.416 E.06333
G1 X136.759 Y108.406 E.06333
G1 X137.082 Y110.442 E.06333
G1 X137.171 Y112.149 E.05254
G1 X137.171 Y112.851 E.02154
G1 X137.082 Y114.558 E.05254
G1 X136.759 Y116.594 E.06333
G1 X136.226 Y118.584 E.06333
G1 X135.487 Y120.508 E.06333
G1 X134.552 Y122.345 E.06333
G1 X133.429 Y124.073 E.06333
G1 X132.132 Y125.675 E.06333
G1 X130.675 Y127.132 E.06333
G1 X129.073 Y128.429 E.06333
G1 X127.345 Y129.552 E.06333
G1 X125.508 Y130.487 E.06333
G1 X123.584 Y131.226 E.06333
G1 X121.594 Y131.759 E.06333
G1 X119.558 Y132.082 E.06333
G1 X117.5 Y132.19 E.06333
G1 X115.442 Y132.082 E.06333
G1 X113.406 Y131.759 E.06333
G1 X111.416 Y131.226 E.06333
G1 X109.492 Y130.487 E.06333
G1 X107.655 Y129.552 E.06333
G1 X105.927 Y128.429 E.06333
G1 X104.325 Y127.132 E.06333
G1 X102.868 Y125.675 E.06333
G1 X101.571 Y124.073 E.06333
G1 X100.448 Y122.345 E.06333
G1 X99.513 Y120.508 E.06333
G1 X98.774 Y118.584 E.06333
G1 X98.241 Y116.594 E.06333
G1 X97.918 Y114.558 E.06333
G1 X97.81 Y112.5 E.06333
G1 X97.918 Y110.442 E.06333
G1 X98.241 Y108.406 E.06333
G1 X98.774 Y106.416 E.06333
G1 X99.513 Y104.492 E.06333
G1 X100.448 Y102.655 E.06333
G1 X101.549 Y100.96 E.0621
G1 E-.68 F3600
;WIPE_START
G1 F3000
G1 X102.177 Y100.182 E-.12
;WIPE_END
G1 X109.704 Y101.443 Z.6 F21000
G1 X131.268 Y105.055 Z.6
G1 Z.2
G1 E.8 F2700
;TYPE:Inner wall
G1 F3000
G1 X131.213 Y105.016 E.0021
G1 X130.932 Y104.622 E.01488
G1 X130.798 Y104.156 E.01488
G1 X130.828 Y103.673 E.01488
G1 X131.016 Y103.227 E.01488
G1 X131.343 Y102.869 E.01488
G1 X131.77 Y102.641 E.01488
G1 X132.248 Y102.568 E.01486
G1 X132.538 Y102.599 E.00896
G1 X132.944 Y102.762 E.01345
G1 X133.125 Y102.892 E.00684
G1 X133.467 Y103.281 E.01592
G1 X133.574 Y103.518 E.00799
G1 X133.655 Y103.965 E.01397
G1 X133.584 Y104.444 E.01488
G1 X133.359 Y104.873 E.01488
G1 X133.003 Y105.201 E.01488
G1 X132.558 Y105.393 E.01488
G1 X132.075 Y105.425 E.01488
G1 X131.609 Y105.294 E.01488
G1 X131.301 Y105.078 E.01155
G1 X131.487 Y104.744 F21000
;TYPE:Outer wall
G1 F3000
G1 X131.407 Y104.675 E.00324
G1 X131.229 Y104.365 E.01099
G1 X131.164 Y104.013 E.01099
G1 X131.22 Y103.66 E.01099
G1 X131.391 Y103.345 E.01099
G1 X131.657 Y103.106 E.01099
G1 X131.987 Y102.968 E.01099
