; HEADER_BLOCK_START
; generated by OrcaSlicer 2.1.1 on 2024-08-24 at 15:41:15
; total layer number: 24
; filament_density: 1.24
; filament_diameter: 1.75
; max_z_height: 2.04
; HEADER_BLOCK_END

; THUMBNAIL_BLOCK_START

;
; THUMBNAIL_BLOCK_END







; external perimeters extrusion width = 0.40mm
; perimeters extrusion width = 0.45mm
; infill extrusion width = 0.45mm
; solid infill extrusion width = 0.45mm
; top infill extrusion width = 0.38mm
; first layer extrusion width = 0.42mm

; EXECUTABLE_BLOCK_START
EXCLUDE_OBJECT_DEFINE NAME=点击固定板.STL_id_0_copy_0 CENTER=117.5,115 POLYGON=[[107.5,105],[127.5,105],[127.5,125],[107.5,125],[107.5,105]]
M73 P0 R8
;TYPE:Custom
;ELEGOO NEPTUNE 4 PRO
M220 S100 ;Set the feed speed to 100%
M221 S100 ;Set the flow rate to 100%
M104 S140
M190 S60
G90
G28 ;home
G1 Z10 F300
G1 X67.5 Y0 F6000
G1 Z0 F300
M109 S210
G92 E0 ;Reset Extruder
G1 X67.5 Y0 Z0.4 F300 ;Move to start position
G1 X167.5 E30 F400 ;Draw the first line
G1 Z0.6 F120.0 ;Move to side a little
M73 P4 R7
G1 X162.5 F3000
G92 E0 ;Reset Extruder
G90
G21
M83 ; use relative distances for extrusion
; filament start gcode
M106 S0
;LAYER_CHANGE
;Z:0.2
;HEIGHT:0.2
;BEFORE_LAYER_CHANGE
G92 E0
;0.2


G1 E-.8 F3600
;AFTER_LAYER_CHANGE
;0.2
;_SET_FAN_SPEED_CHANGING_LAYER
SET_VELOCITY_LIMIT ACCEL=1000 ACCEL_TO_DECEL=500
SET_VELOCITY_LIMIT SQUARE_CORNER_VELOCITY=7
; printing object 点击固定板.STL id:0 copy 0
EXCLUDE_OBJECT_START NAME=点击固定板.STL_id_0_copy_0
G1 X126.408 Y106.953 F21000
G1 Z.4
G1 Z.2
G1 E.8 F2700
;TYPE:Inner wall
;WIDTH:0.475907
G1 F3000
G1 X126.154 Y106.573 E.01614
G1 X125.855 Y106.286 E.01459
G1 X125.56 Y106.092 E.01248
G1 X126.408 Y106.092 E.02992
G1 X126.408 Y106.913 E.02896
G1 E-.68 F3600
;WIPE_START
G1 F3000
G1 X126.154 Y106.573 E-.05096
G1 X125.855 Y106.286 E-.04962
G1 X125.72 Y106.198 E-.01942
;WIPE_END
G1 X124.847 Y110.11 Z.6 F21000
G1 Z.2
G1 E.8 F2700
;WIDTH:0.419999
G1 F3000
G1 X125.026 Y110.091 E.00553
G1 X125.423 Y109.948 E.01298
G1 X125.698 Y109.793 E.00968
G1 X126.011 Y109.54 E.01239
G1 X126.22 Y109.302 E.00973
G1 X126.436 Y108.951 E.01265
G1 X126.436 Y121.071 E.3724
G1 X126.135 Y120.593 E.01735
G1 X125.837 Y120.307 E.01269
G1 X125.573 Y120.129 E.00979
G1 X125.196 Y119.959 E.01269
G1 X124.763 Y119.853 E.0137
G1 X124.112 Y119.878 E.02001
G1 X123.804 Y119.959 E.00979
G1 X123.248 Y120.235 E.01907
G1 X122.865 Y120.593 E.01612
G1 X122.675 Y120.85 E.0098
G1 X122.413 Y121.429 E.01953
G1 X122.344 Y121.932 E.01561
G1 X122.358 Y122.25 E.00979
G1 X122.445 Y122.654 E.01269
G1 X122.563 Y122.95 E.00979
G1 X122.78 Y123.302 E.01269
G1 X122.991 Y123.541 E.00979
G1 X123.312 Y123.8 E.01269
G1 X123.555 Y123.936 E.00855
G1 X111.445 Y123.936 E.37209
G1 X111.688 Y123.8 E.00855
G1 X112.009 Y123.541 E.01269
G1 X112.22 Y123.302 E.00979
G1 X112.437 Y122.95 E.01269
G1 X112.556 Y122.649 E.00996
G1 X112.643 Y122.235 E.01298
G1 X112.655 Y121.92 E.00968
G1 X112.603 Y121.521 E.01239
G1 X112.51 Y121.218 E.00973
G1 X112.238 Y120.71 E.01769
G1 X111.869 Y120.338 E.01611
G1 X111.573 Y120.129 E.01116
G1 X111.105 Y119.923 E.01568
G1 X110.666 Y119.842 E.01372
G1 X110.112 Y119.878 E.01706
G1 X109.804 Y119.959 E.00979
G1 X109.427 Y120.129 E.01269
G1 X109.16 Y120.311 E.00996
G1 X108.856 Y120.605 E.01298
G1 X108.564 Y121.07 E.01686
G1 X108.565 Y108.955 E.37225
G1 X108.79 Y109.313 E.01298
G1 X108.999 Y109.549 E.00968
G1 X109.313 Y109.801 E.01239
G1 X109.59 Y109.956 E.00973
G1 X109.979 Y110.093 E.01269
G1 X110.293 Y110.147 E.00979
G1 X110.707 Y110.147 E.01269
G1 X111.1 Y110.065 E.01235
G1 X111.594 Y109.867 E.01636
G1 X112.008 Y109.542 E.01615
G1 X112.256 Y109.242 E.01198
G1 X112.52 Y108.777 E.01642
G1 X112.638 Y108.27 E.016
G1 X112.655 Y107.927 E.01057
G1 X112.599 Y107.508 E.01298
G1 X112.506 Y107.207 E.00968
G1 X112.323 Y106.847 E.01239
G1 X112.135 Y106.593 E.00973
G1 X111.836 Y106.307 E.01271
G1 X111.43 Y106.064 E.01453
G1 X123.57 Y106.064 E.37303
G1 X123.163 Y106.307 E.01455
G1 X122.865 Y106.593 E.01269
G1 X122.676 Y106.849 E.00979
G1 X122.49 Y107.218 E.01269
G1 X122.396 Y107.528 E.00996
G1 X122.345 Y107.947 E.01298
G1 X122.359 Y108.262 E.00968
G1 X122.445 Y108.656 E.01239
G1 X122.563 Y108.95 E.00973
G1 X122.853 Y109.404 E.01656
G1 X123.084 Y109.616 E.00962
G1 X123.501 Y109.919 E.01583
G1 X124.032 Y110.11 E.01735
G1 X124.482 Y110.147 E.01388
G1 X124.807 Y110.114 E.01003
G1 X124.89 Y109.715 F21000
G1 F3000
G1 X124.707 Y109.77 E.00589
G1 X124.159 Y109.754 E.01683
G1 X123.662 Y109.578 E.0162
G1 X123.241 Y109.258 E.01624
G1 X123.065 Y109.045 E.00852
G1 X122.814 Y108.576 E.01634
G1 X122.719 Y107.993 E.01814
G1 X122.77 Y107.574 E.01298
G1 X123.013 Y107.019 E.0186
G1 X123.424 Y106.579 E.01851
;WIDTH:0.46504
G1 X123.95 Y106.282 E.02077
;WIDTH:0.490223
G1 X124.045 Y106.244 E.00373
;WIDTH:0.515405
G1 X124.14 Y106.206 E.00394
G1 X124.706 Y106.184 E.02181
;WIDTH:0.52002
G1 X124.912 Y106.211 E.00806
G1 X125.08 Y106.298 E.00736
;WIDTH:0.48668
G1 X125.248 Y106.385 E.00685
;WIDTH:0.45334
G1 X125.417 Y106.472 E.00634
;WIDTH:0.419999
G1 X125.874 Y106.865 E.01853
;WIDTH:0.445829
G1 X126.185 Y107.382 E.0198
;WIDTH:0.485124
G1 X126.233 Y107.473 E.00371
;WIDTH:0.524419
G1 X126.281 Y107.564 E.00404
G1 X126.318 Y108.157 E.02331
;WIDTH:0.500992
G1 X126.217 Y108.454 E.01174
;WIDTH:0.460496
G1 X126.115 Y108.752 E.0107
;WIDTH:0.419999
G1 X125.773 Y109.247 E.01847
G1 X125.296 Y109.593 E.01814
G1 X124.928 Y109.703 E.01178
G1 X124.788 Y109.366 F21000
;TYPE:Outer wall
G1 F3000
G1 X124.707 Y109.393 E.00264
G1 X124.231 Y109.382 E.01462
G1 X123.786 Y109.214 E.01461
G1 X123.422 Y108.906 E.01464
G1 X123.182 Y108.496 E.01461
G1 X123.093 Y108.039 E.0143
G1 X123.145 Y107.619 E.01298
G1 X123.387 Y107.137 E.01658
G1 X123.738 Y106.816 E.01462
G1 X124.176 Y106.63 E.01462
G1 X124.635 Y106.597 E.01415
G1 X124.886 Y106.646 E.00783
G1 X125.314 Y106.851 E.01461
G1 X125.651 Y107.189 E.01464
G1 X125.855 Y107.618 E.01462
G1 X125.905 Y108.092 E.01462
G1 X125.794 Y108.554 E.01462
G1 X125.536 Y108.954 E.01461
G1 X125.168 Y109.239 E.0143
G1 X124.826 Y109.353 E.01108
G1 E-.68 F3600
;WIPE_START
G1 F3000
G1 X124.707 Y109.393 E-.01512
G1 X124.231 Y109.382 E-.05711
G1 X123.858 Y109.241 E-.04778
;WIPE_END
G1 X116.31 Y108.109 Z.6 F21000
G1 X108.592 Y106.95 Z.6
M73 P5 R7
G1 Z.2
G1 E.8 F2700
;TYPE:Inner wall
;WIDTH:0.476518
G1 F3000
G1 X108.592 Y106.092 E.03031
G1 X109.439 Y106.092 E.02991
G1 X109.14 Y106.291 E.01268
G1 X108.837 Y106.585 E.01493
G1 X108.615 Y106.917 E.01412
G1 E-.68 F3600
;WIPE_START
G1 F3000
G1 X108.592 Y106.092 E-.099
G1 X108.767 Y106.092 E-.021
;WIPE_END
G1 X111.206 Y109.625 Z.6 F21000
G1 Z.2
G1 E.8 F2700
;WIDTH:0.419999
G1 F3000
G1 X110.849 Y109.752 E.01163
G1 X110.293 Y109.77 E.01708
G1 X109.716 Y109.6 E.01851
G1 X109.235 Y109.255 E.01817
G1 X108.886 Y108.755 E.01874
;WIDTH:0.45721
G1 X108.788 Y108.467 E.01027
;WIDTH:0.49442
G1 X108.69 Y108.179 E.0112
;WIDTH:0.524416
G1 X108.719 Y107.564 E.02416
G1 X108.815 Y107.385 E.00795
;WIDTH:0.489611
G1 X108.911 Y107.207 E.00738
;WIDTH:0.454805
G1 X109.007 Y107.028 E.0068
;WIDTH:0.419999
G1 X109.422 Y106.582 E.01874
;WIDTH:0.46504
G1 X109.95 Y106.282 E.02088
;WIDTH:0.490223
G1 X110.045 Y106.244 E.00373
;WIDTH:0.515405
G1 X110.14 Y106.206 E.00394
G1 X110.706 Y106.184 E.02181
;WIDTH:0.52002
G1 X110.912 Y106.211 E.00806
G1 X111.08 Y106.298 E.00736
;WIDTH:0.48668
G1 X111.248 Y106.385 E.00685
;WIDTH:0.45334
G1 X111.417 Y106.472 E.00634
;WIDTH:0.419999
G1 X111.874 Y106.865 E.01853
G1 X112.169 Y107.377 E.01817
G1 X112.281 Y107.977 E.01874
G1 X112.187 Y108.575 E.0186
G1 X111.935 Y109.045 E.01638
G1 X111.771 Y109.249 E.00806
G1 X111.342 Y109.576 E.01657
G1 X111.243 Y109.611 E.00322
G1 X111.077 Y109.271 F21000
;TYPE:Outer wall
G1 F3000
G1 X110.707 Y109.393 E.01199
G1 X110.231 Y109.382 E.01462
G1 X109.786 Y109.214 E.01461
G1 X109.43 Y108.914 E.0143
G1 X109.182 Y108.495 E.01495
G1 X109.095 Y108.092 E.01269
G1 X109.163 Y107.558 E.01654
G1 X109.381 Y107.146 E.0143
G1 X109.738 Y106.816 E.01495
G1 X110.176 Y106.63 E.01462
G1 X110.635 Y106.597 E.01415
G1 X110.886 Y106.646 E.00783
G1 X111.314 Y106.851 E.01461
G1 X111.651 Y107.188 E.01463
G1 X111.852 Y107.608 E.0143
G1 X111.901 Y108.111 E.01554
G1 X111.794 Y108.554 E.014
G1 X111.534 Y108.956 E.0147
G1 X111.159 Y109.245 E.01455
G1 X111.115 Y109.259 E.0014
G1 E-.68 F3600
;WIPE_START
G1 F3000
G1 X110.707 Y109.393 E-.05164
G1 X110.231 Y109.382 E-.05711
G1 X110.143 Y109.349 E-.01125
;WIPE_END
G1 X113.844 Y116.024 Z.6 F21000
G1 X114.102 Y116.49 Z.6
G1 Z.2
G1 E.8 F2700
;TYPE:Inner wall
G1 F3000
G1 X113.695 Y116.728 E.01449
G1 X113.159 Y116.851 E.0169
G1 X112.841 Y116.851 E.00979
G1 X112.32 Y116.735 E.0164
G1 X111.871 Y116.483 E.01581
G1 X111.507 Y116.105 E.01614
G1 X111.34 Y115.835 E.00976
G1 X111.17 Y115.359 E.01552
G1 X111.144 Y114.919 E.01353
G1 X111.183 Y114.61 E.00957
G1 X111.277 Y114.306 E.00979
G1 X111.417 Y114.027 E.00957
G1 X111.607 Y113.771 E.00979
G1 X111.987 Y113.435 E.01559
G1 X112.454 Y113.219 E.01581
G1 X113.001 Y113.142 E.01699
G1 X113.449 Y113.19 E.01384
G1 X114.023 Y113.441 E.01925
G1 X114.107 Y113.507 E.00329
G1 X114.369 Y113.02 E.01701
G1 X114.62 Y112.665 E.01337
G1 X114.978 Y112.275 E.01626
G1 X115.441 Y111.908 E.01814
G1 X115.899 Y111.651 E.01612
G1 X116.487 Y111.429 E.01935
G1 X117.104 Y111.309 E.01928
G1 X117.737 Y111.296 E.01947
G1 X118.358 Y111.388 E.01929
G1 X118.956 Y111.585 E.01935
G1 X119.512 Y111.88 E.01935
G1 X120.01 Y112.265 E.01935
G1 X120.436 Y112.729 E.01935
G1 X120.778 Y113.258 E.01935
G1 X120.893 Y113.507 E.00844
G1 X121.379 Y113.249 E.01693
G1 X121.689 Y113.168 E.00983
G1 X122.206 Y113.147 E.01589
G1 X122.694 Y113.271 E.01546
G1 X123.166 Y113.553 E.01691
G1 X123.396 Y113.774 E.00979
G1 X123.581 Y114.024 E.00957
G1 X123.725 Y114.309 E.00979
G1 X123.857 Y114.883 E.0181
G1 X123.83 Y115.357 E.0146
G1 X123.66 Y115.835 E.01558
G1 X123.493 Y116.106 E.00979
G1 X123.169 Y116.453 E.01458
G1 X122.718 Y116.718 E.01605
G1 X122.411 Y116.808 E.00985
G1 X121.914 Y116.861 E.01533
G1 X121.399 Y116.765 E.0161
G1 X120.894 Y116.497 E.01757
G1 X120.618 Y117.014 E.01801
G1 X120.313 Y117.425 E.01575
G1 X119.894 Y117.837 E.01805
G1 X119.38 Y118.201 E.01935
G1 X118.812 Y118.473 E.01935
G1 X118.206 Y118.644 E.01935
G1 X117.58 Y118.711 E.01935
G1 X116.952 Y118.671 E.01935
G1 X116.339 Y118.526 E.01935
G1 X115.76 Y118.279 E.01935
G1 X115.231 Y117.938 E.01935
G1 X114.767 Y117.512 E.01935
G1 X114.382 Y117.014 E.01935
G1 X114.121 Y116.525 E.01702
G1 X113.944 Y116.125 F21000
G1 F3000
G1 X113.619 Y116.349 E.01213
G1 X113.205 Y116.461 E.01317
G1 X112.904 Y116.479 E.00925
G1 X112.417 Y116.363 E.0154
G1 X112.048 Y116.143 E.01321
G1 X111.79 Y115.856 E.01184
G1 X111.574 Y115.407 E.0153
G1 X111.513 Y115.039 E.01146
G1 X111.557 Y114.658 E.01178
G1 X111.754 Y114.197 E.0154
G1 X112.092 Y113.828 E.0154
G1 X112.535 Y113.592 E.0154
G1 X113.033 Y113.518 E.01547
G1 X113.404 Y113.569 E.01152
G1 X113.82 Y113.759 E.01406
G1 X114.181 Y114.097 E.01518
G1 X114.262 Y114.229 E.00477
G1 X114.43 Y113.715 E.0166
G1 X114.69 Y113.217 E.01725
G1 X114.903 Y112.914 E.01141
G1 X115.227 Y112.559 E.01475
G1 X115.644 Y112.226 E.01639
G1 X116.082 Y111.98 E.01545
G1 X116.613 Y111.784 E.01739
G1 X117.167 Y111.681 E.01732
G1 X117.737 Y111.673 E.01751
G1 X118.294 Y111.76 E.01733
G1 X118.83 Y111.941 E.01739
G1 X119.328 Y112.21 E.01739
G1 X119.773 Y112.559 E.01739
G1 X120.153 Y112.978 E.01739
G1 X120.457 Y113.456 E.01739
G1 X120.754 Y114.197 E.02455
G1 X121.092 Y113.828 E.0154
G1 X121.535 Y113.592 E.0154
G1 X122.033 Y113.518 E.01547
G1 X122.523 Y113.613 E.01533
G1 X122.955 Y113.866 E.01539
G1 X123.278 Y114.249 E.0154
G1 X123.455 Y114.717 E.0154
G1 X123.466 Y115.218 E.0154
G1 X123.31 Y115.694 E.0154
G1 X123.004 Y116.091 E.0154
G1 X122.583 Y116.363 E.0154
G1 X122.096 Y116.479 E.0154
G1 X121.597 Y116.427 E.0154
G1 X121.144 Y116.21 E.01543
G1 X120.791 Y115.859 E.0153
G1 X120.74 Y115.785 E.00278
G1 X120.577 Y116.288 E.01626
G1 X120.315 Y116.79 E.01739
G1 X120.004 Y117.206 E.01596
G1 X119.633 Y117.565 E.01588
G1 X119.169 Y117.889 E.01739
G1 X118.656 Y118.129 E.01739
G1 X118.111 Y118.279 E.01739
G1 X117.548 Y118.335 E.01739
G1 X116.984 Y118.296 E.01739
G1 X116.434 Y118.161 E.01739
G1 X115.915 Y117.935 E.01739
G1 X115.442 Y117.625 E.01739
G1 X115.028 Y117.24 E.01739
G1 X114.685 Y116.79 E.01739
G1 X114.423 Y116.288 E.01739
G1 X114.256 Y115.772 E.01668
G1 X114.006 Y116.083 E.01226
G1 X113.977 Y116.103 E.00109
G1 X113.732 Y115.816 F21000
;TYPE:Outer wall
G1 F3000
G1 X113.464 Y116.005 E.01011
G1 X113.014 Y116.11 E.01417
G1 X112.601 Y116.034 E.01291
G1 X112.297 Y115.859 E.01079
G1 X112.04 Y115.553 E.01228
G1 X111.912 Y115.22 E.01096
G1 X111.892 Y115.015 E.00632
G1 X111.95 Y114.645 E.01151
G1 X112.128 Y114.316 E.01151
G1 X112.406 Y114.064 E.01151
G1 X112.752 Y113.92 E.01152
G1 X113.196 Y113.91 E.01365
G1 X113.618 Y114.077 E.01393
G1 X113.91 Y114.367 E.01264
;WIDTH:0.449225
G1 X114.004 Y114.535 E.00637
;WIDTH:0.47845
G1 X114.097 Y114.702 E.00682
G1 X114.109 Y115.125 E.01502
;WIDTH:0.446713
G1 X113.995 Y115.477 E.01216
;WIDTH:0.419999
G1 X113.769 Y115.789 E.01185
G1 X113.765 Y115.793 E.00017
G1 E-.68 F3600
;WIPE_START
G1 F3000
G1 X113.464 Y116.005 E-.04428
G1 X113.014 Y116.11 E-.05534
G1 X112.847 Y116.079 E-.02038
;WIPE_END
G1 X114.527 Y115.091 Z.6 F21000
G1 Z.2
G1 E.8 F2700
;WIDTH:0.47845
G1 F3000
G1 X114.531 Y114.684 E.01445
G1 X114.598 Y114.416 E.00979
;WIDTH:0.449225
G1 X114.665 Y114.149 E.00914
;WIDTH:0.419999
G1 X114.85 Y113.682 E.01543
G1 X115.111 Y113.253 E.01543
G1 X115.44 Y112.874 E.01543
G1 X115.829 Y112.557 E.01543
G1 X116.266 Y112.31 E.01543
G1 X116.739 Y112.14 E.01543
G1 X117.263 Y112.05 E.01634
G1 X117.769 Y112.053 E.01555
G1 X118.261 Y112.14 E.01537
G1 X118.734 Y112.31 E.01543
G1 X119.171 Y112.557 E.01543
G1 X119.56 Y112.874 E.01543
G1 X119.889 Y113.253 E.01543
G1 X120.15 Y113.682 E.01543
G1 X120.335 Y114.149 E.01543
;WIDTH:0.445892
G1 X120.399 Y114.394 E.00832
;WIDTH:0.471784
G1 X120.464 Y114.639 E.00886
G1 X120.47 Y115.143 E.01763
;WIDTH:0.446715
G1 X120.39 Y115.639 E.01653
;WIDTH:0.419999
G1 X120.24 Y116.118 E.01543
M73 P6 R7
G1 X120.012 Y116.565 E.01543
G1 X119.711 Y116.967 E.01543
G1 X119.347 Y117.313 E.01543
G1 X118.93 Y117.592 E.01543
G1 X118.471 Y117.796 E.01543
G1 X117.984 Y117.92 E.01543
G1 X117.484 Y117.96 E.01543
G1 X116.984 Y117.914 E.01543
G1 X116.499 Y117.785 E.01543
G1 X116.043 Y117.576 E.01543
G1 X115.628 Y117.293 E.01543
G1 X115.268 Y116.943 E.01543
G1 X114.971 Y116.538 E.01543
G1 X114.748 Y116.089 E.01543
G1 X114.603 Y115.608 E.01543
;WIDTH:0.450184
G1 X114.53 Y115.131 E.01602
G1 E-.68 F3600
;WIPE_START
G1 F3000
G1 X114.531 Y114.684 E-.05361
G1 X114.598 Y114.416 E-.03312
G1 X114.665 Y114.149 E-.03312
G1 X114.666 Y114.147 E-.00016
;WIPE_END
G1 X120.911 Y115.181 Z.6 F21000
G1 Z.2
G1 E.8 F2700
;WIDTH:0.446715
G1 F3000
G1 X120.891 Y115.125 E.00195
;WIDTH:0.478449
G1 X120.903 Y114.702 E.01502
G1 X121.026 Y114.499 E.00844
;WIDTH:0.449224
G1 X121.149 Y114.296 E.00788
;WIDTH:0.419999
G1 X121.435 Y114.051 E.01156
G1 X121.752 Y113.92 E.01054
G1 X122.128 Y113.899 E.01156
G1 X122.485 Y114.004 E.01145
G1 X122.789 Y114.222 E.01151
G1 X123.003 Y114.53 E.01151
G1 X123.103 Y114.891 E.01151
G1 X123.076 Y115.265 E.01151
G1 X122.927 Y115.608 E.01151
G1 X122.671 Y115.882 E.01151
G1 X122.283 Y116.065 E.01318
G1 X121.968 Y116.108 E.00977
G1 X121.601 Y116.034 E.01151
G1 X121.279 Y115.841 E.01153
G1 X121.047 Y115.57 E.01096
;WIDTH:0.446715
G1 X120.924 Y115.219 E.01223
G1 E-.68 F3600
;WIPE_START
G1 F3000
G1 X120.891 Y115.125 E-.01193
G1 X120.903 Y114.702 E-.05078
G1 X121.026 Y114.499 E-.02855
G1 X121.149 Y114.296 E-.02855
G1 X121.151 Y114.295 E-.0002
;WIPE_END
G1 X124.321 Y121.237 Z.6 F21000
G1 X125.542 Y123.91 Z.6
G1 Z.2
G1 E.8 F2700
;TYPE:Inner wall
;WIDTH:0.47093
G1 F3000
G1 X126.055 Y123.535 E.02216
G1 X126.41 Y123.041 E.02123
G1 X126.41 Y123.91 E.03033
G1 X125.582 Y123.91 E.02888
G1 E-.68 F3600
;WIPE_START
G1 F3000
G1 X126.055 Y123.535 E-.07243
G1 X126.287 Y123.213 E-.04757
;WIPE_END
G1 X123.989 Y123.737 Z.6 F21000
G1 Z.2
G1 E.8 F2700
;WIDTH:0.527562
G1 F3000
G1 X123.908 Y123.694 E.00362
;WIDTH:0.491708
G1 X123.728 Y123.601 E.00741
;WIDTH:0.455854
