; HEADER_BLOCK_START
; generated by OrcaSlicer 2.1.1 on 2024-08-24 at 17:03:58
; total layer number: 29
; filament_density: 1.24
; filament_diameter: 1.75
; max_z_height: 8.04
; HEADER_BLOCK_END

; THUMBNAIL_BLOCK_START

;
; THUMBNAIL_BLOCK_END







; external perimeters extrusion width = 0.40mm
; perimeters extrusion width = 0.45mm
; infill extrusion width = 0.45mm
; solid infill extrusion width = 0.45mm
; top infill extrusion width = 0.45mm
; first layer extrusion width = 0.42mm

; EXECUTABLE_BLOCK_START
EXCLUDE_OBJECT_DEFINE NAME=转梁.STL_id_0_copy_0 CENTER=117.5,115 POLYGON=[[67.5137,102.5],[86.5,102.5],[167.486,122.5],[167.486,127.5],[67.5137,127.5],[67.5137,102.5]]
M73 P0 R10
;TYPE:Custom
;ELEGOO NEPTUNE 4 PRO
M220 S100 ;Set the feed speed to 100%
M221 S100 ;Set the flow rate to 100%
M104 S140
M190 S60
G90
G28 ;home
G1 Z10 F300
G1 X67.5 Y0 F6000
G1 Z0 F300
M109 S210
G92 E0 ;Reset Extruder
G1 X67.5 Y0 Z0.4 F300 ;Move to start position
G1 X167.5 E30 F400 ;Draw the first line
G1 Z0.6 F120.0 ;Move to side a little
M73 P3 R9
G1 X162.5 F3000
G92 E0 ;Reset Extruder
G90
G21
M83 ; use relative distances for extrusion
; filament start gcode
M106 S0
;LAYER_CHANGE
;Z:0.2
;HEIGHT:0.2
;BEFORE_LAYER_CHANGE
G92 E0
;0.2


G1 E-.8 F3600
;AFTER_LAYER_CHANGE
;0.2
;_SET_FAN_SPEED_CHANGING_LAYER
SET_VELOCITY_LIMIT ACCEL=1000 ACCEL_TO_DECEL=500
SET_VELOCITY_LIMIT SQUARE_CORNER_VELOCITY=7
; printing object 转梁.STL id:0 copy 0
EXCLUDE_OBJECT_START NAME=转梁.STL_id_0_copy_0
G1 X85.45 Y122.667 F21000
G1 Z.4
G1 Z.2
G1 E.8 F2700
;TYPE:Inner wall
;WIDTH:0.419999
G1 F3000
G1 X85.451 Y122.791 E.00383
G1 X85.624 Y123.187 E.01327
G1 X85.813 Y123.376 E.00819
G1 X86.073 Y123.513 E.00904
G1 X86.379 Y123.564 E.00952
G1 X163.274 Y123.564 E2.36277
G1 X163.274 Y126.436 E.08824
G1 X71.726 Y126.436 E2.81299
G1 X71.726 Y103.564 E.70278
G1 X85.436 Y103.564 E.42125
M73 P4 R9
G1 X85.436 Y110.736 E.22037
;WIDTH:0.438342
G1 X85.434 Y112.862 E.06849
;WIDTH:0.45978
G1 X85.416 Y113.934 E.03644
G1 X85.436 Y114.803 E.02952
;WIDTH:0.419999
G1 X85.436 Y121.714 E.21235
G1 X85.449 Y122.627 E.02806
G1 X85.822 Y122.64 F21000
G1 F3000
G1 X85.822 Y122.723 E.00255
G1 X85.926 Y122.961 E.00796
G1 X86.195 Y123.157 E.01022
G1 X86.379 Y123.187 E.00571
G1 X163.651 Y123.187 E2.37436
G1 X163.651 Y126.813 E.11141
G1 X71.349 Y126.813 E2.83616
G1 X71.349 Y103.187 E.72596
G1 X85.813 Y103.187 E.44443
G1 X85.822 Y122.6 E.59652
G1 X86.19 Y122.621 F21000
;TYPE:Outer wall
G1 F3000
G1 X86.228 Y122.735 E.00366
G1 X86.379 Y122.81 E.00518
G1 X164.028 Y122.81 E2.38594
G1 X164.028 Y127.19 E.13459
M73 P5 R9
G1 X70.972 Y127.19 E2.85934
G1 X70.972 Y102.81 E.74913
G1 X86.19 Y102.81 E.4676
G1 X86.19 Y122.581 E.60752
G1 E-.68 F3600
;WIPE_START
G1 F3000
G1 X86.228 Y122.735 E-.01892
G1 X86.379 Y122.81 E-.02024
G1 X87.052 Y122.81 E-.08084
;WIPE_END
G1 X80.297 Y119.258 Z.6 F21000
G1 X78.954 Y118.552 Z.6
G1 Z.2
G1 E.8 F2700
;TYPE:Inner wall
G1 F3000
G1 X78.054 Y118.488 E.02772
G1 X77.056 Y118.242 E.03159
G1 X76.114 Y117.831 E.03159
G1 X75.254 Y117.266 E.03159
G1 X74.503 Y116.564 E.03159
G1 X73.881 Y115.746 E.03159
G1 X73.406 Y114.834 E.03159
G1 X73.092 Y113.855 E.03159
G1 X72.948 Y112.837 E.03159
G1 X72.978 Y111.809 E.03159
G1 X73.181 Y110.802 E.03159
G1 X73.548 Y109.853 E.03126
G1 X74.078 Y108.962 E.03185
G1 X74.748 Y108.179 E.03166
G1 X75.432 Y107.61 E.02732
G1 X75.672 Y107.433 E.00917
G1 X76.431 Y107.01 E.02669
G1 X77.395 Y106.655 E.03159
G1 X78.406 Y106.467 E.03159
G1 X79.434 Y106.454 E.03159
G1 X80.45 Y106.614 E.03159
G1 X81.424 Y106.944 E.03159
G1 X82.328 Y107.433 E.03159
G1 X83.128 Y108.062 E.03126
G1 X83.824 Y108.83 E.03185
G1 X84.376 Y109.7 E.03166
G1 X84.772 Y110.649 E.03159
;WIDTH:0.450866
G1 X85.017 Y111.648 E.03419
G1 X85.059 Y112.677 E.03426
;WIDTH:0.449643
G1 X85.015 Y113.19 E.01705
;WIDTH:0.479386
G1 X84.971 Y113.703 E.0183
G1 X84.813 Y114.194 E.01837
;WIDTH:0.449693
G1 X84.654 Y114.686 E.01712
;WIDTH:0.419999
G1 X84.203 Y115.61 E.03159
G1 X83.609 Y116.436 E.03126
G1 X82.871 Y117.164 E.03185
G1 X82.026 Y117.753 E.03166
G1 X81.095 Y118.188 E.03159
G1 X80.325 Y118.403 E.02456
G1 X79.946 Y118.488 E.01194
G1 X79.08 Y118.561 E.02669
G1 X78.994 Y118.555 E.00264
G1 X78.979 Y118.18 F21000
G1 F3000
G1 X78.086 Y118.112 E.0275
G1 X77.151 Y117.877 E.02963
G1 X76.269 Y117.487 E.02963
G1 X75.466 Y116.954 E.02963
G1 X74.764 Y116.292 E.02963
G1 X74.184 Y115.522 E.02963
G1 X73.742 Y114.664 E.02963
G1 X73.452 Y113.745 E.02963
G1 X73.322 Y112.789 E.02963
G1 X73.354 Y111.825 E.02963
G1 X73.55 Y110.881 E.02963
G1 X73.898 Y109.993 E.0293
G1 X74.4 Y109.159 E.02992
G1 X75.031 Y108.429 E.02967
M73 P6 R9
G1 X75.856 Y107.763 E.03257
G1 X76.614 Y107.339 E.02669
G1 X77.521 Y107.01 E.02963
G1 X78.47 Y106.839 E.02963
G1 X79.434 Y106.831 E.02963
G1 X80.386 Y106.986 E.02963
G1 X81.298 Y107.299 E.02963
G1 X82.144 Y107.763 E.02963
G1 X82.891 Y108.355 E.0293
G1 X83.542 Y109.08 E.02992
G1 X84.055 Y109.898 E.02967
G1 X84.422 Y110.789 E.02963
G1 X84.633 Y111.73 E.02963
G1 X84.682 Y112.693 E.02963
G1 X84.568 Y113.651 E.02963
G1 X84.293 Y114.575 E.02963
G1 X83.867 Y115.44 E.02963
G1 X83.306 Y116.212 E.0293
G1 X82.61 Y116.892 E.02992
G1 X81.815 Y117.44 E.02967
G1 X80.939 Y117.845 E.02963
G1 X79.914 Y118.112 E.03257
G1 X79.048 Y118.185 E.02669
G1 X79.019 Y118.183 E.0009
G1 X79.007 Y117.809 F21000
;TYPE:Outer wall
G1 F3000
G1 X78.118 Y117.736 E.02739
G1 X77.246 Y117.512 E.02767
G1 X76.424 Y117.143 E.02767
G1 X75.677 Y116.641 E.02767
G1 X75.025 Y116.02 E.02767
G1 X74.487 Y115.298 E.02767
G1 X74.079 Y114.495 E.02767
G1 X73.813 Y113.634 E.02767
G1 X73.696 Y112.741 E.02767
G1 X73.731 Y111.841 E.02767
G1 X73.918 Y110.96 E.02767
G1 X74.248 Y110.134 E.02734
G1 X74.721 Y109.356 E.02798
G1 X75.314 Y108.678 E.02769
G1 X75.905 Y108.197 E.0234
G1 X76.798 Y107.668 E.03189
G1 X77.647 Y107.366 E.02767
G1 X78.534 Y107.211 E.02767
G1 X79.434 Y107.208 E.02767
G1 X80.322 Y107.358 E.02767
G1 X81.173 Y107.655 E.02767
G1 X81.96 Y108.092 E.02767
G1 X82.654 Y108.649 E.02734
G1 X83.259 Y109.329 E.02798
G1 X83.734 Y110.095 E.02769
G1 X84.072 Y110.93 E.02767
G1 X84.265 Y111.81 E.02767
G1 X84.306 Y112.709 E.02767
G1 X84.194 Y113.603 E.02767
G1 X83.933 Y114.465 E.02767
G1 X83.53 Y115.27 E.02767
G1 X83.003 Y115.987 E.02734
G1 X82.349 Y116.621 E.02798
G1 X81.604 Y117.128 E.02769
G1 X80.784 Y117.501 E.02767
G1 X79.882 Y117.736 E.02865
G1 X79.047 Y117.807 E.02575
G1 E-.68 F3600
;WIPE_START
G1 F3000
G1 X78.118 Y117.736 E-.11171
G1 X78.052 Y117.719 E-.00829
;WIPE_END
G1 X85.66 Y118.32 Z.6 F21000
G1 X163.161 Y124.441 Z.6
G1 Z.2
G1 E.8 F2700
;TYPE:Bottom surface
;WIDTH:0.420747
G1 F4800
G1 X162.566 Y123.847 E.02587
G1 X162.032 Y123.847 E.01645
G1 X162.991 Y124.806 E.04175
G1 X162.991 Y125.34 E.01645
G1 X161.498 Y123.847 E.06501
G1 X160.963 Y123.847 E.01645
G1 X162.991 Y125.874 E.08828
G1 X162.991 Y126.153 E.00858
G1 X162.735 Y126.153 E.00787
G1 X160.429 Y123.847 E.10041
G1 X159.895 Y123.847 E.01645
G1 X162.201 Y126.153 E.10041
G1 X161.666 Y126.153 E.01645
G1 X159.36 Y123.847 E.10041
G1 X158.826 Y123.847 E.01645
G1 X161.132 Y126.153 E.10041
G1 X160.598 Y126.153 E.01645
G1 X158.292 Y123.847 E.10041
G1 X157.757 Y123.847 E.01645
G1 X160.064 Y126.153 E.10041
G1 X159.529 Y126.153 E.01645
G1 X157.223 Y123.847 E.10041
G1 X156.689 Y123.847 E.01645
G1 X158.995 Y126.153 E.10041
G1 X158.461 Y126.153 E.01645
G1 X156.154 Y123.847 E.10041
G1 X155.62 Y123.847 E.01645
G1 X157.926 Y126.153 E.10041
G1 X157.392 Y126.153 E.01645
G1 X155.086 Y123.847 E.10041
G1 X154.551 Y123.847 E.01645
G1 X156.858 Y126.153 E.10041
G1 X156.323 Y126.153 E.01645
G1 X154.017 Y123.847 E.10041
G1 X153.483 Y123.847 E.01645
G1 X155.789 Y126.153 E.10041
G1 X155.255 Y126.153 E.01645
G1 X152.948 Y123.847 E.10041
G1 X152.414 Y123.847 E.01645
G1 X154.72 Y126.153 E.10041
G1 X154.186 Y126.153 E.01645
G1 X151.88 Y123.847 E.10041
G1 X151.345 Y123.847 E.01645
G1 X153.652 Y126.153 E.10041
G1 X153.117 Y126.153 E.01645
G1 X150.811 Y123.847 E.10041
G1 X150.277 Y123.847 E.01645
G1 X152.583 Y126.153 E.10041
G1 X152.049 Y126.153 E.01645
G1 X149.743 Y123.847 E.10041
G1 X149.208 Y123.847 E.01645
G1 X151.514 Y126.153 E.10041
G1 X150.98 Y126.153 E.01645
G1 X148.674 Y123.847 E.10041
G1 X148.14 Y123.847 E.01645
G1 X150.446 Y126.153 E.10041
G1 X149.911 Y126.153 E.01645
G1 X147.605 Y123.847 E.10041
G1 X147.071 Y123.847 E.01645
G1 X149.377 Y126.153 E.10041
G1 X148.843 Y126.153 E.01645
G1 X146.537 Y123.847 E.10041
G1 X146.002 Y123.847 E.01645
G1 X148.308 Y126.153 E.10041
G1 X147.774 Y126.153 E.01645
G1 X145.468 Y123.847 E.10041
M73 P7 R9
G1 X144.934 Y123.847 E.01645
G1 X147.24 Y126.153 E.10041
G1 X146.705 Y126.153 E.01645
G1 X144.399 Y123.847 E.10041
G1 X143.865 Y123.847 E.01645
G1 X146.171 Y126.153 E.10041
G1 X145.637 Y126.153 E.01645
G1 X143.331 Y123.847 E.10041
G1 X142.796 Y123.847 E.01645
G1 X145.102 Y126.153 E.10041
G1 X144.568 Y126.153 E.01645
G1 X142.262 Y123.847 E.10041
G1 X141.728 Y123.847 E.01645
G1 X144.034 Y126.153 E.10041
G1 X143.499 Y126.153 E.01645
G1 X141.193 Y123.847 E.10041
G1 X140.659 Y123.847 E.01645
G1 X142.965 Y126.153 E.10041
G1 X142.431 Y126.153 E.01645
G1 X140.125 Y123.847 E.10041
G1 X139.59 Y123.847 E.01645
G1 X141.896 Y126.153 E.10041
G1 X141.362 Y126.153 E.01645
G1 X139.056 Y123.847 E.10041
G1 X138.522 Y123.847 E.01645
G1 X140.828 Y126.153 E.10041
G1 X140.293 Y126.153 E.01645
G1 X137.987 Y123.847 E.10041
G1 X137.453 Y123.847 E.01645
G1 X139.759 Y126.153 E.10041
G1 X139.225 Y126.153 E.01645
G1 X136.919 Y123.847 E.10041
G1 X136.384 Y123.847 E.01645
G1 X138.69 Y126.153 E.10041
G1 X138.156 Y126.153 E.01645
G1 X135.85 Y123.847 E.10041
G1 X135.316 Y123.847 E.01645
G1 X137.622 Y126.153 E.10041
G1 X137.087 Y126.153 E.01645
G1 X134.781 Y123.847 E.10041
G1 X134.247 Y123.847 E.01645
G1 X136.553 Y126.153 E.10041
G1 X136.019 Y126.153 E.01645
G1 X133.713 Y123.847 E.10041
G1 X133.178 Y123.847 E.01645
G1 X135.484 Y126.153 E.10041
G1 X134.95 Y126.153 E.01645
G1 X132.644 Y123.847 E.10041
G1 X132.11 Y123.847 E.01645
G1 X134.416 Y126.153 E.10041
G1 X133.881 Y126.153 E.01645
G1 X131.575 Y123.847 E.10041
G1 X131.041 Y123.847 E.01645
G1 X133.347 Y126.153 E.10041
G1 X132.813 Y126.153 E.01645
G1 X130.507 Y123.847 E.10041
G1 X129.972 Y123.847 E.01645
G1 X132.278 Y126.153 E.10041
G1 X131.744 Y126.153 E.01645
G1 X129.438 Y123.847 E.10041
G1 X128.904 Y123.847 E.01645
G1 X131.21 Y126.153 E.10041
G1 X130.675 Y126.153 E.01645
G1 X128.369 Y123.847 E.10041
G1 X127.835 Y123.847 E.01645
G1 X130.141 Y126.153 E.10041
G1 X129.607 Y126.153 E.01645
G1 X127.301 Y123.847 E.10041
G1 X126.766 Y123.847 E.01645
G1 X129.072 Y126.153 E.10041
G1 X128.538 Y126.153 E.01645
G1 X126.232 Y123.847 E.10041
G1 X125.698 Y123.847 E.01645
G1 X128.004 Y126.153 E.10041
G1 X127.469 Y126.153 E.01645
G1 X125.163 Y123.847 E.10041
G1 X124.629 Y123.847 E.01645
G1 X126.935 Y126.153 E.10041
G1 X126.401 Y126.153 E.01645
G1 X124.095 Y123.847 E.10041
G1 X123.56 Y123.847 E.01645
G1 X125.867 Y126.153 E.10041
G1 X125.332 Y126.153 E.01645
G1 X123.026 Y123.847 E.10041
G1 X122.492 Y123.847 E.01645
G1 X124.798 Y126.153 E.10041
G1 X124.264 Y126.153 E.01645
G1 X121.957 Y123.847 E.10041
G1 X121.423 Y123.847 E.01645
G1 X123.729 Y126.153 E.10041
G1 X123.195 Y126.153 E.01645
G1 X120.889 Y123.847 E.10041
G1 X120.354 Y123.847 E.01645
G1 X122.661 Y126.153 E.10041
G1 X122.126 Y126.153 E.01645
M73 P8 R9
G1 X119.82 Y123.847 E.10041
G1 X119.286 Y123.847 E.01645
G1 X121.592 Y126.153 E.10041
G1 X121.058 Y126.153 E.01645
G1 X118.751 Y123.847 E.10041
G1 X118.217 Y123.847 E.01645
G1 X120.523 Y126.153 E.10041
G1 X119.989 Y126.153 E.01645
G1 X117.683 Y123.847 E.10041
G1 X117.149 Y123.847 E.01645
G1 X119.455 Y126.153 E.10041
G1 X118.92 Y126.153 E.01645
G1 X116.614 Y123.847 E.10041
G1 X116.08 Y123.847 E.01645
G1 X118.386 Y126.153 E.10041
G1 X117.852 Y126.153 E.01645
G1 X115.546 Y123.847 E.10041
G1 X115.011 Y123.847 E.01645
G1 X117.317 Y126.153 E.10041
G1 X116.783 Y126.153 E.01645
G1 X114.477 Y123.847 E.10041
G1 X113.943 Y123.847 E.01645
G1 X116.249 Y126.153 E.10041
G1 X115.714 Y126.153 E.01645
G1 X113.408 Y123.847 E.10041
G1 X112.874 Y123.847 E.01645
G1 X115.18 Y126.153 E.10041
G1 X114.646 Y126.153 E.01645
G1 X112.34 Y123.847 E.10041
G1 X111.805 Y123.847 E.01645
G1 X114.111 Y126.153 E.10041
G1 X113.577 Y126.153 E.01645
G1 X111.271 Y123.847 E.10041
G1 X110.737 Y123.847 E.01645
G1 X113.043 Y126.153 E.10041
G1 X112.508 Y126.153 E.01645
G1 X110.202 Y123.847 E.10041
G1 X109.668 Y123.847 E.01645
G1 X111.974 Y126.153 E.10041
G1 X111.44 Y126.153 E.01645
G1 X109.134 Y123.847 E.10041
G1 X108.599 Y123.847 E.01645
G1 X110.905 Y126.153 E.10041
G1 X110.371 Y126.153 E.01645
G1 X108.065 Y123.847 E.10041
G1 X107.531 Y123.847 E.01645
G1 X109.837 Y126.153 E.10041
G1 X109.302 Y126.153 E.01645
G1 X106.996 Y123.847 E.10041
G1 X106.462 Y123.847 E.01645
G1 X108.768 Y126.153 E.10041
G1 X108.234 Y126.153 E.01645
G1 X105.928 Y123.847 E.10041
G1 X105.393 Y123.847 E.01645
G1 X107.699 Y126.153 E.10041
G1 X107.165 Y126.153 E.01645
G1 X104.859 Y123.847 E.10041
G1 X104.325 Y123.847 E.01645
G1 X106.631 Y126.153 E.10041
G1 X106.096 Y126.153 E.01645
G1 X103.79 Y123.847 E.10041
G1 X103.256 Y123.847 E.01645
G1 X105.562 Y126.153 E.10041
G1 X105.028 Y126.153 E.01645
G1 X102.722 Y123.847 E.10041
G1 X102.187 Y123.847 E.01645
G1 X104.493 Y126.153 E.10041
G1 X103.959 Y126.153 E.01645
G1 X101.653 Y123.847 E.10041
G1 X101.119 Y123.847 E.01645
G1 X103.425 Y126.153 E.10041
G1 X102.89 Y126.153 E.01645
G1 X100.584 Y123.847 E.10041
G1 X100.05 Y123.847 E.01645
G1 X102.356 Y126.153 E.10041
G1 X101.822 Y126.153 E.01645
G1 X99.516 Y123.847 E.10041
G1 X98.981 Y123.847 E.01645
G1 X101.287 Y126.153 E.10041
G1 X100.753 Y126.153 E.01645
G1 X98.447 Y123.847 E.10041
G1 X97.913 Y123.847 E.01645
G1 X100.219 Y126.153 E.10041
G1 X99.684 Y126.153 E.01645
G1 X97.378 Y123.847 E.10041
G1 X96.844 Y123.847 E.01645
G1 X99.15 Y126.153 E.10041
G1 X98.616 Y126.153 E.01645
G1 X96.31 Y123.847 E.10041
G1 X95.775 Y123.847 E.01645
G1 X98.081 Y126.153 E.10041
G1 X97.547 Y126.153 E.01645
G1 X95.241 Y123.847 E.10041
G1 X94.707 Y123.847 E.01645
M73 P9 R9
G1 X97.013 Y126.153 E.10041
G1 X96.478 Y126.153 E.01645
G1 X94.172 Y123.847 E.10041
G1 X93.638 Y123.847 E.01645
G1 X95.944 Y126.153 E.10041
G1 X95.41 Y126.153 E.01645
G1 X93.104 Y123.847 E.10041
G1 X92.569 Y123.847 E.01645
G1 X94.875 Y126.153 E.10041
G1 X94.341 Y126.153 E.01645
G1 X92.035 Y123.847 E.10041
G1 X91.501 Y123.847 E.01645
G1 X93.807 Y126.153 E.10041
G1 X93.272 Y126.153 E.01645
G1 X90.966 Y123.847 E.10041
G1 X90.432 Y123.847 E.01645
G1 X92.738 Y126.153 E.10041
G1 X92.204 Y126.153 E.01645
G1 X89.898 Y123.847 E.10041
G1 X89.363 Y123.847 E.01645
G1 X91.67 Y126.153 E.10041
G1 X91.135 Y126.153 E.01645
G1 X88.829 Y123.847 E.10041
G1 X88.295 Y123.847 E.01645
G1 X90.601 Y126.153 E.10041
G1 X90.067 Y126.153 E.01645
G1 X87.76 Y123.847 E.10041
G1 X87.226 Y123.847 E.01645
G1 X89.532 Y126.153 E.10041
G1 X88.998 Y126.153 E.01645
G1 X86.522 Y123.677 E.1078
G1 E-.68 F3600
;WIPE_START
G1 F4800
G1 X87.229 Y124.384 E-.12
;WIPE_END
G1 X85.71 Y116.905 Z.6 F21000
G1 X85.323 Y114.997 Z.6
G1 Z.2
G1 E.8 F2700
G1 F4800
G1 X84.966 Y114.641 E.01551
G1 X84.815 Y115.024 E.01268
G1 X85.153 Y115.362 E.01471
G1 X85.153 Y115.896 E.01645
G1 X84.636 Y115.379 E.02251
G1 X84.457 Y115.735 E.01225
G1 X85.153 Y116.431 E.0303
G1 X85.153 Y116.965 E.01645
G1 X84.243 Y116.055 E.03963
G1 X84.016 Y116.362 E.01176
G1 X85.153 Y117.499 E.04952
G1 X85.153 Y118.034 E.01645
G1 X83.784 Y116.664 E.05961
G1 X83.519 Y116.934 E.01163
G1 X85.153 Y118.568 E.07116
G1 X85.153 Y119.102 E.01645
G1 X83.247 Y117.196 E.08301
G1 X82.967 Y117.45 E.01165
G1 X85.153 Y119.637 E.0952
G1 X85.153 Y120.171 E.01645
G1 X82.652 Y117.67 E.10888
G1 X82.334 Y117.886 E.01185
G1 X85.153 Y120.705 E.12276
G1 X85.153 Y121.24 E.01645
G1 X82.002 Y118.089 E.1372
G1 X81.634 Y118.255 E.01243
G1 X85.153 Y121.774 E.15322
G1 X85.153 Y122.308 E.01645
G1 X81.266 Y118.421 E.16924
G1 X80.865 Y118.554 E.01301
G1 X85.181 Y122.87 E.18792
G1 X85.247 Y123.094 E.00718
G1 X85.398 Y123.358 E.00937
G1 X85.643 Y123.603 E.01068
G1 X85.981 Y123.782 E.01177
G1 X86.115 Y123.804 E.00417
G1 X88.464 Y126.153 E.10227
