; HEADER_BLOCK_START
; generated by OrcaSlicer 2.1.1 on 2024-12-15 at 21:28:35
; total layer number: 143
; filament_density: 1.27
; filament_diameter: 1.75
; max_z_height: 11.56
; HEADER_BLOCK_END

; THUMBNAIL_BLOCK_START

;
; THUMBNAIL_BLOCK_END







; external perimeters extrusion width = 0.40mm
; perimeters extrusion width = 0.45mm
; infill extrusion width = 0.45mm
; solid infill extrusion width = 0.45mm
; top infill extrusion width = 0.38mm
; first layer extrusion width = 0.42mm

; EXECUTABLE_BLOCK_START
EXCLUDE_OBJECT_DEFINE NAME=履带轮_轴片1.STL_id_0_copy_0 CENTER=117.5,115 POLYGON=[[104.5,115],[104.574,113.618],[104.794,112.252],[105.158,110.917],[105.662,109.628],[106.3,108.4],[107.065,107.247],[107.948,106.182],[108.939,105.217],[110.028,104.362],[111.201,103.628],[112.445,103.023],[113.747,102.554],[115.091,102.225],[116.463,102.041],[117.846,102.005],[119.225,102.115],[120.585,102.371],[121.91,102.771],[123.185,103.309],[124.395,103.979],[125.528,104.775],[126.569,105.686],[127.508,106.703],[128.333,107.814],[129.036,109.006],[129.607,110.266],[130.042,111.58],[130.334,112.932],[130.482,114.308],[130.5,115],[130.482,115.692],[130.334,117.068],[130.042,118.42],[129.607,119.734],[129.036,120.994],[128.333,122.186],[127.508,123.297],[126.569,124.314],[125.528,125.225],[124.395,126.021],[123.185,126.691],[121.91,127.229],[120.585,127.629],[119.225,127.885],[117.846,127.995],[116.463,127.959],[115.091,127.775],[113.747,127.446],[112.445,126.977],[111.201,126.372],[110.028,125.638],[108.939,124.783],[107.948,123.818],[107.065,122.753],[106.3,121.6],[105.662,120.372],[105.158,119.083],[104.794,117.748],[104.574,116.382],[104.5,115]]
M73 P0 R27
;TYPE:Custom
;ELEGOO NEPTUNE 4 PRO
M220 S100 ;Set the feed speed to 100%
M221 S100 ;Set the flow rate to 100%
M104 S140
M190 S70
G90
G28 ;home
G1 Z10 F300
G1 X67.5 Y0 F6000
G1 Z0 F300
M109 S240
G92 E0 ;Reset Extruder
G1 X67.5 Y0 Z0.4 F300 ;Move to start position
G1 X167.5 E30 F400 ;Draw the first line
G1 Z0.6 F120.0 ;Move to side a little
M73 P1 R27
G1 X162.5 F3000
G92 E0 ;Reset Extruder
G90
G21
M83 ; use relative distances for extrusion
; filament start gcode
M106 S0
;LAYER_CHANGE
;Z:0.2
;HEIGHT:0.2
;BEFORE_LAYER_CHANGE
G92 E0
;0.2


G1 E-.8 F3600
;AFTER_LAYER_CHANGE
;0.2
;_SET_FAN_SPEED_CHANGING_LAYER
SET_VELOCITY_LIMIT ACCEL=1000 ACCEL_TO_DECEL=500
SET_VELOCITY_LIMIT SQUARE_CORNER_VELOCITY=7
; printing object 履带轮 轴片1.STL id:0 copy 0
EXCLUDE_OBJECT_START NAME=履带轮_轴片1.STL_id_0_copy_0
G1 X126.687 Y122.617 F21000
G1 Z.4
G1 Z.2
G1 E.8 F2700
;TYPE:Inner wall
;WIDTH:0.419999
G1 F3000
G1 X125.826 Y123.55 E.03784
G1 X124.87 Y124.387 E.03784
G1 X123.83 Y125.117 E.03784
G1 X122.719 Y125.733 E.03784
G1 X121.549 Y126.227 E.03784
G1 X120.332 Y126.593 E.03784
G1 X119.084 Y126.829 E.03784
G1 X117.818 Y126.93 E.03784
G1 X116.548 Y126.896 E.03784
G1 X115.285 Y126.727 E.03795
G1 X114.721 Y126.601 E.01722
G1 X115.29 Y126.587 E.01695
G1 X115.799 Y126.404 E.01612
G1 X116.27 Y126.061 E.01736
G1 X116.53 Y125.761 E.01182
G1 X116.745 Y125.363 E.01347
G1 X116.863 Y124.819 E.0166
G1 X116.863 Y124.5 E.00949
G1 X116.76 Y123.993 E.01542
G1 X116.449 Y123.436 E.01901
G1 X116.07 Y123.081 E.01544
G1 X115.799 Y122.914 E.00949
G1 X115.292 Y122.732 E.01606
G1 X114.835 Y122.703 E.01362
G1 X114.317 Y122.787 E.01563
G1 X113.88 Y122.996 E.01444
G1 X113.634 Y123.175 E.00907
G1 X113.295 Y123.543 E.0149
G1 X113.064 Y124.013 E.0156
G1 X112.984 Y124.322 E.00949
G1 X112.951 Y124.728 E.01213
G1 X113.068 Y125.318 E.01791
G1 X113.192 Y125.597 E.00909
G1 X113.393 Y125.894 E.0107
G1 X113.613 Y126.124 E.00949
G1 X114.055 Y126.426 E.01593
G1 X112.86 Y125.995 E.03784
G1 X111.717 Y125.44 E.03784
G1 X110.64 Y124.766 E.03784
G1 X109.641 Y123.981 E.03784
G1 X108.731 Y123.095 E.03784
G1 X107.92 Y122.117 E.03784
G1 X107.218 Y121.059 E.03784
G1 X106.632 Y119.931 E.03784
G1 X106.17 Y118.748 E.03784
G1 X105.835 Y117.523 E.03784
G1 X105.633 Y116.269 E.03784
G1 X105.566 Y115 E.03784
G1 X105.633 Y113.731 E.03784
G1 X105.835 Y112.477 E.03784
G1 X106.17 Y111.252 E.03784
G1 X106.632 Y110.069 E.03784
G1 X107.204 Y108.969 E.03692
G1 X107.921 Y107.882 E.03879
G1 X108.822 Y106.808 E.04175
G1 X108.581 Y107.283 E.01587
G1 X108.501 Y107.591 E.00949
G1 X108.469 Y108.051 E.01373
G1 X108.585 Y108.587 E.01634
G1 X108.717 Y108.878 E.00949
G1 X108.91 Y109.164 E.01029
G1 X109.155 Y109.412 E.0104
G1 X109.6 Y109.709 E.01593
G1 X110.024 Y109.844 E.01324
G1 X110.339 Y109.884 E.00947
G1 X110.841 Y109.85 E.01498
G1 X111.316 Y109.674 E.0151
G1 X111.588 Y109.507 E.00949
G1 X111.977 Y109.139 E.01596
G1 X112.248 Y108.666 E.01624
G1 X112.38 Y108.088 E.01764
G1 X112.38 Y107.77 E.00949
G1 X112.271 Y107.246 E.01594
G1 X112.014 Y106.773 E.01604
G1 X111.56 Y106.328 E.01892
G1 X110.996 Y106.055 E.01868
G1 X110.592 Y105.973 E.01227
G1 X110.01 Y106.017 E.01739
;WIDTH:0.420849
G1 X109.705 Y106.11 E.00951
;WIDTH:0.42673
G1 X109.395 Y106.263 E.01047
G1 X109.919 Y105.8 E.02119
;WIDTH:0.419999
G1 X110.64 Y105.234 E.0273
G1 X111.717 Y104.56 E.03784
G1 X112.86 Y104.005 E.03784
G1 X114.055 Y103.574 E.03784
G1 X115.289 Y103.272 E.03784
G1 X116.548 Y103.104 E.03784
G1 X117.818 Y103.07 E.03784
G1 X119.084 Y103.171 E.03784
G1 X120.332 Y103.407 E.03784
G1 X121.549 Y103.773 E.03784
G1 X122.719 Y104.267 E.03784
G1 X123.83 Y104.883 E.03784
G1 X124.87 Y105.613 E.03784
G1 X125.826 Y106.45 E.03784
G1 X126.687 Y107.383 E.03784
G1 X127.445 Y108.403 E.03784
G1 X128.09 Y109.497 E.03784
G1 X128.436 Y110.26 E.02495
G1 X128.719 Y110.968 E.02272
G1 X128.94 Y111.615 E.02035
;WIDTH:0.418208
G1 X128.777 Y111.311 E.01024
;WIDTH:0.419999
G1 X128.577 Y111.062 E.00949
G1 X128.336 Y110.85 E.00959
G1 X128.047 Y110.667 E.01018
G1 X127.494 Y110.478 E.01739
G1 X127.083 Y110.456 E.01227
G1 X126.627 Y110.521 E.01371
G1 X126.078 Y110.775 E.01802
G1 X125.632 Y111.188 E.01811
G1 X125.454 Y111.451 E.00948
G1 X125.249 Y111.957 E.01624
G1 X125.199 Y112.532 E.01721
G1 X125.316 Y113.07 E.0164
G1 X125.447 Y113.361 E.00949
G1 X125.795 Y113.823 E.01725
G1 X126.228 Y114.141 E.01598
G1 X126.753 Y114.327 E.01661
G1 X127.069 Y114.367 E.00949
G1 X127.685 Y114.301 E.01844
G1 X128.089 Y114.138 E.01299
G1 X128.577 Y113.761 E.01836
G1 X128.777 Y113.514 E.00949
G1 X128.946 Y113.212 E.01029
G1 X129.052 Y112.912 E.00949
;WIDTH:0.42201
G1 X129.124 Y112.375 E.01622
G1 X129.167 Y112.57 E.00599
;WIDTH:0.420995
G1 X129.282 Y113.102 E.01625
;WIDTH:0.419999
G1 X129.421 Y114.471 E.04099
G1 X129.435 Y115.025 E.01652
G1 X129.419 Y115.621 E.01775
G1 X129.282 Y116.898 E.03826
G1 X129.014 Y118.14 E.03784
G1 X128.615 Y119.346 E.03784
G1 X128.09 Y120.503 E.03784
G1 X127.445 Y121.597 E.03784
G1 X126.711 Y122.585 E.03665
G1 X126.978 Y122.858 F21000
G1 F3000
G1 X126.089 Y123.821 E.03904
G1 X125.103 Y124.684 E.03904
G1 X124.031 Y125.437 E.03904
G1 X122.884 Y126.072 E.03904
G1 X121.677 Y126.582 E.03904
G1 X120.422 Y126.96 E.03904
G1 X119.134 Y127.203 E.03904
G1 X117.828 Y127.308 E.03904
G1 X116.518 Y127.273 E.03904
G1 X115.219 Y127.099 E.03903
G1 X113.946 Y126.788 E.03904
G1 X112.713 Y126.343 E.03904
G1 X111.534 Y125.77 E.03904
G1 X110.423 Y125.075 E.03904
G1 X109.392 Y124.266 E.03904
G1 X108.453 Y123.351 E.03904
G1 X107.617 Y122.342 E.03904
G1 X106.893 Y121.25 E.03904
G1 X106.288 Y120.087 E.03904
G1 X105.811 Y118.867 E.03904
G1 X105.466 Y117.603 E.03904
G1 X105.258 Y116.309 E.03904
G1 X105.188 Y115 E.03904
G1 X105.258 Y113.691 E.03904
G1 X105.466 Y112.397 E.03904
G1 X105.811 Y111.133 E.03904
G1 X106.288 Y109.913 E.03904
G1 X106.878 Y108.777 E.0381
G1 X107.618 Y107.657 E.03999
G1 X108.453 Y106.649 E.03901
G1 X109.392 Y105.734 E.03904
G1 X110.423 Y104.925 E.03904
G1 X111.534 Y104.23 E.03904
G1 X112.713 Y103.657 E.03904
G1 X113.946 Y103.212 E.03904
G1 X115.219 Y102.901 E.03904
G1 X116.518 Y102.727 E.03903
G1 X117.828 Y102.692 E.03904
G1 X119.134 Y102.797 E.03904
G1 X120.422 Y103.04 E.03904
G1 X121.677 Y103.418 E.03904
G1 X122.884 Y103.928 E.03904
G1 X124.031 Y104.563 E.03904
G1 X125.103 Y105.316 E.03904
G1 X126.089 Y106.179 E.03904
G1 X126.978 Y107.142 E.03904
G1 X127.76 Y108.194 E.03904
G1 X128.425 Y109.323 E.03904
G1 X128.967 Y110.516 E.03904
G1 X129.378 Y111.761 E.03904
G1 X129.655 Y113.042 E.03904
G1 X129.798 Y114.461 E.04249
G1 X129.812 Y115.035 E.01712
G1 X129.795 Y115.646 E.0182
G1 X129.655 Y116.958 E.03931
G1 X129.378 Y118.239 E.03904
G1 X128.967 Y119.484 E.03904
G1 X128.425 Y120.677 E.03904
G1 X127.76 Y121.806 E.03904
G1 X127.002 Y122.826 E.03784
G1 X127.269 Y123.099 F21000
;TYPE:Outer wall
G1 F3000
G1 X126.353 Y124.092 E.04023
G1 X125.336 Y124.981 E.04023
G1 X124.231 Y125.757 E.04023
G1 X123.049 Y126.412 E.04023
G1 X121.805 Y126.937 E.04023
G1 X120.512 Y127.327 E.04023
G1 X119.184 Y127.577 E.04023
G1 X117.838 Y127.685 E.04023
G1 X116.488 Y127.649 E.04023
G1 X115.149 Y127.47 E.04023
G1 X113.837 Y127.149 E.04023
G1 X112.566 Y126.691 E.04023
G1 X111.351 Y126.1 E.04023
G1 X110.206 Y125.384 E.04023
G1 X109.144 Y124.55 E.04023
G1 X108.176 Y123.607 E.04023
G1 X107.314 Y122.568 E.04023
G1 X106.567 Y121.442 E.04023
G1 X105.944 Y120.243 E.04023
G1 X105.453 Y118.986 E.04023
G1 X105.097 Y117.682 E.04023
G1 X104.882 Y116.349 E.04023
G1 X104.81 Y115 E.04023
G1 X104.882 Y113.651 E.04023
G1 X105.097 Y112.318 E.04023
G1 X105.453 Y111.014 E.04023
G1 X105.944 Y109.757 E.04023
G1 X106.553 Y108.586 E.03929
G1 X107.314 Y107.432 E.04118
G1 X108.176 Y106.393 E.04023
G1 X109.144 Y105.45 E.04023
G1 X110.206 Y104.616 E.04023
G1 X111.351 Y103.9 E.04023
G1 X112.566 Y103.309 E.04023
G1 X113.837 Y102.851 E.04023
G1 X115.149 Y102.53 E.04023
G1 X116.488 Y102.351 E.04023
G1 X117.838 Y102.315 E.04023
G1 X119.184 Y102.423 E.04023
G1 X120.512 Y102.673 E.04023
G1 X121.805 Y103.063 E.04023
G1 X123.049 Y103.588 E.04023
G1 X124.231 Y104.243 E.04023
G1 X125.336 Y105.019 E.04023
G1 X126.353 Y105.908 E.04023
G1 X127.269 Y106.901 E.04023
G1 X128.074 Y107.985 E.04023
G1 X128.76 Y109.149 E.04023
G1 X129.318 Y110.379 E.04023
G1 X129.742 Y111.661 E.04023
G1 X130.028 Y112.982 E.04023
G1 X130.175 Y114.451 E.04398
G1 X130.189 Y115.045 E.01771
G1 X130.172 Y115.671 E.01865
G1 X130.028 Y117.018 E.04036
G1 X129.742 Y118.339 E.04023
G1 X129.318 Y119.621 E.04023
G1 X128.76 Y120.851 E.04023
G1 X128.074 Y122.015 E.04023
G1 X127.293 Y123.067 E.03904
G1 E-.68 F3600
;WIPE_START
G1 F3000
G1 X126.617 Y123.804 E-.12
;WIPE_END
G1 X128.02 Y116.301 Z.6 F21000
G1 X128.71 Y112.609 Z.6
G1 Z.2
G1 E.8 F2700
;TYPE:Inner wall
G1 F3000
G1 X128.654 Y112.946 E.01018
G1 X128.448 Y113.33 E.01296
G1 X128.069 Y113.707 E.01593
G1 X127.585 Y113.936 E.01593
G1 X127.053 Y113.991 E.01593
G1 X126.534 Y113.865 E.01593
G1 X126.085 Y113.574 E.01593
G1 X125.759 Y113.149 E.01593
G1 X125.594 Y112.641 E.01593
G1 X125.607 Y112.106 E.01593
G1 X125.651 Y111.931 E.0054
G1 X125.904 Y111.448 E.01622
G1 X126.267 Y111.102 E.01496
G1 X126.72 Y110.887 E.01494
G1 X127.274 Y110.83 E.01659
G1 X127.585 Y110.888 E.00942
G1 X128.069 Y111.117 E.01593
G1 X128.448 Y111.494 E.01593
G1 X128.673 Y111.941 E.0149
G1 X128.746 Y112.39 E.01355
G1 X128.716 Y112.57 E.00544
G1 X128.345 Y112.552 F21000
;TYPE:Outer wall
G1 F3000
G1 X128.287 Y112.844 E.00886
G1 X128.079 Y113.195 E.01216
G1 X127.765 Y113.457 E.01216
G1 X127.383 Y113.599 E.01216
G1 X126.974 Y113.606 E.01216
G1 X126.587 Y113.476 E.01216
G1 X126.265 Y113.224 E.01216
G1 X126.046 Y112.88 E.01216
G1 X125.953 Y112.482 E.01216
G1 X125.997 Y112.08 E.01207
G1 X126.176 Y111.709 E.01226
G1 X126.465 Y111.423 E.01212
G1 X126.836 Y111.248 E.01221
G1 X127.316 Y111.215 E.01434
G1 X127.765 Y111.367 E.01411
G1 X128.119 Y111.678 E.01403
G1 X128.309 Y112.04 E.01216
G1 X128.367 Y112.444 E.01216
G1 X128.353 Y112.513 E.00211
G1 E-.68 F3600
;WIPE_START
G1 F3000
G1 X128.287 Y112.844 E-.04049
G1 X128.079 Y113.195 E-.049
G1 X127.884 Y113.358 E-.0305
;WIPE_END
G1 X128.94 Y111.615 Z.6 F21000
G1 Z.2
G1 E.8 F2700
;TYPE:Inner wall
;WIDTH:0.40649
G1 F3000
G1 X129.039 Y111.914 E.00906
;WIDTH:0.42201
G1 X129.124 Y112.375 E.01402
G1 E-.68 F3600
;WIPE_START
G1 F3000
G1 X129.039 Y111.914 E-.07171
G1 X128.94 Y111.615 E-.04829
;WIPE_END
G1 X121.697 Y114.024 Z.6 F21000
G1 X119.626 Y114.712 Z.6
G1 Z.2
G1 E.8 F2700
;WIDTH:0.419999
G1 F3000
G1 X119.663 Y114.937 E.00678
G1 X119.581 Y115.566 E.01889
G1 X119.434 Y115.941 E.01198
G1 X119.175 Y116.371 E.01497
G1 X118.763 Y116.748 E.01662
G1 X118.497 Y116.913 E.00934
G1 X117.973 Y117.11 E.01669
G1 X117.399 Y117.153 E.01714
G1 X117.069 Y117.113 E.0099
G1 X116.484 Y116.91 E.01844
G1 X116.057 Y116.603 E.01566
G1 X115.837 Y116.373 E.00949
G1 X115.55 Y115.938 E.01553
G1 X115.37 Y115.341 E.01856
G1 X115.343 Y115.024 E.00949
G1 X115.399 Y114.481 E.01626
G1 X115.693 Y113.809 E.02185
G1 X116.093 Y113.365 E.01779
G1 X116.436 Y113.132 E.01234
G1 X116.952 Y112.908 E.01677
G1 X117.485 Y112.838 E.01601
G1 X117.986 Y112.891 E.01501
G1 X118.492 Y113.085 E.01614
G1 X118.763 Y113.252 E.00949
G1 X119.149 Y113.599 E.01544
G1 X119.475 Y114.133 E.01866
G1 X119.581 Y114.434 E.00949
G1 X119.62 Y114.673 E.00722
G1 X119.253 Y114.769 F21000
G1 F3000
G1 X119.286 Y114.962 E.00584
G1 X119.21 Y115.503 E.01625
G1 X119.105 Y115.757 E.00819
G1 X118.835 Y116.183 E.01501
G1 X118.441 Y116.52 E.01543
G1 X117.95 Y116.727 E.0159
G1 X117.377 Y116.777 E.01712
G1 X117.179 Y116.753 E.00594
G1 X116.67 Y116.583 E.01598
G1 X116.204 Y116.232 E.01738
G1 X115.918 Y115.82 E.01493
G1 X115.839 Y115.646 E.00569
G1 X115.718 Y115.134 E.01567
G1 X115.766 Y114.565 E.017
G1 X116.011 Y114.012 E.01803
G1 X116.365 Y113.626 E.01559
G1 X116.605 Y113.469 E.00855
G1 X117.067 Y113.271 E.01496
G1 X117.571 Y113.216 E.01511
G1 X117.968 Y113.281 E.01197
G1 X118.44 Y113.479 E.01524
G1 X118.824 Y113.808 E.01507
G1 X118.944 Y113.957 E.00569
G1 X119.194 Y114.431 E.01596
G1 X119.246 Y114.73 E.00904
G1 X118.878 Y114.832 F21000
;TYPE:Outer wall
G1 F3000
G1 X118.908 Y115.032 E.00602
G1 X118.817 Y115.499 E.01418
G1 X118.575 Y115.909 E.01418
G1 X118.212 Y116.215 E.01415
G1 X117.793 Y116.375 E.01337
G1 X117.29 Y116.392 E.015
G1 X116.813 Y116.224 E.01505
G1 X116.462 Y115.951 E.01326
G1 X116.204 Y115.551 E.01418
G1 X116.095 Y115.088 E.01417
G1 X116.144 Y114.619 E.01404
G1 X116.352 Y114.185 E.01433
G1 X116.689 Y113.849 E.01418
G1 X117.117 Y113.645 E.01415
G1 X117.547 Y113.593 E.01288
G1 X117.828 Y113.631 E.00844
G1 X118.265 Y113.818 E.01418
G1 X118.615 Y114.14 E.01418
G1 X118.838 Y114.561 E.01418
G1 X118.872 Y114.792 E.00697
G1 E-.68 F3600
;WIPE_START
G1 F3000
G1 X118.908 Y115.032 E-.02905
G1 X118.817 Y115.499 E-.05711
G1 X118.674 Y115.742 E-.03384
;WIPE_END
G1 X116.085 Y122.922 Z.6 F21000
G1 X114.895 Y126.223 Z.6
G1 Z.2
G1 E.8 F2700
;TYPE:Inner wall
G1 F3000
G1 X114.648 Y126.222 E.00737
G1 X114.213 Y126.085 E.01357
G1 X113.838 Y125.821 E.01367
G1 X113.512 Y125.397 E.01593
G1 X113.346 Y124.888 E.01593
G1 X113.359 Y124.354 E.01593
G1 X113.55 Y123.854 E.01593
G1 X113.896 Y123.446 E.01593
G1 X114.04 Y123.338 E.00537
G1 X114.536 Y123.122 E.01613
G1 X115.027 Y123.077 E.01469
G1 X115.338 Y123.135 E.00942
G1 X115.821 Y123.364 E.01593
G1 X116.189 Y123.722 E.01529
G1 X116.433 Y124.223 E.01659
G1 X116.491 Y124.755 E.01593
G1 X116.369 Y125.276 E.01593
G1 X116.081 Y125.726 E.01593
G1 X115.658 Y126.054 E.01593
G1 X115.151 Y126.223 E.01593
G1 X114.935 Y126.223 E.00643
G1 X114.897 Y125.85 F21000
;TYPE:Outer wall
G1 F3000
G1 X114.727 Y125.853 E.00508
G1 X114.34 Y125.723 E.01216
G1 X114.018 Y125.472 E.01216
G1 X113.798 Y125.128 E.01216
G1 X113.706 Y124.73 E.01216
G1 X113.751 Y124.324 E.01216
G1 X113.929 Y123.957 E.01216
G1 X114.216 Y123.671 E.01206
G1 X114.589 Y123.495 E.01227
G1 X114.979 Y123.451 E.0117
G1 X115.197 Y123.485 E.00658
G1 X115.572 Y123.648 E.01216
G1 X115.891 Y123.961 E.01333
G1 X116.061 Y124.287 E.01095
G1 X116.12 Y124.691 E.01216
G1 X116.04 Y125.092 E.01216
G1 X115.831 Y125.443 E.01216
G1 X115.518 Y125.704 E.01216
G1 X115.135 Y125.847 E.01216
G1 X114.937 Y125.85 E.00589
G1 X114.721 Y126.601 F21000
;TYPE:Inner wall
;WIDTH:0.403134
G1 F3000
G1 X114.178 Y126.465 E.01592
;WIDTH:0.419516
G1 X114.055 Y126.426 E.00385
G1 E-.68 F3600
;WIPE_START
G1 F3000
G1 X114.178 Y126.465 E-.02256
G1 X114.721 Y126.601 E-.09744
;WIPE_END
G1 X112.783 Y119.219 Z.6 F21000
