; HEADER_BLOCK_START
; generated by OrcaSlicer 2.1.1 on 2024-12-15 at 21:56:25
; total layer number: 211
; filament_density: 1.27
; filament_diameter: 1.75
; max_z_height: 17.00
; HEADER_BLOCK_END

; THUMBNAIL_BLOCK_START

;
; THUMBNAIL_BLOCK_END







; external perimeters extrusion width = 0.40mm
; perimeters extrusion width = 0.45mm
; infill extrusion width = 0.45mm
; solid infill extrusion width = 0.45mm
; top infill extrusion width = 0.38mm
; first layer extrusion width = 0.42mm

; EXECUTABLE_BLOCK_START
EXCLUDE_OBJECT_DEFINE NAME=履带轮外支架_-_弹簧槽.STL_id_0_copy_0 CENTER=117.5,115 POLYGON=[[109.35,105],[125.65,105],[125.65,125],[109.35,125],[109.35,105]]
M73 P0 R35
;TYPE:Custom
;ELEGOO NEPTUNE 4 PRO
M220 S100 ;Set the feed speed to 100%
M221 S100 ;Set the flow rate to 100%
M104 S140
M190 S70
G90
G28 ;home
G1 Z10 F300
G1 X67.5 Y0 F6000
G1 Z0 F300
M109 S240
G92 E0 ;Reset Extruder
G1 X67.5 Y0 Z0.4 F300 ;Move to start position
G1 X167.5 E30 F400 ;Draw the first line
G1 Z0.6 F120.0 ;Move to side a little
M73 P0 R34
G1 X162.5 F3000
G92 E0 ;Reset Extruder
G90
G21
M83 ; use relative distances for extrusion
; filament start gcode
M106 S0
;LAYER_CHANGE
;Z:0.2
;HEIGHT:0.2
;BEFORE_LAYER_CHANGE
G92 E0
;0.2


G1 E-.8 F3600
;AFTER_LAYER_CHANGE
;0.2
;_SET_FAN_SPEED_CHANGING_LAYER
SET_VELOCITY_LIMIT ACCEL=1000 ACCEL_TO_DECEL=500
SET_VELOCITY_LIMIT SQUARE_CORNER_VELOCITY=7
; printing object 履带轮外支架 - 弹簧槽.STL id:0 copy 0
EXCLUDE_OBJECT_START NAME=履带轮外支架_-_弹簧槽.STL_id_0_copy_0
G1 X124.586 Y123.936 F21000
G1 Z.4
G1 Z.2
G1 E.8 F2700
;TYPE:Inner wall
;WIDTH:0.419999
G1 F3000
G1 X110.414 Y123.936 E.42213
G1 X110.414 Y106.064 E.53234
M73 P1 R34
G1 X124.586 Y106.064 E.42213
G1 X124.586 Y123.896 E.53114
G1 X124.963 Y124.313 F21000
G1 F3000
G1 X110.037 Y124.313 E.44459
G1 X110.037 Y105.687 E.5548
G1 X124.963 Y105.687 E.44459
G1 X124.963 Y124.273 E.55361
G1 X125.34 Y124.69 F21000
;TYPE:Outer wall
G1 F3000
G1 X109.66 Y124.69 E.46705
G1 X109.66 Y105.31 E.57726
G1 X125.34 Y105.31 E.46705
G1 X125.34 Y124.65 E.57607
G1 E-.68 F3600
;WIPE_START
G1 F3000
G1 X124.34 Y124.653 E-.12
;WIPE_END
G1 X124.397 Y117.02 Z.6 F21000
G1 X124.473 Y106.945 Z.6
G1 Z.2
G1 E.8 F2700
;TYPE:Bottom surface
;WIDTH:0.422436
G1 F4800
G1 X123.875 Y106.347 E.02534
G1 X123.338 Y106.347 E.01609
G1 X124.303 Y107.312 E.0409
G1 X124.303 Y107.848 E.01609
G1 X122.802 Y106.347 E.06366
G1 X122.265 Y106.347 E.01609
G1 X124.303 Y108.385 E.08641
G1 X124.303 Y108.922 E.01609
G1 X121.728 Y106.347 E.10917
G1 X121.191 Y106.347 E.01609
G1 X124.303 Y109.459 E.13192
G1 X124.303 Y109.995 E.01609
G1 X120.655 Y106.347 E.15468
G1 X120.118 Y106.347 E.01609
G1 X124.303 Y110.532 E.17743
G1 X124.303 Y111.069 E.01609
G1 X119.581 Y106.347 E.20019
G1 X119.045 Y106.347 E.01609
G1 X124.303 Y111.605 E.22294
G1 X124.303 Y112.142 E.01609
G1 X118.508 Y106.347 E.2457
G1 X117.971 Y106.347 E.01609
G1 X124.303 Y112.679 E.26845
G1 X124.303 Y113.216 E.01609
G1 X117.434 Y106.347 E.29121
G1 X116.898 Y106.347 E.01609
G1 X124.303 Y113.752 E.31396
G1 X124.303 Y114.289 E.01609
G1 X116.361 Y106.347 E.33672
G1 X115.824 Y106.347 E.01609
G1 X124.303 Y114.826 E.35947
G1 X124.303 Y115.363 E.01609
G1 X115.288 Y106.347 E.38223
G1 X114.751 Y106.347 E.01609
G1 X124.303 Y115.899 E.40498
G1 X124.303 Y116.436 E.01609
G1 X114.214 Y106.347 E.42774
G1 X113.677 Y106.347 E.01609
G1 X124.303 Y116.973 E.45049
G1 X124.303 Y117.509 E.01609
G1 X113.141 Y106.347 E.47325
G1 X112.604 Y106.347 E.01609
G1 X124.303 Y118.046 E.496
G1 X124.303 Y118.583 E.01609
G1 X112.067 Y106.347 E.51876
G1 X111.53 Y106.347 E.01609
G1 X124.303 Y119.12 E.54151
G1 X124.303 Y119.656 E.01609
G1 X110.994 Y106.347 E.56427
G1 X110.697 Y106.347 E.0089
G1 X110.697 Y106.587 E.00719
G1 X124.303 Y120.193 E.57685
G1 X124.303 Y120.73 E.01609
G1 X110.697 Y107.124 E.57685
G1 X110.697 Y107.66 E.01609
G1 X124.303 Y121.266 E.57685
G1 X124.303 Y121.803 E.01609
G1 X110.697 Y108.197 E.57685
G1 X110.697 Y108.734 E.01609
G1 X124.303 Y122.34 E.57685
G1 X124.303 Y122.877 E.01609
G1 X110.697 Y109.27 E.57685
G1 X110.697 Y109.807 E.01609
G1 X124.303 Y123.413 E.57685
G1 X124.303 Y123.653 E.00719
G1 X124.006 Y123.653 E.0089
G1 X110.697 Y110.344 E.56426
G1 X110.697 Y110.881 E.01609
G1 X123.469 Y123.653 E.54151
G1 X122.933 Y123.653 E.01609
G1 X110.697 Y111.417 E.51875
G1 X110.697 Y111.954 E.01609
G1 X122.396 Y123.653 E.496
G1 X121.859 Y123.653 E.01609
G1 X110.697 Y112.491 E.47324
G1 X110.697 Y113.027 E.01609
G1 X121.323 Y123.653 E.45049
G1 X120.786 Y123.653 E.01609
G1 X110.697 Y113.564 E.42773
G1 X110.697 Y114.101 E.01609
G1 X120.249 Y123.653 E.40498
G1 X119.712 Y123.653 E.01609
G1 X110.697 Y114.638 E.38222
G1 X110.697 Y115.174 E.01609
G1 X119.176 Y123.653 E.35947
G1 X118.639 Y123.653 E.01609
G1 X110.697 Y115.711 E.33671
G1 X110.697 Y116.248 E.01609
G1 X118.102 Y123.653 E.31396
G1 X117.566 Y123.653 E.01609
G1 X110.697 Y116.784 E.2912
G1 X110.697 Y117.321 E.01609
G1 X117.029 Y123.653 E.26845
G1 X116.492 Y123.653 E.01609
G1 X110.697 Y117.858 E.24569
G1 X110.697 Y118.395 E.01609
G1 X115.955 Y123.653 E.22294
G1 X115.419 Y123.653 E.01609
G1 X110.697 Y118.931 E.20018
G1 X110.697 Y119.468 E.01609
G1 X114.882 Y123.653 E.17743
G1 X114.345 Y123.653 E.01609
G1 X110.697 Y120.005 E.15467
G1 X110.697 Y120.542 E.01609
G1 X113.808 Y123.653 E.13192
G1 X113.272 Y123.653 E.01609
G1 X110.697 Y121.078 E.10916
G1 X110.697 Y121.615 E.01609
G1 X112.735 Y123.653 E.08641
G1 X112.198 Y123.653 E.01609
G1 X110.697 Y122.152 E.06365
G1 X110.697 Y122.688 E.01609
G1 X111.662 Y123.653 E.0409
G1 X111.125 Y123.653 E.01609
G1 X110.527 Y123.055 E.02534
; stop printing object 履带轮外支架 - 弹簧槽.STL id:0 copy 0
;LAYER_CHANGE
;Z:0.28
;HEIGHT:0.08
;BEFORE_LAYER_CHANGE
G92 E0
;0.28


G1 E-.68 F3600
;WIPE_START
G1 F4800
G1 X111.125 Y123.653 E-.10142
G1 X111.28 Y123.653 E-.01858
;WIPE_END
EXCLUDE_OBJECT_END NAME=履带轮外支架_-_弹簧槽.STL_id_0_copy_0
;AFTER_LAYER_CHANGE
;0.28
;_SET_FAN_SPEED_CHANGING_LAYER
SET_VELOCITY_LIMIT ACCEL=5000 ACCEL_TO_DECEL=2500
SET_VELOCITY_LIMIT SQUARE_CORNER_VELOCITY=9
M140 S70 ; set bed temperature
; printing object 履带轮外支架 - 弹簧槽.STL id:0 copy 0
EXCLUDE_OBJECT_START NAME=履带轮外支架_-_弹簧槽.STL_id_0_copy_0
G1 X118.91 Y123.828 Z.6 F21000
G1 X124.609 Y123.959 Z.6
G1 Z.28
G1 E.8 F2700
SET_VELOCITY_LIMIT ACCEL=3000 ACCEL_TO_DECEL=1500 SQUARE_CORNER_VELOCITY=7
;TYPE:Inner wall
;WIDTH:0.449999
G1 F5910
G1 X110.391 Y123.959 E.19446
G1 X110.391 Y106.041 E.24506
G1 X124.609 Y106.041 E.19446
G1 X124.609 Y123.919 E.24451
SET_VELOCITY_LIMIT ACCEL=5000 ACCEL_TO_DECEL=2500 SQUARE_CORNER_VELOCITY=9
G1 X125.042 Y124.392 F21000
SET_VELOCITY_LIMIT ACCEL=3000 ACCEL_TO_DECEL=1500 SQUARE_CORNER_VELOCITY=7
G1 F5910
G1 X109.958 Y124.392 E.2063
G1 X109.958 Y105.608 E.2569
G1 X125.042 Y105.608 E.2063
G1 X125.042 Y124.352 E.25635
SET_VELOCITY_LIMIT ACCEL=5000 ACCEL_TO_DECEL=2500 SQUARE_CORNER_VELOCITY=9
G1 X125.45 Y124.8 F21000
SET_VELOCITY_LIMIT ACCEL=3000 ACCEL_TO_DECEL=1500 SQUARE_CORNER_VELOCITY=7
;TYPE:Outer wall
;WIDTH:0.399999
G1 F5910
G1 X109.55 Y124.8 E.19233
G1 X109.55 Y105.2 E.23709
G1 X125.45 Y105.2 E.19233
G1 X125.45 Y124.76 E.2366
SET_VELOCITY_LIMIT ACCEL=5000 ACCEL_TO_DECEL=2500 SQUARE_CORNER_VELOCITY=9
G1 E-.68 F3600
;WIPE_START
G1 F7200
G1 X124.45 Y124.763 E-.12
;WIPE_END
G1 X124.245 Y123.537 Z.68 F21000
G1 Z.28
G1 E.8 F2700
;TYPE:Internal solid infill
;WIDTH:0.357168
G1 F5910
G1 X124.182 Y123.574 E.00079
G1 X124.247 Y123.609 E.00079
G1 X124.479 Y122.834 F21000
;WIDTH:0.451766
G1 F5910
G1 X123.679 Y123.635 E.01555
G1 X123.064 Y123.635 E.00844
G1 X124.285 Y122.414 E.0237
G1 X124.285 Y121.799 E.00844
G1 X122.449 Y123.635 E.03564
G1 X121.835 Y123.635 E.00844
G1 X124.285 Y121.185 E.04758
G1 X124.285 Y120.57 E.00844
M73 P2 R34
G1 X121.22 Y123.635 E.05951
G1 X120.606 Y123.635 E.00844
G1 X124.285 Y119.956 E.07145
G1 X124.285 Y119.341 E.00844
G1 X119.991 Y123.635 E.08338
G1 X119.376 Y123.635 E.00844
G1 X124.285 Y118.726 E.09532
G1 X124.285 Y118.112 E.00844
G1 X118.762 Y123.635 E.10726
G1 X118.147 Y123.635 E.00844
G1 X124.285 Y117.497 E.11919
G1 X124.285 Y116.883 E.00844
G1 X117.533 Y123.635 E.13113
G1 X116.918 Y123.635 E.00844
G1 X124.285 Y116.268 E.14306
G1 X124.285 Y115.653 E.00844
G1 X116.303 Y123.635 E.155
G1 X115.689 Y123.635 E.00844
G1 X124.285 Y115.039 E.16693
G1 X124.285 Y114.424 E.00844
G1 X115.074 Y123.635 E.17887
G1 X114.459 Y123.635 E.00844
G1 X124.285 Y113.809 E.19081
G1 X124.285 Y113.195 E.00844
G1 X113.845 Y123.635 E.20274
G1 X113.23 Y123.635 E.00844
G1 X124.285 Y112.58 E.21468
G1 X124.285 Y111.966 E.00844
G1 X112.616 Y123.635 E.22661
G1 X112.001 Y123.635 E.00844
G1 X124.285 Y111.351 E.23855
G1 X124.285 Y110.736 E.00844
G1 X111.386 Y123.635 E.25049
G1 X110.772 Y123.635 E.00844
G1 X124.285 Y110.122 E.26242
G1 X124.285 Y109.507 E.00844
G1 X110.715 Y123.077 E.26352
G1 X110.715 Y122.462 E.00844
G1 X124.285 Y108.893 E.26352
G1 X124.285 Y108.278 E.00844
G1 X110.715 Y121.847 E.26352
G1 X110.715 Y121.233 E.00844
G1 X124.285 Y107.663 E.26352
G1 X124.285 Y107.049 E.00844
G1 X110.715 Y120.618 E.26352
G1 X110.715 Y120.004 E.00844
G1 X124.285 Y106.434 E.26352
G1 X124.285 Y106.365 E.00095
G1 X123.739 Y106.365 E.00749
G1 X110.715 Y119.389 E.25292
G1 X110.715 Y118.774 E.00844
G1 X123.124 Y106.365 E.24098
G1 X122.51 Y106.365 E.00844
G1 X110.715 Y118.16 E.22905
G1 X110.715 Y117.545 E.00844
G1 X121.895 Y106.365 E.21711
G1 X121.28 Y106.365 E.00844
G1 X110.715 Y116.93 E.20518
G1 X110.715 Y116.316 E.00844
G1 X120.666 Y106.365 E.19324
G1 X120.051 Y106.365 E.00844
G1 X110.715 Y115.701 E.1813
G1 X110.715 Y115.087 E.00844
G1 X119.437 Y106.365 E.16937
G1 X118.822 Y106.365 E.00844
G1 X110.715 Y114.472 E.15743
G1 X110.715 Y113.857 E.00844
G1 X118.207 Y106.365 E.1455
G1 X117.593 Y106.365 E.00844
G1 X110.715 Y113.243 E.13356
G1 X110.715 Y112.628 E.00844
G1 X116.978 Y106.365 E.12163
G1 X116.364 Y106.365 E.00844
G1 X110.715 Y112.014 E.10969
G1 X110.715 Y111.399 E.00844
G1 X115.749 Y106.365 E.09775
G1 X115.134 Y106.365 E.00844
G1 X110.715 Y110.784 E.08582
G1 X110.715 Y110.17 E.00844
G1 X114.52 Y106.365 E.07388
G1 X113.905 Y106.365 E.00844
G1 X110.715 Y109.555 E.06195
G1 X110.715 Y108.94 E.00844
G1 X113.29 Y106.365 E.05001
G1 X112.676 Y106.365 E.00844
G1 X110.715 Y108.326 E.03807
G1 X110.715 Y107.711 E.00844
G1 X112.061 Y106.365 E.02614
G1 X111.447 Y106.365 E.00844
G1 X110.521 Y107.291 E.01799
G1 X110.838 Y106.418 F21000
;WIDTH:0.42825
G1 F5910
G1 X110.787 Y106.418 E.00067
G1 X110.761 Y106.463 E.00067
G1 X110.787 Y106.507 E.00067
G1 X110.844 Y106.497 E.00075
; stop printing object 履带轮外支架 - 弹簧槽.STL id:0 copy 0
;LAYER_CHANGE
;Z:0.36
;HEIGHT:0.08
;BEFORE_LAYER_CHANGE
G92 E0
;0.36


G1 E-.73638 F3600
;WIPE_START
G1 F12000
G1 X110.787 Y106.507 E-.01738
G1 X110.761 Y106.463 E-.01542
G1 X110.787 Y106.418 E-.01542
G1 X110.838 Y106.418 E-.01542
;WIPE_END
EXCLUDE_OBJECT_END NAME=履带轮外支架_-_弹簧槽.STL_id_0_copy_0
;AFTER_LAYER_CHANGE
;0.36
;_SET_FAN_SPEED_CHANGING_LAYER
; printing object 履带轮外支架 - 弹簧槽.STL id:0 copy 0
EXCLUDE_OBJECT_START NAME=履带轮外支架_-_弹簧槽.STL_id_0_copy_0
G1 X115.551 Y112.422 Z.68 F21000
G1 X124.609 Y123.959 Z.68
G1 Z.36
G1 E.8 F2700
SET_VELOCITY_LIMIT ACCEL=3000 ACCEL_TO_DECEL=1500 SQUARE_CORNER_VELOCITY=7
;TYPE:Inner wall
;WIDTH:0.449999
G1 F6036
G1 X110.391 Y123.959 E.19446
G1 X110.391 Y106.041 E.24506
G1 X124.609 Y106.041 E.19446
G1 X124.609 Y123.919 E.24451
SET_VELOCITY_LIMIT ACCEL=5000 ACCEL_TO_DECEL=2500 SQUARE_CORNER_VELOCITY=9
G1 X125.042 Y124.392 F21000
SET_VELOCITY_LIMIT ACCEL=3000 ACCEL_TO_DECEL=1500 SQUARE_CORNER_VELOCITY=7
G1 F6036
G1 X109.958 Y124.392 E.2063
G1 X109.958 Y105.608 E.2569
G1 X125.042 Y105.608 E.2063
G1 X125.042 Y124.352 E.25635
SET_VELOCITY_LIMIT ACCEL=5000 ACCEL_TO_DECEL=2500 SQUARE_CORNER_VELOCITY=9
G1 X125.45 Y124.8 F21000
SET_VELOCITY_LIMIT ACCEL=3000 ACCEL_TO_DECEL=1500 SQUARE_CORNER_VELOCITY=7
;TYPE:Outer wall
;WIDTH:0.399999
G1 F6036
G1 X109.55 Y124.8 E.19233
G1 X109.55 Y105.2 E.23709
G1 X125.45 Y105.2 E.19233
G1 X125.45 Y124.76 E.2366
SET_VELOCITY_LIMIT ACCEL=5000 ACCEL_TO_DECEL=2500 SQUARE_CORNER_VELOCITY=9
G1 E-.68 F3600
;WIPE_START
G1 F7200
G1 X124.45 Y124.763 E-.12
;WIPE_END
G1 X116.851 Y124.054 Z.76 F21000
G1 X110.838 Y123.493 Z.76
G1 Z.36
G1 E.8 F2700
;TYPE:Internal solid infill
;WIDTH:0.42825
G1 F6036
G1 X110.787 Y123.493 E.00067
G1 X110.761 Y123.537 E.00067
G1 X110.787 Y123.582 E.00067
G1 X110.844 Y123.572 E.00075
G1 X123.484 Y106.171 F21000
;WIDTH:0.451766
G1 F6036
G1 X124.285 Y106.971 E.01555
G1 X124.285 Y107.586 E.00844
G1 X123.064 Y106.365 E.0237
G1 X122.449 Y106.365 E.00844
G1 X124.285 Y108.201 E.03564
G1 X124.285 Y108.815 E.00844
G1 X121.835 Y106.365 E.04758
G1 X121.22 Y106.365 E.00844
G1 X124.285 Y109.43 E.05951
G1 X124.285 Y110.044 E.00844
G1 X120.606 Y106.365 E.07145
G1 X119.991 Y106.365 E.00844
G1 X124.285 Y110.659 E.08338
G1 X124.285 Y111.274 E.00844
G1 X119.376 Y106.365 E.09532
G1 X118.762 Y106.365 E.00844
G1 X124.285 Y111.888 E.10726
G1 X124.285 Y112.503 E.00844
G1 X118.147 Y106.365 E.11919
G1 X117.533 Y106.365 E.00844
G1 X124.285 Y113.117 E.13113
G1 X124.285 Y113.732 E.00844
G1 X116.918 Y106.365 E.14306
G1 X116.303 Y106.365 E.00844
G1 X124.285 Y114.347 E.155
G1 X124.285 Y114.961 E.00844
G1 X115.689 Y106.365 E.16693
G1 X115.074 Y106.365 E.00844
G1 X124.285 Y115.576 E.17887
G1 X124.285 Y116.191 E.00844
G1 X114.459 Y106.365 E.19081
G1 X113.845 Y106.365 E.00844
G1 X124.285 Y116.805 E.20274
G1 X124.285 Y117.42 E.00844
G1 X113.23 Y106.365 E.21468
G1 X112.616 Y106.365 E.00844
G1 X124.285 Y118.034 E.22661
G1 X124.285 Y118.649 E.00844
G1 X112.001 Y106.365 E.23855
G1 X111.386 Y106.365 E.00844
G1 X124.285 Y119.264 E.25049
G1 X124.285 Y119.878 E.00844
G1 X110.772 Y106.365 E.26242
G1 X110.715 Y106.365 E.00078
G1 X110.715 Y106.923 E.00766
G1 X124.285 Y120.493 E.26352
G1 X124.285 Y121.107 E.00844
G1 X110.715 Y107.538 E.26352
G1 X110.715 Y108.153 E.00844
G1 X124.285 Y121.722 E.26352
G1 X124.285 Y122.337 E.00844
G1 X110.715 Y108.767 E.26352
G1 X110.715 Y109.382 E.00844
G1 X124.285 Y122.951 E.26352
G1 X124.285 Y123.566 E.00844
G1 X110.715 Y109.996 E.26352
G1 X110.715 Y110.611 E.00844
G1 X123.739 Y123.635 E.25292
G1 X123.124 Y123.635 E.00844
G1 X110.715 Y111.226 E.24098
G1 X110.715 Y111.84 E.00844
G1 X122.51 Y123.635 E.22905
G1 X121.895 Y123.635 E.00844
G1 X110.715 Y112.455 E.21711
G1 X110.715 Y113.07 E.00844
G1 X121.28 Y123.635 E.20518
G1 X120.666 Y123.635 E.00844
G1 X110.715 Y113.684 E.19324
G1 X110.715 Y114.299 E.00844
G1 X120.051 Y123.635 E.1813
G1 X119.437 Y123.635 E.00844
G1 X110.715 Y114.913 E.16937
G1 X110.715 Y115.528 E.00844
G1 X118.822 Y123.635 E.15743
G1 X118.207 Y123.635 E.00844
G1 X110.715 Y116.143 E.1455
G1 X110.715 Y116.757 E.00844
G1 X117.593 Y123.635 E.13356
G1 X116.978 Y123.635 E.00844
G1 X110.715 Y117.372 E.12163
G1 X110.715 Y117.986 E.00844
G1 X116.364 Y123.635 E.10969
G1 X115.749 Y123.635 E.00844
G1 X110.715 Y118.601 E.09775
G1 X110.715 Y119.216 E.00844
G1 X115.134 Y123.635 E.08582
G1 X114.52 Y123.635 E.00844
G1 X110.715 Y119.83 E.07388
G1 X110.715 Y120.445 E.00844
G1 X113.905 Y123.635 E.06195
G1 X113.29 Y123.635 E.00844
G1 X110.715 Y121.06 E.05001
G1 X110.715 Y121.674 E.00844
G1 X112.676 Y123.635 E.03807
G1 X112.061 Y123.635 E.00844
G1 X110.715 Y122.289 E.02614
G1 X110.715 Y122.903 E.00844
G1 X111.641 Y123.829 E.01799
G1 X124.245 Y106.389 F21000
;WIDTH:0.357168
G1 F6036
G1 X124.182 Y106.426 E.00079
G1 X124.247 Y106.461 E.00079
; stop printing object 履带轮外支架 - 弹簧槽.STL id:0 copy 0
M106 S125
;LAYER_CHANGE
;Z:0.44
;HEIGHT:0.08
;BEFORE_LAYER_CHANGE
G92 E0
;0.44


G1 E-.75582 F3600
;WIPE_START
G1 F12000
G1 X124.182 Y106.426 E-.0221
G1 X124.245 Y106.389 E-.02208
;WIPE_END
EXCLUDE_OBJECT_END NAME=履带轮外支架_-_弹簧槽.STL_id_0_copy_0
;AFTER_LAYER_CHANGE
;0.44
;_SET_FAN_SPEED_CHANGING_LAYER
; printing object 履带轮外支架 - 弹簧槽.STL id:0 copy 0
EXCLUDE_OBJECT_START NAME=履带轮外支架_-_弹簧槽.STL_id_0_copy_0
G1 X124.403 Y114.02 Z.76 F21000
G1 X124.609 Y123.959 Z.76
G1 Z.44
G1 E.8 F2700
SET_VELOCITY_LIMIT ACCEL=3000 ACCEL_TO_DECEL=1500 SQUARE_CORNER_VELOCITY=7
;TYPE:Inner wall
;WIDTH:0.449999
G1 F5908
G1 X110.391 Y123.959 E.19446
G1 X110.391 Y106.041 E.24506
G1 X124.609 Y106.041 E.19446
G1 X124.609 Y123.919 E.24451
