; HEADER_BLOCK_START
; generated by OrcaSlicer 2.1.1 on 2025-01-25 at 15:05:08
; total layer number: 61
; filament_density: 1.27
; filament_diameter: 1.75
; max_z_height: 5.00
; HEADER_BLOCK_END

; THUMBNAIL_BLOCK_START

;
; THUMBNAIL_BLOCK_END







; external perimeters extrusion width = 0.40mm
; perimeters extrusion width = 0.45mm
; infill extrusion width = 0.45mm
; solid infill extrusion width = 0.45mm
; top infill extrusion width = 0.38mm
; first layer extrusion width = 0.42mm

; EXECUTABLE_BLOCK_START
EXCLUDE_OBJECT_DEFINE NAME=支撑轮.STL_id_0_copy_0 CENTER=117.5,115 POLYGON=[[99,115],[99.0981,113.098],[99.3912,111.216],[99.8762,109.374],[100.548,107.592],[101.4,105.888],[102.422,104.281],[103.604,102.787],[104.933,101.423],[106.396,100.203],[107.976,99.1397],[109.658,98.2445],[111.422,97.5269],[113.251,96.9946],[115.125,96.6531],[117.024,96.5061],[118.928,96.5552],[120.817,96.7997],[122.67,97.2372],[124.469,97.863],[126.195,98.6704],[127.828,99.651],[129.351,100.794],[130.749,102.088],[132.006,103.519],[133.11,105.071],[134.048,106.729],[134.811,108.474],[135.39,110.289],[135.78,112.153],[135.975,114.048],[136,115],[135.975,115.952],[135.78,117.847],[135.39,119.711],[134.811,121.526],[134.048,123.271],[133.11,124.929],[132.006,126.481],[130.749,127.912],[129.351,129.206],[127.828,130.349],[126.195,131.33],[124.469,132.137],[122.67,132.763],[120.817,133.2],[118.928,133.445],[117.024,133.494],[115.125,133.347],[113.251,133.005],[111.422,132.473],[109.658,131.755],[107.976,130.86],[106.396,129.797],[104.933,128.577],[103.604,127.213],[102.422,125.719],[101.4,124.112],[100.548,122.408],[99.8762,120.626],[99.3912,118.784],[99.0981,116.902],[99,115]]
M73 P0 R23
;TYPE:Custom
;ELEGOO NEPTUNE 4 PRO
M220 S100 ;Set the feed speed to 100%
M221 S100 ;Set the flow rate to 100%
M104 S140
M190 S70
G90
G28 ;home
G1 Z10 F300
G1 X67.5 Y0 F6000
G1 Z0 F300
M109 S240
G92 E0 ;Reset Extruder
G1 X67.5 Y0 Z0.4 F300 ;Move to start position
G1 X167.5 E30 F400 ;Draw the first line
G1 Z0.6 F120.0 ;Move to side a little
M73 P1 R23
G1 X162.5 F3000
G92 E0 ;Reset Extruder
G90
G21
M83 ; use relative distances for extrusion
; filament start gcode
M106 S0
;LAYER_CHANGE
;Z:0.2
;HEIGHT:0.2
;BEFORE_LAYER_CHANGE
G92 E0
;0.2


G1 E-.8 F3600
;AFTER_LAYER_CHANGE
;0.2
;_SET_FAN_SPEED_CHANGING_LAYER
SET_VELOCITY_LIMIT ACCEL=1000 ACCEL_TO_DECEL=500
SET_VELOCITY_LIMIT SQUARE_CORNER_VELOCITY=7
; printing object 支撑轮.STL id:0 copy 0
EXCLUDE_OBJECT_START NAME=支撑轮.STL_id_0_copy_0
G1 X134.724 Y112.305 F21000
G1 Z.4
G1 Z.2
G1 E.8 F2700
;TYPE:Inner wall
;WIDTH:0.419999
G1 F3000
G1 X134.727 Y112.317 E.00036
G1 X134.917 Y114.28 E.05874
G1 X134.932 Y115.121 E.02506
G1 X134.913 Y115.884 E.02273
G1 X134.727 Y117.683 E.05388
G1 X134.36 Y119.44 E.05347
G1 X133.814 Y121.15 E.05347
G1 X133.095 Y122.795 E.05347
G1 X132.211 Y124.357 E.05347
G1 X131.171 Y125.82 E.05347
G1 X129.986 Y127.168 E.05347
G1 X128.668 Y128.388 E.05347
G1 X127.233 Y129.465 E.05347
G1 X125.694 Y130.389 E.05347
G1 X124.068 Y131.15 E.05347
G1 X122.373 Y131.74 E.05347
G1 X120.626 Y132.152 E.05347
G1 X118.846 Y132.382 E.05347
G1 X117.051 Y132.429 E.05347
G1 X115.261 Y132.29 E.05347
G1 X113.496 Y131.968 E.05347
G1 X111.772 Y131.467 E.05347
G1 X110.139 Y130.802 E.05251
G1 X108.524 Y129.946 E.05444
G1 X107.036 Y128.945 E.05344
G1 X105.657 Y127.795 E.05347
G1 X104.404 Y126.509 E.05347
G1 X103.29 Y125.102 E.05347
G1 X102.327 Y123.587 E.05347
G1 X101.525 Y121.982 E.05347
G1 X100.891 Y120.302 E.05347
G1 X100.434 Y118.566 E.05347
G1 X100.158 Y116.793 E.05347
G1 X100.066 Y115 E.05347
G1 X100.158 Y113.207 E.05347
G1 X100.434 Y111.434 E.05347
G1 X100.891 Y109.698 E.05347
G1 X101.525 Y108.018 E.05347
G1 X102.327 Y106.413 E.05347
G1 X103.29 Y104.898 E.05347
G1 X104.404 Y103.491 E.05347
G1 X105.657 Y102.205 E.05347
G1 X107.036 Y101.055 E.05347
G1 X108.525 Y100.053 E.05347
G1 X110.109 Y99.21 E.05347
G1 X111.772 Y98.533 E.05347
G1 X113.496 Y98.032 E.05347
G1 X115.261 Y97.71 E.05347
G1 X117.051 Y97.571 E.05347
G1 X118.846 Y97.618 E.05347
G1 X120.626 Y97.848 E.05347
G1 X122.373 Y98.26 E.05347
G1 X124.068 Y98.85 E.05347
G1 X125.694 Y99.611 E.05347
G1 X127.233 Y100.535 E.05347
G1 X128.668 Y101.612 E.05347
G1 X129.986 Y102.832 E.05347
G1 X131.171 Y104.18 E.05347
G1 X132.211 Y105.643 E.05347
G1 X133.095 Y107.205 E.05347
G1 X133.814 Y108.85 E.05347
G1 X134.36 Y110.56 E.05347
G1 X134.716 Y112.266 E.05191
G1 X135.093 Y112.228 F21000
G1 F3000
G1 X135.1 Y112.259 E.00094
G1 X135.294 Y114.27 E.06019
G1 X135.309 Y115.131 E.02564
G1 X135.289 Y115.908 E.02316
G1 X135.1 Y117.741 E.05489
G1 X134.725 Y119.536 E.05463
G1 X134.167 Y121.283 E.05462
G1 X133.433 Y122.964 E.05462
G1 X132.529 Y124.56 E.05462
G1 X131.467 Y126.054 E.05463
G1 X130.256 Y127.432 E.05462
G1 X128.91 Y128.677 E.05462
G1 X127.443 Y129.778 E.05463
G1 X125.871 Y130.722 E.05462
G1 X124.21 Y131.5 E.05462
G1 X122.478 Y132.102 E.05463
G1 X120.693 Y132.523 E.05462
G1 X118.875 Y132.759 E.05462
G1 X117.041 Y132.806 E.05463
G1 X115.213 Y132.665 E.05463
G1 X113.409 Y132.336 E.05462
G1 X111.648 Y131.823 E.05463
G1 X109.979 Y131.145 E.05366
G1 X108.33 Y130.27 E.0556
G1 X106.809 Y129.247 E.05461
G1 X105.401 Y128.072 E.05463
G1 X104.121 Y126.759 E.05462
G1 X102.983 Y125.321 E.05463
G1 X101.998 Y123.773 E.05462
G1 X101.179 Y122.133 E.05463
G1 X100.532 Y120.417 E.05463
G1 X100.065 Y118.643 E.05462
G1 X99.782 Y116.831 E.05462
G1 X99.688 Y115 E.05462
G1 X99.782 Y113.169 E.05462
G1 X100.065 Y111.357 E.05462
G1 X100.532 Y109.583 E.05462
G1 X101.179 Y107.867 E.05463
G1 X101.998 Y106.227 E.05463
G1 X102.983 Y104.679 E.05462
G1 X104.121 Y103.241 E.05463
G1 X105.401 Y101.928 E.05462
G1 X106.809 Y100.753 E.05463
G1 X108.33 Y99.73 E.05462
G1 X109.949 Y98.868 E.05463
G1 X111.648 Y98.177 E.05462
G1 X113.409 Y97.664 E.05463
G1 X115.213 Y97.335 E.05462
G1 X117.041 Y97.194 E.05463
G1 X118.875 Y97.241 E.05463
G1 X120.693 Y97.477 E.05462
G1 X122.478 Y97.898 E.05462
G1 X124.21 Y98.5 E.05463
G1 X125.871 Y99.278 E.05462
G1 X127.443 Y100.222 E.05462
G1 X128.91 Y101.323 E.05463
G1 X130.256 Y102.568 E.05462
G1 X131.467 Y103.946 E.05462
G1 X132.529 Y105.44 E.05463
G1 X133.433 Y107.036 E.05462
G1 X134.167 Y108.717 E.05462
G1 X134.725 Y110.464 E.05463
G1 X135.085 Y112.189 E.05249
G1 X135.462 Y112.151 F21000
;TYPE:Outer wall
G1 F3000
G1 X135.473 Y112.201 E.00152
G1 X135.671 Y114.26 E.06163
G1 X135.686 Y115.14 E.02622
G1 X135.666 Y115.932 E.0236
G1 X135.473 Y117.799 E.0559
G1 X135.09 Y119.632 E.05578
G1 X134.52 Y121.416 E.05578
G1 X133.77 Y123.132 E.05578
G1 X132.848 Y124.762 E.05578
G1 X131.763 Y126.289 E.05578
G1 X130.527 Y127.695 E.05578
G1 X129.152 Y128.967 E.05578
G1 X127.654 Y130.091 E.05578
G1 X126.049 Y131.056 E.05578
G1 X124.353 Y131.849 E.05578
G1 X122.584 Y132.465 E.05578
G1 X120.761 Y132.895 E.05578
G1 X118.904 Y133.135 E.05578
G1 X117.032 Y133.184 E.05578
G1 X115.164 Y133.039 E.05578
G1 X113.322 Y132.703 E.05578
G1 X111.524 Y132.18 E.05578
G1 X109.82 Y131.487 E.05481
G1 X108.136 Y130.594 E.05676
G1 X106.582 Y129.549 E.05578
G1 X105.144 Y128.349 E.05578
G1 X103.837 Y127.008 E.05578
G1 X102.675 Y125.539 E.05578
G1 X101.67 Y123.959 E.05578
G1 X100.833 Y122.284 E.05578
G1 X100.172 Y120.532 E.05578
G1 X99.695 Y118.721 E.05578
G1 X99.407 Y116.87 E.05578
G1 X99.31 Y115 E.05578
G1 X99.407 Y113.13 E.05578
G1 X99.695 Y111.279 E.05578
G1 X100.172 Y109.468 E.05578
G1 X100.833 Y107.716 E.05578
G1 X101.67 Y106.041 E.05578
G1 X102.675 Y104.461 E.05578
G1 X103.837 Y102.992 E.05578
G1 X105.144 Y101.651 E.05578
G1 X106.582 Y100.451 E.05578
G1 X108.136 Y99.406 E.05578
G1 X109.789 Y98.526 E.05578
G1 X111.524 Y97.82 E.05578
G1 X113.322 Y97.297 E.05578
G1 X115.164 Y96.961 E.05578
G1 X117.032 Y96.816 E.05578
G1 X118.904 Y96.865 E.05578
G1 X120.761 Y97.105 E.05578
G1 X122.584 Y97.535 E.05578
G1 X124.353 Y98.151 E.05578
G1 X126.049 Y98.944 E.05578
G1 X127.654 Y99.909 E.05578
G1 X129.152 Y101.033 E.05578
G1 X130.527 Y102.305 E.05578
G1 X131.763 Y103.711 E.05578
G1 X132.848 Y105.238 E.05578
G1 X133.77 Y106.868 E.05578
G1 X134.52 Y108.584 E.05578
G1 X135.09 Y110.368 E.05578
G1 X135.454 Y112.112 E.05307
G1 E-.68 F3600
;WIPE_START
G1 F3000
G1 X135.473 Y112.201 E-.01093
G1 X135.56 Y113.106 E-.10907
;WIPE_END
G1 X130.467 Y118.79 Z.6 F21000
G1 X127.111 Y122.536 Z.6
G1 Z.2
G1 E.8 F2700
;TYPE:Inner wall
G1 F3000
G1 X127.012 Y122.395 E.00511
G1 X126.828 Y121.824 E.01788
G1 X126.801 Y121.507 E.00949
G1 X126.874 Y120.948 E.01677
G1 X127.088 Y120.468 E.01566
G1 X127.47 Y120.026 E.0174
G1 X127.726 Y119.837 E.00949
G1 X128.211 Y119.613 E.01589
G1 X128.747 Y119.538 E.01612
G1 X129.184 Y119.582 E.0131
G1 X129.797 Y119.834 E.01975
G1 X130.296 Y120.277 E.01986
G1 X130.64 Y120.944 E.02235
G1 X130.709 Y121.341 E.01201
G1 X130.709 Y121.659 E.00949
G1 X130.651 Y122 E.01029
G1 X130.545 Y122.3 E.00949
G1 X130.281 Y122.741 E.0153
G1 X129.917 Y123.078 E.01478
G1 X129.646 Y123.245 E.00949
G1 X129.325 Y123.374 E.01029
G1 X129.014 Y123.441 E.00949
G1 X128.565 Y123.454 E.01338
G1 X128.022 Y123.314 E.01668
G1 X127.738 Y123.17 E.00949
G1 X127.325 Y122.843 E.01569
G1 X127.134 Y122.569 E.00996
G1 X127.411 Y122.285 F21000
G1 F3000
G1 X127.28 Y122.063 E.00766
G1 X127.175 Y121.564 E.01519
G1 X127.232 Y121.066 E.01494
G1 X127.443 Y120.612 E.01492
G1 X127.802 Y120.233 E.01553
G1 X128.278 Y119.987 E.01597
G1 X128.808 Y119.913 E.01594
G1 X129.178 Y119.973 E.01116
G1 X129.639 Y120.186 E.01513
G1 X129.999 Y120.509 E.01441
M73 P2 R23
G1 X130.272 Y121.03 E.01752
G1 X130.338 Y121.596 E.01696
G1 X130.216 Y122.116 E.01593
G1 X129.951 Y122.544 E.01499
G1 X129.505 Y122.895 E.01689
G1 X128.998 Y123.064 E.01593
G1 X128.463 Y123.054 E.01593
G1 X127.962 Y122.867 E.01593
G1 X127.556 Y122.529 E.01575
G1 X127.431 Y122.319 E.00727
G1 X127.729 Y122.1 F21000
;TYPE:Outer wall
G1 F3000
G1 X127.645 Y121.968 E.00466
G1 X127.552 Y121.571 E.01216
G1 X127.598 Y121.165 E.01216
G1 X127.776 Y120.797 E.01216
G1 X128.066 Y120.51 E.01216
G1 X128.435 Y120.336 E.01216
G1 X128.826 Y120.292 E.01171
G1 X129.042 Y120.325 E.00651
G1 X129.393 Y120.473 E.01136
G1 X129.718 Y120.766 E.01303
G1 X129.908 Y121.128 E.01216
G1 X129.966 Y121.532 E.01216
G1 X129.886 Y121.932 E.01216
G1 X129.678 Y122.284 E.01216
G1 X129.364 Y122.545 E.01216
G1 X128.982 Y122.687 E.01216
G1 X128.573 Y122.694 E.01216
G1 X128.186 Y122.564 E.01216
G1 X127.864 Y122.313 E.01216
G1 X127.75 Y122.134 E.00632
G1 E-.68 F3600
;WIPE_START
G1 F3000
G1 X127.645 Y121.968 E-.02355
G1 X127.552 Y121.571 E-.049
G1 X127.596 Y121.178 E-.04744
;WIPE_END
G1 X129.419 Y113.766 Z.6 F21000
G1 X130.511 Y109.322 Z.6
G1 Z.2
G1 E.8 F2700
;TYPE:Inner wall
G1 F3000
G1 X130.376 Y109.602 E.00926
G1 X130.176 Y109.85 E.00949
G1 X129.816 Y110.155 E.01408
G1 X129.325 Y110.374 E.01599
G1 X129.014 Y110.441 E.00949
G1 X128.48 Y110.445 E.01589
G1 X127.958 Y110.292 E.01621
G1 X127.468 Y109.971 E.01742
G1 X127.24 Y109.735 E.0098
G1 X126.973 Y109.32 E.01467
G1 X126.828 Y108.824 E.0154
G1 X126.801 Y108.507 E.00949
G1 X126.874 Y107.947 E.01683
G1 X127.082 Y107.479 E.01523
G1 X127.269 Y107.238 E.00908
G1 X127.735 Y106.824 E.01859
G1 X128.081 Y106.659 E.01141
G1 X128.682 Y106.544 E.01822
G1 X129.093 Y106.566 E.01227
G1 X129.646 Y106.755 E.01739
G1 X129.917 Y106.922 E.00949
G1 X130.231 Y107.203 E.01255
G1 X130.545 Y107.7 E.0175
G1 X130.652 Y108.006 E.00966
G1 X130.709 Y108.341 E.01012
G1 X130.709 Y108.659 E.00949
G1 X130.639 Y109.056 E.01201
G1 X130.529 Y109.286 E.00759
G1 X130.172 Y109.158 F21000
G1 F3000
G1 X130.047 Y109.418 E.00859
G1 X129.668 Y109.795 E.01593
G1 X129.185 Y110.024 E.01593
G1 X128.653 Y110.079 E.01593
G1 X128.133 Y109.953 E.01593
G1 X127.693 Y109.668 E.01562
G1 X127.453 Y109.377 E.01124
G1 X127.28 Y109.063 E.01067
G1 X127.175 Y108.569 E.01505
G1 X127.232 Y108.065 E.01512
G1 X127.467 Y107.578 E.01609
G1 X127.86 Y107.202 E.01621
G1 X128.232 Y107.005 E.01254
G1 X128.73 Y106.918 E.01505
G1 X129.045 Y106.94 E.00943
G1 X129.505 Y107.105 E.01454
G1 X129.927 Y107.433 E.01593
G1 X130.216 Y107.884 E.01593
G1 X130.338 Y108.404 E.01593
G1 X130.279 Y108.936 E.01593
G1 X130.19 Y109.122 E.00615
G1 X129.842 Y109.007 F21000
;TYPE:Outer wall
G1 F3000
G1 X129.678 Y109.284 E.00957
G1 X129.364 Y109.545 E.01216
G1 X128.982 Y109.687 E.01216
G1 X128.573 Y109.694 E.01216
G1 X128.166 Y109.549 E.01287
G1 X127.864 Y109.313 E.01142
G1 X127.645 Y108.968 E.01216
G1 X127.552 Y108.571 E.01216
G1 X127.59 Y108.183 E.01159
G1 X127.783 Y107.79 E.01305
G1 X128.17 Y107.443 E.01548
G1 X128.435 Y107.336 E.0085
G1 X128.826 Y107.292 E.01172
G1 X129.057 Y107.331 E.00699
G1 X129.419 Y107.488 E.01174
G1 X129.718 Y107.766 E.01216
G1 X129.909 Y108.133 E.01233
G1 X129.966 Y108.532 E.01199
G1 X129.886 Y108.932 E.01216
G1 X129.862 Y108.973 E.0014
G1 E-.68 F3600
;WIPE_START
G1 F3000
G1 X129.678 Y109.284 E-.04335
G1 X129.364 Y109.545 E-.049
G1 X129.148 Y109.625 E-.02764
;WIPE_END
G1 X122.864 Y105.294 Z.6 F21000
G1 X116.114 Y100.642 Z.6
G1 Z.2
G1 E.8 F2700
;TYPE:Inner wall
G1 F3000
G1 X116.212 Y100.526 E.00451
G1 X116.468 Y100.337 E.00949
G1 X116.967 Y100.11 E.01632
G1 X117.568 Y100.037 E.01803
G1 X118.067 Y100.126 E.01511
G1 X118.387 Y100.255 E.01029
G1 X118.659 Y100.422 E.00949
G1 X119.001 Y100.733 E.01377
G1 X119.287 Y101.2 E.0163
G1 X119.393 Y101.5 E.00949
G1 X119.465 Y101.989 E.01472
G1 X119.393 Y102.5 E.01536
G1 X119.287 Y102.8 E.00949
G1 X118.986 Y103.283 E.01695
G1 X118.604 Y103.622 E.0152
G1 X118.067 Y103.874 E.01767
G1 X117.755 Y103.941 E.00949
G1 X117.185 Y103.938 E.01699
G1 X116.647 Y103.769 E.01681
G1 X116.202 Y103.465 E.01605
G1 X115.981 Y103.235 E.00949
G1 X115.701 Y102.79 E.01566
G1 X115.557 Y102.198 E.01815
G1 X115.543 Y101.881 E.00945
G1 X115.652 Y101.355 E.01601
G1 X115.815 Y100.997 E.01171
G1 X116.088 Y100.673 E.01264
G1 X116.402 Y100.883 F21000
G1 F3000
G1 X116.484 Y100.787 E.00376
G1 X116.946 Y100.518 E.01593
G1 X117.472 Y100.418 E.01593
G1 X117.787 Y100.44 E.00942
G1 X118.247 Y100.605 E.01454
G1 X118.669 Y100.933 E.01593
G1 X118.957 Y101.384 E.01593
G1 X119.021 Y101.564 E.00569
G1 X119.079 Y102.096 E.01593
G1 X118.957 Y102.616 E.01593
G1 X118.669 Y103.067 E.01593
G1 X118.274 Y103.383 E.01508
G1 X117.802 Y103.558 E.01499
G1 X117.259 Y103.568 E.01617
G1 X116.745 Y103.395 E.01617
G1 X116.343 Y103.086 E.0151
G1 X116.048 Y102.642 E.01586
G1 X115.925 Y102.119 E.01602
G1 X115.95 Y101.671 E.01336
G1 X116.138 Y101.195 E.01525
G1 X116.376 Y100.914 E.01098
G1 X116.691 Y101.125 F21000
;TYPE:Outer wall
G1 F3000
G1 X116.807 Y101.01 E.00486
G1 X117.177 Y100.836 E.01216
G1 X117.567 Y100.792 E.0117
G1 X117.786 Y100.826 E.00658
G1 X118.16 Y100.988 E.01216
G1 X118.46 Y101.266 E.01216
G1 X118.649 Y101.628 E.01216
G1 X118.708 Y102.032 E.01216
G1 X118.628 Y102.432 E.01216
G1 X118.42 Y102.784 E.01216
G1 X118.106 Y103.045 E.01216
G1 X117.723 Y103.187 E.01216
G1 X117.315 Y103.194 E.01216
G1 X116.928 Y103.064 E.01216
G1 X116.606 Y102.813 E.01216
G1 X116.384 Y102.461 E.01239
G1 X116.291 Y101.976 E.01469
G1 X116.339 Y101.665 E.00937
G1 X116.517 Y101.297 E.01218
G1 X116.663 Y101.153 E.00611
G1 E-.68 F3600
;WIPE_START
G1 F3000
G1 X116.807 Y101.01 E-.02438
G1 X117.177 Y100.836 E-.049
G1 X117.563 Y100.793 E-.04662
;WIPE_END
G1 X118.638 Y108.349 Z.6 F21000
G1 X119.462 Y114.139 Z.6
G1 Z.2
G1 E.8 F2700
;TYPE:Inner wall
G1 F3000
G1 X119.591 Y114.441 E.00978
G1 X119.663 Y114.945 E.01516
G1 X119.607 Y115.491 E.01635
G1 X119.371 Y116.072 E.0187
G1 X119.193 Y116.337 E.00949
G1 X118.796 Y116.734 E.01674
G1 X118.282 Y117.01 E.01737
G1 X117.978 Y117.103 E.00949
G1 X117.456 Y117.163 E.01562
G1 X116.846 Y117.055 E.01847
G1 X116.55 Y116.937 E.00949
G1 X116.106 Y116.655 E.01565
G1 X115.7 Y116.188 E.01844
G1 X115.544 Y115.91 E.00949
G1 X115.382 Y115.437 E.0149
G1 X115.353 Y114.793 E.01919
G1 X115.407 Y114.479 E.00949
G1 X115.611 Y113.943 E.01711
G1 X115.959 Y113.491 E.01699
G1 X116.198 Y113.28 E.00949
G1 X116.65 Y113.01 E.01568
G1 X117.25 Y112.858 E.01842
G1 X117.568 Y112.844 E.00949
G1 X118.086 Y112.917 E.0156
G1 X118.787 Y113.259 E.02322
G1 X119.193 Y113.663 E.01706
G1 X119.371 Y113.928 E.00949
G1 X119.446 Y114.102 E.00565
G1 X119.095 Y114.26 F21000
G1 F3000
G1 X119.198 Y114.46 E.0067
G1 X119.286 Y114.967 E.01533
