; HEADER_BLOCK_START
; generated by OrcaSlicer 2.1.1 on 2024-12-19 at 11:53:49
; total layer number: 61
; filament_density: 1.27
; filament_diameter: 1.75
; max_z_height: 5.00
; HEADER_BLOCK_END

; THUMBNAIL_BLOCK_START

;
; THUMBNAIL_BLOCK_END







; external perimeters extrusion width = 0.40mm
; perimeters extrusion width = 0.45mm
; infill extrusion width = 0.45mm
; solid infill extrusion width = 0.45mm
; top infill extrusion width = 0.38mm
; first layer extrusion width = 0.42mm

; EXECUTABLE_BLOCK_START
EXCLUDE_OBJECT_DEFINE NAME=支撑轮_-_轮毂.STL_id_0_copy_0 CENTER=117.5,115 POLYGON=[[102.2,115],[102.281,113.427],[102.524,111.87],[102.925,110.347],[103.48,108.873],[104.185,107.464],[105.03,106.135],[106.008,104.9],[107.107,103.772],[108.317,102.762],[109.624,101.883],[111.014,101.143],[112.473,100.549],[113.986,100.109],[115.536,99.8266],[117.106,99.7051],[118.681,99.7456],[120.243,99.9479],[121.776,100.31],[123.264,100.827],[124.691,101.495],[126.041,102.306],[127.301,103.251],[128.457,104.321],[129.497,105.505],[130.41,106.789],[131.186,108.159],[131.816,109.603],[132.296,111.104],[132.618,112.645],[132.78,114.212],[132.8,115],[132.78,115.788],[132.618,117.355],[132.296,118.896],[131.816,120.397],[131.186,121.841],[130.41,123.211],[129.497,124.495],[128.457,125.679],[127.301,126.749],[126.041,127.694],[124.691,128.505],[123.264,129.173],[121.776,129.69],[120.243,130.052],[118.681,130.254],[117.106,130.295],[115.536,130.173],[113.986,129.891],[112.473,129.451],[111.014,128.857],[109.624,128.117],[108.317,127.238],[107.107,126.228],[106.008,125.1],[105.03,123.865],[104.185,122.536],[103.48,121.127],[102.925,119.653],[102.524,118.13],[102.281,116.573],[102.2,115]]
M73 P0 R19
;TYPE:Custom
;ELEGOO NEPTUNE 4 PRO
M220 S100 ;Set the feed speed to 100%
M221 S100 ;Set the flow rate to 100%
M104 S140
M190 S70
G90
G28 ;home
G1 Z10 F300
G1 X67.5 Y0 F6000
G1 Z0 F300
M109 S240
G92 E0 ;Reset Extruder
G1 X67.5 Y0 Z0.4 F300 ;Move to start position
G1 X167.5 E30 F400 ;Draw the first line
G1 Z0.6 F120.0 ;Move to side a little
M73 P1 R18
G1 X162.5 F3000
G92 E0 ;Reset Extruder
G90
G21
M83 ; use relative distances for extrusion
; filament start gcode
M106 S0
;LAYER_CHANGE
;Z:0.2
;HEIGHT:0.2
;BEFORE_LAYER_CHANGE
G92 E0
;0.2


G1 E-.8 F3600
;AFTER_LAYER_CHANGE
;0.2
;_SET_FAN_SPEED_CHANGING_LAYER
SET_VELOCITY_LIMIT ACCEL=1000 ACCEL_TO_DECEL=500
SET_VELOCITY_LIMIT SQUARE_CORNER_VELOCITY=7
; printing object 支撑轮 - 轮毂.STL id:0 copy 0
EXCLUDE_OBJECT_START NAME=支撑轮_-_轮毂.STL_id_0_copy_0
G1 X115.47 Y100.92 F21000
G1 Z.4
G1 Z.2
G1 E.8 F2700
;TYPE:Inner wall
;WIDTH:0.419999
G1 F3000
G1 X115.313 Y101.266 E.0113
G1 X115.233 Y101.575 E.00952
G1 X115.199 Y101.982 E.01215
G1 X115.223 Y102.362 E.01134
G1 X115.345 Y102.818 E.01407
G1 X115.475 Y103.104 E.00938
G1 X115.73 Y103.479 E.01348
G1 X116.003 Y103.747 E.01141
G1 X116.503 Y104.088 E.01801
G1 X117.078 Y104.27 E.01799
G1 X117.488 Y104.297 E.01224
G1 X118.042 Y104.249 E.01656
G1 X118.571 Y104.043 E.01691
G1 X118.842 Y103.876 E.00949
G1 X119.304 Y103.45 E.01872
G1 X119.617 Y102.916 E.01842
G1 X119.758 Y102.41 E.01565
G1 X119.801 Y101.841 E.01702
G1 X119.723 Y101.384 E.01381
G1 X119.53 Y100.929 E.01472
G1 X120.052 Y100.996 E.01567
G1 X121.478 Y101.333 E.04365
G1 X122.863 Y101.814 E.04365
G1 X124.19 Y102.436 E.04365
G1 X125.446 Y103.19 E.04365
G1 X126.618 Y104.07 E.04365
G1 X127.694 Y105.065 E.04365
G1 X128.682 Y106.195 E.04472
G1 X128.235 Y106.253 E.01345
G1 X127.931 Y106.347 E.00946
G1 X127.516 Y106.557 E.01385
G1 X127.261 Y106.746 E.00947
G1 X126.896 Y107.13 E.01576
G1 X126.678 Y107.532 E.01363
G1 X126.498 Y108.02 E.0155
G1 X126.452 Y108.536 E.01545
G1 X126.479 Y108.854 E.00949
G1 X126.682 Y109.519 E.0207
G1 X126.965 Y109.946 E.01526
G1 X127.171 Y110.179 E.00926
G1 X127.595 Y110.49 E.01567
G1 X127.877 Y110.631 E.00939
G1 X128.459 Y110.795 E.01802
G1 X129.087 Y110.783 E.01871
G1 X129.399 Y110.716 E.00949
G1 X129.706 Y110.593 E.00985
G1 X130.1 Y110.376 E.01341
G1 X130.449 Y110.07 E.01381
G1 X130.706 Y109.719 E.01295
G1 X130.819 Y109.979 E.00844
G1 X131.265 Y111.375 E.04365
G1 X131.565 Y112.809 E.04365
G1 X131.721 Y114.426 E.04838
G1 X131.733 Y115.112 E.02042
G1 X131.717 Y115.719 E.0181
G1 X131.565 Y117.191 E.04406
G1 X131.265 Y118.625 E.04365
G1 X130.887 Y119.809 E.03702
G1 X130.706 Y120.281 E.01505
G1 X130.57 Y120.059 E.00776
G1 X130.1 Y119.624 E.01905
G1 X129.829 Y119.457 E.00949
G1 X129.398 Y119.284 E.01383
G1 X128.918 Y119.194 E.01457
G1 X128.235 Y119.253 E.02041
G1 X127.932 Y119.346 E.00943
G1 X127.317 Y119.692 E.02102
G1 X126.941 Y120.08 E.0161
G1 X126.74 Y120.392 E.01105
G1 X126.502 Y120.995 E.01932
G1 X126.452 Y121.536 E.01619
G1 X126.499 Y121.93 E.01182
G1 X126.653 Y122.463 E.01651
G1 X126.987 Y122.978 E.01828
G1 X127.208 Y123.208 E.0095
G1 X127.575 Y123.479 E.01361
G1 X127.865 Y123.626 E.00967
G1 X128.308 Y123.762 E.01381
G1 X128.686 Y123.8 E.0113
G1 X127.694 Y124.935 E.04489
G1 X126.618 Y125.93 E.04365
G1 X125.446 Y126.81 E.04365
G1 X124.19 Y127.564 E.04365
G1 X122.863 Y128.186 E.04365
G1 X121.478 Y128.667 E.04365
G1 X120.052 Y129.004 E.04365
G1 X119.53 Y129.071 E.01567
G1 X119.715 Y128.656 E.01355
G1 X119.801 Y128.159 E.015
G1 X119.801 Y127.841 E.00949
G1 X119.723 Y127.384 E.01381
G1 X119.589 Y127.034 E.01115
G1 X119.239 Y126.477 E.0196
G1 X118.842 Y126.124 E.01582
G1 X118.571 Y125.957 E.00949
G1 X117.921 Y125.725 E.02056
G1 X117.425 Y125.695 E.01478
G1 X116.775 Y125.803 E.01964
G1 X116.26 Y126.055 E.01709
G1 X116.004 Y126.245 E.00949
G1 X115.573 Y126.717 E.01903
G1 X115.313 Y127.266 E.01809
G1 X115.233 Y127.574 E.00949
G1 X115.19 Y128.104 E.01582
G1 X115.344 Y128.818 E.02176
G1 X115.464 Y129.079 E.00854
G1 X114.231 Y128.854 E.03733
G1 X112.823 Y128.444 E.04365
G1 X111.466 Y127.892 E.04365
G1 X110.172 Y127.203 E.04365
G1 X108.956 Y126.385 E.04365
G1 X107.831 Y125.446 E.04365
G1 X106.808 Y124.397 E.04365
G1 X106.33 Y123.793 E.02293
G1 X106.882 Y123.716 E.0166
G1 X107.313 Y123.543 E.01383
G1 X107.584 Y123.375 E.0095
G1 X107.861 Y123.132 E.01098
G1 X108.132 Y122.822 E.01227
G1 X108.358 Y122.417 E.01381
G1 X108.454 Y122.168 E.00793
G1 X108.543 Y121.659 E.01539
G1 X108.543 Y121.341 E.00949
G1 X108.396 Y120.659 E.02077
G1 X108.155 Y120.22 E.01491
M73 P2 R18
G1 X107.966 Y119.963 E.00952
G1 X107.584 Y119.624 E.01522
G1 X107.312 Y119.457 E.00949
G1 X106.805 Y119.257 E.01626
G1 X106.307 Y119.187 E.01496
G1 X105.718 Y119.253 E.01765
G1 X105.416 Y119.346 E.00943
G1 X104.872 Y119.634 E.01832
G1 X104.424 Y120.08 E.01882
G1 X104.295 Y120.271 E.00687
G1 X103.94 Y119.329 E.02999
G1 X103.567 Y117.912 E.04365
G1 X103.341 Y116.464 E.04365
G1 X103.266 Y115 E.04365
G1 X103.341 Y113.536 E.04365
G1 X103.567 Y112.088 E.04365
G1 X103.94 Y110.671 E.04365
G1 X104.298 Y109.722 E.03022
G1 X104.47 Y109.977 E.00918
G1 X104.898 Y110.358 E.01706
G1 X105.364 Y110.632 E.0161
G1 X105.794 Y110.763 E.01339
G1 X106.107 Y110.803 E.00942
G1 X106.571 Y110.783 E.01381
G1 X106.882 Y110.716 E.00949
G1 X107.527 Y110.422 E.02111
G1 X107.942 Y110.057 E.01647
G1 X108.147 Y109.797 E.00983
G1 X108.448 Y109.194 E.0201
G1 X108.543 Y108.659 E.01616
G1 X108.531 Y108.274 E.01147
G1 X108.422 Y107.723 E.01673
G1 X108.184 Y107.272 E.0152
G1 X107.932 Y106.93 E.01265
G1 X107.584 Y106.624 E.01381
G1 X107.312 Y106.457 E.00949
G1 X106.882 Y106.284 E.01383
G1 X106.34 Y106.194 E.01635
G1 X106.808 Y105.603 E.02245
G1 X107.831 Y104.554 E.04365
G1 X108.956 Y103.615 E.04365
G1 X110.172 Y102.797 E.04365
G1 X111.466 Y102.108 E.04365
G1 X112.823 Y101.556 E.04365
G1 X114.231 Y101.146 E.04365
G1 X115.43 Y100.928 E.03632
G1 E-.68 F3600
;WIPE_START
G1 F3000
G1 X115.313 Y101.266 E-.04298
G1 X115.233 Y101.575 E-.03835
G1 X115.206 Y101.896 E-.03867
;WIPE_END
G1 X116.347 Y100.453 Z.6 F21000
G1 Z.2
G1 E.8 F2700
G1 F3000
G1 X116.276 Y100.506 E.00264
G1 X115.888 Y100.926 E.01705
G1 X115.657 Y101.421 E.01628
G1 X115.57 Y102.071 E.01952
G1 X115.714 Y102.738 E.02034
G1 X116.042 Y103.267 E.01853
G1 X116.227 Y103.444 E.00764
G1 X116.654 Y103.743 E.01553
G1 X117.16 Y103.902 E.01579
G1 X117.35 Y103.926 E.00569
G1 X117.941 Y103.886 E.01764
G1 X118.43 Y103.693 E.01567
G1 X118.593 Y103.593 E.00569
G1 X119.009 Y103.215 E.01675
G1 X119.288 Y102.732 E.01658
G1 X119.429 Y102.095 E.01944
G1 X119.346 Y101.424 E.02016
G1 X119.061 Y100.862 E.01878
G1 X118.628 Y100.434 E.01814
G1 X120.12 Y100.625 E.04481
G1 X121.584 Y100.97 E.04481
G1 X123.005 Y101.465 E.04481
G1 X124.367 Y102.102 E.04481
G1 X125.657 Y102.877 E.04481
G1 X126.86 Y103.78 E.04481
G1 X127.964 Y104.802 E.04481
G1 X128.958 Y105.932 E.04481
G1 X129.536 Y106.746 E.02976
G1 X129.114 Y106.597 E.01333
G1 X128.696 Y106.574 E.01246
G1 X128.101 Y106.684 E.01803
G1 X127.533 Y107.007 E.01948
G1 X127.106 Y107.499 E.01941
G1 X126.88 Y108.027 E.01709
G1 X126.828 Y108.568 E.01621
G1 X126.844 Y108.759 E.00569
G1 X126.992 Y109.297 E.01664
G1 X127.278 Y109.734 E.01555
G1 X127.434 Y109.906 E.00692
G1 X127.916 Y110.244 E.01754
G1 X128.42 Y110.402 E.01571
G1 X128.608 Y110.426 E.00566
G1 X129.258 Y110.366 E.01945
G1 X129.851 Y110.093 E.01945
G1 X130.272 Y109.709 E.01696
G1 X130.546 Y109.233 E.01637
G1 X130.67 Y108.696 E.01641
G1 X131.173 Y109.846 E.03736
G1 X131.63 Y111.279 E.04481
G1 X131.938 Y112.751 E.04481
G1 X132.098 Y114.416 E.04983
G1 X132.11 Y115.121 E.021
G1 X132.094 Y115.743 E.01854
G1 X131.938 Y117.249 E.04507
G1 X131.63 Y118.721 E.04481
G1 X131.173 Y120.154 E.04481
G1 X130.67 Y121.304 E.03736
G1 X130.546 Y120.767 E.01641
G1 X130.272 Y120.291 E.01637
G1 X129.851 Y119.907 E.01696
G1 X129.258 Y119.634 E.01946
G1 X128.873 Y119.568 E.01163
G1 X128.474 Y119.603 E.01191
G1 X128.102 Y119.683 E.01135
G1 X127.567 Y119.974 E.01813
G1 X127.213 Y120.341 E.01519
G1 X127.084 Y120.548 E.00726
G1 X126.873 Y121.059 E.01648
G1 X126.828 Y121.568 E.01524
G1 X126.844 Y121.759 E.00569
G1 X126.995 Y122.304 E.01684
G1 X127.307 Y122.777 E.01687
G1 X127.804 Y123.18 E.01908
G1 X128.418 Y123.402 E.01944
G1 X129.071 Y123.406 E.01945
G1 X129.536 Y123.254 E.01457
G1 X128.958 Y124.068 E.02976
G1 X127.964 Y125.198 E.04481
G1 X126.86 Y126.22 E.04481
G1 X125.657 Y127.123 E.04481
G1 X124.367 Y127.898 E.04481
G1 X123.005 Y128.535 E.04481
G1 X121.584 Y129.03 E.04481
G1 X120.12 Y129.375 E.04481
G1 X118.628 Y129.566 E.04481
G1 X118.941 Y129.286 E.01252
G1 X119.287 Y128.733 E.01944
G1 X119.429 Y128.096 E.01945
G1 X119.351 Y127.447 E.01945
G1 X119.061 Y126.862 E.01945
G1 X118.882 Y126.661 E.00802
G1 X118.475 Y126.327 E.01569
G1 X117.999 Y126.134 E.01528
G1 X117.541 Y126.064 E.01381
G1 X117.025 Y126.127 E.01548
G1 X116.844 Y126.183 E.00566
G1 X116.334 Y126.453 E.01717
G1 X115.969 Y126.826 E.01555
G1 X115.848 Y126.999 E.00629
G1 X115.609 Y127.606 E.01945
G1 X115.567 Y128.109 E.01502
G1 X115.709 Y128.721 E.0187
G1 X116.042 Y129.267 E.01906
G1 X116.369 Y129.549 E.01286
G1 X115.624 Y129.491 E.02226
G1 X114.144 Y129.221 E.04481
G1 X112.699 Y128.801 E.04481
G1 X111.306 Y128.234 E.04481
G1 X109.978 Y127.527 E.04481
G1 X108.73 Y126.687 E.04481
G1 X107.574 Y125.724 E.04481
G1 X106.524 Y124.646 E.04481
G1 X105.896 Y123.852 E.03016
G1 X105.464 Y123.268 E.02165
G1 X105.902 Y123.402 E.01363
G1 X106.555 Y123.406 E.01945
G1 X107.172 Y123.193 E.01946
G1 X107.683 Y122.786 E.01944
G1 X107.855 Y122.544 E.00885
G1 X108.093 Y122.053 E.01626
G1 X108.177 Y121.453 E.01805
G1 X108.093 Y120.947 E.01526
G1 X108.029 Y120.767 E.00569
G1 X107.724 Y120.254 E.01779
G1 X107.335 Y119.907 E.01552
G1 X107.172 Y119.807 E.0057
G1 X106.695 Y119.618 E.01529
G1 X106.216 Y119.569 E.01434
G1 X105.585 Y119.683 E.01909
G1 X105.094 Y119.939 E.01651
G1 X104.696 Y120.341 E.01682
G1 X104.399 Y120.921 E.01944
G1 X104.334 Y121.298 E.01139
G1 X104.111 Y120.851 E.01488
G1 X103.58 Y119.444 E.04481
G1 X103.197 Y117.989 E.04481
G1 X102.965 Y116.502 E.04481
G1 X102.888 Y115 E.04481
G1 X102.965 Y113.498 E.04481
G1 X103.197 Y112.011 E.04481
G1 X103.58 Y110.556 E.04481
G1 X104.095 Y109.189 E.04352
G1 X104.324 Y108.722 E.0155
G1 X104.444 Y109.208 E.01491
G1 X104.783 Y109.766 E.01945
G1 X105.304 Y110.188 E.01998
G1 X105.903 Y110.402 E.01895
G1 X106.241 Y110.42 E.01007
G1 X106.742 Y110.366 E.015
G1 X107.301 Y110.12 E.01819
G1 X107.691 Y109.775 E.01554
G1 X107.817 Y109.614 E.00608
G1 X108.083 Y109.099 E.01727
G1 X108.171 Y108.596 E.01522
G1 X108.171 Y108.404 E.00569
G1 X108.067 Y107.851 E.01676
G1 X107.803 Y107.362 E.01656
G1 X107.335 Y106.907 E.01945
G1 X106.741 Y106.634 E.01946
G1 X106.356 Y106.568 E.01163
G1 X105.767 Y106.627 E.01764
G1 X105.453 Y106.75 E.01003
G1 X105.591 Y106.534 E.00763
G1 X106.524 Y105.354 E.04481
G1 X107.574 Y104.276 E.04481
G1 X108.73 Y103.313 E.04481
G1 X109.978 Y102.473 E.04481
G1 X111.306 Y101.766 E.04481
G1 X112.699 Y101.199 E.04481
G1 X114.144 Y100.779 E.04481
G1 X115.624 Y100.509 E.04481
G1 X116.307 Y100.456 E.02042
G1 X116.878 Y100.051 F21000
;TYPE:Outer wall
;WIDTH:0.470346
G1 F3000
G1 X117.126 Y100.041 E.00838
G1 X117.951 Y100.048 E.02788
;WIDTH:0.442935
G1 X118.657 Y100.055 E.02229
;WIDTH:0.419999
G1 X120.187 Y100.253 E.04597
G1 X121.689 Y100.608 E.04597
G1 X123.147 Y101.115 E.04597
G1 X124.545 Y101.769 E.04597
G1 X125.868 Y102.563 E.04597
G1 X127.102 Y103.49 E.04597
G1 X128.235 Y104.538 E.04597
G1 X129.254 Y105.697 E.04597
G1 X130.037 Y106.799 E.04025
;WIDTH:0.445571
G1 X130.649 Y107.866 E.03916
;WIDTH:0.444607
G1 X130.908 Y108.298 E.01597
;WIDTH:0.419999
G1 X131.526 Y109.712 E.04597
G1 X131.995 Y111.183 E.04597
G1 X132.311 Y112.693 E.04597
G1 X132.475 Y114.407 E.05127
G1 X132.487 Y115.131 E.02157
G1 X132.47 Y115.768 E.01897
G1 X132.311 Y117.307 E.04609
G1 X131.995 Y118.817 E.04597
G1 X131.526 Y120.288 E.04597
G1 X130.889 Y121.736 E.04713
;WIDTH:0.44686
G1 X130.58 Y122.254 E.01922
;WIDTH:0.448618
G1 X130.037 Y123.201 E.03502
;WIDTH:0.419999
G1 X129.254 Y124.303 E.04025
G1 X128.235 Y125.462 E.04597
G1 X127.102 Y126.51 E.04597
G1 X125.868 Y127.437 E.04597
G1 X124.545 Y128.231 E.04597
G1 X123.147 Y128.885 E.04597
G1 X121.689 Y129.392 E.04597
G1 X120.187 Y129.747 E.04597
G1 X119.093 Y129.888 E.03287
G1 X118.416 Y129.951 E.02026
;WIDTH:0.453236
G1 X117.341 Y129.966 E.03483
;WIDTH:0.446276
G1 X116.723 Y129.954 E.0197
;WIDTH:0.419999
G1 X115.575 Y129.866 E.03429
G1 X114.057 Y129.589 E.04597
G1 X112.575 Y129.158 E.04597
G1 X111.146 Y128.576 E.04597
G1 X109.783 Y127.851 E.04597
G1 X108.503 Y126.989 E.04597
G1 X107.318 Y126.001 E.04597
G1 X106.241 Y124.895 E.04597
G1 X105.438 Y123.881 E.03852
G1 X105.045 Y123.312 E.02062
;WIDTH:0.455519
G1 X104.448 Y122.337 E.03726
;WIDTH:0.448348
G1 X104.19 Y121.853 E.01758
;WIDTH:0.419999
G1 X103.765 Y121.003 E.0283
G1 X103.22 Y119.559 E.04597
G1 X102.827 Y118.066 E.04597
G1 X102.59 Y116.541 E.04597
G1 X102.51 Y115 E.04597
G1 X102.59 Y113.459 E.04597
G1 X102.827 Y111.934 E.04597
G1 X103.22 Y110.441 E.04597
G1 X103.765 Y108.997 E.04597
G1 X104.052 Y108.422 E.01916
;WIDTH:0.462886
G1 X104.599 Y107.411 E.03814
;WIDTH:0.442321
G1 X104.881 Y106.946 E.01715
;WIDTH:0.419999
G1 X105.283 Y106.315 E.02229
G1 X106.241 Y105.105 E.04597
G1 X107.318 Y103.999 E.04597
G1 X108.503 Y103.011 E.04597
G1 X109.783 Y102.149 E.04597
G1 X111.146 Y101.424 E.04597
G1 X112.575 Y100.842 E.04597
G1 X114.057 Y100.411 E.04597
G1 X115.575 Y100.134 E.04597
G1 X116.415 Y100.069 E.0251
;WIDTH:0.445173
G1 X116.771 Y100.055 E.01129
;WIDTH:0.470346
G1 X116.838 Y100.052 E.00227
G1 E-.68 F3600
;WIPE_START
G1 F3000
G1 X117.126 Y100.041 E-.0346
G1 X117.837 Y100.047 E-.0854
;WIPE_END
G1 X124.346 Y104.034 Z.6 F21000
G1 X129.841 Y107.399 Z.6
G1 Z.2
G1 E.8 F2700
;WIDTH:0.445567
G1 F3000
G1 X130.001 Y107.539 E.00676
G1 X130.25 Y108.009 E.01692
;WIDTH:0.444607
G1 X130.316 Y108.531 E.01671
;WIDTH:0.419999
G1 X130.216 Y109.049 E.0157
G1 X129.95 Y109.503 E.01569
G1 X129.548 Y109.843 E.01569
G1 X129.056 Y110.029 E.01568
G1 X128.542 Y110.045 E.01531
G1 X128.06 Y109.894 E.01505
G1 X127.648 Y109.595 E.01514
G1 X127.352 Y109.171 E.01542
G1 X127.209 Y108.664 E.01569
G1 X127.243 Y108.138 E.01569
G1 X127.45 Y107.655 E.01567
G1 X127.805 Y107.268 E.01565
G1 X128.271 Y107.02 E.01572
G1 X128.781 Y106.943 E.01536
G1 X129.117 Y106.984 E.01008
G1 X129.602 Y107.19 E.0157
;WIDTH:0.445567
G1 X129.811 Y107.373 E.00881
