; HEADER_BLOCK_START
; generated by OrcaSlicer 2.1.1 on 2024-12-19 at 21:52:10
; total layer number: 30
; filament_density: 1.27
; filament_diameter: 1.75
; max_z_height: 2.52
; HEADER_BLOCK_END

; THUMBNAIL_BLOCK_START

;
; THUMBNAIL_BLOCK_END







; external perimeters extrusion width = 0.40mm
; perimeters extrusion width = 0.45mm
; infill extrusion width = 0.45mm
; solid infill extrusion width = 0.45mm
; top infill extrusion width = 0.38mm
; first layer extrusion width = 0.42mm

; EXECUTABLE_BLOCK_START
EXCLUDE_OBJECT_DEFINE NAME=电机架_-_镜像.STL_id_0_copy_0 CENTER=117.5,115 POLYGON=[[100.75,105],[124.25,105],[125.455,105.073],[126.643,105.291],[127.796,105.65],[128.897,106.145],[129.931,106.77],[130.881,107.515],[131.735,108.369],[132.48,109.319],[133.105,110.353],[133.6,111.454],[133.959,112.607],[134.177,113.795],[134.25,115],[134.177,116.205],[133.959,117.393],[133.6,118.546],[133.105,119.647],[132.48,120.681],[131.735,121.631],[130.881,122.485],[129.931,123.23],[128.897,123.855],[127.796,124.35],[126.643,124.709],[125.455,124.927],[124.25,125],[100.75,125],[100.75,105]]
M73 P0 R10
;TYPE:Custom
;ELEGOO NEPTUNE 4 PRO
M220 S100 ;Set the feed speed to 100%
M221 S100 ;Set the flow rate to 100%
M104 S140
M190 S70
G90
G28 ;home
G1 Z10 F300
G1 X67.5 Y0 F6000
G1 Z0 F300
M109 S240
G92 E0 ;Reset Extruder
G1 X67.5 Y0 Z0.4 F300 ;Move to start position
G1 X167.5 E30 F400 ;Draw the first line
G1 Z0.6 F120.0 ;Move to side a little
M73 P3 R10
G1 X162.5 F3000
G92 E0 ;Reset Extruder
G90
G21
M83 ; use relative distances for extrusion
; filament start gcode
M106 S0
;LAYER_CHANGE
;Z:0.2
;HEIGHT:0.2
;BEFORE_LAYER_CHANGE
G92 E0
;0.2


G1 E-.8 F3600
;AFTER_LAYER_CHANGE
;0.2
;_SET_FAN_SPEED_CHANGING_LAYER
SET_VELOCITY_LIMIT ACCEL=1000 ACCEL_TO_DECEL=500
SET_VELOCITY_LIMIT SQUARE_CORNER_VELOCITY=7
; printing object 电机架 - 镜像.STL id:0 copy 0
EXCLUDE_OBJECT_START NAME=电机架_-_镜像.STL_id_0_copy_0
G1 X104.992 Y106.064 F21000
G1 Z.4
G1 Z.2
G1 E.8 F2700
;TYPE:Inner wall
;WIDTH:0.419999
G1 F3000
G1 X124.218 Y106.064 E.57268
G1 X125.327 Y106.131 E.03309
G1 X126.388 Y106.326 E.03213
G1 X127.418 Y106.647 E.03213
G1 X128.402 Y107.089 E.03213
G1 X129.325 Y107.648 E.03213
G1 X130.174 Y108.313 E.03213
G1 X130.937 Y109.076 E.03214
G1 X131.602 Y109.925 E.03213
G1 X132.161 Y110.848 E.03213
G1 X132.603 Y111.832 E.03214
G1 X132.924 Y112.862 E.03213
G1 X133.075 Y113.686 E.02497
G1 X133.141 Y114.292 E.01813
G1 X133.18 Y115.064 E.02304
G1 X133.119 Y116.077 E.03022
G1 X132.924 Y117.138 E.03213
G1 X132.603 Y118.168 E.03213
G1 X132.161 Y119.152 E.03213
G1 X131.602 Y120.075 E.03213
G1 X130.937 Y120.924 E.03213
G1 X130.174 Y121.687 E.03214
G1 X129.325 Y122.352 E.03213
G1 X128.402 Y122.911 E.03213
G1 X127.418 Y123.353 E.03214
G1 X126.388 Y123.674 E.03213
G1 X125.327 Y123.869 E.03213
G1 X124.218 Y123.936 E.03309
G1 X105.002 Y123.936 E.57237
G1 X105.246 Y123.755 E.00904
G1 X105.567 Y123.421 E.01381
G1 X105.746 Y123.157 E.00949
G1 X105.937 Y122.734 E.01381
G1 X106.017 Y122.425 E.00952
G1 X106.056 Y121.96 E.01387
G1 X106.041 Y121.699 E.00779
G1 X105.903 Y121.177 E.01609
G1 X105.711 Y120.801 E.01257
G1 X105.351 Y120.333 E.0176
G1 X104.928 Y120.017 E.01572
G1 X104.681 Y119.886 E.00835
G1 X104.2 Y119.738 E.01499
G1 X103.707 Y119.689 E.01474
G1 X103.037 Y119.806 E.02026
G1 X102.744 Y119.924 E.00941
G1 X102.349 Y120.167 E.01381
G1 X102.11 Y120.378 E.00949
G1 X101.817 Y120.738 E.01383
G1 X101.817 Y109.263 E.3418
G1 X102.11 Y109.622 E.01381
G1 X102.349 Y109.833 E.00949
G1 X102.744 Y110.076 E.01381
G1 X103.04 Y110.195 E.00949
G1 X103.493 Y110.292 E.01381
G1 X103.812 Y110.306 E.00949
G1 X104.511 Y110.183 E.02115
G1 X104.99 Y109.945 E.01594
G1 X105.246 Y109.755 E.00949
G1 X105.64 Y109.336 E.01713
G1 X105.873 Y108.874 E.0154
G1 X106.012 Y108.468 E.01279
G1 X106.056 Y107.96 E.01518
G1 X106.027 Y107.637 E.00969
G1 X105.903 Y107.177 E.01418
G1 X105.772 Y106.892 E.00934
G1 X105.52 Y106.521 E.01337
G1 X105.301 Y106.293 E.00941
G1 X105.024 Y106.088 E.01026
G1 E-.68 F3600
;WIPE_START
G1 F3000
G1 X106.024 Y106.087 E-.12
;WIPE_END
G1 X113.331 Y108.29 Z.6 F21000
G1 X130.456 Y113.454 Z.6
G1 Z.2
G1 E.8 F2700
G1 F3000
G1 X130.52 Y113.521 E.00276
G1 X130.772 Y113.892 E.01337
G1 X130.948 Y114.345 E.01447
G1 X131.058 Y114.825 E.01466
G1 X131.017 Y115.425 E.01791
G1 X130.937 Y115.734 E.00952
G1 X130.702 Y116.241 E.01665
G1 X130.291 Y116.709 E.01854
G1 X129.989 Y116.946 E.01144
G1 X129.449 Y117.206 E.01785
G1 X128.812 Y117.306 E.01921
G1 X128.493 Y117.292 E.00949
G1 X127.939 Y117.167 E.01692
G1 X127.437 Y116.888 E.01711
G1 X127.127 Y116.637 E.01189
G1 X126.742 Y116.15 E.01847
G1 X126.509 Y115.546 E.01929
G1 X126.455 Y115.224 E.00971
G1 X126.459 Y114.688 E.01597
G1 X126.661 Y114.023 E.0207
G1 X126.818 Y113.739 E.00967
G1 X127.166 Y113.315 E.01633
G1 X127.744 Y112.924 E.0208
G1 X128.037 Y112.806 E.00941
G1 X128.632 Y112.69 E.01805
G1 X129.2 Y112.738 E.01697
G1 X129.867 Y112.975 E.0211
G1 X130.301 Y113.293 E.01602
G1 X130.428 Y113.425 E.00547
G1 X130.22 Y113.783 F21000
G1 F3000
G1 X130.424 Y114.05 E.01
G1 X130.539 Y114.275 E.00755
G1 X130.681 Y114.847 E.01757
G1 X130.641 Y115.393 E.0163
G1 X130.593 Y115.579 E.00571
G1 X130.376 Y116.052 E.01551
G1 X130.019 Y116.448 E.01588
G1 X129.819 Y116.609 E.00765
G1 X129.33 Y116.849 E.01621
G1 X128.764 Y116.932 E.01705
G1 X128.39 Y116.884 E.01121
G1 X127.943 Y116.755 E.01385
G1 X127.509 Y116.486 E.01522
G1 X127.115 Y116.028 E.018
G1 X127.016 Y115.849 E.00609
G1 X126.849 Y115.367 E.01521
G1 X126.832 Y114.776 E.01761
G1 X126.864 Y114.58 E.00591
G1 X127.065 Y114.044 E.01703
G1 X127.404 Y113.615 E.0163
G1 X127.644 Y113.429 E.00904
G1 X128.118 Y113.174 E.01603
G1 X128.65 Y113.066 E.01618
G1 X129.089 Y113.098 E.01312
G1 X129.667 Y113.295 E.01819
G1 X130.077 Y113.596 E.01514
G1 X130.195 Y113.751 E.00582
G1 X129.946 Y114.021 F21000
;TYPE:Outer wall
G1 F3000
G1 X130.175 Y114.373 E.01252
G1 X130.305 Y114.87 E.01531
G1 X130.261 Y115.389 E.01552
G1 X130.05 Y115.863 E.01544
G1 X129.702 Y116.233 E.01512
G1 X129.237 Y116.48 E.01571
G1 X128.682 Y116.559 E.01669
G1 X128.179 Y116.452 E.01533
G1 X127.74 Y116.188 E.01525
G1 X127.407 Y115.789 E.01549
G1 X127.22 Y115.295 E.01573
G1 X127.209 Y114.776 E.01547
G1 X127.372 Y114.274 E.0157
G1 X127.697 Y113.852 E.01588
G1 X128.14 Y113.566 E.01569
G1 X128.637 Y113.447 E.01523
G1 X128.979 Y113.459 E.01019
G1 X129.467 Y113.615 E.01528
G1 X129.896 Y113.945 E.01611
G1 X129.924 Y113.987 E.0015
G1 E-.68 F3600
;WIPE_START
G1 F3000
G1 X130.175 Y114.373 E-.05525
G1 X130.305 Y114.87 E-.06166
G1 X130.303 Y114.896 E-.00309
;WIPE_END
G1 X122.825 Y116.424 Z.6 F21000
G1 X114.43 Y118.139 Z.6
G1 Z.2
G1 E.8 F2700
;TYPE:Inner wall
G1 F3000
G1 X114.723 Y118.63 E.01703
G1 X114.831 Y118.933 E.00959
G1 X114.912 Y119.432 E.01506
G1 X114.831 Y120.066 E.01904
G1 X114.725 Y120.367 E.00949
G1 X114.524 Y120.727 E.0123
G1 X114.324 Y120.975 E.00948
G1 X114.014 Y121.248 E.01228
G1 X113.743 Y121.415 E.0095
G1 X113.17 Y121.623 E.01815
G1 X112.635 Y121.654 E.01598
G1 X112.319 Y121.613 E.00949
G1 X111.924 Y121.492 E.0123
G1 X111.641 Y121.351 E.00941
G1 X111.319 Y121.114 E.01191
G1 X111.101 Y120.888 E.00935
G1 X110.781 Y120.399 E.01739
G1 X110.62 Y119.841 E.01731
G1 X110.593 Y119.523 E.0095
G1 X110.661 Y118.933 E.0177
G1 X110.88 Y118.427 E.01644
G1 X111.062 Y118.129 E.01037
G1 X110.457 Y117.726 E.02168
G1 X110.029 Y117.299 E.01798
G1 X109.68 Y116.807 E.01798
G1 X109.462 Y116.357 E.0149
G1 X109.254 Y115.681 E.02107
G1 X109.189 Y115.08 E.018
G1 X109.227 Y114.477 E.018
G1 X109.366 Y113.889 E.018
G1 X109.602 Y113.333 E.018
G1 X109.982 Y112.754 E.02062
G1 X110.337 Y112.38 E.01538
G1 X110.775 Y112.039 E.01651
G1 X111.081 Y111.861 E.01057
G1 X110.749 Y111.32 E.01892
G1 X110.606 Y110.775 E.01677
G1 X110.628 Y110.112 E.01975
M73 P4 R10
G1 X110.708 Y109.804 E.00948
G1 X110.878 Y109.428 E.01228
G1 X111.057 Y109.164 E.0095
G1 X111.343 Y108.865 E.01232
G1 X111.599 Y108.676 E.00949
G1 X112.229 Y108.403 E.02046
G1 X112.789 Y108.337 E.01678
G1 X113.358 Y108.431 E.01719
G1 X113.742 Y108.585 E.01232
G1 X114.013 Y108.752 E.00949
G1 X114.324 Y109.025 E.0123
G1 X114.523 Y109.272 E.00948
G1 X114.794 Y109.787 E.01732
G1 X114.901 Y110.341 E.01679
G1 X114.89 Y110.724 E.01143
G1 X114.753 Y111.313 E.018
G1 X114.43 Y111.861 E.01895
G1 X114.882 Y112.143 E.01587
G1 X115.266 Y112.478 E.01517
G1 X115.656 Y112.94 E.018
G1 X115.962 Y113.46 E.018
G1 X116.174 Y114.02 E.01782
G1 X116.291 Y114.616 E.01811
G1 X116.305 Y115.224 E.01812
G1 X116.216 Y115.82 E.01793
G1 X116.049 Y116.336 E.01615
G1 X115.745 Y116.928 E.01982
G1 X115.417 Y117.356 E.01605
G1 X114.93 Y117.817 E.02
G1 X114.464 Y118.117 E.01652
G1 X113.753 Y118.014 F21000
G1 F3000
G1 X114.134 Y118.372 E.01556
G1 X114.395 Y118.815 E.01532
G1 X114.519 Y119.342 E.01611
G1 X114.529 Y119.596 E.00757
G1 X114.437 Y120.09 E.01498
G1 X114.194 Y120.543 E.01532
G1 X113.765 Y120.965 E.01792
G1 X113.218 Y121.219 E.01796
G1 X112.619 Y121.277 E.01794
G1 X112.034 Y121.132 E.01794
G1 X111.543 Y120.81 E.01751
G1 X111.17 Y120.324 E.01824
G1 X111.006 Y119.827 E.01557
G1 X110.969 Y119.556 E.00818
G1 X111.024 Y119.037 E.01554
G1 X111.238 Y118.554 E.01574
G1 X111.625 Y118.126 E.01718
G1 X111.776 Y118.018 E.00554
G1 X111.522 Y117.937 E.00796
G1 X111.039 Y117.687 E.01618
G1 X110.635 Y117.385 E.01504
G1 X110.275 Y117.009 E.0155
G1 X109.992 Y116.595 E.01492
G1 X109.762 Y116.106 E.0161
G1 X109.618 Y115.586 E.0161
G1 X109.565 Y115.048 E.0161
G1 X109.602 Y114.509 E.0161
G1 X109.731 Y113.984 E.0161
G1 X109.946 Y113.488 E.0161
G1 X110.273 Y112.994 E.01767
G1 X110.644 Y112.607 E.01594
G1 X111.123 Y112.261 E.01762
G1 X111.623 Y112.024 E.01646
G1 X111.79 Y111.978 E.00518
G1 X111.403 Y111.663 E.01484
G1 X111.104 Y111.193 E.0166
G1 X110.976 Y110.706 E.01499
G1 X111.004 Y110.144 E.01677
G1 X111.145 Y109.755 E.01234
G1 X111.329 Y109.425 E.01125
G1 X111.769 Y109.013 E.01796
G1 X112.294 Y108.775 E.01719
G1 X112.855 Y108.718 E.01677
G1 X113.218 Y108.78 E.01097
G1 X113.764 Y109.035 E.01796
G1 X114.194 Y109.456 E.01793
G1 X114.437 Y109.909 E.01531
G1 X114.529 Y110.404 E.015
G1 X114.518 Y110.66 E.00763
G1 X114.413 Y111.15 E.01493
G1 X114.134 Y111.628 E.01648
G1 X113.75 Y111.964 E.01518
G1 X114.225 Y112.177 E.0155
G1 X114.653 Y112.443 E.01499
G1 X115.037 Y112.781 E.01525
G1 X115.362 Y113.176 E.01526
G1 X115.633 Y113.644 E.0161
G1 X115.819 Y114.145 E.01592
G1 X115.92 Y114.68 E.01621
G1 X115.928 Y115.224 E.01622
G1 X115.845 Y115.756 E.01603
G1 X115.672 Y116.268 E.0161
G1 X115.416 Y116.744 E.0161
G1 X115.084 Y117.168 E.01604
G1 X114.681 Y117.534 E.01622
G1 X114.225 Y117.823 E.01607
G1 X113.791 Y117.999 E.01396
G1 X113.031 Y117.759 F21000
;TYPE:Outer wall
;WIDTH:0.422548
G1 F3000
G1 X112.995 Y117.764 E.0011
;WIDTH:0.440188
G1 X112.151 Y117.734 E.0265
;WIDTH:0.427668
G1 X111.69 Y117.6 E.0146
;WIDTH:0.419999
G1 X111.204 Y117.34 E.0164
G1 X110.881 Y117.098 E.01204
G1 X110.554 Y116.753 E.01416
G1 X110.289 Y116.356 E.01419
G1 X110.095 Y115.921 E.0142
G1 X109.978 Y115.459 E.0142
G1 X109.94 Y114.984 E.0142
G1 X109.983 Y114.509 E.0142
G1 X110.106 Y114.049 E.0142
G1 X110.302 Y113.62 E.01403
G1 X110.574 Y113.222 E.01436
G1 X110.906 Y112.88 E.0142
G1 X111.435 Y112.527 E.01895
G1 X111.723 Y112.387 E.00954
;WIDTH:0.433373
G1 X112.262 Y112.253 E.01712
G1 X112.995 Y112.236 E.02262
;WIDTH:0.422675
G1 X113.496 Y112.306 E.01517
;WIDTH:0.419999
G1 X113.997 Y112.484 E.01583
G1 X114.434 Y112.75 E.01523
G1 X114.831 Y113.118 E.01612
G1 X115.087 Y113.44 E.01224
G1 X115.338 Y113.916 E.01602
G1 X115.473 Y114.307 E.01235
G1 X115.551 Y114.776 E.01413
G1 X115.548 Y115.256 E.01432
G1 X115.462 Y115.732 E.01439
G1 X115.304 Y116.172 E.01393
G1 X115.069 Y116.587 E.0142
G1 X114.769 Y116.954 E.01414
G1 X114.406 Y117.27 E.01433
G1 X113.997 Y117.516 E.0142
G1 X113.495 Y117.694 E.01586
;WIDTH:0.422548
G1 X113.071 Y117.753 E.01286
G1 E-.68 F3600
;WIPE_START
G1 F3000
G1 X112.995 Y117.764 E-.00922
G1 X112.151 Y117.734 E-.10134
G1 X112.075 Y117.712 E-.00944
;WIPE_END
G1 X111.353 Y110.547 Z.6 F21000
G1 Z.2
G1 E.8 F2700
;WIDTH:0.419999
G1 F3000
G1 X111.391 Y110.125 E.01261
G1 X111.601 Y109.686 E.01449
G1 X111.939 Y109.349 E.0142
G1 X112.368 Y109.145 E.01416
G1 X112.811 Y109.093 E.01329
G1 X113.077 Y109.13 E.00801
G1 X113.515 Y109.318 E.0142
G1 X113.865 Y109.64 E.01417
G1 X114.088 Y110.06 E.01416
G1 X114.158 Y110.532 E.0142
G1 X114.066 Y111 E.0142
G1 X113.816 Y111.414 E.01442
G1 X113.448 Y111.71 E.01407
;WIDTH:0.422675
G1 X112.995 Y111.857 E.01429
;WIDTH:0.440094
G1 X112.394 Y111.849 E.01884
G1 X112.099 Y111.733 E.00994
;WIDTH:0.419999
G1 X111.714 Y111.45 E.01422
G1 X111.455 Y111.051 E.01418
G1 X111.346 Y110.63 E.01296
G1 X111.35 Y110.586 E.00131
G1 E-.68 F3600
;WIPE_START
G1 F3000
G1 X111.391 Y110.125 E-.0556
G1 X111.601 Y109.686 E-.05839
G1 X111.637 Y109.65 E-.00601
;WIPE_END
G1 X112.658 Y117.214 Z.6 F21000
G1 X113.147 Y120.833 Z.6
G1 Z.2
G1 E.8 F2700
G1 F3000
G1 X113.015 Y120.883 E.00418
G1 X112.54 Y120.892 E.01418
G1 X112.088 Y120.743 E.01416
G1 X111.722 Y120.461 E.01376
G1 X111.454 Y120.051 E.0146
G1 X111.345 Y119.588 E.01418
G1 X111.386 Y119.14 E.01338
G1 X111.604 Y118.685 E.01504
G1 X111.948 Y118.352 E.01427
;WIDTH:0.440188
G1 X112.394 Y118.151 E.01534
G1 X112.994 Y118.143 E.01883
;WIDTH:0.422548
G1 X113.496 Y118.316 E.01594
;WIDTH:0.419999
G1 X113.863 Y118.641 E.0146
G1 X114.088 Y119.061 E.01419
G1 X114.158 Y119.532 E.01418
G1 X114.067 Y119.999 E.01418
G1 X113.825 Y120.409 E.01417
G1 X113.462 Y120.715 E.01416
G1 X113.184 Y120.819 E.00882
G1 E-.68 F3600
;WIPE_START
G1 F3000
G1 X113.015 Y120.883 E-.02165
G1 X112.54 Y120.892 E-.05711
G1 X112.213 Y120.784 E-.04124
;WIPE_END
G1 X104.784 Y122.532 Z.6 F21000
G1 X101.809 Y123.232 Z.6
G1 Z.2
G1 E.8 F2700
;TYPE:Inner wall
;WIDTH:0.409274
G1 F3000
G1 X102.131 Y123.639 E.01502
G1 X102.536 Y123.941 E.01462
G1 X101.809 Y123.941 E.02104
G1 X101.809 Y123.272 E.01935
G1 E-.68 F3600
;WIPE_START
G1 F3000
G1 X102.131 Y123.639 E-.05858
G1 X102.536 Y123.941 E-.06062
G1 X102.529 Y123.941 E-.0008
;WIPE_END
G1 X103.505 Y120.102 Z.6 F21000
G1 Z.2
G1 E.8 F2700
;WIDTH:0.419999
G1 F3000
G1 X103.695 Y120.066 E.00578
G1 X104.089 Y120.098 E.01178
G1 X104.533 Y120.234 E.01383
G1 X104.978 Y120.523 E.01579
G1 X105.208 Y120.733 E.00928
G1 X105.503 Y121.178 E.0159
G1 X105.663 Y121.735 E.01725
G1 X105.68 Y121.929 E.00581
G1 X105.593 Y122.579 E.01953
G1 X105.295 Y123.16 E.01945
G1 X104.82 Y123.608 E.01945
;WIDTH:0.455166
G1 X104.252 Y123.886 E.02059
G1 X103.692 Y123.936 E.01833
;WIDTH:0.419999
G1 X103.119 Y123.826 E.01737
G1 X102.547 Y123.511 E.01945
G1 X102.112 Y123.024 E.01945
;WIDTH:0.429999
G1 X101.86 Y122.422 E.01997
G1 X101.828 Y122.232 E.00589
;WIDTH:0.451417
G1 X101.85 Y121.575 E.02122
G1 X102.112 Y120.976 E.02108
;WIDTH:0.419999
G1 X102.547 Y120.489 E.01947
G1 X103.118 Y120.174 E.0194
G1 X103.465 Y120.109 E.01053
G1 X103.559 Y120.466 F21000
;TYPE:Outer wall
G1 F3000
G1 X103.637 Y120.447 E.00237
G1 X103.979 Y120.459 E.01019
G1 X104.423 Y120.595 E.01383
G1 X104.853 Y120.899 E.01569
G1 X105.149 Y121.316 E.01523
G1 X105.299 Y121.833 E.01602
G1 X105.266 Y122.361 E.01579
G1 X105.058 Y122.846 E.01569
G1 X104.702 Y123.233 E.01569
G1 X104.237 Y123.48 E.01569
G1 X103.716 Y123.558 E.01569
G1 X103.199 Y123.457 E.01569
G1 X102.745 Y123.19 E.01569
G1 X102.406 Y122.788 E.01569
G1 X102.22 Y122.295 E.01569
G1 X102.209 Y121.768 E.01569
G1 X102.374 Y121.269 E.01567
G1 X102.697 Y120.852 E.01571
G1 X103.14 Y120.566 E.01569
G1 X103.521 Y120.475 E.01167
G1 E-.68 F3600
;WIPE_START
G1 F3000
G1 X103.637 Y120.447 E-.01436
G1 X103.979 Y120.459 E-.04106
G1 X104.423 Y120.595 E-.05572
G1 X104.483 Y120.637 E-.00886
;WIPE_END
G1 X103.473 Y113.072 Z.6 F21000
G1 X102.536 Y106.059 Z.6
G1 Z.2
G1 E.8 F2700
;TYPE:Inner wall
;WIDTH:0.409274
G1 F3000
G1 X102.131 Y106.361 E.01462
G1 X101.809 Y106.767 E.01501
G1 X101.809 Y106.059 E.02051
G1 X102.496 Y106.059 E.01989
G1 X103.457 Y106.108 F21000
;WIDTH:0.420718
G1 F3000
G1 X103.677 Y106.065 E.0067
;WIDTH:0.441638
G1 X104.092 Y106.088 E.0131
G1 X104.704 Y106.32 E.02061
;WIDTH:0.419999
G1 X105.208 Y106.733 E.0194
G1 X105.539 Y107.275 E.01892
G1 X105.68 Y107.929 E.01992
G1 X105.633 Y108.452 E.01566
