;FLAVOR:Marlin
;TIME:2866
;Filament used:0.917893m
;Layer height: 0.1
;MINX:89.501
;MINY:92.35
;MINZ:0.24
;MAXX:130.499
;MAXY:131.74
;MAXZ:8.89
                              
;Creality Print GCode Generated by CXEngine:NO_MAGE_VERSION_GIT_HEAD_BRANCH
;CXEngine Release Time:2022-09-30 09:53:04
;Gcode Generated Time:2023-05-20 00:12:13
;----------Machine Config--------------
;Machine Name:Ender-3 V2
;Machine Height:250
;Machine Width:220
;Machine Depth:220
;Material name:PLA
;Number of Extruders:1
;ExtruderParams[0] Nozzle Diameter1000
;----------Profile Config---------------
;Engine Version:275f99b
;Engine Release Time:2022-09-30 09:42:18
;Layer Height:0.1
;Wall Thickness:0.8
;Top/Bottom Thickness:0.5
;Out Wall Line Width:0.4
;Inner Wall Line Width:0.4
;Inital Layer Height:100
;Wall Line Count:2
;Infill Line Distance:4
;Infill Pattern:grid
;Infill Sparse Density:20
;Infill Wipe Distance:0
;Print Temperature:200
;Bed Temperature:60
;Support Enable:true
;Support Density:0
;Support Angle:60
;Adhesion Type:simpleraft
;machine is belt:false
;machine belt offset:10
;machine belt offset Y:0
;Raft Base Line Spacing:1.6
;Wait Heatup Sync:true
;----------Shell Config----------------
;Outer Wall Wipe Distance:200
;Outer Inset First:false
;Infill Before Walls:false
;Infill Overlap:0.16
;Fill Gaps Between Walls:everywhere
;Minimum Infill Area:1
;Top Surface Skin Layer:0
;Top Layers:4
;Z Seam Alignment:sharpest_corner
;Seam Corner Preference:z_seam_corner_inner
;Z Seam X:110
;Z Seam Y:110
;Horizontal Expansion:0
;Top/Bottom Pattern:zigzag
;Ironing Pattern:zigzag
;Vase Model:false
;----------Support Config----------------
;Support Type:everywhere
;Support Pattern:zigzag
;Support Infill Layer Thickness:0.1
;Minimum Support Area:5
;Enable Support Roof:false
;Support Roof Thickness:0.8
;Support Roof Pattern:lines
;Connect Support Lines:0
;Connect Support ZigZags:1
;Minimum Support X/Y Distance:0.2
;Support Line Distance:0
; ---------PrintSpeed & Travel----------
;Enable Print Cool:true
;Avoid Printed Parts Traveling:true
;Enable Retraction:true
;Retraction Distance:8
;Retraction Speed:100
;Retraction Prime Speed:100
;Maximum Retraction Count:100
;Minimum Extrusion Distance Window:1
;Z Hop When Retracted:false
;Z Hop Height:0.2
;Retract Before Outer Wall:true
;Print Speed:50
;Infill Speed:50

;Prime Tower Speed:50
;Travel Speed:120
;Initial Layer Speed:25
;Skirt/Brim Speed:25
;Combing Mode:infill
; --------SpecialModel&Mesh Fixes--------
;Union Overlapping Volum:true
;Remove All Holes:false
;Maximum Travel Resolution:0.6
;Maximum Deviation:0.05
;Maximum Model Angle:0.872665
;IS Mold Print:false
;Make Overhang Printable:false
;Enable Coasting:false
;Coasting Volumes:0.06
;Coasting Speed:0.9
;Raft AirGap:0.25
;Layer0 ZOverLap:0.13
;---------------------End of Head--------------------------
M140 S60
M105
M104 S200
M105
M109 S200
M105
M190 S60
M82 ;absolute extrusion mode
M220 S100 ;Reset Feedrate
M221 S100 ;Reset Flowrate

G28 ;Home

G92 E0 ;Reset Extruder
G1 Z2.0 F3000 ;Move Z Axis up
G1 X10.1 Y20 Z0.28 F5000.0 ;Move to start position
G1 X10.1 Y145.0 Z0.28 F1500.0 E15 ;Draw the first line
G1 X10.4 Y145.0 Z0.28 F5000.0 ;Move to side a little
G1 X10.4 Y20 Z0.28 F1500.0 E30 ;Draw the second line
G92 E0  ;Reset Extruder
G1 E-1.0000 F1800 ;Retract a bit
G1 Z2.0 F3000 ;Move Z Axis up
G1 E0.0000 F1800 

G92 E0
G92 E0
G1 F6000 E-8

;LAYER_COUNT:80

;LAYER:-4
M107
G0 F7200 X91.2 Y97.936 Z0.24
;TYPE:SUPPORT-INTERFACE
G1 F6000 E0
G1 F1200 X91.2 Y122.074 E1.9268
G1 X90.896 Y121.465 E1.98113
G1 X90.587 Y120.668 E2.04937
G1 X90.361 Y119.884 E2.1145
G1 X90.204 Y119.077 E2.18012
G1 X90.12 Y118.282 E2.24394
G1 X90.1 Y102.363 E3.51466
G1 X90.149 Y101.358 E3.59498
G1 X90.272 Y100.526 E3.66212
G1 X90.46 Y99.735 E3.72702
G1 X90.717 Y98.966 E3.79174
G1 X91.046 Y98.217 E3.85704
G1 X91.457 Y97.468 E3.92524
G1 X91.919 Y96.785 E3.99106
G1 X92.419 Y96.167 E4.05452
G1 X92.8 Y95.764 E4.09879
G1 X92.8 Y124.241 E6.37194
G1 X92.803 Y124.245 E6.37234
G1 X93.317 Y124.731 E6.42881
G1 X93.935 Y125.231 E6.49226
G1 X94.4 Y125.545 E6.53705
G1 X94.4 Y94.451 E9.01911
G1 X94.955 Y94.11 E9.07111
G1 X95.685 Y93.746 E9.13622
G1 X96 Y93.623 E9.16321
G1 X96 Y126.381 E11.7781
G1 X96.108 Y126.429 E11.78753
G1 X96.881 Y126.688 E11.85261
G1 X97.6 Y126.859 E11.9116
G1 X97.6 Y93.145 E14.6028
G1 X98.073 Y93.054 E14.64125
G1 X98.861 Y92.971 E14.7045
G1 X99.2 Y92.959 E14.73158
G1 X99.2 Y127.037 E17.45183
G1 X99.37 Y127.047 E17.46542
G1 X100.8 Y127.048 E17.57957
G1 X100.8 Y92.951 E20.30134
G1 X102.4 Y92.951 E20.42906
G1 X102.4 Y127.057 E23.15155
G1 X103.238 Y127.128 E23.21868
G1 X103.959 Y127.297 E23.2778
G1 X104 Y127.312 E23.28128
G1 X104 Y92.951 E26.02412
G1 X105.6 Y92.951 E26.15184
G1 X105.6 Y128.108 E28.95823
G1 X105.876 Y128.302 E28.98516
G1 X106.611 Y128.885 E29.06004
G1 X107.2 Y129.293 E29.11724
G1 X107.2 Y92.952 E32.01813
G1 X108.8 Y92.952 E32.14585
G1 X108.8 Y130.258 E35.12378
G1 X109.392 Y130.519 E35.17542
G1 X110.165 Y130.778 E35.2405
G1 X110.4 Y130.834 E35.25978
G1 X110.4 Y92.952 E38.28369
G1 X112 Y92.952 E38.41141
G1 X112 Y131.1 E41.45655
G1 X112.788 Y131.14 E41.51953
G1 X113.6 Y131.122 E41.58436
G1 X113.6 Y92.953 E44.63118
G1 X115.2 Y92.953 E44.75889
G1 X115.2 Y130.994 E47.79549
G1 X115.977 Y130.823 E47.859
G1 X116.754 Y130.579 E47.92401
G1 X116.8 Y130.56 E47.92798
G1 X116.8 Y92.953 E50.92994
G1 X118.4 Y92.953 E51.05765
G1 X118.4 Y129.778 E53.99719
G1 X119.068 Y129.34 E54.06095
G1 X120 Y128.631 E54.15442
G1 X120 Y92.953 E57.0024
G1 X120.63 Y92.953 E57.05269
G1 X121.488 Y92.999 E57.12127
G1 X121.6 Y93.016 E57.13032
G1 X121.6 Y127.35 E59.87101
G1 X121.645 Y127.318 E59.87541
G1 X122.3 Y126.976 E59.9344
G1 X123.2 Y126.672 E60.01023
G1 X123.2 Y93.34 E62.67093
G1 X123.887 Y93.569 E62.72874
G1 X124.633 Y93.896 E62.79375
G1 X124.8 Y93.988 E62.80897
G1 X124.8 Y126.013 E65.36535
G1 X125.045 Y125.89 E65.38723
G1 X125.737 Y125.464 E65.4521
G1 X126.394 Y124.974 E65.51752
G1 X126.4 Y124.969 E65.51815
G1 X126.4 Y95.041 E67.90713
G1 X126.683 Y95.269 E67.93614
G1 X127.203 Y95.761 E67.99328
G1 X127.828 Y96.46 E68.06813
G1 X128 Y96.691 E68.09112
G1 X128 Y123.316 E70.21644
G1 X128.081 Y123.215 E70.22678
G1 X128.543 Y122.532 E70.2926
G1 X128.954 Y121.783 E70.3608
G1 X129.283 Y121.034 E70.4261
G1 X129.539 Y120.266 E70.49072
G1 X129.728 Y119.472 E70.55587
G1 X129.852 Y118.631 E70.62373
G1 X129.897 Y117.782 E70.6916
G1 X129.9 Y102.297 E71.92767
G1 X129.879 Y101.707 E71.9748
G1 X129.796 Y100.923 E72.03773
G1 X129.639 Y100.116 E72.10336
G1 X129.6 Y99.981 E72.11458
G1 X129.6 Y120.01 E73.71338
G0 F600 X129.6 Y120.01 Z0.47
G0 F7200 X129.453 Y98.34
;TIME_ELAPSED:51.888484

;LAYER:-3
;TYPE:SUPPORT
G1 F1800 X124.525 Y93.412 E74.24651
G1 X124.817 Y93.54 E74.2709
G1 X125.582 Y93.96 E74.33766
G1 X126.309 Y94.451 E74.40477
G1 X126.948 Y94.968 E74.46765
G1 X127.488 Y95.479 E74.52452
G1 X128.139 Y96.207 E74.59923
G1 X128.647 Y96.89 E74.66435
G1 X129.09 Y97.61 E74.72902
G1 X129.472 Y98.377 E74.79457
G1 X129.791 Y99.199 E74.86202
G1 X130.03 Y100.028 E74.92802
G1 X130.101 Y100.403 E74.95721
G1 X122.436 Y92.737 E75.78651
G1 X122.397 Y92.728 E75.78957
G1 X121.535 Y92.601 E75.85622
G1 X120.849 Y92.565 E75.90877
G1 X130.29 Y102.005 E76.93009
G1 X130.3 Y102.297 E76.95244
G1 X130.299 Y103.429 E77.03904
G1 X119.423 Y92.553 E78.21566
G1 X118.009 Y92.553 E78.32383
G1 X130.299 Y104.843 E79.65342
G1 X130.298 Y106.256 E79.76151
G1 X116.594 Y92.553 E81.24402
G1 X115.179 Y92.552 E81.35227
G1 X130.298 Y107.671 E82.98792
G1 X130.298 Y109.085 E83.09609
G1 X113.765 Y92.552 E84.88471
G1 X112.351 Y92.552 E84.99288
G1 X130.297 Y110.498 E86.93436
G1 X130.297 Y111.913 E87.04261
G1 X110.937 Y92.552 E89.13712
G1 X109.522 Y92.551 E89.24537
G1 X130.297 Y113.327 E91.49297
G1 X130.297 Y114.74 E91.60106
G1 X108.108 Y92.551 E94.00157
G1 X106.693 Y92.551 E94.10982
G1 X130.297 Y116.155 E96.66342
G1 X130.297 Y117.569 E96.77158
G1 X105.279 Y92.551 E99.47816
G1 X103.864 Y92.551 E99.5864
G1 X130.216 Y118.902 E102.43724
G1 X130.122 Y119.545 E102.48695
G1 X129.991 Y120.092 E102.52997
G1 X102.45 Y92.551 E105.5095
G1 X101.036 Y92.551 E105.61767
G1 X129.657 Y121.172 E108.71403
G1 X129.655 Y121.182 E108.71481
G1 X129.31 Y121.967 E108.7804
G1 X129.213 Y122.142 E108.79571
G1 X99.622 Y92.551 E111.99701
G1 X99.454 Y92.55 E112.00986
G1 X98.834 Y92.571 E112.05732
G1 X98.285 Y92.628 E112.09954
G1 X128.687 Y123.03 E115.38858
G1 X128.399 Y123.459 E115.42811
G1 X128.086 Y123.844 E115.46606
G1 X97.088 Y92.845 E118.81963
G1 X96.345 Y93.06 E118.8788
G1 X96.016 Y93.188 E118.90581
G1 X127.417 Y124.589 E122.30293
G1 X127.372 Y124.637 E122.30796
G1 X126.673 Y125.259 E122.37954
G1 X95.036 Y93.622 E125.80218
G1 X94.754 Y93.763 E125.8263
G1 X94.14 Y94.14 E125.88142
G1 X125.858 Y125.858 E129.31283
G1 X125.246 Y126.237 E129.3679
G1 X124.962 Y126.376 E129.39208
G1 X93.325 Y94.739 E132.81473
G1 X92.629 Y95.362 E132.88619
G1 X92.581 Y95.409 E132.89133
G1 X123.982 Y126.811 E136.2885
G1 X123.656 Y126.939 E136.31529
G1 X122.938 Y127.18 E136.37323
G1 X91.912 Y96.155 E139.72972
G1 X91.601 Y96.541 E139.76764
G1 X91.311 Y96.968 E139.80713
G1 X121.951 Y127.608 E143.12191
G1 X121.853 Y127.661 E143.13043
G1 X121.295 Y128.05 E143.18247
G1 X121.127 Y128.198 E143.1996
G1 X90.786 Y97.857 E146.48204
G1 X90.69 Y98.033 E146.49737
G1 X90.345 Y98.818 E146.56297
G1 X90.341 Y98.826 E146.56365
G1 X120.366 Y128.851 E149.8119
G1 X119.563 Y129.463 E149.88914
G1 X90.007 Y99.907 E153.08665
G1 X89.878 Y100.453 E153.12957
G1 X89.782 Y101.096 E153.17931
G1 X118.727 Y130.041 E156.31072
G1 X118.453 Y130.221 E156.3358
G1 X117.821 Y130.549 E156.39027
G1 X89.7 Y102.427 E159.43259
G1 X89.701 Y103.843 E159.54091
G1 X116.83 Y130.972 E162.47586
G1 X116.081 Y131.21 E162.53598
G1 X115.73 Y131.286 E162.56346
G1 X89.703 Y105.259 E165.37919
G1 X89.704 Y106.675 E165.48751
G1 X114.515 Y131.486 E168.17168
G1 X114.405 Y131.502 E168.18019
G1 X113.145 Y131.53 E168.2766
G1 X89.707 Y108.091 E170.81229
G1 X89.708 Y109.507 E170.92061
G1 X111.679 Y131.478 E173.29755
G1 X110.887 Y131.362 E173.35878
G1 X110.058 Y131.164 E173.42398
G1 X109.895 Y131.108 E173.43716
G1 X89.71 Y110.923 E175.62088
G1 X89.712 Y112.339 E175.7292
G1 X107.046 Y129.673 E177.60448
G1 X106.376 Y129.209 E177.66682
G1 X105.637 Y128.623 E177.73897
G1 X105.088 Y128.238 E177.79027
G1 X104.484 Y127.92 E177.84248
G1 X103.843 Y127.681 E177.89482
G1 X103.576 Y127.617 E177.91582
G1 X89.714 Y113.755 E179.41548
G1 X89.715 Y115.171 E179.5238
G1 X101.992 Y127.448 E180.85199
G1 X100.576 Y127.446 E180.96031
G1 X89.717 Y116.587 E182.13509
G1 X89.719 Y118.003 E182.24341
G1 X99.149 Y127.434 E183.26365
G1 X98.465 Y127.399 E183.31604
G1 X97.603 Y127.272 E183.3827
G1 X97.563 Y127.261 E183.38587
G1 X89.897 Y119.595 E184.21522
G1 X89.97 Y119.972 E184.24459
G1 X90.209 Y120.801 E184.31059
G1 X90.528 Y121.623 E184.37804
G1 X90.91 Y122.39 E184.44359
G1 X91.353 Y123.11 E184.50826
G1 X91.861 Y123.793 E184.57338
G1 X92.518 Y124.527 E184.64873
G1 X93.052 Y125.032 E184.70496
G1 X93.691 Y125.549 E184.76784
G1 X94.418 Y126.04 E184.83495
G1 X95.179 Y126.458 E184.90136
G1 X95.474 Y126.586 E184.92596
G1 X90.545 Y121.658 E185.45915
G0 F600 X90.545 Y121.658 Z0.62
G0 F7200 X104.852 Y128.635
G0 X109.535 Y131.2
;TIME_ELAPSED:103.784143

;LAYER:-2
;TYPE:SUPPORT-INTERFACE
G1 F2400 X116.776 Y131.2 E185.63978
G1 X116.116 Y131.407 E185.65704
G1 X115.263 Y131.594 E185.67882
G1 X115.214 Y131.6 E185.68005
G1 X111.129 Y131.6 E185.78195
G1 X110.851 Y131.559 E185.78896
G1 X109.995 Y131.354 E185.81092
G1 X109.164 Y131.075 E185.83278
G1 X108.538 Y130.8 E185.84984
G1 X117.777 Y130.8 E186.08031
G1 X118.541 Y130.4 E186.10182
G1 X107.775 Y130.4 E186.37038
G1 X107.612 Y130.31 E186.37502
G1 X107.164 Y130 E186.38861
G1 X119.153 Y130 E186.68768
G1 X119.406 Y129.836 E186.6952
G1 X119.714 Y129.6 E186.70488
G1 X106.588 Y129.6 E187.03231
G1 X106.251 Y129.365 E187.04256
G1 X106.041 Y129.2 E187.04922
G1 X120.24 Y129.2 E187.40342
G1 X120.712 Y128.843 E187.41818
G1 X120.757 Y128.8 E187.41973
G1 X105.537 Y128.8 E187.7994
G1 X105.517 Y128.783 E187.80005
G1 X104.983 Y128.409 E187.81631
G1 X104.964 Y128.4 E187.81684
G1 X121.203 Y128.4 E188.22192
G1 X121.419 Y128.208 E188.22913
G1 X121.714 Y128 E188.23814
G1 X104.124 Y128 E188.67692
G1 X103.785 Y127.873 E188.68595
G1 X103.143 Y127.722 E188.7024
G1 X102.285 Y127.65 E188.72388
G1 X99.359 Y127.647 E188.79687
G1 X98.495 Y127.6 E188.81845
G1 X122.399 Y127.6 E189.41474
G1 X122.54 Y127.528 E189.41869
G1 X123.501 Y127.2 E189.44402
G1 X96.519 Y127.2 E190.11709
G1 X95.88 Y126.985 E190.13391
G1 X95.459 Y126.8 E190.14538
G1 X124.561 Y126.8 E190.87133
G0 F7200 X124.565 Y126.8
G1 F2400 X125.338 Y126.414 E190.89288
G1 X125.358 Y126.4 E190.89349
G1 X94.656 Y126.4 E191.65936
G1 X94.315 Y126.212 E191.66907
G1 X94 Y126 E191.67854
G1 X126.008 Y126 E192.47699
G1 X126.081 Y125.957 E192.4791
G1 X126.557 Y125.6 E192.49394
G1 X93.436 Y125.6 E193.32015
G1 X92.941 Y125.2 E193.33602
G1 X127.041 Y125.2 E194.18665
G1 X127.486 Y124.8 E194.20158
G1 X92.515 Y124.8 E195.07393
G1 X92.368 Y124.659 E195.07901
G1 X92.134 Y124.4 E195.08772
G1 X127.87 Y124.4 E195.97916
G1 X128.023 Y124.241 E195.98466
G1 X128.216 Y124 E195.99236
G1 X91.775 Y124 E196.90139
G1 X91.713 Y123.929 E196.90374
G1 X91.466 Y123.6 E196.914
G1 X128.54 Y123.6 E197.83882
G1 X128.567 Y123.569 E197.83984
G1 X128.813 Y123.2 E197.85091
G1 X91.172 Y123.2 E198.78986
G1 X90.926 Y122.8 E198.80158
G1 X129.08 Y122.8 E199.75333
G1 X129.299 Y122.4 E199.76471
G1 X90.691 Y122.4 E200.72779
G1 X90.491 Y122 E200.73895
G1 X129.511 Y122 E201.7123
G1 X129.688 Y121.6 E201.72322
G1 X90.304 Y121.6 E202.70565
G1 X90.148 Y121.2 E202.71636
G1 X129.857 Y121.2 E203.70691
G1 X129.991 Y120.8 E203.71743
G1 X89.999 Y120.8 E204.71504
G1 X89.884 Y120.4 E204.72542
G1 X130.122 Y120.4 E205.72916
G1 X130.217 Y120 E205.73941
G1 X89.77 Y120 E206.74837
G1 X89.693 Y119.6 E206.75853
G1 X130.313 Y119.6 E207.7718
G1 X130.321 Y119.574 E207.77248
G1 X130.374 Y119.2 E207.7819
G1 X89.615 Y119.2 E208.79864
G1 X89.612 Y119.178 E208.79919
G1 X89.571 Y118.8 E208.80868
G1 X130.433 Y118.8 E209.82798
G1 X130.448 Y118.705 E209.83038
G1 X130.464 Y118.4 E209.838
G1 X89.528 Y118.4 E210.85915
G1 X89.521 Y118.328 E210.86096
G1 X89.509 Y118 E210.86915
G1 X130.485 Y118 E211.8913
G1 X130.497 Y117.791 E211.89652
G1 X130.497 Y117.6 E211.90128
G1 X89.501 Y117.6 E212.92393
G1 X89.501 Y117.2 E212.93391
G1 X130.497 Y117.2 E213.95656
G1 X130.497 Y116.8 E213.96654
G1 X89.501 Y116.8 E214.98919
G1 X89.501 Y116.4 E214.99917
G1 X130.497 Y116.4 E216.02182
G1 X130.497 Y116 E216.03179
G1 X89.501 Y116 E217.05444
G1 X89.501 Y115.6 E217.06442
G1 X130.497 Y115.6 E218.08707
G1 X130.497 Y115.2 E218.09705
G1 X89.501 Y115.2 E219.1197
G1 X89.501 Y114.8 E219.12968
G1 X130.497 Y114.8 E220.15233
G1 X130.497 Y114.4 E220.1623
G1 X89.501 Y114.4 E221.18495
G1 X89.501 Y114 E221.19493
G1 X130.497 Y114 E222.21758
G1 X130.497 Y113.6 E222.22756
G1 X89.501 Y113.6 E223.25021
G1 X89.501 Y113.2 E223.26019
G1 X130.497 Y113.2 E224.28283
G1 X130.497 Y112.8 E224.29281
G1 X89.501 Y112.8 E225.31546
G1 X89.502 Y112.4 E225.32544
G1 X130.498 Y112.4 E226.34809
G1 X130.498 Y112 E226.35807
G1 X89.502 Y112 E227.38072
G1 X89.502 Y111.6 E227.3907
G1 X130.498 Y111.6 E228.41334
G1 X130.498 Y111.2 E228.42332
G1 X89.502 Y111.2 E229.44597
G1 X89.502 Y110.8 E229.45595
G1 X130.498 Y110.8 E230.4786
G1 X130.498 Y110.4 E230.48858
G1 X89.502 Y110.4 E231.51123
G1 X89.502 Y110 E231.5212
G1 X130.498 Y110 E232.54385
G1 X130.498 Y109.6 E232.55383
G1 X89.502 Y109.6 E233.57648
G1 X89.502 Y109.2 E233.58646
G1 X130.498 Y109.2 E234.60911
G1 X130.498 Y108.8 E234.61909
G1 X89.502 Y108.8 E235.64174
G1 X89.502 Y108.4 E235.65171
G1 X130.498 Y108.4 E236.67436
G1 X130.498 Y108 E236.68434
G1 X89.502 Y108 E237.70699
G1 X89.502 Y107.6 E237.71697
G1 X130.498 Y107.6 E238.73962
G1 X130.499 Y107.2 E238.7496
G1 X89.503 Y107.2 E239.77225
G1 X89.503 Y106.8 E239.78222
G1 X130.499 Y106.8 E240.80487
G1 X130.499 Y106.4 E240.81485
G1 X89.503 Y106.4 E241.8375
G1 X89.503 Y106 E241.84748
G1 X130.499 Y106 E242.87013
G1 X130.499 Y105.6 E242.88011
G1 X89.503 Y105.6 E243.90276
G1 X89.503 Y105.2 E243.91273
