;FLAVOR:Marlin
;TIME:11056
;Filament used:4.66544m
;Layer height: 0.1
;MINX:40.699
;MINY:82.199
;MINZ:0.24
;MAXX:179.299
;MAXY:137.8
;MAXZ:15.89
                             
;Creality Print GCode Generated by CXEngine:NO_MAGE_VERSION_GIT_HEAD_BRANCH
;CXEngine Release Time:2022-09-30 09:53:04
;Gcode Generated Time:2023-05-20 00:10:32
;----------Machine Config--------------
;Machine Name:Ender-3 V2
;Machine Height:250
;Machine Width:220
;Machine Depth:220
;Material name:PLA
;Number of Extruders:1
;ExtruderParams[0] Nozzle Diameter1000
;----------Profile Config---------------
;Engine Version:275f99b
;Engine Release Time:2022-09-30 09:42:18
;Layer Height:0.1
;Wall Thickness:0.8
;Top/Bottom Thickness:0.5
;Out Wall Line Width:0.4
;Inner Wall Line Width:0.4
;Inital Layer Height:100
;Wall Line Count:2
;Infill Line Distance:4
;Infill Pattern:grid
;Infill Sparse Density:20
;Infill Wipe Distance:0
;Print Temperature:200
;Bed Temperature:60
;Support Enable:true
;Support Density:0
;Support Angle:60
;Adhesion Type:simpleraft
;machine is belt:false
;machine belt offset:10
;machine belt offset Y:0
;Raft Base Line Spacing:1.6
;Wait Heatup Sync:true
;----------Shell Config----------------
;Outer Wall Wipe Distance:200
;Outer Inset First:false
;Infill Before Walls:false
;Infill Overlap:0.16
;Fill Gaps Between Walls:everywhere
;Minimum Infill Area:1
;Top Surface Skin Layer:0
;Top Layers:4
;Z Seam Alignment:sharpest_corner
;Seam Corner Preference:z_seam_corner_inner
;Z Seam X:110
;Z Seam Y:110
;Horizontal Expansion:0
;Top/Bottom Pattern:zigzag
;Ironing Pattern:zigzag
;Vase Model:false
;----------Support Config----------------
;Support Type:everywhere
;Support Pattern:zigzag
;Support Infill Layer Thickness:0.1
;Minimum Support Area:5
;Enable Support Roof:false
;Support Roof Thickness:0.8
;Support Roof Pattern:lines
;Connect Support Lines:0
;Connect Support ZigZags:1
;Minimum Support X/Y Distance:0.2
;Support Line Distance:0
; ---------PrintSpeed & Travel----------
;Enable Print Cool:true
;Avoid Printed Parts Traveling:true
;Enable Retraction:true
;Retraction Distance:8
;Retraction Speed:100
;Retraction Prime Speed:100
;Maximum Retraction Count:100
;Minimum Extrusion Distance Window:1
;Z Hop When Retracted:false
;Z Hop Height:0.2
;Retract Before Outer Wall:true
;Print Speed:50
;Infill Speed:50

;Prime Tower Speed:50
;Travel Speed:120
;Initial Layer Speed:25
;Skirt/Brim Speed:25
;Combing Mode:infill
; --------SpecialModel&Mesh Fixes--------
;Union Overlapping Volum:true
;Remove All Holes:false
;Maximum Travel Resolution:0.6
;Maximum Deviation:0.05
;Maximum Model Angle:0.872665
;IS Mold Print:false
;Make Overhang Printable:false
;Enable Coasting:false
;Coasting Volumes:0.06
;Coasting Speed:0.9
;Raft AirGap:0.25
;Layer0 ZOverLap:0.13
;---------------------End of Head--------------------------
M140 S60
M105
M104 S200
M105
M109 S200
M105
M190 S60
M82 ;absolute extrusion mode
M220 S100 ;Reset Feedrate
M221 S100 ;Reset Flowrate

G28 ;Home

G92 E0 ;Reset Extruder
G1 Z2.0 F3000 ;Move Z Axis up
G1 X10.1 Y20 Z0.28 F5000.0 ;Move to start position
G1 X10.1 Y145.0 Z0.28 F1500.0 E15 ;Draw the first line
G1 X10.4 Y145.0 Z0.28 F5000.0 ;Move to side a little
G1 X10.4 Y20 Z0.28 F1500.0 E30 ;Draw the second line
G92 E0  ;Reset Extruder
G1 E-1.0000 F1800 ;Retract a bit
G1 Z2.0 F3000 ;Move Z Axis up
G1 E0.0000 F1800 

G92 E0
G92 E0
G1 F6000 E-8

;LAYER_COUNT:150

;LAYER:-4
M107
G0 F7200 X41.6 Y104.337 Z0.24
;TYPE:SUPPORT-INTERFACE
G1 F6000 E0
G1 F1200 X41.6 Y118.672 E1.14428
G1 X41.565 Y118.552 E1.15426
G1 X41.404 Y117.727 E1.22136
G1 X41.32 Y116.931 E1.28525
G1 X41.3 Y106.713 E2.1009
G1 X41.349 Y105.708 E2.18122
G1 X41.472 Y104.876 E2.24835
G1 X41.66 Y104.085 E2.31325
G1 X41.917 Y103.316 E2.37797
G1 X42.246 Y102.567 E2.44328
G1 X42.657 Y101.818 E2.51147
G1 X43.119 Y101.135 E2.5773
G1 X43.2 Y101.034 E2.58763
G1 X43.2 Y121.959 E4.25795
G1 X43.372 Y122.19 E4.28094
G1 X43.999 Y122.892 E4.35608
G1 X44.51 Y123.376 E4.41226
G1 X44.8 Y123.61 E4.44201
G1 X44.8 Y99.38 E6.37615
G1 X44.81 Y99.372 E6.37717
G1 X45.462 Y98.886 E6.44208
G1 X46.155 Y98.46 E6.50702
G1 X46.4 Y98.337 E6.5289
G1 X46.4 Y124.662 E8.63028
G1 X46.563 Y124.752 E8.64514
G1 X47.308 Y125.079 E8.71009
G1 X48 Y125.31 E8.76832
G1 X48 Y97.694 E10.97275
G1 X48.46 Y97.562 E11.01095
G1 X49.273 Y97.404 E11.07706
G1 X49.6 Y97.369 E11.10331
G1 X49.6 Y125.634 E13.35955
G1 X49.712 Y125.651 E13.36859
G1 X50.57 Y125.697 E13.43718
G1 X51.2 Y125.697 E13.48747
G1 X51.2 Y97.3 E15.75424
G1 X52.8 Y97.3 E15.88196
G1 X52.8 Y125.697 E18.14873
G1 X54.4 Y125.697 E18.27645
G1 X54.4 Y97.3 E20.54322
G1 X56 Y97.3 E20.67094
G1 X56 Y125.697 E22.93771
G1 X57.6 Y125.697 E23.06543
G1 X57.6 Y97.3 E25.3322
G1 X59.2 Y97.3 E25.45992
G1 X59.2 Y125.697 E27.72669
G1 X60.8 Y125.698 E27.85441
G1 X60.8 Y97.3 E30.12126
G1 X62.4 Y97.3 E30.24898
G1 X62.4 Y125.698 E32.51583
G1 X64 Y125.698 E32.64355
G1 X64 Y97.3 E34.9104
G1 X65.6 Y97.3 E35.03812
G1 X65.6 Y125.698 E37.30497
G1 X67.2 Y125.698 E37.43269
G1 X67.2 Y97.3 E39.69954
G1 X68.8 Y97.3 E39.82726
G1 X68.8 Y125.698 E42.09411
G1 X70.4 Y125.698 E42.22183
G1 X70.4 Y97.3 E44.48868
G1 X72 Y97.3 E44.6164
G1 X72 Y125.699 E46.88333
G1 X73.6 Y125.699 E47.01105
G1 X73.6 Y97.3 E49.27798
G1 X75.2 Y97.3 E49.4057
G1 X75.2 Y125.699 E51.67263
G1 X76.8 Y125.699 E51.80035
G1 X76.8 Y97.3 E54.06728
G1 X78.4 Y97.3 E54.195
G1 X78.4 Y125.699 E56.46193
G1 X80 Y125.699 E56.58965
G1 X80 Y97.3 E58.85658
G1 X80.549 Y97.3 E58.9004
G1 X81.255 Y97.256 E58.95687
G1 X81.6 Y97.189 E58.98492
G1 X81.6 Y125.757 E61.26534
G1 X81.992 Y125.794 E61.29677
G1 X82.716 Y125.974 E61.35633
G1 X83.2 Y126.164 E61.39783
G1 X83.2 Y96.638 E63.75473
G1 X83.335 Y96.575 E63.76662
G1 X83.953 Y96.179 E63.82521
G1 X84.516 Y95.709 E63.88375
G1 X84.8 Y95.402 E63.91713
G1 X84.8 Y127.175 E66.45339
G1 X85.173 Y127.523 E66.49411
G1 X85.64 Y128.088 E66.55263
G1 X86.033 Y128.708 E66.61122
G1 X86.346 Y129.375 E66.67004
G1 X86.4 Y129.551 E66.68473
G1 X86.4 Y90.862 E69.77305
G1 X86.472 Y90.376 E69.81227
G1 X86.66 Y89.585 E69.87717
G1 X86.917 Y88.816 E69.94189
G1 X87.246 Y88.067 E70.0072
G1 X87.657 Y87.318 E70.07539
G1 X88 Y86.81 E70.12432
G1 X88 Y133.19 E73.82658
G1 X88.372 Y133.69 E73.87632
G1 X89.003 Y134.395 E73.95185
G1 X89.517 Y134.881 E74.00831
G1 X89.6 Y134.948 E74.01683
G1 X89.6 Y85.059 E77.99918
G1 X89.81 Y84.872 E78.02163
G1 X90.462 Y84.386 E78.08654
G1 X91.155 Y83.96 E78.15148
G1 X91.2 Y83.937 E78.15551
G1 X91.2 Y136.052 E82.31556
G1 X91.563 Y136.252 E82.34864
G1 X92.308 Y136.579 E82.41359
G1 X92.8 Y136.743 E82.45498
G1 X92.8 Y83.252 E86.72487
G1 X93.46 Y83.062 E86.77969
G1 X94.273 Y82.904 E86.8458
G1 X94.4 Y82.89 E86.856
G1 X94.4 Y137.105 E91.18368
G1 X94.712 Y137.151 E91.20885
G1 X95.57 Y137.197 E91.27744
G1 X96 Y137.197 E91.31176
G1 X96 Y82.8 E95.65397
G1 X97.6 Y82.8 E95.78169
G1 X97.6 Y137.197 E100.12389
G1 X99.2 Y137.197 E100.25161
G1 X99.2 Y82.8 E104.59381
G1 X100.8 Y82.8 E104.72153
G1 X100.8 Y137.197 E109.06374
G1 X102.4 Y137.197 E109.19145
G1 X102.4 Y82.8 E113.53366
G1 X104 Y82.8 E113.66138
G1 X104 Y137.197 E118.00358
G1 X105.6 Y137.197 E118.1313
G1 X105.6 Y82.8 E122.4735
G1 X107.2 Y82.8 E122.60122
G1 X107.2 Y137.198 E126.94351
G1 X108.8 Y137.198 E127.07122
G1 X108.8 Y82.8 E131.41351
G1 X110.4 Y82.8 E131.54123
G1 X110.4 Y137.198 E135.88351
G1 X112 Y137.198 E136.01123
G1 X112 Y82.8 E140.35351
G1 X113.6 Y82.8 E140.48123
G1 X113.6 Y137.198 E144.82352
G1 X115.2 Y137.198 E144.95123
G1 X115.2 Y82.8 E149.29352
G1 X116.8 Y82.8 E149.42124
G1 X116.8 Y137.199 E153.7636
G1 X118.4 Y137.199 E153.89132
G1 X118.4 Y82.8 E158.23368
G1 X120 Y82.8 E158.3614
G1 X120 Y137.199 E162.70376
G1 X121.6 Y137.199 E162.83148
G1 X121.6 Y82.8 E167.17385
G1 X123.2 Y82.8 E167.30157
G1 X123.2 Y137.199 E171.64393
G1 X124.8 Y137.199 E171.77165
G1 X124.8 Y82.8 E176.11401
G1 X126.4 Y82.8 E176.24173
G1 X126.4 Y137.199 E180.58409
G1 X127.323 Y137.2 E180.65777
G1 X127.93 Y137.179 E180.70625
G1 X128 Y137.172 E180.71187
G1 X128 Y82.8 E185.05208
G1 X129.6 Y82.8 E185.1798
G1 X129.6 Y136.919 E189.49981
G1 X130.313 Y136.712 E189.55907
G1 X131.106 Y136.404 E189.62698
G1 X131.2 Y136.358 E189.63534
G1 X131.2 Y82.8 E193.91057
G1 X132.8 Y82.8 E194.03829
G1 X132.8 Y135.412 E198.238
G1 X133.185 Y135.124 E198.27638
G1 X133.888 Y134.496 E198.35163
G1 X134.376 Y133.981 E198.40826
G1 X134.4 Y133.952 E198.41127
G1 X134.4 Y82.8 E202.49444
G1 X136 Y82.8 E202.62216
G1 X136 Y131.355 E206.49803
G1 X136.074 Y131.187 E206.51268
G1 X136.331 Y130.416 E206.57756
G1 X136.519 Y129.625 E206.64246
G1 X136.64 Y128.803 E206.70878
G1 X136.762 Y127.372 E206.82342
G1 X136.941 Y126.653 E206.88257
G1 X137.205 Y125.97 E206.94102
G1 X137.553 Y125.326 E206.99945
G1 X137.6 Y125.261 E207.00586
G1 X137.6 Y82.8 E210.39528
G1 X139.2 Y82.8 E210.52299
G1 X139.2 Y123.621 E213.7815
G1 X139.661 Y123.325 E213.82524
G1 X140.324 Y123.012 E213.88376
G1 X140.8 Y122.856 E213.92374
G1 X140.8 Y82.8 E217.12119
G1 X142.4 Y82.8 E217.24891
G1 X142.4 Y122.603 E220.42615
G1 X142.447 Y122.6 E220.42991
G1 X144 Y122.6 E220.55388
G1 X144 Y82.8 E223.73089
G1 X145.6 Y82.8 E223.85861
G1 X145.6 Y122.6 E227.03562
G1 X147.2 Y122.6 E227.16334
G1 X147.2 Y82.8 E230.34034
G1 X148.8 Y82.8 E230.46806
G1 X148.8 Y122.6 E233.64507
G1 X150.4 Y122.6 E233.77279
G1 X150.4 Y82.8 E236.9498
G1 X152 Y82.8 E237.07752
G1 X152 Y122.6 E240.25452
G1 X153.6 Y122.6 E240.38224
G1 X153.6 Y82.8 E243.55925
G1 X155.2 Y82.8 E243.68697
G1 X155.2 Y122.6 E246.86398
G1 X156.8 Y122.6 E246.9917
G1 X156.8 Y82.8 E250.16871
G1 X158.4 Y82.8 E250.29642
G1 X158.4 Y122.6 E253.47343
G1 X160 Y122.6 E253.60115
G1 X160 Y82.8 E256.77816
G1 X161.6 Y82.8 E256.90588
G1 X161.6 Y122.6 E260.08289
G1 X163.2 Y122.6 E260.21061
G1 X163.2 Y82.8 E263.38761
G1 X164.8 Y82.8 E263.51533
G1 X164.8 Y122.6 E266.69234
G1 X166.4 Y122.6 E266.82006
G1 X166.4 Y82.8 E269.99707
G1 X168 Y82.8 E270.12479
G1 X168 Y122.6 E273.30179
G1 X169.332 Y122.6 E273.40812
G1 X169.6 Y122.591 E273.42953
G1 X169.6 Y82.816 E276.60454
G1 X170.299 Y82.85 E276.6604
G1 X171.124 Y82.972 E276.72697
G1 X171.2 Y82.991 E276.73323
G1 X171.2 Y122.405 E279.87942
G1 X171.54 Y122.338 E279.90708
G1 X172.322 Y122.112 E279.97206
G1 X172.8 Y121.927 E280.01297
G1 X172.8 Y83.469 E283.08286
G1 X173.433 Y83.746 E283.13801
G1 X174.182 Y84.157 E283.20621
G1 X174.4 Y84.305 E283.22725
G1 X174.4 Y121.099 E286.1643
G1 X174.537 Y121.014 E286.17717
G1 X175.207 Y120.514 E286.2439
G1 X175.89 Y119.902 E286.31711
G1 X176.389 Y119.375 E286.37504
G1 X176.877 Y118.771 E286.43703
G1 X177.343 Y118.082 E286.50342
G1 X177.6 Y117.614 E286.54604
G1 X177.6 Y87.776 E288.92784
G1 X177.543 Y87.661 E288.93809
G1 X177.114 Y86.962 E289.00356
G1 X176.628 Y86.31 E289.06847
G1 X176.003 Y85.611 E289.14332
G0 F7200 X176 Y85.609
G1 F1200 X176 Y119.786 E291.87147
;;retract;;
G1 F6000 E283.87147
G0 F600 X176 Y119.786 Z0.47
G0 F7200 X177.76 Y87.25
;TIME_ELAPSED:190.832480

;LAYER:-3
;TYPE:SUPPORT
G1 F6000 E291.87147
G1 F1800 X174.243 Y83.734 E292.25191
G1 X174.382 Y83.81 E292.26403
G1 X175.109 Y84.301 E292.33114
G1 X175.748 Y84.818 E292.39401
G1 X176.288 Y85.329 E292.45089
G1 X176.939 Y86.057 E292.5256
G1 X177.447 Y86.74 E292.59071
G1 X177.89 Y87.46 E292.65538
G1 X178.272 Y88.227 E292.72093
G1 X178.591 Y89.049 E292.78838
G1 X178.771 Y89.675 E292.83821
G1 X171.823 Y82.727 E293.58988
G1 X171.197 Y82.578 E293.6391
G1 X170.335 Y82.451 E293.70576
G1 X170.122 Y82.44 E293.72207
G1 X179.062 Y91.381 E294.6893
G1 X179.079 Y91.529 E294.7007
G1 X179.1 Y92.147 E294.748
G1 X179.099 Y92.832 E294.8004
G1 X168.667 Y82.4 E295.92899
G1 X167.253 Y82.4 E296.03715
G1 X179.099 Y94.246 E297.31871
G1 X179.099 Y95.66 E297.42688
G1 X165.839 Y82.4 E298.86141
G1 X164.424 Y82.4 E298.96966
G1 X179.098 Y97.074 E300.55717
G1 X179.098 Y98.488 E300.66533
G1 X163.01 Y82.4 E302.40581
G1 X161.596 Y82.4 E302.51398
G1 X179.098 Y99.902 E304.40744
G1 X179.098 Y101.316 E304.5156
G1 X160.182 Y82.4 E306.56203
G1 X158.768 Y82.4 E306.6702
G1 X179.098 Y102.73 E308.8696
G1 X179.098 Y104.144 E308.97777
G1 X157.353 Y82.4 E311.3302
G1 X155.939 Y82.4 E311.43836
G1 X179.097 Y105.558 E313.94371
G1 X179.097 Y106.972 E314.05188
G1 X154.525 Y82.4 E316.7102
G1 X153.111 Y82.4 E316.81837
G1 X179.097 Y108.386 E319.62966
G1 X179.096 Y109.8 E319.73783
G1 X151.697 Y82.4 E322.70205
G1 X150.282 Y82.4 E322.81029
G1 X179.096 Y111.214 E325.92753
G1 X179.096 Y112.628 E326.0357
G1 X148.868 Y82.4 E329.30591
G1 X147.454 Y82.4 E329.41408
G1 X179.061 Y114.007 E332.83349
G1 X179.05 Y114.228 E332.85041
G1 X178.922 Y115.095 E332.91746
G1 X178.885 Y115.246 E332.92935
G1 X146.04 Y82.4 E336.48274
G1 X144.625 Y82.4 E336.59098
G1 X178.58 Y116.355 E340.2644
G1 X178.458 Y116.724 E340.29413
G1 X178.176 Y117.364 E340.34763
G1 X143.211 Y82.4 E344.13027
G1 X141.797 Y82.4 E344.23843
G1 X177.685 Y118.288 E348.12098
G1 X177.199 Y119.009 E348.18749
G1 X177.106 Y119.123 E348.19875
G1 X140.383 Y82.4 E352.17162
G1 X138.969 Y82.4 E352.27979
G1 X176.455 Y119.887 E356.33527
G1 X176.172 Y120.187 E356.36682
G1 X175.733 Y120.579 E356.41184
G1 X137.554 Y82.4 E360.54223
G1 X136.14 Y82.4 E360.6504
G1 X174.946 Y121.206 E364.84863
G1 X174.76 Y121.347 E364.86648
G1 X174.086 Y121.76 E364.92695
G1 X134.726 Y82.4 E369.18511
G1 X133.312 Y82.4 E369.29328
G1 X173.136 Y122.224 E373.60164
G1 X172.455 Y122.49 E373.65756
G1 X172.091 Y122.593 E373.6865
G1 X131.898 Y82.4 E378.03478
G1 X130.483 Y82.4 E378.14303
G1 X170.944 Y122.861 E382.5203
G1 X170.787 Y122.892 E382.53254
G1 X169.966 Y122.979 E382.5957
G1 X169.658 Y122.989 E382.61927
G1 X129.069 Y82.4 E387.01039
G1 X127.655 Y82.4 E387.11856
G1 X168.254 Y122.999 E391.51076
G1 X166.84 Y122.999 E391.61893
G1 X126.241 Y82.4 E396.01113
G1 X124.826 Y82.4 E396.11937
G1 X165.426 Y122.999 E400.51163
G1 X164.012 Y122.999 E400.6198
G1 X123.412 Y82.4 E405.01205
G1 X121.998 Y82.4 E405.12022
G1 X162.597 Y122.999 E409.51242
G1 X161.183 Y122.999 E409.62059
G1 X120.584 Y82.4 E414.01279
G1 X119.17 Y82.4 E414.12096
G1 X159.769 Y122.999 E418.51316
G1 X158.355 Y122.999 E418.62133
G1 X117.755 Y82.4 E423.01358
G1 X116.341 Y82.4 E423.12175
G1 X156.94 Y122.999 E427.51395
G1 X155.526 Y122.999 E427.62212
G1 X114.927 Y82.4 E432.01432
G1 X113.513 Y82.4 E432.12249
G1 X154.112 Y122.999 E436.51469
G1 X152.698 Y122.999 E436.62286
G1 X112.099 Y82.4 E441.01506
G1 X110.684 Y82.4 E441.1233
G1 X151.284 Y122.999 E445.51556
G1 X149.869 Y122.999 E445.6238
G1 X109.27 Y82.4 E450.016
G1 X107.856 Y82.4 E450.12417
G1 X148.455 Y122.999 E454.51637
G1 X147.041 Y122.999 E454.62454
G1 X106.442 Y82.4 E459.01674
G1 X105.027 Y82.4 E459.12499
G1 X145.627 Y122.999 E463.51724
G1 X144.213 Y122.999 E463.62541
G1 X103.613 Y82.4 E468.01766
G1 X102.199 Y82.4 E468.12583
G1 X142.798 Y122.999 E472.51803
G1 X142.46 Y123 E472.54389
G1 X141.792 Y123.042 E472.59509
G1 X141.484 Y123.1 E472.61907
G1 X100.785 Y82.4 E477.02214
G1 X99.371 Y82.4 E477.13031
G1 X140.391 Y123.421 E481.56811
G1 X139.855 Y123.676 E481.61352
G1 X139.474 Y123.918 E481.64805
G1 X97.956 Y82.4 E486.13967
G1 X96.542 Y82.4 E486.24784
G1 X138.692 Y124.55 E490.80783
G1 X138.292 Y124.982 E490.85287
G1 X138.048 Y125.32 E490.88476
G1 X95.145 Y82.417 E495.52622
G1 X95.034 Y82.421 E495.53472
G1 X94.213 Y82.508 E495.59787
G1 X93.885 Y82.571 E495.62342
G1 X137.536 Y126.222 E500.3458
G1 X137.323 Y126.774 E500.39107
G1 X137.193 Y127.294 E500.43207
G1 X92.75 Y82.85 E505.24019
G1 X92.545 Y82.91 E505.25653
G1 X91.727 Y83.228 E505.32367
G1 X91.717 Y83.232 E505.32449
G1 X137.06 Y128.575 E510.22992
G1 X137.038 Y128.846 E510.25072
G1 X136.913 Y129.698 E510.31659
G1 X136.885 Y129.814 E510.32572
G1 X90.786 Y83.715 E515.31294
G1 X90.24 Y84.053 E515.36206
G1 X89.936 Y84.279 E515.39104
G1 X136.581 Y130.925 E520.43738
G1 X136.445 Y131.336 E520.4705
G1 X136.179 Y131.936 E520.52071
G1 X89.159 Y84.916 E525.60756
G1 X88.829 Y85.212 E525.64147
G1 X88.444 Y85.616 E525.68417
G1 X135.692 Y132.863 E530.79563
G1 X135.69 Y132.869 E530.79612
G1 X135.207 Y133.587 E530.86232
G1 X135.115 Y133.701 E530.87352
G1 X87.802 Y86.387 E535.99213
G0 F7200 X87.801 Y86.391
G1 F1800 X87.31 Y87.118 E536.05924
G1 X87.241 Y87.241 E536.07003
G1 X134.466 Y134.466 E541.17906
G1 X134.163 Y134.787 E541.21283
