; HEADER_BLOCK_START
; generated by OrcaSlicer 2.1.1 on 2025-01-25 at 16:30:08
; total layer number: 36
; filament_density: 1.27
; filament_diameter: 1.75
; max_z_height: 3.00
; HEADER_BLOCK_END

; THUMBNAIL_BLOCK_START

;
; THUMBNAIL_BLOCK_END







; external perimeters extrusion width = 0.40mm
; perimeters extrusion width = 0.45mm
; infill extrusion width = 0.45mm
; solid infill extrusion width = 0.45mm
; top infill extrusion width = 0.38mm
; first layer extrusion width = 0.42mm

; EXECUTABLE_BLOCK_START
EXCLUDE_OBJECT_DEFINE NAME=小臂_-_镜像.STL_id_0_copy_0 CENTER=119.46,116.898 POLYGON=[[59.6015,113.92],[59.6804,113.341],[59.8547,112.783],[60.1194,112.262],[60.4672,111.792],[60.8884,111.386],[70.7377,103.376],[74.3884,100.407],[74.8468,100.091],[91.1593,90.6731],[92.1134,90.1222],[173.641,99.7236],[174.5,99.8423],[175.325,100.108],[176.092,100.511],[176.777,101.041],[177.361,101.682],[177.826,102.413],[178.157,103.214],[178.345,104.06],[179.318,116.563],[179.263,117.428],[179.06,118.271],[178.714,119.065],[178.236,119.788],[177.641,120.418],[176.946,120.936],[176.172,121.325],[175.342,121.575],[96.2807,143.673],[94.8488,143.121],[77.6797,136.496],[77.178,136.255],[76.3837,135.792],[71.4193,132.9],[62.1421,127.496],[61.6632,127.16],[61.2469,126.75],[60.9047,126.276],[60.6462,125.751],[60.4786,125.191],[60.4065,124.611],[59.6201,114.505],[59.6015,113.92]]
M73 P0 R51
;TYPE:Custom
;ELEGOO NEPTUNE 4 PRO
M220 S100 ;Set the feed speed to 100%
M221 S100 ;Set the flow rate to 100%
M104 S140
M190 S70
G90
G28 ;home
G1 Z10 F300
G1 X67.5 Y0 F6000
G1 Z0 F300
M109 S240
G92 E0 ;Reset Extruder
G1 X67.5 Y0 Z0.4 F300 ;Move to start position
G1 X167.5 E30 F400 ;Draw the first line
G1 Z0.6 F120.0 ;Move to side a little
M73 P0 R50
G1 X162.5 F3000
G92 E0 ;Reset Extruder
G90
G21
M83 ; use relative distances for extrusion
; filament start gcode
M106 S0
;LAYER_CHANGE
;Z:0.2
;HEIGHT:0.2
;BEFORE_LAYER_CHANGE
G92 E0
;0.2


G1 E-.8 F3600
;AFTER_LAYER_CHANGE
;0.2
;_SET_FAN_SPEED_CHANGING_LAYER
SET_VELOCITY_LIMIT ACCEL=1000 ACCEL_TO_DECEL=500
SET_VELOCITY_LIMIT SQUARE_CORNER_VELOCITY=7
; printing object 小臂 - 镜像.STL id:0 copy 0
EXCLUDE_OBJECT_START NAME=小臂_-_镜像.STL_id_0_copy_0
G1 X171.107 Y119.152 F21000
G1 Z.4
G1 Z.2
G1 E.8 F2700
;TYPE:Inner wall
;WIDTH:0.419999
G1 F3000
G1 X171.177 Y119.255 E.0037
G1 X171.558 Y119.658 E.01652
G1 X172.034 Y120.036 E.01811
G1 X171.712 Y120.065 E.00964
G1 X96.325 Y142.55 E2.34327
G1 X78.74 Y135.764 E.56143
G1 X79.278 Y135.764 E.01602
G1 X79.812 Y135.633 E.01639
G1 X80.105 Y135.505 E.00952
G1 X80.565 Y135.203 E.01639
G1 X80.799 Y134.984 E.00952
G1 X81.131 Y134.546 E.01639
G1 X81.278 Y134.262 E.00952
G1 X81.445 Y133.738 E.01639
G1 X81.488 Y133.418 E.00963
G1 X81.468 Y132.859 E.01664
G1 X81.403 Y132.549 E.00945
G1 X81.189 Y132.009 E.01729
G1 X80.875 Y131.548 E.01661
G1 X80.497 Y131.186 E.01558
G1 X80.16 Y131.025 E.01115
G1 X79.785 Y131.009 E.01117
G1 X77.362 Y131.388 E.07306
G1 X77.001 Y131.578 E.01215
G1 X76.77 Y131.862 E.0109
G1 X76.531 Y132.374 E.01684
G1 X76.404 Y132.91 E.01639
G1 X76.384 Y133.229 E.00952
G1 X76.443 Y133.776 E.01639
G1 X76.53 Y134.083 E.00952
G1 X76.769 Y134.579 E.01639
G1 X77.083 Y134.968 E.01489
G1 X62.863 Y126.684 E.49019
G1 X63.059 Y126.693 E.00583
G1 X65.388 Y126.329 E.07022
G1 X65.717 Y126.211 E.01042
G1 X65.941 Y126.03 E.00859
G1 X66.074 Y125.84 E.00689
G1 X66.313 Y125.324 E.01695
G1 X66.44 Y124.78 E.01664
G1 X66.459 Y124.463 E.00945
G1 X66.401 Y123.925 E.01612
G1 X66.313 Y123.619 E.00948
G1 X66.075 Y123.123 E.01639
G1 X65.887 Y122.86 E.00963
G1 X65.489 Y122.468 E.01664
G1 X65.229 Y122.286 E.00945
G1 X64.739 Y122.056 E.01612
G1 X64.428 Y121.968 E.00961
G1 X88.731 Y119.393 E.72796
G1 X173.035 Y112.833 E2.51869
G1 X172.785 Y112.92 E.00787
G1 X172.171 Y113.233 E.02052
G1 X171.62 Y113.646 E.02052
G1 X171.145 Y114.146 E.02052
G1 X170.763 Y114.718 E.02052
G1 X170.482 Y115.348 E.02052
G1 X170.312 Y116.015 E.02052
G1 X170.261 Y116.761 E.02226
G1 X170.319 Y117.388 E.01876
G1 X170.496 Y118.054 E.02052
G1 X170.783 Y118.68 E.02052
G1 X171.084 Y119.119 E.01585
G1 X171.412 Y118.938 F21000
G1 F3000
G1 X171.099 Y118.474 E.0167
G1 X170.842 Y117.904 E.01862
G1 X170.685 Y117.299 E.01862
G1 X170.637 Y116.734 E.01686
G1 X170.687 Y116.053 E.02036
G1 X170.846 Y115.448 E.01862
G1 X171.104 Y114.879 E.01862
G1 X171.455 Y114.361 E.01862
G1 X171.888 Y113.911 E.01862
G1 X172.391 Y113.54 E.01862
G1 X172.95 Y113.259 E.01862
;WIDTH:0.469487
G1 X173.201 Y113.156 E.00915
;WIDTH:0.518975
G1 X173.452 Y113.053 E.01021
;WIDTH:0.542021
G1 X173.635 Y112.997 E.00753
G1 X174.136 Y112.942 E.01987
;WIDTH:0.53914
G1 X174.791 Y112.966 E.0257
;WIDTH:0.538659
G1 X175.417 Y113.101 E.02507
;WIDTH:0.538233
G1 X176.006 Y113.338 E.02485
;WIDTH:0.537891
G1 X176.547 Y113.671 E.02483
;WIDTH:0.537579
G1 X177.023 Y114.091 E.02482
;WIDTH:0.537296
G1 X177.422 Y114.585 E.0248
;WIDTH:0.537039
G1 X177.731 Y115.14 E.02479
;WIDTH:0.536811
G1 X177.942 Y115.737 E.02469
;WIDTH:0.536656
G1 X178.05 Y116.367 E.02493
G1 X178.049 Y117 E.02468
;WIDTH:0.536293
G1 X177.942 Y117.626 E.02475
;WIDTH:0.536176
G1 X177.73 Y118.224 E.02474
G1 X177.42 Y118.779 E.02474
;WIDTH:0.536022
G1 X177.021 Y119.272 E.02473
G1 X176.544 Y119.692 E.02473
G1 X176.003 Y120.024 E.02473
G1 X175.414 Y120.261 E.02473
;WIDTH:0.536129
G1 X174.793 Y120.395 E.02474
;WIDTH:0.536235
G1 X174.159 Y120.421 E.02474
;WIDTH:0.536366
G1 X173.529 Y120.341 E.02475
;WIDTH:0.536528
G1 X172.922 Y120.154 E.02476
;WIDTH:0.553095
G1 X172.446 Y119.925 E.02129
G1 X172.292 Y119.791 E.00822
;WIDTH:0.50873
G1 X172.138 Y119.658 E.0075
;WIDTH:0.464365
G1 X171.984 Y119.524 E.00679
;WIDTH:0.419999
G1 X171.451 Y118.996 E.02236
G1 X171.435 Y118.972 E.00086
G1 X171.731 Y118.743 F21000
;TYPE:Outer wall
G1 F3000
G1 X171.725 Y118.736 E.00027
G1 X171.414 Y118.267 E.01677
G1 X171.188 Y117.753 E.01672
G1 X171.052 Y117.209 E.01672
G1 X171.014 Y116.708 E.01496
G1 X171.062 Y116.09 E.01846
G1 X171.209 Y115.548 E.01672
G1 X171.445 Y115.039 E.01672
G1 X171.764 Y114.577 E.01672
G1 X172.156 Y114.175 E.01672
G1 X172.611 Y113.846 E.01672
G1 X173.115 Y113.598 E.01672
G1 X173.653 Y113.439 E.01672
G1 X174.185 Y113.376 E.01596
G1 X174.77 Y113.402 E.01743
G1 X175.319 Y113.526 E.01677
G1 X175.838 Y113.74 E.01672
G1 X176.313 Y114.039 E.01672
G1 X176.731 Y114.414 E.01672
G1 X177.079 Y114.854 E.01672
G1 X177.348 Y115.347 E.01672
G1 X177.529 Y115.876 E.01666
G1 X177.619 Y116.434 E.01685
G1 X177.614 Y116.994 E.01666
G1 X177.514 Y117.546 E.01672
G1 X177.322 Y118.073 E.01672
G1 X177.043 Y118.561 E.01672
G1 X176.686 Y118.994 E.01672
G1 X176.261 Y119.361 E.01672
G1 X175.78 Y119.651 E.01672
G1 X175.258 Y119.855 E.01672
G1 X174.708 Y119.968 E.01672
G1 X174.147 Y119.986 E.01672
G1 X173.59 Y119.91 E.01672
G1 X173.055 Y119.74 E.01672
G1 X172.557 Y119.483 E.01672
G1 X172.129 Y119.16 E.01596
G1 X171.759 Y118.772 E.01597
G1 E-.68 F3600
;WIPE_START
G1 F3000
G1 X171.725 Y118.736 E-.00587
G1 X171.414 Y118.267 E-.06755
G1 X171.258 Y117.912 E-.04658
;WIPE_END
G1 X172.023 Y120.385 Z.6 F21000
G1 Z.2
G1 E.8 F2700
;TYPE:Inner wall
;WIDTH:0.513742
G1 F3000
G1 X171.932 Y120.403 E.00345
;WIDTH:0.466871
G1 X171.819 Y120.426 E.00385
;WIDTH:0.419999
G1 X96.309 Y142.948 E2.3471
G1 X78.81 Y136.195 E.55871
;WIDTH:0.463713
G1 X78.53 Y136.063 E.01029
;WIDTH:0.507427
G1 X78.25 Y135.932 E.01136
;WIDTH:0.551141
G1 X77.969 Y135.8 E.01242
;WIDTH:0.561444
G1 X77.247 Y135.418 E.03348
G1 X77.077 Y135.346 E.00757
;WIDTH:0.514296
G1 X76.906 Y135.274 E.00688
;WIDTH:0.467148
G1 X76.736 Y135.202 E.0062
;WIDTH:0.419999
G1 X62.851 Y127.114 E.47864
;WIDTH:0.458767
G1 X62.658 Y126.968 E.00794
;WIDTH:0.497535
G1 X62.465 Y126.822 E.00868
;WIDTH:0.536302
G1 X62.272 Y126.677 E.00942
;WIDTH:0.5405
G1 X61.89 Y126.334 E.02016
;WIDTH:0.542416
G1 X61.56 Y125.906 E.02134
;WIDTH:0.553946
G1 X61.344 Y125.454 E.02021
G1 X61.194 Y124.872 E.02429
;WIDTH:0.54303
G1 X61.171 Y124.271 E.02375
G1 X61.218 Y123.932 E.01353
;WIDTH:0.543184
G1 X61.395 Y123.367 E.02339
G1 X61.55 Y123.067 E.01335
;WIDTH:0.542886
G1 X61.906 Y122.596 E.02333
;WIDTH:0.542762
G1 X62.156 Y122.362 E.01347
;WIDTH:0.543382
G1 X62.715 Y121.995 E.02645
;WIDTH:0.553357
G1 X63.186 Y121.825 E.02018
;WIDTH:0.553893
G1 X64.023 Y121.675 E.03432
;WIDTH:0.509262
G1 X64.206 Y121.633 E.00691
;WIDTH:0.464631
G1 X64.388 Y121.592 E.00625
;WIDTH:0.419999
G1 X88.697 Y119.018 E.72811
G1 X172.21 Y112.519 E2.49508
;WIDTH:0.432762
G1 X173.081 Y112.458 E.02689
;WIDTH:0.475869
M73 P1 R50
G1 X173.214 Y112.486 E.00465
;WIDTH:0.518975
G1 X173.347 Y112.513 E.00512
;WIDTH:0.542021
G1 X173.582 Y112.501 E.00925
;WIDTH:0.544904
G1 X174.279 Y112.435 E.02776
G1 X175.018 Y112.493 E.02943
;WIDTH:0.543787
G1 X175.725 Y112.674 E.02887
;WIDTH:0.544246
G1 X176.396 Y112.977 E.02915
;WIDTH:0.544682
G1 X177.004 Y113.392 E.02917
;WIDTH:0.545092
G1 X177.532 Y113.905 E.02919
;WIDTH:0.545471
G1 X177.962 Y114.502 E.02921
;WIDTH:0.545823
G1 X178.284 Y115.164 E.02923
;WIDTH:0.546329
G1 X178.486 Y115.871 E.02926
;WIDTH:0.546443
G1 X178.563 Y116.603 E.02927
;WIDTH:0.546716
G1 X178.513 Y117.337 E.02928
;WIDTH:0.546956
G1 X178.337 Y118.051 E.02929
;WIDTH:0.547169
G1 X178.04 Y118.724 E.02931
;WIDTH:0.547355
G1 X177.631 Y119.336 E.02932
;WIDTH:0.547514
G1 X177.122 Y119.868 E.02932
;WIDTH:0.547643
G1 X176.53 Y120.304 E.02933
;WIDTH:0.547747
G1 X175.871 Y120.631 E.02934
;WIDTH:0.547889
G1 X175.166 Y120.84 E.02934
G1 X174.435 Y120.924 E.02934
G1 X173.744 Y120.886 E.02761
G1 X173.294 Y120.792 E.01832
;WIDTH:0.536284
G1 X172.678 Y120.587 E.02534
;WIDTH:0.560613
G1 X172.158 Y120.357 E.02324
G1 X172.062 Y120.377 E.00398
G1 X172.076 Y120.803 F21000
;TYPE:Outer wall
;WIDTH:0.419999
G1 F3000
G1 X172.055 Y120.795 E.00068
G1 X171.927 Y120.787 E.00381
G1 X96.293 Y143.346 E2.35094
G1 X77.803 Y136.211 E.59036
G1 X77.323 Y135.98 E.01584
G1 X62.335 Y127.249 E.51667
G1 X61.91 Y126.954 E.01542
G1 X61.524 Y126.588 E.01584
G1 X61.205 Y126.162 E.01585
G1 X60.962 Y125.69 E.01582
G1 X60.802 Y125.192 E.01559
G1 X60.725 Y124.658 E.01608
G1 X60.738 Y124.124 E.0159
G1 X60.84 Y123.603 E.01582
G1 X61.029 Y123.102 E.01595
G1 X61.299 Y122.633 E.01612
G1 X61.674 Y122.192 E.01726
G1 X62.084 Y121.853 E.01584
G1 X62.546 Y121.586 E.01587
G1 X63.045 Y121.4 E.01587
G1 X63.581 Y121.298 E.01625
G1 X88.662 Y118.642 E.75127
G1 X172.872 Y112.089 E2.51589
G1 X173.25 Y112.087 E.01125
G1 X174.31 Y111.997 E.0317
G1 X175.125 Y112.067 E.02436
G1 X175.904 Y112.273 E.024
G1 X176.641 Y112.613 E.02418
G1 X177.309 Y113.075 E.02418
G1 X177.887 Y113.646 E.02418
G1 X178.357 Y114.307 E.02418
G1 X178.706 Y115.04 E.02418
G1 X178.924 Y115.823 E.02418
G1 X179.003 Y116.631 E.02418
G1 X178.955 Y117.382 E.02241
G1 X178.765 Y118.172 E.02421
G1 X178.44 Y118.917 E.02421
G1 X177.992 Y119.595 E.02421
G1 X177.434 Y120.186 E.02421
G1 X176.782 Y120.671 E.02421
G1 X176.056 Y121.036 E.02421
G1 X175.278 Y121.271 E.02421
G1 X174.471 Y121.367 E.02421
G1 X173.66 Y121.323 E.02421
G1 X172.868 Y121.14 E.02421
G1 X172.113 Y120.819 E.02444
G1 E-.68 F3600
;WIPE_START
G1 F3000
G1 X172.055 Y120.795 E-.00754
G1 X171.927 Y120.787 E-.01533
G1 X171.152 Y121.019 E-.09713
;WIPE_END
G1 X165.028 Y118.553 Z.6 F21000
G1 Z.2
G1 E.8 F2700
;TYPE:Inner wall
G1 F3000
G1 X164.958 Y118.648 E.00352
G1 X164.709 Y118.829 E.00917
G1 X164.433 Y118.917 E.00862
G1 X162.104 Y119.282 E.07022
G1 X161.788 Y119.278 E.00943
G1 X161.511 Y119.18 E.00873
G1 X161.068 Y118.799 E.01743
G1 X160.732 Y118.348 E.01675
G1 X160.484 Y117.732 E.01978
G1 X160.419 Y117.419 E.00952
G1 X160.401 Y116.869 E.01639
G1 X160.445 Y116.552 E.00952
G1 X160.611 Y116.028 E.01639
G1 X160.758 Y115.744 E.00952
G1 X161.091 Y115.306 E.01639
G1 X161.324 Y115.088 E.00952
G1 X161.784 Y114.785 E.01639
G1 X162.076 Y114.658 E.00949
G1 X162.601 Y114.528 E.01612
G1 X162.918 Y114.505 E.00945
G1 X163.474 Y114.559 E.01664
G1 X163.785 Y114.644 E.0096
G1 X164.274 Y114.875 E.01612
G1 X164.535 Y115.056 E.00945
G1 X164.933 Y115.448 E.01664
G1 X165.121 Y115.711 E.00963
G1 X165.359 Y116.207 E.01639
G1 X165.452 Y116.561 E.0109
G1 X165.506 Y117.062 E.015
G1 X165.48 Y117.404 E.01024
G1 X165.358 Y117.916 E.01566
G1 X165.12 Y118.429 E.01685
G1 X165.052 Y118.521 E.00341
G1 X164.614 Y118.429 F21000
G1 F3000
G1 X164.438 Y118.535 E.00612
G1 X162.046 Y118.909 E.0721
G1 X161.856 Y118.907 E.00566
G1 X161.564 Y118.756 E.00978
G1 X161.33 Y118.529 E.00972
G1 X161.035 Y118.106 E.01534
G1 X160.835 Y117.594 E.01639
G1 X160.796 Y117.406 E.00571
G1 X160.778 Y116.857 E.01639
G1 X160.971 Y116.142 E.02204
G1 X161.391 Y115.534 E.02204
G1 X161.991 Y115.101 E.02204
G1 X162.692 Y114.894 E.02175
G1 X162.882 Y114.881 E.00567
G1 X163.438 Y114.934 E.01664
G1 X164.114 Y115.216 E.02182
G1 X164.668 Y115.717 E.02225
G1 X165.019 Y116.371 E.0221
G1 X165.077 Y116.601 E.00709
G1 X165.131 Y117.102 E.015
G1 X165.113 Y117.317 E.00643
G1 X164.991 Y117.829 E.01566
G1 X164.787 Y118.252 E.01399
G1 X164.69 Y118.383 E.00487
G1 X164.648 Y118.408 E.00146
G1 X164.427 Y118.109 F21000
;TYPE:Outer wall
G1 F3000
G1 X164.422 Y118.118 E.00032
G1 X164.317 Y118.172 E.00351
G1 X161.988 Y118.537 E.07022
G1 X161.827 Y118.486 E.00502
G1 X161.593 Y118.258 E.00972
G1 X161.386 Y117.969 E.0106
G1 X161.186 Y117.457 E.01639
G1 X161.155 Y116.844 E.01827
G1 X161.33 Y116.257 E.01827
G1 X161.692 Y115.761 E.01827
G1 X162.198 Y115.416 E.01827
G1 X162.782 Y115.261 E.018
G1 X163.401 Y115.31 E.01851
G1 X163.953 Y115.557 E.01802
G1 X164.403 Y115.985 E.01851
G1 X164.679 Y116.534 E.01829
G1 X164.756 Y117.142 E.01827
G1 X164.633 Y117.703 E.01708
G1 X164.445 Y118.073 E.01238
G1 E-.68 F3600
;WIPE_START
G1 F3000
G1 X164.422 Y118.118 E-.00609
G1 X164.317 Y118.172 E-.01415
G1 X163.495 Y118.301 E-.09976
;WIPE_END
G1 X155.897 Y117.584 Z.6 F21000
G1 X149.591 Y116.99 Z.6
G1 Z.2
G1 E.8 F2700
;TYPE:Inner wall
G1 F3000
G1 X150.042 Y117.113 E.01392
G1 X150.325 Y117.26 E.00949
G1 X150.694 Y117.541 E.01381
G1 X150.911 Y117.775 E.00949
G1 X151.245 Y118.312 E.01885
G1 X151.402 Y118.905 E.01828
G1 X151.42 Y119.265 E.01072
G1 X151.351 Y119.834 E.01709
G1 X151.02 Y120.546 E.02338
G1 X150.59 Y121.002 E.01868
G1 X150.331 Y121.188 E.0095
G1 X149.77 Y121.447 E.01838
G1 X149.146 Y121.532 E.01876
G1 X148.828 Y121.514 E.00949
G1 X148.22 Y121.359 E.0187
G1 X147.692 Y121.039 E.01839
G1 X147.455 Y120.825 E.0095
G1 X147.103 Y120.363 E.0173
G1 X146.869 Y119.739 E.01984
G1 X146.82 Y119.424 E.00949
G1 X146.841 Y118.812 E.01825
G1 X147.046 Y118.213 E.01887
G1 X147.205 Y117.937 E.00949
G1 X147.502 Y117.58 E.01381
G1 X147.744 Y117.373 E.00949
G1 X148.391 Y117.033 E.02177
G1 X148.992 Y116.916 E.01824
G1 X149.355 Y116.926 E.01082
G1 X149.553 Y116.98 E.0061
G1 X149.502 Y117.35 F21000
G1 F3000
G1 X149.927 Y117.472 E.01316
G1 X150.465 Y117.841 E.01945
G1 X150.849 Y118.369 E.01945
G1 X150.926 Y118.544 E.00569
G1 X151.051 Y119.092 E.01672
G1 X151.003 Y119.647 E.0166
G1 X150.953 Y119.831 E.00569
G1 X150.709 Y120.332 E.01657
G1 X150.321 Y120.737 E.01672
G1 X150.166 Y120.849 E.0057
G1 X149.662 Y121.085 E.01656
G1 X149.104 Y121.158 E.01678
G1 X148.913 Y121.147 E.00569
G1 X148.367 Y121.012 E.01674
G1 X147.894 Y120.72 E.01655
G1 X147.752 Y120.592 E.0057
G1 X147.426 Y120.169 E.01591
G1 X147.227 Y119.619 E.01743
G1 X147.197 Y119.43 E.00569
G1 X147.212 Y118.877 E.01648
G1 X147.4 Y118.343 E.01685
G1 X147.792 Y117.821 E.01945
G1 X148.336 Y117.46 E.01945
G1 X148.952 Y117.302 E.01897
G1 X149.338 Y117.303 E.01148
G1 X149.464 Y117.339 E.00391
G1 X149.413 Y117.703 F21000
;TYPE:Outer wall
G1 F3000
G1 X149.868 Y117.86 E.01432
G1 X150.28 Y118.188 E.01569
G1 X150.559 Y118.634 E.01569
G1 X150.675 Y119.128 E.01512
G1 X150.623 Y119.639 E.0153
G1 X150.378 Y120.143 E.01668
G1 X150.003 Y120.509 E.01561
G1 X149.522 Y120.731 E.01577
G1 X148.998 Y120.779 E.01569
G1 X148.487 Y120.65 E.01568
G1 X148.049 Y120.359 E.01567
G1 X147.739 Y119.956 E.01515
G1 X147.579 Y119.48 E.01495
G1 X147.581 Y118.972 E.01515
G1 X147.753 Y118.474 E.01569
G1 X148.082 Y118.062 E.01569
G1 X148.529 Y117.784 E.01569
G1 X149.027 Y117.671 E.01523
G1 X149.369 Y117.688 E.01019
G1 X149.375 Y117.69 E.00019
G1 E-.68 F3600
;WIPE_START
G1 F3000
G1 X149.868 Y117.86 E-.0625
G1 X150.243 Y118.158 E-.0575
;WIPE_END
