; HEADER_BLOCK_START
; generated by OrcaSlicer 2.1.1 on 2025-01-25 at 16:30:44
; total layer number: 211
; filament_density: 1.27
; filament_diameter: 1.75
; max_z_height: 17.00
; HEADER_BLOCK_END

; THUMBNAIL_BLOCK_START

;
; THUMBNAIL_BLOCK_END







; external perimeters extrusion width = 0.40mm
; perimeters extrusion width = 0.45mm
; infill extrusion width = 0.45mm
; solid infill extrusion width = 0.45mm
; top infill extrusion width = 0.38mm
; first layer extrusion width = 0.42mm

; EXECUTABLE_BLOCK_START
EXCLUDE_OBJECT_DEFINE NAME=小臂壳连杆.STL_id_0_copy_0 CENTER=117.5,115 POLYGON=[[115.009,114.794],[115.076,114.386],[115.211,113.996],[115.407,113.633],[115.661,113.307],[115.964,113.027],[116.31,112.801],[116.688,112.635],[117.089,112.534],[117.5,112.5],[117.911,112.534],[118.312,112.635],[118.69,112.801],[119.036,113.027],[119.339,113.307],[119.593,113.633],[119.789,113.996],[119.923,114.386],[119.991,114.794],[119.991,115.206],[119.923,115.614],[119.789,116.004],[119.593,116.367],[119.339,116.693],[119.036,116.973],[118.69,117.199],[118.312,117.365],[117.911,117.466],[117.5,117.5],[117.089,117.466],[116.688,117.365],[116.31,117.199],[115.964,116.973],[115.661,116.693],[115.407,116.367],[115.211,116.004],[115.076,115.614],[115.009,115.206],[115.009,114.794]]
M73 P0 R16
;TYPE:Custom
;ELEGOO NEPTUNE 4 PRO
M220 S100 ;Set the feed speed to 100%
M221 S100 ;Set the flow rate to 100%
M104 S140
M190 S70
G90
G28 ;home
G1 Z10 F300
G1 X67.5 Y0 F6000
G1 Z0 F300
M109 S240
G92 E0 ;Reset Extruder
G1 X67.5 Y0 Z0.4 F300 ;Move to start position
G1 X167.5 E30 F400 ;Draw the first line
G1 Z0.6 F120.0 ;Move to side a little
M73 P1 R16
G1 X162.5 F3000
G92 E0 ;Reset Extruder
G90
G21
M83 ; use relative distances for extrusion
; filament start gcode
M106 S0
;LAYER_CHANGE
;Z:0.2
;HEIGHT:0.2
;BEFORE_LAYER_CHANGE
G92 E0
;0.2


G1 E-.8 F3600
;AFTER_LAYER_CHANGE
;0.2
;_SET_FAN_SPEED_CHANGING_LAYER
SET_VELOCITY_LIMIT ACCEL=1000 ACCEL_TO_DECEL=500
SET_VELOCITY_LIMIT SQUARE_CORNER_VELOCITY=7
; printing object 小臂壳连杆.STL id:0 copy 0
EXCLUDE_OBJECT_START NAME=小臂壳连杆.STL_id_0_copy_0
M73 P2 R16
G1 X119.513 Y114.188 F21000
G1 Z.4
G1 Z.2
G1 E.8 F2700
;TYPE:Outer wall
;WIDTH:0.419999
G1 F600
G1 X119.572 Y114.318 E.00424
G1 X119.681 Y114.86 E.01647
G1 X119.681 Y115.181 E.00956
G1 X119.574 Y115.676 E.01509
G1 X119.36 Y116.147 E.01542
G1 X119.112 Y116.481 E.01238
G1 X118.707 Y116.818 E.0157
G1 X118.248 Y117.054 E.01536
G1 X117.82 Y117.162 E.01317
G1 X117.315 Y117.174 E.01502
G1 X116.829 Y117.08 E.01476
G1 X116.495 Y116.941 E.01076
G1 X116.082 Y116.66 E.01491
G1 X115.693 Y116.23 E.01727
G1 X115.515 Y115.915 E.01076
G1 X115.357 Y115.409 E.0158
G1 X115.319 Y114.86 E.01637
G1 X115.378 Y114.463 E.01198
G1 X115.572 Y113.979 E.01551
G1 X115.863 Y113.551 E.01541
G1 X116.19 Y113.25 E.01324
G1 X116.633 Y112.998 E.01519
G1 X117.1 Y112.851 E.01458
G1 X117.598 Y112.819 E.01485
G1 X118.171 Y112.92 E.01734
G1 X118.576 Y113.097 E.01317
G1 X119.024 Y113.438 E.01677
G1 X119.352 Y113.839 E.01543
G1 X119.496 Y114.152 E.01026
G1 E-.68 F3600
;WIPE_START
G1 F3000
G1 X119.572 Y114.318 E-.02189
G1 X119.681 Y114.86 E-.06636
G1 X119.681 Y115.124 E-.03175
;WIPE_END
G1 X116.334 Y114.697 Z.6 F21000
G1 Z.2
G1 E.8 F2700
G1 F600
G1 X116.488 Y114.34 E.01159
G1 X116.766 Y114.04 E.01216
G1 X117.128 Y113.851 E.01216
G1 X117.516 Y113.79 E.0117
G1 X117.884 Y113.868 E.01121
G1 X118.117 Y113.961 E.00746
G1 X118.428 Y114.226 E.01216
G1 X118.633 Y114.579 E.01216
G1 X118.708 Y114.981 E.01216
G1 X118.645 Y115.384 E.01216
G1 X118.452 Y115.744 E.01216
G1 X118.103 Y116.04 E.01364
G1 X117.738 Y116.18 E.01164
G1 X117.345 Y116.196 E.0117
G1 X116.968 Y116.084 E.01171
G1 X116.641 Y115.85 E.01198
G1 X116.407 Y115.515 E.01216
G1 X116.298 Y115.122 E.01216
G1 X116.325 Y114.735 E.01154
G1 X115.854 Y114.63 F21000
;TYPE:Inner wall
;WIDTH:0.655972
G1 F600
G1 X115.872 Y114.532 E.00484
;WIDTH:0.644916
G1 X116.095 Y114.048 E.02533
;WIDTH:0.643052
G1 X116.457 Y113.659 E.02518
G1 X116.888 Y113.418 E.02343
;WIDTH:0.642892
G1 X117.386 Y113.311 E.02411
G1 X117.778 Y113.324 E.01859
G1 X118.309 Y113.506 E.0266
;WIDTH:0.643304
G1 X118.75 Y113.85 E.02652
;WIDTH:0.643914
G1 X119.055 Y114.318 E.02654
;WIDTH:0.644736
G1 X119.192 Y114.86 E.02657
;WIDTH:0.645754
G1 X119.145 Y115.417 E.02661
;WIDTH:0.647258
G1 X118.928 Y115.913 E.02588
;WIDTH:0.653738
G1 X118.747 Y116.145 E.01419
G1 X118.352 Y116.465 E.02453
;WIDTH:0.645028
G1 X117.923 Y116.642 E.02207
;WIDTH:0.646384
G1 X117.468 Y116.694 E.02184
;WIDTH:0.65244
G1 X116.95 Y116.602 E.02532
G1 X116.693 Y116.491 E.01348
;WIDTH:0.649166
G1 X116.252 Y116.149 E.02674
;WIDTH:0.647668
G1 X115.995 Y115.781 E.02145
;WIDTH:0.64348
G1 X115.839 Y115.328 E.02272
;WIDTH:0.655972
G1 X115.814 Y114.86 E.02269
G1 X115.847 Y114.67 E.00937
; stop printing object 小臂壳连杆.STL id:0 copy 0
;LAYER_CHANGE
;Z:0.28
;HEIGHT:0.08
;BEFORE_LAYER_CHANGE
G92 E0
;0.28


G1 E-.68 F3600
;WIPE_START
G1 F3000
G1 X115.872 Y114.532 E-.0168
G1 X116.095 Y114.048 E-.06393
G1 X116.318 Y113.809 E-.03927
;WIPE_END
EXCLUDE_OBJECT_END NAME=小臂壳连杆.STL_id_0_copy_0
;AFTER_LAYER_CHANGE
;0.28
;_SET_FAN_SPEED_CHANGING_LAYER
SET_VELOCITY_LIMIT ACCEL=5000 ACCEL_TO_DECEL=2500
SET_VELOCITY_LIMIT SQUARE_CORNER_VELOCITY=9
M140 S70 ; set bed temperature
; printing object 小臂壳连杆.STL id:0 copy 0
EXCLUDE_OBJECT_START NAME=小臂壳连杆.STL_id_0_copy_0
G1 X119.267 Y114.314 Z.6 F21000
G1 Z.28
G1 E.8 F2700
SET_VELOCITY_LIMIT ACCEL=3000 ACCEL_TO_DECEL=1500 SQUARE_CORNER_VELOCITY=7
;WIDTH:0.430586
G1 F600
G1 X119.28 Y114.34 E.00038
;WIDTH:0.425075
G1 X119.395 Y114.854 E.0068
;WIDTH:0.430029
G1 X119.391 Y115.175 E.00418
G1 X119.268 Y115.688 E.00689
;WIDTH:0.42539
G1 X119.011 Y116.148 E.00679
;WIDTH:0.426483
G1 X118.653 Y116.511 E.00659
;WIDTH:0.427198
G1 X118.138 Y116.79 E.00759
G1 X117.846 Y116.867 E.00391
;WIDTH:0.426736
G1 X117.341 Y116.891 E.00654
;WIDTH:0.428452
G1 X116.899 Y116.802 E.00586
G1 X116.61 Y116.679 E.00408
;WIDTH:0.426855
G1 X116.201 Y116.384 E.00653
;WIDTH:0.425236
G1 X115.874 Y115.977 E.00674
;WIDTH:0.429871
G1 X115.664 Y115.483 E.007
G1 X115.604 Y115.082 E.00528
;WIDTH:0.425503
G1 X115.653 Y114.55 E.0069
;WIDTH:0.424991
G1 X115.814 Y114.132 E.00577
;WIDTH:0.430536
G1 X116.089 Y113.731 E.00635
G1 X116.432 Y113.432 E.00594
;WIDTH:0.42471
G1 X116.898 Y113.196 E.00673
;WIDTH:0.424407
G1 X117.418 Y113.103 E.00679
;WIDTH:0.423019
G1 X117.895 Y113.143 E.00613
;WIDTH:0.424455
G1 X118.406 Y113.326 E.00699
;WIDTH:0.424798
G1 X118.817 Y113.635 E.00662
;WIDTH:0.430586
G1 X119.08 Y113.947 E.00534
G1 X119.248 Y114.278 E.00485
SET_VELOCITY_LIMIT ACCEL=5000 ACCEL_TO_DECEL=2500 SQUARE_CORNER_VELOCITY=9
G1 X119.606 Y114.131 F21000
SET_VELOCITY_LIMIT ACCEL=3000 ACCEL_TO_DECEL=1500 SQUARE_CORNER_VELOCITY=7
;TYPE:Outer wall
;WIDTH:0.399999
G1 F600
G1 X119.682 Y114.3 E.00224
G1 X119.791 Y114.854 E.00682
G1 X119.791 Y115.19 E.00407
G1 X119.677 Y115.715 E.0065
G1 X119.466 Y116.183 E.00621
G1 X119.159 Y116.586 E.00613
G1 X118.765 Y116.911 E.00617
G1 X118.297 Y117.153 E.00637
G1 X117.835 Y117.271 E.00577
G1 X117.309 Y117.283 E.00637
G1 X116.802 Y117.187 E.00624
G1 X116.353 Y116.988 E.00594
G1 X115.935 Y116.674 E.00633
G1 X115.609 Y116.301 E.00599
G1 X115.418 Y115.968 E.00464
G1 X115.251 Y115.446 E.00663
G1 X115.209 Y114.86 E.0071
G1 X115.271 Y114.436 E.00519
G1 X115.466 Y113.944 E.0064
G1 X115.775 Y113.486 E.00668
G1 X116.17 Y113.132 E.00643
G1 X116.641 Y112.875 E.00648
G1 X117.172 Y112.728 E.00666
G1 X117.77 Y112.723 E.00724
G1 X118.247 Y112.825 E.0059
G1 X118.701 Y113.047 E.00611
G1 X119.122 Y113.379 E.00648
G1 X119.449 Y113.786 E.00632
G1 X119.589 Y114.095 E.0041
SET_VELOCITY_LIMIT ACCEL=5000 ACCEL_TO_DECEL=2500 SQUARE_CORNER_VELOCITY=9
G1 E-.68 F3600
;WIPE_START
G1 F7200
G1 X119.682 Y114.3 E-.02704
G1 X119.791 Y114.854 E-.06767
G1 X119.791 Y115.064 E-.0253
;WIPE_END
G1 X116.049 Y114.704 Z.68 F21000
G1 Z.28
G1 E.8 F2700
SET_VELOCITY_LIMIT ACCEL=3000 ACCEL_TO_DECEL=1500 SQUARE_CORNER_VELOCITY=7
;TYPE:Inner wall
;WIDTH:0.425147
G1 F600
G1 X116.057 Y114.618 E.00111
;WIDTH:0.424649
G1 X116.264 Y114.163 E.00643
;WIDTH:0.424188
G1 X116.609 Y113.802 E.00642
;WIDTH:0.423763
G1 X117.053 Y113.575 E.00642
;WIDTH:0.423373
G1 X117.55 Y113.508 E.00643
;WIDTH:0.430823
G1 X117.981 Y113.595 E.00576
G1 X118.312 Y113.75 E.00477
;WIDTH:0.424551
G1 X118.644 Y114.04 E.00568
;WIDTH:0.422293
G1 X118.897 Y114.471 E.0064
;WIDTH:0.422066
G1 X118.993 Y114.96 E.00638
;WIDTH:0.421721
G1 X118.922 Y115.456 E.0064
G1 X118.692 Y115.9 E.00639
;WIDTH:0.421604
G1 X118.329 Y116.243 E.00639
G1 X117.873 Y116.446 E.00639
;WIDTH:0.421477
G1 X117.375 Y116.488 E.00638
G1 X116.891 Y116.364 E.00638
G1 X116.475 Y116.086 E.00638
G1 X116.175 Y115.689 E.00637
;WIDTH:0.425681
G1 X116.012 Y115.115 E.00769
;WIDTH:0.425147
G1 X116.046 Y114.744 E.00481
SET_VELOCITY_LIMIT ACCEL=5000 ACCEL_TO_DECEL=2500 SQUARE_CORNER_VELOCITY=9
G1 X116.434 Y114.738 F21000
SET_VELOCITY_LIMIT ACCEL=3000 ACCEL_TO_DECEL=1500 SQUARE_CORNER_VELOCITY=7
;TYPE:Outer wall
;WIDTH:0.399999
G1 F600
G1 X116.434 Y114.737 E.00002
G1 X116.583 Y114.397 E.00449
G1 X116.836 Y114.126 E.00449
G1 X117.165 Y113.955 E.00449
G1 X117.516 Y113.901 E.0043
G1 X117.849 Y113.97 E.00411
G1 X118.063 Y114.058 E.0028
G1 X118.345 Y114.299 E.00449
G1 X118.53 Y114.621 E.00449
G1 X118.598 Y114.986 E.00449
G1 X118.511 Y115.408 E.00522
G1 X118.332 Y115.708 E.00423
G1 X118.058 Y115.941 E.00435
G1 X117.733 Y116.071 E.00424
G1 X117.373 Y116.09 E.00436
G1 X117.019 Y115.987 E.00446
G1 X116.717 Y115.77 E.00449
G1 X116.508 Y115.471 E.00441
G1 X116.408 Y115.107 E.00457
G1 X116.431 Y114.778 E.00399
; stop printing object 小臂壳连杆.STL id:0 copy 0
;LAYER_CHANGE
;Z:0.36
;HEIGHT:0.08
;BEFORE_LAYER_CHANGE
G92 E0
;0.36


G1 E-.68 F3600
;WIPE_START
G1 F7200
G1 X116.434 Y114.737 E-.00495
G1 X116.583 Y114.397 E-.04452
G1 X116.836 Y114.126 E-.04452
G1 X117.028 Y114.026 E-.026
;WIPE_END
EXCLUDE_OBJECT_END NAME=小臂壳连杆.STL_id_0_copy_0
;AFTER_LAYER_CHANGE
;0.36
;_SET_FAN_SPEED_CHANGING_LAYER
; printing object 小臂壳连杆.STL id:0 copy 0
SET_VELOCITY_LIMIT ACCEL=5000 ACCEL_TO_DECEL=2500 SQUARE_CORNER_VELOCITY=9
EXCLUDE_OBJECT_START NAME=小臂壳连杆.STL_id_0_copy_0
G1 X119.263 Y114.307 Z.68 F21000
G1 Z.36
G1 E.8 F2700
SET_VELOCITY_LIMIT ACCEL=3000 ACCEL_TO_DECEL=1500 SQUARE_CORNER_VELOCITY=7
;TYPE:Inner wall
;WIDTH:0.430587
G1 F600
G1 X119.28 Y114.34 E.00047
;WIDTH:0.42505
G1 X119.395 Y114.853 E.00678
;WIDTH:0.430023
G1 X119.391 Y115.175 E.0042
G1 X119.268 Y115.688 E.00689
;WIDTH:0.42539
G1 X119.011 Y116.148 E.00679
;WIDTH:0.426458
G1 X118.653 Y116.511 E.00659
;WIDTH:0.427197
G1 X118.138 Y116.79 E.00759
G1 X117.846 Y116.867 E.00391
;WIDTH:0.426736
G1 X117.341 Y116.891 E.00654
;WIDTH:0.428452
G1 X116.899 Y116.802 E.00586
G1 X116.61 Y116.679 E.00408
;WIDTH:0.426856
G1 X116.201 Y116.384 E.00653
;WIDTH:0.425572
G1 X115.873 Y115.977 E.00675
;WIDTH:0.429871
G1 X115.664 Y115.483 E.007
G1 X115.605 Y115.082 E.00527
;WIDTH:0.425063
G1 X115.653 Y114.55 E.0069
G1 X115.814 Y114.132 E.00577
;WIDTH:0.430486
G1 X116.088 Y113.732 E.00633
G1 X116.432 Y113.432 E.00596
;WIDTH:0.42471
M73 P3 R16
G1 X116.898 Y113.196 E.00673
;WIDTH:0.424407
G1 X117.418 Y113.103 E.00679
;WIDTH:0.423019
G1 X117.894 Y113.143 E.00612
;WIDTH:0.424455
G1 X118.406 Y113.326 E.007
;WIDTH:0.424798
G1 X118.817 Y113.635 E.00662
;WIDTH:0.430587
G1 X119.08 Y113.947 E.00534
G1 X119.245 Y114.272 E.00475
SET_VELOCITY_LIMIT ACCEL=5000 ACCEL_TO_DECEL=2500 SQUARE_CORNER_VELOCITY=9
G1 X119.603 Y114.125 F21000
SET_VELOCITY_LIMIT ACCEL=3000 ACCEL_TO_DECEL=1500 SQUARE_CORNER_VELOCITY=7
;TYPE:Outer wall
;WIDTH:0.399999
G1 F600
G1 X119.682 Y114.3 E.00233
G1 X119.79 Y114.852 E.0068
G1 X119.791 Y115.19 E.0041
G1 X119.677 Y115.715 E.0065
G1 X119.466 Y116.183 E.00621
G1 X119.16 Y116.585 E.00611
G1 X118.765 Y116.911 E.00619
G1 X118.297 Y117.153 E.00637
G1 X117.837 Y117.27 E.00575
G1 X117.309 Y117.283 E.00639
G1 X116.802 Y117.187 E.00624
G1 X116.353 Y116.988 E.00594
G1 X115.935 Y116.674 E.00633
G1 X115.606 Y116.297 E.00605
G1 X115.418 Y115.967 E.00459
G1 X115.251 Y115.446 E.00662
G1 X115.209 Y114.861 E.00709
G1 X115.271 Y114.436 E.0052
G1 X115.466 Y113.944 E.0064
G1 X115.774 Y113.487 E.00666
G1 X116.13 Y113.158 E.00588
G1 X116.571 Y112.905 E.00615
G1 X117.073 Y112.744 E.00637
G1 X117.616 Y112.71 E.00658
G1 X118.247 Y112.825 E.00775
G1 X118.701 Y113.047 E.00611
G1 X119.122 Y113.379 E.00648
G1 X119.449 Y113.786 E.00632
G1 X119.586 Y114.089 E.00401
SET_VELOCITY_LIMIT ACCEL=5000 ACCEL_TO_DECEL=2500 SQUARE_CORNER_VELOCITY=9
G1 E-.68 F3600
;WIPE_START
G1 F7200
G1 X119.682 Y114.3 E-.0279
G1 X119.79 Y114.852 E-.06742
G1 X119.791 Y115.057 E-.02469
;WIPE_END
G1 X116.049 Y114.707 Z.76 F21000
G1 Z.36
G1 E.8 F2700
SET_VELOCITY_LIMIT ACCEL=3000 ACCEL_TO_DECEL=1500 SQUARE_CORNER_VELOCITY=7
;TYPE:Inner wall
;WIDTH:0.424654
G1 F600
G1 X116.057 Y114.618 E.00115
G1 X116.264 Y114.163 E.00643
;WIDTH:0.424188
G1 X116.609 Y113.802 E.00642
;WIDTH:0.423762
G1 X117.053 Y113.575 E.00642
;WIDTH:0.423372
G1 X117.55 Y113.508 E.00643
;WIDTH:0.430813
G1 X117.982 Y113.595 E.00576
G1 X118.312 Y113.75 E.00477
;WIDTH:0.424551
G1 X118.644 Y114.04 E.00568
;WIDTH:0.422292
G1 X118.897 Y114.471 E.0064
;WIDTH:0.422066
G1 X118.993 Y114.96 E.00637
;WIDTH:0.421721
G1 X118.922 Y115.456 E.00641
G1 X118.692 Y115.9 E.00639
;WIDTH:0.421605
G1 X118.329 Y116.243 E.00639
G1 X117.873 Y116.446 E.00639
;WIDTH:0.421476
G1 X117.375 Y116.488 E.00638
G1 X116.891 Y116.364 E.00638
G1 X116.475 Y116.086 E.00638
;WIDTH:0.421658
G1 X116.174 Y115.688 E.00639
;WIDTH:0.425681
G1 X116.012 Y115.117 E.00765
;WIDTH:0.424654
G1 X116.045 Y114.747 E.00478
SET_VELOCITY_LIMIT ACCEL=5000 ACCEL_TO_DECEL=2500 SQUARE_CORNER_VELOCITY=9
G1 X116.434 Y114.742 F21000
SET_VELOCITY_LIMIT ACCEL=3000 ACCEL_TO_DECEL=1500 SQUARE_CORNER_VELOCITY=7
;TYPE:Outer wall
;WIDTH:0.399999
G1 F600
G1 X116.434 Y114.737 E.00005
G1 X116.583 Y114.397 E.00449
G1 X116.836 Y114.126 E.00449
G1 X117.165 Y113.955 E.00449
G1 X117.516 Y113.901 E.0043
G1 X117.849 Y113.971 E.00411
G1 X118.063 Y114.058 E.0028
G1 X118.345 Y114.299 E.00449
G1 X118.53 Y114.621 E.00449
G1 X118.598 Y114.986 E.00449
G1 X118.511 Y115.408 E.00522
G1 X118.333 Y115.707 E.00421
G1 X118.058 Y115.941 E.00437
G1 X117.734 Y116.071 E.00422
G1 X117.373 Y116.09 E.00438
G1 X117.019 Y115.987 E.00446
G1 X116.717 Y115.77 E.00449
G1 X116.508 Y115.471 E.00441
G1 X116.408 Y115.107 E.00457
G1 X116.431 Y114.782 E.00395
; stop printing object 小臂壳连杆.STL id:0 copy 0
M106 S127
;LAYER_CHANGE
;Z:0.44
;HEIGHT:0.08
;BEFORE_LAYER_CHANGE
G92 E0
;0.44


G1 E-.68 F3600
;WIPE_START
G1 F7200
G1 X116.434 Y114.737 E-.00534
G1 X116.583 Y114.397 E-.04452
G1 X116.836 Y114.126 E-.04453
G1 X117.025 Y114.027 E-.02561
;WIPE_END
EXCLUDE_OBJECT_END NAME=小臂壳连杆.STL_id_0_copy_0
;AFTER_LAYER_CHANGE
;0.44
;_SET_FAN_SPEED_CHANGING_LAYER
; printing object 小臂壳连杆.STL id:0 copy 0
SET_VELOCITY_LIMIT ACCEL=5000 ACCEL_TO_DECEL=2500 SQUARE_CORNER_VELOCITY=9
EXCLUDE_OBJECT_START NAME=小臂壳连杆.STL_id_0_copy_0
G1 X119.241 Y114.284 Z.76 F21000
G1 Z.44
G1 E.8 F2700
SET_VELOCITY_LIMIT ACCEL=3000 ACCEL_TO_DECEL=1500 SQUARE_CORNER_VELOCITY=7
;TYPE:Inner wall
;WIDTH:0.42517
G1 F600
G1 X119.315 Y114.447 E.00232
;WIDTH:0.429706
G1 X119.392 Y114.851 E.00536
G1 X119.396 Y115.081 E.00299
;WIDTH:0.42987
G1 X119.345 Y115.45 E.00485
G1 X119.182 Y115.88 E.006
;WIDTH:0.426273
G1 X118.887 Y116.3 E.00663
;WIDTH:0.426902
G1 X118.43 Y116.656 E.0075
;WIDTH:0.427458
G1 X118.145 Y116.786 E.00406
G1 X117.684 Y116.887 E.00612
;WIDTH:0.433578
G1 X117.204 Y116.874 E.00632
G1 X116.728 Y116.734 E.00652
;WIDTH:0.428993
G1 X116.347 Y116.509 E.00576
G1 X116.073 Y116.253 E.00488
;WIDTH:0.42637
G1 X115.766 Y115.779 E.0073
;WIDTH:0.425769
G1 X115.641 Y115.381 E.00539
;WIDTH:0.430208
G1 X115.606 Y114.86 E.00681
G1 X115.685 Y114.447 E.00548
;WIDTH:0.425171
G1 X115.899 Y113.974 E.0067
;WIDTH:0.424719
G1 X116.198 Y113.621 E.00596
;WIDTH:0.430816
G1 X116.581 Y113.339 E.00623
G1 X116.954 Y113.182 E.00528
;WIDTH:0.424366
G1 X117.483 Y113.098 E.0069
G1 X117.985 Y113.167 E.00652
;WIDTH:0.430814
G1 X118.388 Y113.322 E.00564
G1 X118.742 Y113.564 E.0056
;WIDTH:0.424717
G1 X119.101 Y113.974 E.00702
;WIDTH:0.42517
