; HEADER_BLOCK_START
; generated by OrcaSlicer 2.1.1 on 2025-01-25 at 16:31:58
; total layer number: 36
; filament_density: 1.27
; filament_diameter: 1.75
; max_z_height: 3.00
; HEADER_BLOCK_END

; THUMBNAIL_BLOCK_START

;
; THUMBNAIL_BLOCK_END







; external perimeters extrusion width = 0.40mm
; perimeters extrusion width = 0.45mm
; infill extrusion width = 0.45mm
; solid infill extrusion width = 0.45mm
; top infill extrusion width = 0.38mm
; first layer extrusion width = 0.42mm

; EXECUTABLE_BLOCK_START
EXCLUDE_OBJECT_DEFINE NAME=支撑3.STL_id_0_copy_0 CENTER=117.5,115 POLYGON=[[113,115],[113.025,114.53],[113.098,114.064],[113.22,113.609],[113.389,113.17],[113.603,112.75],[113.859,112.355],[114.156,111.989],[114.489,111.656],[114.855,111.359],[115.25,111.103],[115.67,110.889],[116.109,110.72],[116.564,110.598],[117.03,110.525],[117.5,110.5],[117.97,110.525],[118.436,110.598],[118.891,110.72],[119.33,110.889],[119.75,111.103],[120.145,111.359],[120.511,111.656],[120.844,111.989],[121.141,112.355],[121.397,112.75],[121.611,113.17],[121.78,113.609],[121.902,114.064],[121.975,114.53],[122,115],[121.975,115.47],[121.902,115.936],[121.78,116.391],[121.611,116.83],[121.397,117.25],[121.141,117.645],[120.844,118.011],[120.511,118.344],[120.145,118.641],[119.75,118.897],[119.33,119.111],[118.891,119.28],[118.436,119.402],[117.97,119.475],[117.5,119.5],[117.03,119.475],[116.564,119.402],[116.109,119.28],[115.67,119.111],[115.25,118.897],[114.855,118.641],[114.489,118.344],[114.156,118.011],[113.859,117.645],[113.603,117.25],[113.389,116.83],[113.22,116.391],[113.098,115.936],[113.025,115.47],[113,115]]
M73 P0 R5
;TYPE:Custom
;ELEGOO NEPTUNE 4 PRO
M220 S100 ;Set the feed speed to 100%
M221 S100 ;Set the flow rate to 100%
M104 S140
M190 S70
G90
G28 ;home
G1 Z10 F300
G1 X67.5 Y0 F6000
G1 Z0 F300
M109 S240
G92 E0 ;Reset Extruder
G1 X67.5 Y0 Z0.4 F300 ;Move to start position
M73 P1 R5
G1 X167.5 E30 F400 ;Draw the first line
G1 Z0.6 F120.0 ;Move to side a little
M73 P6 R4
G1 X162.5 F3000
G92 E0 ;Reset Extruder
G90
G21
M83 ; use relative distances for extrusion
; filament start gcode
M106 S0
;LAYER_CHANGE
;Z:0.2
;HEIGHT:0.2
;BEFORE_LAYER_CHANGE
G92 E0
;0.2


G1 E-.8 F3600
;AFTER_LAYER_CHANGE
;0.2
;_SET_FAN_SPEED_CHANGING_LAYER
SET_VELOCITY_LIMIT ACCEL=1000 ACCEL_TO_DECEL=500
SET_VELOCITY_LIMIT SQUARE_CORNER_VELOCITY=7
; printing object 支撑3.STL id:0 copy 0
EXCLUDE_OBJECT_START NAME=支撑3.STL_id_0_copy_0
G1 X120.592 Y113.716 F21000
G1 Z.4
G1 Z.2
G1 E.8 F2700
;TYPE:Inner wall
;WIDTH:0.543615
G1 F971
G1 X120.709 Y113.985 E.01157
G1 X120.852 Y114.674 E.02783
;WIDTH:0.539134
G1 X120.855 Y115.155 E.01885
;WIDTH:0.533213
G1 X120.768 Y115.768 E.02401
;WIDTH:0.532447
G1 X120.614 Y116.255 E.01974
;WIDTH:0.536618
G1 X120.364 Y116.763 E.02206
;WIDTH:0.538709
G1 X120.02 Y117.234 E.02286
G1 X119.646 Y117.583 E.02005
;WIDTH:0.532418
G1 X119.193 Y117.898 E.02133
;WIDTH:0.533205
G1 X118.683 Y118.143 E.02189
;WIDTH:0.549779
G1 X118.173 Y118.294 E.02131
G1 X117.372 Y118.359 E.0322
;WIDTH:0.540599
G1 X116.799 Y118.296 E.02263
G1 X116.317 Y118.143 E.01991
;WIDTH:0.533205
G1 X115.807 Y117.898 E.02189
;WIDTH:0.53242
G1 X115.354 Y117.583 E.02133
;WIDTH:0.551182
G1 X114.984 Y117.23 E.02056
G1 X114.636 Y116.763 E.02337
;WIDTH:0.536598
G1 X114.386 Y116.255 E.02207
;WIDTH:0.532448
G1 X114.221 Y115.715 E.02185
;WIDTH:0.533214
G1 X114.145 Y115.155 E.0219
;WIDTH:0.538135
G1 X114.16 Y114.588 E.02216
;WIDTH:0.541543
G1 X114.306 Y113.935 E.02637
;WIDTH:0.548935
G1 X114.601 Y113.296 E.02813
G1 X114.98 Y112.766 E.02604
;WIDTH:0.538692
G1 X115.354 Y112.417 E.02005
;WIDTH:0.53242
G1 X115.807 Y112.102 E.02133
;WIDTH:0.533206
G1 X116.317 Y111.857 E.02189
;WIDTH:0.538141
G1 X116.859 Y111.696 E.02214
;WIDTH:0.551276
G1 X117.527 Y111.638 E.02689
G1 X118.201 Y111.704 E.0272
;WIDTH:0.540598
G1 X118.683 Y111.857 E.0199
;WIDTH:0.533206
G1 X119.193 Y112.102 E.02189
;WIDTH:0.532458
G1 X119.656 Y112.426 E.02186
;WIDTH:0.53662
G1 X120.062 Y112.821 E.02208
;WIDTH:0.541954
G1 X120.443 Y113.371 E.02639
;WIDTH:0.543615
G1 X120.577 Y113.68 E.01331
G1 X121 Y113.545 F21000
;WIDTH:0.419999
G1 F971
G1 X121.093 Y113.756 E.00686
G1 X121.191 Y114.141 E.01185
M73 P7 R4
G1 X121.289 Y114.674 E.01612
G1 X121.289 Y115.398 E.02158
G1 X121.123 Y116.177 E.02372
G1 X120.799 Y116.905 E.02372
G1 X120.331 Y117.549 E.02372
G1 X119.739 Y118.082 E.02372
G1 X119.05 Y118.48 E.02372
G1 X118.292 Y118.726 E.02372
G1 X117.5 Y118.81 E.02372
G1 X116.708 Y118.726 E.02372
G1 X115.95 Y118.48 E.02372
G1 X115.261 Y118.082 E.02372
G1 X114.669 Y117.549 E.02372
G1 X114.201 Y116.905 E.02372
G1 X113.877 Y116.177 E.02372
G1 X113.711 Y115.398 E.02372
G1 X113.711 Y114.602 E.02372
G1 X113.877 Y113.823 E.02372
G1 X114.201 Y113.095 E.02372
G1 X114.669 Y112.451 E.02372
G1 X115.261 Y111.918 E.02372
G1 X115.95 Y111.52 E.02372
G1 X116.708 Y111.274 E.02372
G1 X117.5 Y111.19 E.02372
G1 X118.292 Y111.274 E.02373
G1 X119.05 Y111.52 E.02372
G1 X119.739 Y111.918 E.02372
G1 X120.331 Y112.451 E.02372
G1 X120.799 Y113.095 E.02372
G1 X120.983 Y113.509 E.01348
G1 X121.344 Y113.392 F21000
;TYPE:Outer wall
G1 F971
G1 X121.438 Y113.603 E.00689
G1 X121.571 Y114.117 E.01579
G1 X121.666 Y114.674 E.01684
G1 X121.666 Y115.438 E.02276
G1 X121.484 Y116.294 E.02608
G1 X121.128 Y117.094 E.02608
G1 X120.613 Y117.803 E.02608
G1 X119.962 Y118.389 E.02608
G1 X119.204 Y118.827 E.02608
G1 X118.371 Y119.097 E.02608
G1 X117.5 Y119.189 E.02608
G1 X116.629 Y119.097 E.02608
G1 X115.796 Y118.827 E.02608
G1 X115.038 Y118.389 E.02608
G1 X114.387 Y117.803 E.02608
G1 X113.872 Y117.094 E.02608
G1 X113.516 Y116.294 E.02608
G1 X113.334 Y115.438 E.02608
G1 X113.334 Y114.562 E.02608
G1 X113.516 Y113.706 E.02608
G1 X113.872 Y112.906 E.02608
G1 X114.387 Y112.197 E.02608
G1 X115.038 Y111.611 E.02608
G1 X115.796 Y111.173 E.02608
G1 X116.629 Y110.903 E.02608
G1 X117.5 Y110.811 E.02608
G1 X118.371 Y110.903 E.02609
G1 X119.204 Y111.173 E.02608
G1 X119.962 Y111.611 E.02608
G1 X120.613 Y112.197 E.02608
G1 X121.128 Y112.906 E.02608
G1 X121.328 Y113.355 E.01466
G1 E-.68 F3600
;WIPE_START
G1 F3000
G1 X121.438 Y113.603 E-.03257
G1 X121.571 Y114.117 E-.06363
G1 X121.604 Y114.312 E-.02381
;WIPE_END
M73 P8 R4
G1 X117.353 Y112.156 Z.6 F21000
G1 Z.2
G1 E.8 F2700
;TYPE:Inner wall
;WIDTH:0.551276
G1 F971
G1 X117.5 Y112.145 E.00593
G1 X118.054 Y112.182 E.02228
;WIDTH:0.541733
G1 X118.668 Y112.38 E.02543
G1 X119.198 Y112.683 E.02407
;WIDTH:0.539839
G1 X119.633 Y113.074 E.02294
;WIDTH:0.540579
G1 X119.968 Y113.536 E.02243
;WIDTH:0.543612
G1 X120.234 Y114.137 E.02599
G1 X120.354 Y114.681 E.02203
;WIDTH:0.539134
G1 X120.358 Y115.292 E.02398
G1 X120.261 Y115.784 E.01967
;WIDTH:0.535288
G1 X120.092 Y116.227 E.01843
;WIDTH:0.53188
G1 X119.855 Y116.637 E.0183
;WIDTH:0.534162
G1 X119.554 Y117.003 E.01839
;WIDTH:0.539837
G1 X119.198 Y117.317 E.01862
;WIDTH:0.541732
G1 X118.668 Y117.62 E.02407
;WIDTH:0.549779
G1 X118.105 Y117.792 E.02358
G1 X117.605 Y117.867 E.02024
;WIDTH:0.535114
G1 X117.088 Y117.839 E.02014
;WIDTH:0.531737
G1 X116.584 Y117.719 E.01999
;WIDTH:0.530373
G1 X116.11 Y117.51 E.01994
;WIDTH:0.53242
G1 X115.682 Y117.22 E.02002
;WIDTH:0.535327
G1 X115.197 Y116.702 E.02759
G1 X114.908 Y116.227 E.02162
;WIDTH:0.531882
G1 X114.709 Y115.667 E.02295
;WIDTH:0.533214
G1 X114.635 Y115.155 E.02005
;WIDTH:0.538135
G1 X114.646 Y114.681 E.01855
;WIDTH:0.541543
G1 X114.77 Y114.117 E.02271
;WIDTH:0.548935
G1 X115.017 Y113.583 E.02355
G1 X115.313 Y113.144 E.02114
;WIDTH:0.536248
G1 X115.674 Y112.788 E.01976
;WIDTH:0.532457
G1 X116.11 Y112.49 E.02044
;WIDTH:0.541734
G1 X116.332 Y112.38 E.00975
G1 X116.912 Y112.19 E.02407
;WIDTH:0.551276
G1 X117.313 Y112.159 E.01612
G1 X117.405 Y112.601 F21000
;WIDTH:0.419999
G1 F971
G1 X117.808 Y112.588 E.01199
G1 X118.335 Y112.712 E.01613
G1 X118.7 Y112.88 E.01198
G1 X119.033 Y113.107 E.01198
G1 X119.324 Y113.385 E.01198
G1 X119.585 Y113.749 E.01335
G1 X119.833 Y114.313 E.01836
G1 X119.931 Y114.845 E.01612
G1 X119.923 Y115.248 E.01198
G1 X119.816 Y115.741 E.01503
G1 X119.597 Y116.233 E.01604
G1 X119.304 Y116.639 E.01494
G1 X118.959 Y116.951 E.01384
G1 X118.492 Y117.219 E.01604
G1 X118.201 Y117.328 E.00926
G1 X117.594 Y117.43 E.01834
G1 X117.053 Y117.395 E.01613
G1 X116.508 Y117.219 E.01706
G1 X116.041 Y116.951 E.01604
G1 X115.517 Y116.407 E.02248
G1 X115.251 Y115.936 E.01613
G1 X115.127 Y115.553 E.01198
G1 X115.069 Y115.155 E.01198
G1 X115.077 Y114.752 E.01198
G1 X115.184 Y114.259 E.01503
G1 X115.312 Y113.939 E.01029
G1 X115.649 Y113.423 E.01835
G1 X116.041 Y113.049 E.01613
G1 X116.508 Y112.781 E.01605
G1 X117.02 Y112.614 E.01604
G1 X117.365 Y112.602 E.0103
G1 X117.419 Y112.968 F21000
;TYPE:Outer wall
G1 F971
G1 X117.808 Y112.965 E.01158
G1 X118.184 Y113.057 E.01152
G1 X118.494 Y113.196 E.01013
G1 X118.777 Y113.384 E.01013
G1 X119.026 Y113.616 E.01013
G1 X119.24 Y113.9 E.01059
G1 X119.487 Y114.465 E.01835
G1 X119.554 Y114.845 E.01152
G1 X119.551 Y115.186 E.01013
G1 X119.459 Y115.618 E.01317
G1 X119.233 Y116.114 E.01623
G1 X119.005 Y116.406 E.01106
G1 X118.753 Y116.635 E.01013
G1 X118.341 Y116.874 E.01419
G1 X117.97 Y116.985 E.01153
G1 X117.485 Y117.06 E.01463
G1 X117.112 Y117.021 E.01115
G1 X116.659 Y116.874 E.01419
G1 X116.224 Y116.617 E.01505
G1 X115.794 Y116.152 E.01887
G1 X115.607 Y115.813 E.01152
G1 X115.499 Y115.491 E.01013
G1 X115.446 Y115.155 E.01013
G1 X115.449 Y114.814 E.01013
G1 X115.541 Y114.382 E.01317
G1 X115.703 Y114.03 E.01153
G1 X115.98 Y113.609 E.01504
G1 X116.247 Y113.365 E.01076
G1 X116.659 Y113.126 E.01419
G1 X117.146 Y112.971 E.01521
G1 X117.379 Y112.969 E.00695
; stop printing object 支撑3.STL id:0 copy 0
;LAYER_CHANGE
;Z:0.28
;HEIGHT:0.08
;BEFORE_LAYER_CHANGE
G92 E0
;0.28


G1 E-.68 F3600
;WIPE_START
G1 F3000
M73 P9 R4
G1 X117.808 Y112.965 E-.05144
G1 X118.184 Y113.057 E-.04642
G1 X118.352 Y113.132 E-.02214
;WIPE_END
EXCLUDE_OBJECT_END NAME=支撑3.STL_id_0_copy_0
;AFTER_LAYER_CHANGE
;0.28
;_SET_FAN_SPEED_CHANGING_LAYER
SET_VELOCITY_LIMIT ACCEL=5000 ACCEL_TO_DECEL=2500
SET_VELOCITY_LIMIT SQUARE_CORNER_VELOCITY=9
M140 S70 ; set bed temperature
; printing object 支撑3.STL id:0 copy 0
EXCLUDE_OBJECT_START NAME=支撑3.STL_id_0_copy_0
G1 X120.635 Y113.75 Z.6 F21000
G1 Z.28
G1 E.8 F2700
SET_VELOCITY_LIMIT ACCEL=3000 ACCEL_TO_DECEL=1500 SQUARE_CORNER_VELOCITY=7
;TYPE:Inner wall
;WIDTH:0.568534
G1 F908
G1 X120.734 Y113.98 E.00436
;WIDTH:0.575731
G1 X120.872 Y114.675 E.01251
G1 X120.879 Y115.033 E.00632
;WIDTH:0.56316
G1 X120.84 Y115.536 E.00871
;WIDTH:0.565542
G1 X120.683 Y116.153 E.01102
;WIDTH:0.573751
G1 X120.437 Y116.696 E.01048
G1 X120.114 Y117.15 E.00981
;WIDTH:0.56148
G1 X119.811 Y117.466 E.00753
;WIDTH:0.56238
G1 X119.309 Y117.857 E.01095
;WIDTH:0.570071
G1 X118.853 Y118.109 E.00911
G1 X118.177 Y118.324 E.01238
;WIDTH:0.566094
G1 X117.641 Y118.383 E.00936
;WIDTH:0.561664
G1 X117.248 Y118.371 E.00676
;WIDTH:0.563245
G1 X116.62 Y118.266 E.01097
;WIDTH:0.571488
G1 X116.095 Y118.085 E.00974
G1 X115.635 Y117.823 E.00927
;WIDTH:0.564192
G1 X115.331 Y117.597 E.00654
;WIDTH:0.576014
G1 X114.963 Y117.245 E.00899
G1 X114.529 Y116.629 E.0133
;WIDTH:0.568414
G1 X114.292 Y116.093 E.01021
G1 X114.173 Y115.601 E.00882
;WIDTH:0.56171
G1 X114.121 Y114.967 E.01094
;WIDTH:0.563161
G1 X114.16 Y114.464 E.00871
;WIDTH:0.565543
G1 X114.317 Y113.847 E.01102
;WIDTH:0.56661
G1 X114.549 Y113.327 E.00988
G1 X114.806 Y112.957 E.00783
;WIDTH:0.572331
G1 X115.21 Y112.494 E.01079
G1 X115.612 Y112.195 E.00878
;WIDTH:0.562023
G1 X116.171 Y111.893 E.01095
;WIDTH:0.562618
G1 X116.644 Y111.728 E.00862
;WIDTH:0.573163
G1 X117.152 Y111.625 E.00912
G1 X117.601 Y111.614 E.00789
;WIDTH:0.565985
G1 X118.233 Y111.688 E.01104
;WIDTH:0.571488
G1 X118.905 Y111.915 E.01242
G1 X119.365 Y112.177 E.00927
;WIDTH:0.56419
G1 X119.762 Y112.49 E.00873
;WIDTH:0.561228
G1 X120.193 Y112.957 E.01093
;WIDTH:0.566815
G1 X120.474 Y113.378 E.00878
;WIDTH:0.568534
G1 X120.619 Y113.713 E.00637
SET_VELOCITY_LIMIT ACCEL=5000 ACCEL_TO_DECEL=2500 SQUARE_CORNER_VELOCITY=9
G1 X121.091 Y113.558 F21000
SET_VELOCITY_LIMIT ACCEL=3000 ACCEL_TO_DECEL=1500 SQUARE_CORNER_VELOCITY=7
;WIDTH:0.449999
G1 F908
G1 X121.158 Y113.707 E.00224
G1 X121.269 Y114.13 E.00598
G1 X121.368 Y114.675 E.00758
G1 X121.368 Y115.407 E.01
G1 X121.199 Y116.202 E.01112
G1 X120.868 Y116.944 E.01112
G1 X120.39 Y117.602 E.01112
G1 X119.786 Y118.146 E.01112
G1 X119.082 Y118.553 E.01112
G1 X118.309 Y118.804 E.01112
G1 X117.5 Y118.889 E.01112
G1 X116.691 Y118.804 E.01112
G1 X115.918 Y118.553 E.01112
G1 X115.214 Y118.146 E.01112
G1 X114.61 Y117.602 E.01112
G1 X114.132 Y116.944 E.01112
G1 X113.801 Y116.202 E.01112
G1 X113.632 Y115.407 E.01112
G1 X113.632 Y114.594 E.01112
G1 X113.801 Y113.798 E.01112
G1 X114.132 Y113.055 E.01113
G1 X114.563 Y112.46 E.01005
G1 X114.887 Y112.118 E.00644
G1 X115.556 Y111.632 E.0113
G1 X116.298 Y111.301 E.01112
G1 X117.05 Y111.142 E.0105
G1 X117.484 Y111.109 E.00596
G1 X118.309 Y111.196 E.01134
G1 X119.082 Y111.447 E.01112
G1 X119.786 Y111.854 E.01112
G1 X120.39 Y112.398 E.01112
G1 X120.868 Y113.056 E.01112
G1 X121.075 Y113.521 E.00697
SET_VELOCITY_LIMIT ACCEL=5000 ACCEL_TO_DECEL=2500 SQUARE_CORNER_VELOCITY=9
M73 P10 R4
G1 X121.464 Y113.392 F21000
SET_VELOCITY_LIMIT ACCEL=3000 ACCEL_TO_DECEL=1500 SQUARE_CORNER_VELOCITY=7
;TYPE:Outer wall
;WIDTH:0.399999
G1 F908
G1 X121.538 Y113.559 E.00221
G1 X121.668 Y114.045 E.00609
G1 X121.775 Y114.675 E.00773
G1 X121.775 Y115.449 E.00937
G1 X121.589 Y116.328 E.01087
G1 X121.223 Y117.149 E.01087
G1 X120.695 Y117.877 E.01087
G1 X120.027 Y118.478 E.01087
G1 X119.249 Y118.927 E.01087
G1 X118.394 Y119.205 E.01087
G1 X117.5 Y119.299 E.01087
G1 X116.606 Y119.205 E.01087
G1 X115.751 Y118.927 E.01087
G1 X114.973 Y118.478 E.01087
G1 X114.305 Y117.877 E.01087
G1 X113.777 Y117.149 E.01087
G1 X113.411 Y116.328 E.01087
G1 X113.225 Y115.449 E.01087
G1 X113.225 Y114.551 E.01087
G1 X113.411 Y113.672 E.01087
G1 X113.777 Y112.85 E.01087
G1 X114.232 Y112.221 E.0094
G1 X114.62 Y111.808 E.00685
G1 X115.351 Y111.277 E.01092
G1 X116.172 Y110.911 E.01087
G1 X116.965 Y110.743 E.00981
G1 X117.495 Y110.701 E.00643
G1 X118.394 Y110.795 E.01093
G1 X119.249 Y111.073 E.01087
G1 X120.027 Y111.522 E.01087
G1 X120.695 Y112.123 E.01087
G1 X121.223 Y112.851 E.01087
G1 X121.448 Y113.355 E.00668
SET_VELOCITY_LIMIT ACCEL=5000 ACCEL_TO_DECEL=2500 SQUARE_CORNER_VELOCITY=9
G1 E-.68 F3600
;WIPE_START
G1 F7200
G1 X121.538 Y113.559 E-.02674
G1 X121.668 Y114.045 E-.06037
G1 X121.714 Y114.315 E-.03289
;WIPE_END
G1 X117.444 Y112.175 Z.68 F21000
G1 Z.28
G1 E.8 F2700
SET_VELOCITY_LIMIT ACCEL=3000 ACCEL_TO_DECEL=1500 SQUARE_CORNER_VELOCITY=7
;TYPE:Inner wall
;WIDTH:0.573163
G1 F908
G1 X117.866 Y112.182 E.00742
;WIDTH:0.557605
G1 X118.406 Y112.305 E.00946
;WIDTH:0.56419
G1 X119.099 Y112.654 E.0134
G1 X119.38 Y112.876 E.00619
;WIDTH:0.561228
G1 X119.772 Y113.301 E.00995
;WIDTH:0.566815
G1 X119.971 Y113.6 E.00623
;WIDTH:0.568412
G1 X120.204 Y114.13 E.01008
;WIDTH:0.575731
G1 X120.314 Y114.698 E.01021
G1 X120.332 Y115.29 E.01045
;WIDTH:0.572714
G1 X120.191 Y115.894 E.01089
G1 X120.022 Y116.302 E.00776
;WIDTH:0.564296
G1 X119.705 Y116.786 E.01001
;WIDTH:0.562318
G1 X119.462 Y117.049 E.00617
G1 X119.005 Y117.405 E.00997
;WIDTH:0.570071
G1 X118.677 Y117.585 E.00653
G1 X118.143 Y117.765 E.00985
;WIDTH:0.565404
G1 X117.59 Y117.842 E.00968
;WIDTH:0.574601
G1 X116.899 Y117.768 E.01224
G1 X116.41 Y117.622 E.00899
;WIDTH:0.566981
G1 X115.901 Y117.346 E.01006
;WIDTH:0.564192
G1 X115.62 Y117.124 E.00619
;WIDTH:0.561229
G1 X115.228 Y116.699 E.00995
;WIDTH:0.566817
G1 X115.029 Y116.4 E.00623
;WIDTH:0.568414
G1 X114.796 Y115.87 E.01008
;WIDTH:0.575732
G1 X114.686 Y115.302 E.01021
G1 X114.668 Y114.71 E.01045
;WIDTH:0.572709
G1 X114.809 Y114.106 E.01089
G1 X114.898 Y113.852 E.00473
;WIDTH:0.557094
G1 X115.148 Y113.402 E.00879
;WIDTH:0.572331
G1 X115.596 Y112.893 E.0119
G1 X115.902 Y112.655 E.00679
;WIDTH:0.562023
G1 X116.411 Y112.38 E.00997
;WIDTH:0.562618
G1 X116.746 Y112.264 E.00611
;WIDTH:0.573163
G1 X117.257 Y112.171 E.00912
G1 X117.404 Y112.174 E.00258
SET_VELOCITY_LIMIT ACCEL=5000 ACCEL_TO_DECEL=2500 SQUARE_CORNER_VELOCITY=9
M73 P11 R4
