; HEADER_BLOCK_START
; generated by OrcaSlicer 2.1.1 on 2024-12-07 at 18:12:09
; total layer number: 82
; filament_density: 1.27
; filament_diameter: 1.75
; max_z_height: 6.68
; HEADER_BLOCK_END

; THUMBNAIL_BLOCK_START

;
; THUMBNAIL_BLOCK_END







; external perimeters extrusion width = 0.40mm
; perimeters extrusion width = 0.45mm
; infill extrusion width = 0.45mm
; solid infill extrusion width = 0.45mm
; top infill extrusion width = 0.38mm
; first layer extrusion width = 0.42mm

; EXECUTABLE_BLOCK_START
EXCLUDE_OBJECT_DEFINE NAME=支撑4.STL_id_0_copy_0 CENTER=117.5,115 POLYGON=[[113.002,114.876],[113.043,114.382],[113.138,113.895],[113.286,113.422],[113.485,112.968],[113.733,112.539],[114.026,112.139],[114.362,111.774],[114.736,111.449],[115.143,111.166],[115.58,110.93],[116.039,110.744],[116.516,110.609],[117.005,110.527],[117.5,110.5],[117.995,110.527],[118.484,110.609],[118.961,110.744],[119.42,110.93],[119.857,111.166],[120.264,111.449],[120.638,111.774],[120.974,112.139],[121.267,112.539],[121.515,112.968],[121.714,113.422],[121.862,113.895],[121.957,114.382],[121.998,114.876],[121.985,115.372],[121.917,115.863],[121.795,116.343],[121.621,116.808],[121.397,117.25],[121.126,117.665],[120.811,118.048],[120.455,118.393],[120.064,118.698],[119.642,118.958],[119.193,119.169],[118.724,119.33],[118.241,119.439],[117.748,119.493],[117.5,119.5],[117.252,119.493],[116.759,119.439],[116.276,119.33],[115.807,119.169],[115.358,118.958],[114.936,118.698],[114.545,118.393],[114.189,118.048],[113.874,117.665],[113.603,117.25],[113.379,116.808],[113.205,116.343],[113.083,115.863],[113.015,115.372],[113.002,114.876]]
M73 P0 R11
;TYPE:Custom
;ELEGOO NEPTUNE 4 PRO
M220 S100 ;Set the feed speed to 100%
M221 S100 ;Set the flow rate to 100%
M104 S140
M190 S70
G90
G28 ;home
G1 Z10 F300
G1 X67.5 Y0 F6000
G1 Z0 F300
M109 S240
G92 E0 ;Reset Extruder
G1 X67.5 Y0 Z0.4 F300 ;Move to start position
G1 X167.5 E30 F400 ;Draw the first line
G1 Z0.6 F120.0 ;Move to side a little
M73 P2 R11
G1 X162.5 F3000
G92 E0 ;Reset Extruder
G90
G21
M83 ; use relative distances for extrusion
; filament start gcode
M106 S0
;LAYER_CHANGE
;Z:0.2
;HEIGHT:0.2
;BEFORE_LAYER_CHANGE
G92 E0
;0.2


G1 E-.8 F3600
;AFTER_LAYER_CHANGE
;0.2
;_SET_FAN_SPEED_CHANGING_LAYER
SET_VELOCITY_LIMIT ACCEL=1000 ACCEL_TO_DECEL=500
SET_VELOCITY_LIMIT SQUARE_CORNER_VELOCITY=7
; printing object 支撑4.STL id:0 copy 0
EXCLUDE_OBJECT_START NAME=支撑4.STL_id_0_copy_0
G1 X120.844 Y114.706 F21000
G1 Z.4
G1 Z.2
G1 E.8 F2700
;TYPE:Inner wall
;WIDTH:0.541062
M73 P3 R11
G1 F970
G1 X120.87 Y114.98 E.01085
;WIDTH:0.540735
G1 X120.827 Y115.536 E.02191
;WIDTH:0.540587
G1 X120.684 Y116.102 E.02296
;WIDTH:0.54407
G1 X120.42 Y116.686 E.02537
G1 X120.137 Y117.098 E.0198
;WIDTH:0.543325
G1 X119.704 Y117.552 E.02478
G1 X119.289 Y117.855 E.02033
;WIDTH:0.542743
G1 X118.756 Y118.129 E.02365
G1 X118.237 Y118.287 E.02141
;WIDTH:0.542295
G1 X117.661 Y118.368 E.02297
G1 X117.1 Y118.345 E.02213
;WIDTH:0.541391
G1 X116.53 Y118.228 E.02292
G1 X116.013 Y118.023 E.02192
;WIDTH:0.540868
G1 X115.512 Y117.722 E.02298
G1 X115.092 Y117.357 E.0219
;WIDTH:0.540568
G1 X114.721 Y116.905 E.02296
;WIDTH:0.543643
G1 X114.412 Y116.355 E.02498
G1 X114.246 Y115.873 E.02016
;WIDTH:0.543145
G1 X114.139 Y115.265 E.0244
G1 X114.141 Y114.741 E.02069
;WIDTH:0.542523
G1 X114.234 Y114.159 E.02327
G1 X114.418 Y113.639 E.02176
;WIDTH:0.541809
G1 X114.698 Y113.126 E.02303
G1 X115.046 Y112.691 E.02194
;WIDTH:0.541203
G1 X115.481 Y112.301 E.023
G1 X115.953 Y112.007 E.02191
;WIDTH:0.540696
G1 X116.493 Y111.784 E.02297
G1 X117.036 Y111.662 E.02189
G1 X117.612 Y111.632 E.02267
;WIDTH:0.543477
G1 X118.252 Y111.713 E.02549
G1 X118.733 Y111.864 E.01992
;WIDTH:0.54295
G1 X119.278 Y112.135 E.02403
G1 X119.705 Y112.453 E.02105
;WIDTH:0.54228
G1 X120.114 Y112.87 E.02305
G1 X120.423 Y113.324 E.02166
;WIDTH:0.54159
G1 X120.673 Y113.861 E.02331
G1 X120.815 Y114.399 E.02194
;WIDTH:0.541062
G1 X120.84 Y114.666 E.01055
G1 X121.282 Y114.671 F21000
;WIDTH:0.419999
G1 F970
G1 X121.309 Y114.925 E.00763
G1 X121.3 Y115.277 E.01047
G1 X121.232 Y115.768 E.01476
G1 X121.094 Y116.255 E.0151
G1 X120.78 Y116.938 E.02237
G1 X120.474 Y117.376 E.01592
G1 X119.973 Y117.898 E.02154
G1 X119.518 Y118.227 E.01676
G1 X118.899 Y118.544 E.02071
G1 X118.165 Y118.752 E.02272
G1 X117.661 Y118.806 E.01509
G1 X116.91 Y118.764 E.02239
G1 X116.388 Y118.642 E.01598
G1 X115.692 Y118.355 E.02243
G1 X115.244 Y118.067 E.01588
G1 X114.671 Y117.552 E.02292
G1 X114.355 Y117.145 E.01538
G1 X113.996 Y116.496 E.02209
G1 X113.822 Y115.98 E.0162
G1 X113.7 Y115.277 E.02126
G1 X113.705 Y114.705 E.01703
G1 X113.816 Y114.028 E.02043
G1 X114.084 Y113.314 E.02272
G1 X114.345 Y112.866 E.01543
G1 X114.842 Y112.268 E.02318
G1 X115.231 Y111.941 E.01513
G1 X115.745 Y111.622 E.01802
G1 X116.262 Y111.395 E.01683
G1 X116.755 Y111.266 E.01517
G1 X117.352 Y111.196 E.01789
G1 X117.875 Y111.209 E.0156
G1 X118.371 Y111.291 E.01498
G1 X118.897 Y111.459 E.01644
G1 X119.527 Y111.774 E.02099
G1 X119.992 Y112.123 E.01731
G1 X120.467 Y112.611 E.02028
G1 X120.882 Y113.246 E.0226
G1 X121.091 Y113.73 E.0157
G1 X121.244 Y114.315 E.01802
G1 X121.278 Y114.631 E.00946
G1 X121.662 Y114.624 F21000
;TYPE:Outer wall
G1 F970
G1 X121.684 Y115.001 E.01126
G1 X121.633 Y115.647 E.01931
G1 X121.513 Y116.194 E.01666
G1 X121.337 Y116.683 E.01549
G1 X121.096 Y117.144 E.01549
G1 X120.765 Y117.616 E.01716
G1 X120.324 Y118.089 E.01927
G1 X119.934 Y118.407 E.015
G1 X119.494 Y118.685 E.01549
G1 X119.021 Y118.901 E.01549
G1 X118.415 Y119.082 E.01882
G1 X117.788 Y119.177 E.01891
G1 X117.271 Y119.183 E.01541
G1 X116.753 Y119.12 E.01553
G1 X116.266 Y118.999 E.01496
G1 X115.665 Y118.76 E.01926
G1 X115.163 Y118.474 E.0172
G1 X114.749 Y118.159 E.01551
G1 X114.38 Y117.792 E.01549
G1 X114.039 Y117.351 E.01661
G1 X113.718 Y116.79 E.01926
G1 X113.522 Y116.306 E.01556
G1 X113.388 Y115.803 E.01549
G1 X113.323 Y115.287 E.01549
G1 X113.33 Y114.674 E.01827
G1 X113.401 Y114.162 E.01538
G1 X113.559 Y113.587 E.01777
G1 X113.762 Y113.108 E.01549
G1 X114.041 Y112.643 E.01616
G1 X114.447 Y112.14 E.01926
G1 X114.882 Y111.732 E.01777
G1 X115.306 Y111.431 E.01549
G1 X115.767 Y111.189 E.01549
G1 X116.272 Y111 E.01606
G1 X116.902 Y110.859 E.01926
G1 X117.441 Y110.814 E.01611
G1 X117.954 Y110.836 E.01527
G1 X118.474 Y110.928 E.01574
G1 X119.039 Y111.11 E.01768
G1 X119.513 Y111.333 E.0156
G1 X120.025 Y111.66 E.0181
G1 X120.421 Y111.997 E.01549
G1 X120.771 Y112.387 E.01561
G1 X121.128 Y112.917 E.01903
G1 X121.354 Y113.373 E.01516
G1 X121.544 Y113.915 E.01711
G1 X121.65 Y114.425 E.01549
G1 X121.659 Y114.584 E.00475
G1 E-.68 F3600
;WIPE_START
G1 F3000
G1 X121.684 Y115.001 E-.05018
G1 X121.639 Y115.581 E-.06982
;WIPE_END
G1 X117.295 Y112.145 Z.6 F21000
G1 Z.2
G1 E.8 F2700
;TYPE:Inner wall
;WIDTH:0.540696
G1 F970
G1 X117.578 Y112.129 E.01115
;WIDTH:0.543477
G1 X118.121 Y112.196 E.02162
;WIDTH:0.544193
G1 X118.729 Y112.406 E.02547
G1 X119.238 Y112.712 E.02353
;WIDTH:0.541202
G1 X119.642 Y113.085 E.02164
;WIDTH:0.539299
G1 X119.959 Y113.514 E.02092
;WIDTH:0.541697
G1 X120.189 Y113.984 E.02061
G1 X120.325 Y114.478 E.0202
;WIDTH:0.540735
G1 X120.372 Y114.963 E.01916
;WIDTH:0.544113
G1 X120.318 Y115.546 E.02316
G1 X120.126 Y116.161 E.02551
;WIDTH:0.543642
G1 X119.86 Y116.637 E.02157
;WIDTH:0.540498
G1 X119.494 Y117.07 E.0223
;WIDTH:0.539538
G1 X119.073 Y117.405 E.0211
;WIDTH:0.542005
G1 X118.605 Y117.652 E.02086
;WIDTH:0.54439
G1 X117.971 Y117.831 E.0261
G1 X117.339 Y117.869 E.02509
;WIDTH:0.542295
G1 X116.809 Y117.79 E.02114
;WIDTH:0.544052
G1 X116.142 Y117.529 E.02834
G1 X115.607 Y117.16 E.02575
;WIDTH:0.543324
G1 X115.242 Y116.776 E.02093
;WIDTH:0.540276
G1 X114.934 Y116.295 E.02241
;WIDTH:0.539796
G1 X114.738 Y115.794 E.02112
;WIDTH:0.541561
G1 X114.641 Y115.28 E.02061
G1 X114.635 Y114.793 E.01919
;WIDTH:0.542523
G1 X114.712 Y114.307 E.01944
;WIDTH:0.544405
G1 X114.939 Y113.704 E.02553
G1 X115.288 Y113.166 E.02537
;WIDTH:0.542279
G1 X115.666 Y112.788 E.02111
;WIDTH:0.539314
G1 X116.11 Y112.484 E.0211
;WIDTH:0.540585
G1 X116.603 Y112.27 E.02115
;WIDTH:0.540696
G1 X117.099 Y112.156 E.01998
G1 X117.255 Y112.147 E.00616
G1 X117.292 Y112.586 F21000
;WIDTH:0.419999
G1 F970
G1 X117.498 Y112.563 E.00616
G1 X118.01 Y112.621 E.01537
G1 X118.548 Y112.806 E.01694
G1 X118.993 Y113.075 E.01548
G1 X119.359 Y113.425 E.0151
G1 X119.669 Y113.903 E.01696
G1 X119.869 Y114.435 E.01692
G1 X119.936 Y114.935 E.01503
G1 X119.889 Y115.453 E.01549
G1 X119.719 Y115.997 E.01697
G1 X119.462 Y116.446 E.01541
G1 X119.117 Y116.818 E.01511
G1 X118.649 Y117.142 E.01697
G1 X118.16 Y117.345 E.01576
G1 X117.665 Y117.43 E.01496
G1 X117.103 Y117.398 E.01678
G1 X116.84 Y117.345 E.00799
G1 X116.357 Y117.146 E.01557
G1 X115.883 Y116.818 E.01716
G1 X115.538 Y116.446 E.01511
G1 X115.281 Y115.997 E.01541
G1 X115.111 Y115.453 E.01697
G1 X115.065 Y114.945 E.01521
G1 X115.129 Y114.44 E.01515
G1 X115.332 Y113.902 E.01713
G1 X115.64 Y113.427 E.01686
G1 X116.002 Y113.079 E.01495
G1 X116.452 Y112.806 E.01568
G1 X116.991 Y112.621 E.01697
G1 X117.252 Y112.591 E.00783
G1 X117.335 Y112.959 F21000
;TYPE:Outer wall
G1 F970
G1 X117.511 Y112.941 E.00526
G1 X117.915 Y112.986 E.01211
M73 P4 R11
G1 X118.393 Y113.15 E.01503
G1 X118.806 Y113.407 E.01452
G1 X119.057 Y113.651 E.01041
G1 X119.333 Y114.074 E.01503
G1 X119.509 Y114.545 E.01499
G1 X119.559 Y114.929 E.01151
G1 X119.52 Y115.374 E.01331
G1 X119.369 Y115.856 E.01507
G1 X119.147 Y116.238 E.01315
G1 X118.881 Y116.525 E.01166
G1 X118.465 Y116.813 E.01507
G1 X118.003 Y116.997 E.0148
G1 X117.661 Y117.053 E.01034
G1 X117.167 Y117.027 E.01474
G1 X116.966 Y116.989 E.00609
G1 X116.54 Y116.816 E.01367
G1 X116.119 Y116.525 E.01525
G1 X115.834 Y116.212 E.01261
G1 X115.631 Y115.856 E.01221
G1 X115.48 Y115.374 E.01507
G1 X115.443 Y114.897 E.01425
G1 X115.491 Y114.545 E.01056
G1 X115.668 Y114.071 E.01507
G1 X115.943 Y113.651 E.01496
G1 X116.218 Y113.387 E.01136
G1 X116.607 Y113.15 E.01358
G1 X117.086 Y112.986 E.01507
G1 X117.296 Y112.963 E.00628
; stop printing object 支撑4.STL id:0 copy 0
;LAYER_CHANGE
;Z:0.28
;HEIGHT:0.08
;BEFORE_LAYER_CHANGE
G92 E0
;0.28


G1 E-.68 F3600
;WIPE_START
G1 F3000
G1 X117.511 Y112.941 E-.02599
G1 X117.915 Y112.986 E-.0488
G1 X118.271 Y113.108 E-.04521
;WIPE_END
EXCLUDE_OBJECT_END NAME=支撑4.STL_id_0_copy_0
;AFTER_LAYER_CHANGE
;0.28
;_SET_FAN_SPEED_CHANGING_LAYER
SET_VELOCITY_LIMIT ACCEL=5000 ACCEL_TO_DECEL=2500
SET_VELOCITY_LIMIT SQUARE_CORNER_VELOCITY=9
M140 S70 ; set bed temperature
; printing object 支撑4.STL id:0 copy 0
EXCLUDE_OBJECT_START NAME=支撑4.STL_id_0_copy_0
G1 X120.867 Y114.677 Z.6 F21000
G1 Z.28
G1 E.8 F2700
SET_VELOCITY_LIMIT ACCEL=3000 ACCEL_TO_DECEL=1500 SQUARE_CORNER_VELOCITY=7
;TYPE:Inner wall
;WIDTH:0.567084
G1 F910
G1 X120.896 Y114.991 E.00547
;WIDTH:0.569733
G1 X120.831 Y115.666 E.01184
;WIDTH:0.570169
G1 X120.663 Y116.228 E.01025
;WIDTH:0.577003
G1 X120.439 Y116.697 E.00919
G1 X120.15 Y117.122 E.00909
;WIDTH:0.568945
G1 X119.72 Y117.572 E.01086
G1 X119.294 Y117.882 E.00918
;WIDTH:0.568362
G1 X118.764 Y118.154 E.01036
G1 X118.234 Y118.314 E.00966
;WIDTH:0.567658
G1 X117.649 Y118.394 E.01026
G1 X117.09 Y118.37 E.00973
;WIDTH:0.567053
G1 X116.513 Y118.249 E.01025
G1 X115.993 Y118.042 E.00972
;WIDTH:0.566573
G1 X115.489 Y117.736 E.01024
;WIDTH:0.569638
G1 X115.011 Y117.312 E.01115
G1 X114.694 Y116.911 E.00892
;WIDTH:0.569263
G1 X114.383 Y116.351 E.01119
G1 X114.219 Y115.87 E.00886
;WIDTH:0.568765
G1 X114.113 Y115.265 E.01069
G1 X114.116 Y114.729 E.00934
;WIDTH:0.568129
G1 X114.211 Y114.147 E.01027
G1 X114.399 Y113.62 E.00974
;WIDTH:0.567443
G1 X114.683 Y113.103 E.01026
G1 X115.034 Y112.667 E.00973
;WIDTH:0.566879
G1 X115.474 Y112.275 E.01024
;WIDTH:0.569817
G1 X116.064 Y111.921 E.01201
;WIDTH:0.570004
G1 X116.606 Y111.727 E.01005
;WIDTH:0.576362
G1 X117.111 Y111.629 E.00911
G1 X117.612 Y111.607 E.00886
;WIDTH:0.569082
G1 X118.26 Y111.689 E.01139
G1 X118.751 Y111.844 E.00898
;WIDTH:0.56857
G1 X119.292 Y112.114 E.01053
G1 X119.729 Y112.44 E.0095
;WIDTH:0.567885
G1 X120.141 Y112.863 E.01027
G1 X120.453 Y113.326 E.00974
;WIDTH:0.56724
G1 X120.7 Y113.862 E.01025
G1 X120.842 Y114.404 E.00973
;WIDTH:0.567084
G1 X120.863 Y114.637 E.00408
SET_VELOCITY_LIMIT ACCEL=5000 ACCEL_TO_DECEL=2500 SQUARE_CORNER_VELOCITY=9
G1 X121.36 Y114.623 F21000
SET_VELOCITY_LIMIT ACCEL=3000 ACCEL_TO_DECEL=1500 SQUARE_CORNER_VELOCITY=7
;WIDTH:0.449999
G1 F910
G1 X121.387 Y115.004 E.00523
G1 X121.351 Y115.515 E.00701
G1 X121.245 Y116.038 E.00729
G1 X121.079 Y116.523 E.00702
G1 X120.846 Y116.981 E.00703
G1 X120.557 Y117.399 E.00695
G1 X120.2 Y117.794 E.00729
G1 X119.813 Y118.123 E.00695
G1 X119.388 Y118.4 E.00693
G1 X118.924 Y118.619 E.00702
G1 X118.182 Y118.829 E.01055
G1 X117.649 Y118.885 E.00733
G1 X117.117 Y118.867 E.00728
G1 X116.592 Y118.778 E.00728
G1 X116.076 Y118.619 E.00738
G1 X115.612 Y118.4 E.00702
G1 X115.187 Y118.123 E.00693
G1 X114.637 Y117.635 E.01006
G1 X114.303 Y117.211 E.00739
G1 X114.032 Y116.752 E.00729
G1 X113.835 Y116.292 E.00684
G1 X113.691 Y115.787 E.00718
G1 X113.621 Y115.279 E.00702
G1 X113.622 Y114.75 E.00724
G1 X113.693 Y114.222 E.00729
G1 X113.833 Y113.708 E.00728
G1 X114.028 Y113.243 E.00689
G1 X114.287 Y112.812 E.00688
G1 X114.787 Y112.211 E.01069
G1 X115.194 Y111.871 E.00726
G1 X115.63 Y111.594 E.00706
G1 X116.113 Y111.37 E.00728
G1 X116.608 Y111.215 E.00709
G1 X117.115 Y111.13 E.00703
G1 X117.639 Y111.116 E.00718
G1 X118.139 Y111.169 E.00687
G1 X118.638 Y111.284 E.00701
G1 X119.121 Y111.465 E.00706
G1 X119.573 Y111.709 E.00702
G1 X120.002 Y112.027 E.00731
G1 X120.385 Y112.397 E.00729
G1 X120.713 Y112.812 E.00723
G1 X120.972 Y113.243 E.00688
G1 X121.169 Y113.716 E.007
G1 X121.346 Y114.424 E.00998
G1 X121.357 Y114.583 E.00218
SET_VELOCITY_LIMIT ACCEL=5000 ACCEL_TO_DECEL=2500 SQUARE_CORNER_VELOCITY=9
G1 X121.77 Y114.594 F21000
SET_VELOCITY_LIMIT ACCEL=3000 ACCEL_TO_DECEL=1500 SQUARE_CORNER_VELOCITY=7
;TYPE:Outer wall
;WIDTH:0.399999
G1 F910
G1 X121.794 Y115.016 E.00511
G1 X121.729 Y115.76 E.00904
G1 X121.604 Y116.284 E.00651
G1 X121.408 Y116.785 E.00652
G1 X121 Y117.492 E.00987
G1 X120.663 Y117.912 E.00651
G1 X120.273 Y118.282 E.00651
G1 X119.764 Y118.647 E.00757
G1 X119.306 Y118.895 E.0063
G1 X118.731 Y119.116 E.00745
G1 X118.208 Y119.241 E.00651
G1 X117.649 Y119.293 E.00679
G1 X116.991 Y119.263 E.00797
G1 X116.393 Y119.152 E.00736
G1 X115.882 Y118.984 E.00651
G1 X115.398 Y118.747 E.00651
G1 X114.937 Y118.445 E.00667
G1 X114.44 Y118.013 E.00797
G1 X114.077 Y117.596 E.00668
G1 X113.776 Y117.15 E.00651
G1 X113.54 Y116.666 E.00651
G1 X113.347 Y116.09 E.00735
G1 X113.245 Y115.572 E.0064
G1 X113.204 Y114.946 E.00758
G1 X113.241 Y114.409 E.00651
G1 X113.353 Y113.878 E.00656
G1 X113.576 Y113.259 E.00797
G1 X113.868 Y112.704 E.00758
G1 X114.181 Y112.267 E.00651
G1 X114.551 Y111.875 E.00651
G1 X114.962 Y111.536 E.00645
G1 X115.608 Y111.142 E.00915
G1 X116.104 Y110.933 E.00651
G1 X116.624 Y110.794 E.00652
G1 X117.435 Y110.704 E.00987
G1 X117.956 Y110.725 E.0063
G1 X118.505 Y110.823 E.00675
G1 X119.089 Y111.012 E.00743
G1 X119.564 Y111.235 E.00635
G1 X120.088 Y111.57 E.00752
G1 X120.498 Y111.918 E.00651
G1 X120.865 Y112.33 E.00667
G1 X121.232 Y112.877 E.00797
G1 X121.454 Y113.326 E.00605
G1 X121.649 Y113.883 E.00714
G1 X121.759 Y114.409 E.00651
G1 X121.767 Y114.554 E.00175
SET_VELOCITY_LIMIT ACCEL=5000 ACCEL_TO_DECEL=2500 SQUARE_CORNER_VELOCITY=9
G1 E-.68 F3600
;WIPE_START
G1 F7200
G1 X121.794 Y115.016 E-.05551
G1 X121.747 Y115.551 E-.06449
;WIPE_END
G1 X117.195 Y112.185 Z.68 F21000
G1 Z.28
G1 E.8 F2700
SET_VELOCITY_LIMIT ACCEL=3000 ACCEL_TO_DECEL=1500 SQUARE_CORNER_VELOCITY=7
;TYPE:Inner wall
;WIDTH:0.570603
G1 F910
G1 X117.303 Y112.166 E.00191
G1 X117.806 Y112.172 E.0088
;WIDTH:0.569535
G1 X118.361 Y112.287 E.00988
;WIDTH:0.566439
G1 X118.876 Y112.507 E.00973
;WIDTH:0.565096
G1 X119.32 Y112.81 E.00931
;WIDTH:0.567939
G1 X119.691 Y113.181 E.00912
;WIDTH:0.570024
G1 X120.038 Y113.715 E.01113
G1 X120.262 Y114.31 E.01111
;WIDTH:0.568127
G1 X120.343 Y114.835 E.00925
;WIDTH:0.565199
G1 X120.323 Y115.373 E.00932
;WIDTH:0.566127
G1 X120.202 Y115.897 E.00933
