; HEADER_BLOCK_START
; generated by OrcaSlicer 2.1.1 on 2025-01-25 at 16:31:41
; total layer number: 123
; filament_density: 1.27
; filament_diameter: 1.75
; max_z_height: 9.96
; HEADER_BLOCK_END

; THUMBNAIL_BLOCK_START

;
; THUMBNAIL_BLOCK_END







; external perimeters extrusion width = 0.40mm
; perimeters extrusion width = 0.45mm
; infill extrusion width = 0.45mm
; solid infill extrusion width = 0.45mm
; top infill extrusion width = 0.38mm
; first layer extrusion width = 0.42mm

; EXECUTABLE_BLOCK_START
EXCLUDE_OBJECT_DEFINE NAME=支撑2.STL_id_0_copy_0 CENTER=117.5,115 POLYGON=[[113.008,114.738],[113.068,114.219],[113.189,113.709],[113.368,113.218],[113.603,112.75],[113.89,112.313],[114.227,111.912],[114.607,111.553],[115.027,111.24],[115.48,110.979],[115.961,110.771],[116.462,110.621],[116.978,110.53],[117.5,110.5],[118.022,110.53],[118.538,110.621],[119.039,110.771],[119.52,110.979],[119.973,111.24],[120.393,111.553],[120.773,111.912],[121.11,112.313],[121.397,112.75],[121.632,113.218],[121.811,113.709],[121.932,114.219],[121.992,114.738],[121.992,115.262],[121.932,115.781],[121.811,116.291],[121.632,116.782],[121.397,117.25],[121.11,117.687],[120.773,118.088],[120.393,118.447],[119.973,118.76],[119.52,119.021],[119.039,119.229],[118.538,119.379],[118.022,119.47],[117.5,119.5],[116.978,119.47],[116.462,119.379],[115.961,119.229],[115.48,119.021],[115.027,118.76],[114.607,118.447],[114.227,118.088],[113.89,117.687],[113.603,117.25],[113.368,116.782],[113.189,116.291],[113.068,115.781],[113.008,115.262],[113.008,114.738]]
M73 P0 R17
;TYPE:Custom
;ELEGOO NEPTUNE 4 PRO
M220 S100 ;Set the feed speed to 100%
M221 S100 ;Set the flow rate to 100%
M104 S140
M190 S70
G90
G28 ;home
G1 Z10 F300
G1 X67.5 Y0 F6000
G1 Z0 F300
M109 S240
G92 E0 ;Reset Extruder
G1 X67.5 Y0 Z0.4 F300 ;Move to start position
G1 X167.5 E30 F400 ;Draw the first line
G1 Z0.6 F120.0 ;Move to side a little
M73 P1 R16
G1 X162.5 F3000
G92 E0 ;Reset Extruder
G90
G21
M83 ; use relative distances for extrusion
; filament start gcode
M106 S0
;LAYER_CHANGE
;Z:0.2
;HEIGHT:0.2
;BEFORE_LAYER_CHANGE
G92 E0
;0.2


G1 E-.8 F3600
;AFTER_LAYER_CHANGE
;0.2
;_SET_FAN_SPEED_CHANGING_LAYER
SET_VELOCITY_LIMIT ACCEL=1000 ACCEL_TO_DECEL=500
SET_VELOCITY_LIMIT SQUARE_CORNER_VELOCITY=7
; printing object 支撑2.STL id:0 copy 0
EXCLUDE_OBJECT_START NAME=支撑2.STL_id_0_copy_0
G1 X120.804 Y114.377 F21000
G1 Z.4
M73 P2 R16
G1 Z.2
G1 E.8 F2700
;TYPE:Inner wall
;WIDTH:0.541208
G1 F969
G1 X120.868 Y114.818 E.01757
G1 X120.844 Y115.412 E.02337
;WIDTH:0.540964
G1 X120.735 Y115.953 E.02174
G1 X120.555 Y116.421 E.01971
;WIDTH:0.540447
G1 X120.258 Y116.937 E.02341
;WIDTH:0.540997
G1 X119.906 Y117.36 E.02164
G1 X119.443 Y117.753 E.0239
;WIDTH:0.541683
G1 X118.981 Y118.029 E.0212
G1 X118.401 Y118.247 E.0244
;WIDTH:0.54849
G1 X117.877 Y118.348 E.02135
G1 X117.327 Y118.363 E.02194
;WIDTH:0.541483
G1 X116.708 Y118.278 E.02461
G1 X116.136 Y118.081 E.02384
;WIDTH:0.541103
G1 X115.646 Y117.818 E.02186
G1 X115.248 Y117.506 E.01992
;WIDTH:0.540162
G1 X114.846 Y117.077 E.02308
;WIDTH:0.540616
G1 X114.54 Y116.611 E.02193
G1 X114.301 Y116.061 E.02357
;WIDTH:0.541211
G1 X114.171 Y115.531 E.02149
G1 X114.131 Y114.921 E.02406
;WIDTH:0.541851
G1 X114.184 Y114.389 E.02106
G1 X114.355 Y113.79 E.02456
G1 X114.587 Y113.301 E.0213
G1 X114.948 Y112.801 E.02432
;WIDTH:0.541297
G1 X115.344 Y112.407 E.022
G1 X115.838 Y112.069 E.02357
;WIDTH:0.541021
G1 X116.333 Y111.836 E.02151
G1 X116.825 Y111.699 E.0201
;WIDTH:0.540296
G1 X117.413 Y111.631 E.02324
;WIDTH:0.540576
G1 X117.965 Y111.663 E.02176
G1 X118.553 Y111.799 E.02373
;WIDTH:0.54144
G1 X119.054 Y112.008 E.02135
G1 X119.571 Y112.342 E.02423
;WIDTH:0.54222
G1 X119.964 Y112.698 E.02092
G1 X120.345 Y113.195 E.02473
;WIDTH:0.541653
G1 X120.602 Y113.678 E.02152
G1 X120.787 Y114.26 E.02408
;WIDTH:0.541208
G1 X120.798 Y114.337 E.00305
G1 X121.245 Y114.299 F21000
;WIDTH:0.419999
G1 F969
G1 X121.305 Y115.181 E.02634
G1 X121.245 Y115.701 E.01558
G1 X121.095 Y116.249 E.01693
G1 X120.899 Y116.71 E.01493
G1 X120.623 Y117.177 E.01616
G1 X120.298 Y117.585 E.01552
G1 X119.918 Y117.944 E.01558
G1 X119.502 Y118.238 E.01518
G1 X118.959 Y118.515 E.01814
G1 X118.417 Y118.698 E.01704
G1 X117.902 Y118.788 E.01558
G1 X117.302 Y118.8 E.01789
G1 X116.751 Y118.732 E.01654
G1 X116.235 Y118.593 E.01591
G1 X115.755 Y118.386 E.01558
G1 X115.296 Y118.103 E.01605
G1 X114.878 Y117.758 E.01616
G1 X114.511 Y117.358 E.01616
G1 X114.221 Y116.939 E.01518
G1 X113.986 Y116.472 E.01558
G1 X113.819 Y115.97 E.01576
G1 X113.695 Y115.222 E.0226
G1 X113.706 Y114.682 E.01608
G1 X113.848 Y113.907 E.02347
G1 X114.03 Y113.43 E.01521
G1 X114.42 Y112.757 E.02315
G1 X114.755 Y112.359 E.0155
G1 X115.373 Y111.839 E.02405
G1 X115.826 Y111.578 E.01558
G1 X116.321 Y111.381 E.01587
G1 X116.848 Y111.251 E.01616
G1 X117.387 Y111.195 E.01616
G1 X117.898 Y111.211 E.01522
G1 X118.418 Y111.303 E.01573
G1 X118.911 Y111.464 E.01544
G1 X119.595 Y111.815 E.02289
G1 X120.014 Y112.14 E.01579
G1 X120.557 Y112.724 E.02376
G1 X120.827 Y113.146 E.01492
G1 X121.077 Y113.701 E.01814
G1 X121.234 Y114.261 E.0173
G1 X121.625 Y114.269 F21000
;TYPE:Outer wall
G1 F969
G1 X121.626 Y114.273 E.00012
G1 X121.682 Y115.244 E.02897
G1 X121.612 Y115.788 E.01635
G1 X121.449 Y116.378 E.01823
G1 X121.188 Y116.976 E.01945
G1 X120.895 Y117.45 E.01659
G1 X120.547 Y117.875 E.01635
G1 X120.143 Y118.246 E.01635
G1 X119.69 Y118.565 E.01648
G1 X119.109 Y118.861 E.01945
G1 X118.635 Y119.026 E.01495
G1 X118.048 Y119.15 E.01787
G1 X117.5 Y119.189 E.01636
G1 X116.952 Y119.15 E.01636
G1 X116.307 Y119.009 E.01968
G1 X115.696 Y118.777 E.01945
G1 X115.252 Y118.531 E.01514
G1 X114.807 Y118.209 E.01635
G1 X114.413 Y117.827 E.01635
G1 X114.042 Y117.353 E.01794
G1 X113.717 Y116.787 E.01945
G1 X113.508 Y116.26 E.01688
G1 X113.374 Y115.727 E.01635
G1 X113.318 Y115.181 E.01635
G1 X113.331 Y114.638 E.01619
G1 X113.44 Y113.994 E.01945
G1 X113.591 Y113.511 E.01507
G1 X113.844 Y112.961 E.01805
G1 X114.14 Y112.498 E.01635
G1 X114.496 Y112.085 E.01626
G1 X114.989 Y111.655 E.01948
G1 X115.539 Y111.303 E.01945
G1 X116.01 Y111.088 E.01543
G1 X116.534 Y110.923 E.01635
G1 X117.076 Y110.835 E.01635
G1 X117.668 Y110.82 E.01765
G1 X118.315 Y110.897 E.01941
G1 X118.874 Y111.045 E.01721
G1 X119.38 Y111.256 E.01635
G1 X119.852 Y111.537 E.01635
G1 X120.272 Y111.866 E.0159
G1 X120.725 Y112.337 E.01945
G1 X121.025 Y112.748 E.01518
G1 X121.307 Y113.262 E.01746
G1 X121.492 Y113.74 E.01526
G1 X121.615 Y114.23 E.01504
G1 E-.68 F3600
;WIPE_START
G1 F3000
G1 X121.626 Y114.273 E-.00528
G1 X121.681 Y115.227 E-.11472
;WIPE_END
G1 X115.718 Y117.237 Z.6 F21000
G1 Z.2
G1 E.8 F2700
;TYPE:Inner wall
;WIDTH:0.540618
G1 F969
G1 X115.517 Y117.08 E.01001
;WIDTH:0.539692
G1 X115.157 Y116.664 E.02159
G1 X114.933 Y116.292 E.01703
;WIDTH:0.540964
G1 X114.746 Y115.827 E.01974
G1 X114.641 Y115.28 E.02189
G1 X114.635 Y114.793 E.01917
;WIDTH:0.544255
G1 X114.75 Y114.178 E.02477
G1 X115.01 Y113.567 E.02632
;WIDTH:0.541772
G1 X115.327 Y113.119 E.02162
;WIDTH:0.538997
G1 X115.726 Y112.74 E.02156
;WIDTH:0.541441
G1 X116.174 Y112.451 E.02099
G1 X116.624 Y112.265 E.01919
;WIDTH:0.543515
G1 X117.159 Y112.149 E.02165
G1 X117.585 Y112.129 E.01687
;WIDTH:0.543894
G1 X118.157 Y112.206 E.02285
G1 X118.537 Y112.321 E.01569
;WIDTH:0.544162
G1 X119.075 Y112.6 E.02399
G1 X119.37 Y112.819 E.01457
;WIDTH:0.544279
G1 X119.802 Y113.286 E.02516
G1 X120.133 Y113.85 E.02593
;WIDTH:0.541521
G1 X120.305 Y114.375 E.02173
;WIDTH:0.539119
G1 X120.372 Y114.921 E.02156
;WIDTH:0.541211
G1 X120.338 Y115.449 E.02085
G1 X120.22 Y115.922 E.01918
;WIDTH:0.543662
G1 X119.99 Y116.429 E.02204
G1 X119.758 Y116.776 E.01649
;WIDTH:0.54401
G1 X119.349 Y117.196 E.02321
G1 X119.037 Y117.427 E.01534
;WIDTH:0.544216
G1 X118.484 Y117.696 E.02438
G1 X118.098 Y117.807 E.01588
;WIDTH:0.541999
G1 X117.558 Y117.873 E.02145
G1 X116.902 Y117.807 E.02602
G1 X116.395 Y117.651 E.0209
;WIDTH:0.540618
G1 X115.95 Y117.42 E.01971
G1 X115.749 Y117.262 E.01004
G1 X115.973 Y116.883 F21000
;WIDTH:0.419999
G1 F969
G1 X115.747 Y116.687 E.00892
G1 X115.513 Y116.41 E.01079
G1 X115.323 Y116.097 E.01091
G1 X115.157 Y115.667 E.01371
G1 X115.073 Y115.152 E.01554
G1 X115.108 Y114.545 E.01811
G1 X115.253 Y114.059 E.01512
G1 X115.552 Y113.547 E.01766
G1 X115.933 Y113.135 E.01671
G1 X116.354 Y112.85 E.01515
G1 X116.734 Y112.688 E.01231
G1 X117.196 Y112.586 E.01409
G1 X117.548 Y112.565 E.0105
G1 X118.047 Y112.631 E.01499
G1 X118.357 Y112.72 E.0096
G1 X118.829 Y112.964 E.01583
G1 X119.295 Y113.354 E.01811
G1 X119.595 Y113.757 E.01496
G1 X119.83 Y114.307 E.01782
G1 X119.931 Y114.849 E.01642
G1 X119.91 Y115.357 E.01515
G1 X119.815 Y115.759 E.01231
G1 X119.616 Y116.199 E.01438
G1 X119.43 Y116.487 E.01021
G1 X119.073 Y116.854 E.01525
G1 X118.824 Y117.045 E.00933
G1 X118.338 Y117.282 E.01613
G1 X118.043 Y117.373 E.00917
G1 X117.533 Y117.436 E.01532
G1 X116.957 Y117.373 E.01726
G1 X116.453 Y117.2 E.01587
G1 X116.096 Y116.991 E.01231
G1 X116.003 Y116.91 E.00369
G1 X116.217 Y116.596 F21000
;TYPE:Outer wall
G1 F969
G1 X116.164 Y116.561 E.0019
G1 X115.834 Y116.212 E.01429
G1 X115.66 Y115.927 E.00994
G1 X115.526 Y115.588 E.01087
G1 X115.45 Y115.136 E.01364
G1 X115.482 Y114.593 E.0162
G1 X115.595 Y114.217 E.01169
G1 X115.855 Y113.771 E.01538
G1 X116.199 Y113.403 E.01502
G1 X116.538 Y113.181 E.01206
G1 X117.049 Y112.995 E.0162
G1 X117.516 Y112.94 E.01401
G1 X117.952 Y112.995 E.01308
G1 X118.462 Y113.181 E.01618
G1 X118.806 Y113.407 E.01227
G1 X119.145 Y113.771 E.0148
G1 X119.405 Y114.217 E.01538
G1 X119.518 Y114.593 E.01169
G1 X119.55 Y115.136 E.0162
G1 X119.465 Y115.618 E.01459
G1 X119.295 Y116.002 E.01248
G1 X118.97 Y116.438 E.0162
G1 X118.64 Y116.715 E.01285
G1 X118.212 Y116.927 E.01422
G1 X117.995 Y116.999 E.00679
G1 X117.489 Y117.06 E.0152
G1 X116.991 Y116.996 E.01496
G1 X116.618 Y116.86 E.01182
G1 X116.251 Y116.618 E.01311
; stop printing object 支撑2.STL id:0 copy 0
;LAYER_CHANGE
;Z:0.28
;HEIGHT:0.08
;BEFORE_LAYER_CHANGE
G92 E0
;0.28


G1 E-.68 F3600
;WIPE_START
G1 F3000
G1 X116.164 Y116.561 E-.01247
G1 X115.834 Y116.212 E-.05759
G1 X115.66 Y115.927 E-.04005
G1 X115.63 Y115.851 E-.00988
;WIPE_END
EXCLUDE_OBJECT_END NAME=支撑2.STL_id_0_copy_0
;AFTER_LAYER_CHANGE
;0.28
;_SET_FAN_SPEED_CHANGING_LAYER
SET_VELOCITY_LIMIT ACCEL=5000 ACCEL_TO_DECEL=2500
SET_VELOCITY_LIMIT SQUARE_CORNER_VELOCITY=9
M140 S70 ; set bed temperature
; printing object 支撑2.STL id:0 copy 0
EXCLUDE_OBJECT_START NAME=支撑2.STL_id_0_copy_0
G1 X120.829 Y114.374 Z.6 F21000
G1 Z.28
G1 E.8 F2700
SET_VELOCITY_LIMIT ACCEL=3000 ACCEL_TO_DECEL=1500 SQUARE_CORNER_VELOCITY=7
;TYPE:Inner wall
;WIDTH:0.566809
G1 F910
G1 X120.892 Y114.807 E.0076
G1 X120.88 Y115.313 E.00879
;WIDTH:0.566067
G1 X120.783 Y115.866 E.00973
;WIDTH:0.576603
G1 X120.608 Y116.361 E.00927
G1 X120.283 Y116.946 E.01184
;WIDTH:0.567062
G1 X119.931 Y117.372 E.0096
G1 X119.463 Y117.77 E.01068
;WIDTH:0.567794
G1 X119 Y118.048 E.00939
G1 X118.413 Y118.27 E.01092
;WIDTH:0.573768
G1 X117.878 Y118.374 E.00958
G1 X117.311 Y118.388 E.00998
;WIDTH:0.567229
G1 X116.701 Y118.303 E.0107
G1 X116.128 Y118.105 E.01054
;WIDTH:0.5669
G1 X115.632 Y117.84 E.00976
G1 X115.237 Y117.531 E.00871
;WIDTH:0.566153
G1 X114.852 Y117.124 E.00973
;WIDTH:0.569202
G1 X114.566 Y116.711 E.00875
;WIDTH:0.571127
G1 X114.36 Y116.288 E.00825
G1 X114.152 Y115.574 E.01301
;WIDTH:0.568973
G1 X114.106 Y114.93 E.01126
;WIDTH:0.56807
G1 X114.157 Y114.392 E.0094
G1 X114.33 Y113.784 E.011
;WIDTH:0.567546
G1 X114.565 Y113.287 E.00957
G1 X114.926 Y112.786 E.01074
;WIDTH:0.567022
G1 X115.33 Y112.386 E.00988
G1 X115.741 Y112.097 E.00874
;WIDTH:0.56621
G1 X116.243 Y111.846 E.00974
;WIDTH:0.57625
G1 X116.733 Y111.694 E.00906
G1 X117.398 Y111.606 E.01184
;WIDTH:0.56655
G1 X117.955 Y111.635 E.00968
G1 X118.556 Y111.773 E.0107
;WIDTH:0.567535
G1 X119.058 Y111.982 E.00946
G1 X119.582 Y112.319 E.01084
;WIDTH:0.567847
G1 X119.984 Y112.682 E.00941
G1 X120.365 Y113.179 E.0109
;WIDTH:0.567376
G1 X120.626 Y113.669 E.00966
G1 X120.811 Y114.252 E.01064
;WIDTH:0.566809
G1 X120.823 Y114.334 E.00144
SET_VELOCITY_LIMIT ACCEL=5000 ACCEL_TO_DECEL=2500 SQUARE_CORNER_VELOCITY=9
G1 X121.322 Y114.281 F21000
SET_VELOCITY_LIMIT ACCEL=3000 ACCEL_TO_DECEL=1500 SQUARE_CORNER_VELOCITY=7
;WIDTH:0.449999
G1 F910
G1 X121.384 Y114.981 E.00962
G1 X121.341 Y115.6 E.00849
G1 X121.23 Y116.105 E.00706
G1 X121.052 Y116.583 E.00699
G1 X120.692 Y117.215 E.00994
G1 X120.359 Y117.636 E.00734
G1 X119.965 Y118.008 E.0074
G1 X119.533 Y118.312 E.00723
G1 X118.982 Y118.591 E.00846
G1 X118.44 Y118.773 E.00782
G1 X117.907 Y118.867 E.00741
G1 X117.282 Y118.878 E.00855
G1 X116.75 Y118.812 E.00733
G1 X116.212 Y118.669 E.00762
G1 X115.715 Y118.455 E.0074
G1 X115.245 Y118.164 E.00756
G1 X114.824 Y117.816 E.00746
G1 X114.414 Y117.366 E.00832
G1 X114.13 Y116.945 E.00695
G1 X113.896 Y116.456 E.00741
G1 X113.678 Y115.719 E.01051
M73 P3 R16
G1 X113.617 Y115.194 E.00723
G1 X113.628 Y114.663 E.00727
G1 X113.712 Y114.139 E.00726
G1 X113.87 Y113.617 E.00746
G1 X114.098 Y113.119 E.00749
G1 X114.379 Y112.676 E.00717
G1 X114.707 Y112.296 E.00687
G1 X115.125 Y111.925 E.00764
G1 X115.579 Y111.623 E.00746
G1 X116.128 Y111.361 E.00832
G1 X116.647 Y111.206 E.00741
G1 X117.369 Y111.116 E.00995
G1 X117.94 Y111.134 E.00781
G1 X118.442 Y111.227 E.00698
G1 X118.951 Y111.395 E.00733
G1 X119.421 Y111.623 E.00714
G1 X119.875 Y111.925 E.00746
G1 X120.29 Y112.292 E.00758
G1 X120.621 Y112.676 E.00693
G1 X120.902 Y113.119 E.00717
G1 X121.155 Y113.683 E.00845
G1 X121.311 Y114.242 E.00794
SET_VELOCITY_LIMIT ACCEL=5000 ACCEL_TO_DECEL=2500 SQUARE_CORNER_VELOCITY=9
G1 X121.732 Y114.242 F21000
SET_VELOCITY_LIMIT ACCEL=3000 ACCEL_TO_DECEL=1500 SQUARE_CORNER_VELOCITY=7
;TYPE:Outer wall
;WIDTH:0.399999
G1 F910
G1 X121.734 Y114.253 E.00014
G1 X121.792 Y114.98 E.00882
G1 X121.746 Y115.647 E.00809
G1 X121.637 Y116.156 E.00629
G1 X121.472 Y116.637 E.00615
G1 X121.255 Y117.088 E.00606
G1 X120.949 Y117.568 E.00688
G1 X120.627 Y117.951 E.00605
G1 X120.209 Y118.335 E.00687
G1 X119.737 Y118.665 E.00696
G1 X119.143 Y118.966 E.00805
G1 X118.557 Y119.164 E.00749
G1 X117.999 Y119.271 E.00687
G1 X117.432 Y119.296 E.00687
G1 X116.933 Y119.259 E.00605
G1 X116.266 Y119.111 E.00826
G1 X115.772 Y118.929 E.00637
G1 X115.246 Y118.655 E.00717
G1 X114.791 Y118.335 E.00673
G1 X114.373 Y117.951 E.00687
G1 X114.022 Y117.521 E.0067
G1 X113.745 Y117.087 E.00623
G1 X113.513 Y116.596 E.00657
G1 X113.301 Y115.896 E.00885
G1 X113.217 Y115.329 E.00694
G1 X113.208 Y114.82 E.00616
G1 X113.266 Y114.253 E.00689
G1 X113.381 Y113.767 E.00605
G1 X113.552 Y113.297 E.00605
G1 X113.776 Y112.85 E.00605
G1 X114.095 Y112.38 E.00687
G1 X114.427 Y112 E.0061
G1 X114.931 Y111.561 E.00809
G1 X115.375 Y111.27 E.00642
G1 X115.909 Y111.012 E.00717
G1 X116.442 Y110.836 E.00679
G1 X117.001 Y110.729 E.00688
G1 X117.5 Y110.7 E.00605
G1 X118.053 Y110.74 E.0067
G1 X118.559 Y110.836 E.00623
G1 X119.113 Y111.021 E.00706
G1 X119.708 Y111.318 E.00805
G1 X120.2 Y111.659 E.00724
G1 X120.577 Y112.002 E.00616
G1 X120.949 Y112.432 E.00689
G1 X121.224 Y112.85 E.00605
G1 X121.448 Y113.297 E.00605
G1 X121.619 Y113.767 E.00605
G1 X121.722 Y114.203 E.00543
SET_VELOCITY_LIMIT ACCEL=5000 ACCEL_TO_DECEL=2500 SQUARE_CORNER_VELOCITY=9
G1 E-.68 F3600
;WIPE_START
G1 F7200
G1 X121.734 Y114.253 E-.00618
G1 X121.792 Y114.98 E-.08747
G1 X121.777 Y115.199 E-.02635
;WIPE_END
G1 X115.714 Y117.205 Z.68 F21000
G1 Z.28
G1 E.8 F2700
SET_VELOCITY_LIMIT ACCEL=3000 ACCEL_TO_DECEL=1500 SQUARE_CORNER_VELOCITY=7
;TYPE:Inner wall
;WIDTH:0.5669
G1 F910
G1 X115.536 Y117.062 E.00397
;WIDTH:0.564938
G1 X115.177 Y116.647 E.00949
;WIDTH:0.570324
G1 X114.897 Y116.146 E.01004
G1 X114.711 Y115.543 E.01102
G1 X114.654 Y114.972 E.01004
;WIDTH:0.56517
G1 X114.721 Y114.378 E.01034
;WIDTH:0.567375
G1 X114.881 Y113.88 E.0091
G1 X115.126 Y113.43 E.00891
G1 X115.425 Y113.051 E.00839
G1 X115.785 Y112.729 E.00839
;WIDTH:0.568605
G1 X116.212 Y112.461 E.00879
;WIDTH:0.570068
G1 X116.728 Y112.266 E.00964
G1 X117.307 Y112.166 E.01026
G1 X117.829 Y112.174 E.00912
;WIDTH:0.569107
G1 X118.36 Y112.287 E.00947
;WIDTH:0.565588
