; HEADER_BLOCK_START
; generated by OrcaSlicer 2.1.1 on 2024-12-09 at 06:49:00
; total layer number: 61
; filament_density: 1.27
; filament_diameter: 1.75
; max_z_height: 5.00
; HEADER_BLOCK_END

; THUMBNAIL_BLOCK_START

;
; THUMBNAIL_BLOCK_END







; external perimeters extrusion width = 0.40mm
; perimeters extrusion width = 0.45mm
; infill extrusion width = 0.45mm
; solid infill extrusion width = 0.45mm
; top infill extrusion width = 0.38mm
; first layer extrusion width = 0.42mm

; EXECUTABLE_BLOCK_START
EXCLUDE_OBJECT_DEFINE NAME=支撑7.STL_id_0_copy_0 CENTER=117.5,115 POLYGON=[[113.85,115],[113.873,114.542],[113.943,114.089],[114.059,113.645],[114.219,113.216],[114.422,112.805],[114.666,112.416],[114.948,112.055],[115.265,111.724],[115.614,111.427],[115.992,111.167],[116.394,110.947],[116.817,110.769],[117.255,110.635],[117.705,110.546],[118.161,110.504],[118.62,110.508],[119.076,110.559],[119.524,110.656],[119.96,110.798],[120.379,110.983],[120.777,111.211],[121.15,111.477],[121.15,118.523],[120.777,118.789],[120.379,119.017],[119.96,119.202],[119.524,119.344],[119.076,119.441],[118.62,119.492],[118.161,119.496],[117.705,119.454],[117.255,119.365],[116.817,119.231],[116.394,119.053],[115.992,118.833],[115.614,118.573],[115.265,118.276],[114.948,117.945],[114.666,117.584],[114.422,117.195],[114.219,116.784],[114.059,116.355],[113.943,115.911],[113.873,115.458],[113.85,115]]
M73 P0 R8
;TYPE:Custom
;ELEGOO NEPTUNE 4 PRO
M220 S100 ;Set the feed speed to 100%
M221 S100 ;Set the flow rate to 100%
M104 S140
M190 S70
G90
G28 ;home
G1 Z10 F300
G1 X67.5 Y0 F6000
G1 Z0 F300
M109 S240
G92 E0 ;Reset Extruder
G1 X67.5 Y0 Z0.4 F300 ;Move to start position
G1 X167.5 E30 F400 ;Draw the first line
G1 Z0.6 F120.0 ;Move to side a little
M73 P3 R8
G1 X162.5 F3000
G92 E0 ;Reset Extruder
G90
G21
M83 ; use relative distances for extrusion
; filament start gcode
M106 S0
;LAYER_CHANGE
;Z:0.2
;HEIGHT:0.2
;BEFORE_LAYER_CHANGE
G92 E0
;0.2


G1 E-.8 F3600
;AFTER_LAYER_CHANGE
;0.2
;_SET_FAN_SPEED_CHANGING_LAYER
SET_VELOCITY_LIMIT ACCEL=1000 ACCEL_TO_DECEL=500
SET_VELOCITY_LIMIT SQUARE_CORNER_VELOCITY=7
; printing object 支撑7.STL id:0 copy 0
EXCLUDE_OBJECT_START NAME=支撑7.STL_id_0_copy_0
G1 X120.03 Y112.677 F21000
G1 Z.4
G1 Z.2
G1 E.8 F2700
;TYPE:Inner wall
;WIDTH:0.531084
G1 F847
G1 X119.787 Y112.518 E.01121
;WIDTH:0.540182
G1 X119.366 Y112.314 E.01837
G1 X118.903 Y112.184 E.01888
;WIDTH:0.535274
G1 X118.423 Y112.133 E.01878
;WIDTH:0.541645
G1 X117.956 Y112.154 E.01845
G1 X117.34 Y112.312 E.02505
;WIDTH:0.541369
G1 X116.852 Y112.552 E.02141
;WIDTH:0.541844
G1 X116.381 Y112.913 E.02339
M73 P4 R8
G1 X115.987 Y113.368 E.02372
;WIDTH:0.539813
G1 X115.689 Y113.923 E.02472
;WIDTH:0.540789
G1 X115.54 Y114.409 E.02
;WIDTH:0.541943
G1 X115.481 Y115 E.0234
G1 X115.547 Y115.624 E.02475
;WIDTH:0.538792
G1 X115.712 Y116.141 E.02126
;WIDTH:0.539858
G1 X115.994 Y116.642 E.02255
;WIDTH:0.541844
G1 X116.381 Y117.087 E.02323
G1 X116.912 Y117.484 E.02613
;WIDTH:0.53909
G1 X117.377 Y117.704 E.02016
G1 X117.959 Y117.845 E.02348
;WIDTH:0.541746
G1 X118.516 Y117.865 E.02194
G1 X119.102 Y117.769 E.02342
G1 X119.644 Y117.564 E.02281
;WIDTH:0.539286
G1 X120.027 Y117.33 E.01762
;WIDTH:0.538277
G1 X120.027 Y117.91 E.02271
;WIDTH:0.539286
G1 X119.832 Y118.023 E.00883
G1 X119.352 Y118.209 E.02018
;WIDTH:0.535548
G1 X118.81 Y118.326 E.02157
;WIDTH:0.532712
G1 X118.237 Y118.355 E.02219
;WIDTH:0.533678
G1 X117.677 Y118.291 E.02188
;WIDTH:0.537672
G1 X117.133 Y118.137 E.02208
G1 X116.669 Y117.914 E.02012
;WIDTH:0.536855
G1 X116.208 Y117.587 E.02202
;WIDTH:0.533235
G1 X115.814 Y117.199 E.02146
;WIDTH:0.532944
G1 X115.475 Y116.736 E.02221
;WIDTH:0.536258
G1 X115.221 Y116.231 E.02201
;WIDTH:0.54079
G1 X115.05 Y115.682 E.02261
G1 X114.995 Y115.18 E.01989
;WIDTH:0.534058
G1 X115.015 Y114.616 E.02188
;WIDTH:0.532406
G1 X115.126 Y114.063 E.0218
;WIDTH:0.535044
G1 X115.325 Y113.535 E.02194
;WIDTH:0.540489
G1 X115.607 Y113.046 E.0222
G1 X115.943 Y112.654 E.02026
;WIDTH:0.535072
G1 X116.371 Y112.287 E.02194
;WIDTH:0.53242
G1 X116.853 Y111.995 E.0218
;WIDTH:0.534029
G1 X117.377 Y111.784 E.02189
;WIDTH:0.541663
G1 X117.915 Y111.657 E.0218
G1 X118.457 Y111.644 E.02137
;WIDTH:0.535274
G1 X119.028 Y111.708 E.02233
;WIDTH:0.540182
G1 X119.578 Y111.864 E.02247
G1 X120.03 Y112.087 E.0198
;WIDTH:0.531084
G1 X120.03 Y112.637 E.0212
G1 E-.68 F3600
;WIPE_START
G1 F3000
G1 X119.787 Y112.518 E-.03251
G1 X119.366 Y112.314 E-.05611
G1 X119.115 Y112.243 E-.03137
;WIPE_END
G1 X120.463 Y113.796 Z.6 F21000
G1 Z.2
G1 E.8 F2700
;WIDTH:0.419999
G1 F847
G1 X120.174 Y113.385 E.01499
G1 X119.883 Y113.107 E.01198
G1 X119.55 Y112.88 E.01198
G1 X119.191 Y112.714 E.0118
G1 X118.797 Y112.605 E.01217
G1 X118.389 Y112.565 E.01221
G1 X117.995 Y112.59 E.01175
G1 X117.603 Y112.681 E.01198
G1 X117.091 Y112.918 E.01681
G1 X116.677 Y113.235 E.01552
G1 X116.338 Y113.628 E.01546
G1 X116.138 Y113.979 E.01202
G1 X115.972 Y114.481 E.01577
G1 X115.919 Y115 E.01553
G1 X115.972 Y115.519 E.01553
G1 X116.101 Y115.936 E.013
G1 X116.338 Y116.373 E.01481
G1 X116.677 Y116.765 E.01545
G1 X117.091 Y117.082 E.01552
G1 X117.515 Y117.288 E.01405
G1 X117.904 Y117.395 E.01202
G1 X118.478 Y117.429 E.01712
G1 X118.995 Y117.345 E.01559
G1 X119.468 Y117.164 E.01509
G1 X119.809 Y116.951 E.01198
G1 X120.174 Y116.615 E.01476
G1 X120.463 Y116.204 E.01499
G1 X120.463 Y118.15 E.05797
G1 X120.069 Y118.4 E.01392
G1 X119.344 Y118.678 E.02312
G1 X118.579 Y118.803 E.02309
G1 X117.804 Y118.77 E.02309
G1 X117.052 Y118.582 E.02309
G1 X116.354 Y118.245 E.02309
G1 X115.738 Y117.774 E.02309
G1 X115.231 Y117.187 E.0231
G1 X114.852 Y116.511 E.02309
G1 X114.619 Y115.771 E.02309
G1 X114.54 Y115 E.02309
G1 X114.619 Y114.229 E.02309
G1 X114.852 Y113.489 E.02309
G1 X115.231 Y112.813 E.02309
G1 X115.738 Y112.226 E.02309
G1 X116.354 Y111.755 E.02309
G1 X117.052 Y111.418 E.02309
G1 X117.574 Y111.287 E.01603
G1 X118.176 Y111.193 E.01816
G1 X118.964 Y111.24 E.02353
G1 X119.713 Y111.442 E.02309
G1 X120.418 Y111.798 E.02353
G1 X120.463 Y111.879 E.00275
G1 X120.463 Y113.756 E.05592
G1 E-.68 F3600
;WIPE_START
G1 F3000
G1 X120.174 Y113.385 E-.05652
G1 X119.883 Y113.107 E-.04828
G1 X119.778 Y113.035 E-.0152
;WIPE_END
G1 X120.84 Y111.637 Z.6 F21000
G1 Z.2
G1 E.8 F2700
;TYPE:Outer wall
G1 F847
G1 X120.84 Y113.695 E.0613
;WIDTH:0.448936
G1 X120.826 Y114.082 E.01242
;WIDTH:0.477872
G1 X120.811 Y114.469 E.01331
G1 X120.824 Y115.222 E.02588
;WIDTH:0.45224
G1 X120.84 Y115.996 E.02504
;WIDTH:0.419999
G1 X120.84 Y118.357 E.07031
G1 X120.239 Y118.739 E.02122
G1 X119.443 Y119.044 E.0254
G1 X118.601 Y119.181 E.02539
G1 X117.75 Y119.146 E.02539
G1 X116.923 Y118.938 E.02539
M73 P5 R8
G1 X116.155 Y118.568 E.02539
G1 X115.478 Y118.05 E.02539
G1 X114.92 Y117.405 E.02539
G1 X114.504 Y116.661 E.02539
G1 X114.248 Y115.848 E.02539
G1 X114.161 Y115 E.02539
G1 X114.248 Y114.152 E.02539
G1 X114.504 Y113.339 E.02539
G1 X114.92 Y112.595 E.02539
G1 X115.478 Y111.95 E.02539
G1 X116.155 Y111.432 E.02539
G1 X116.923 Y111.062 E.02539
G1 X117.675 Y110.873 E.02311
G1 X118.17 Y110.815 E.01483
G1 X119.026 Y110.866 E.02554
G1 X119.743 Y111.06 E.02215
G1 X120.261 Y111.297 E.01696
G1 X120.806 Y111.616 E.0188
G1 E-.68 F3600
;WIPE_START
G1 F3000
G1 X120.822 Y112.616 E-.12
;WIPE_END
G1 X120.373 Y114.527 Z.6 F21000
G1 Z.2
G1 E.8 F2700
;WIDTH:0.467078
G1 F847
G1 X120.419 Y114.845 E.01079
;WIDTH:0.477856
G1 X120.379 Y115.495 E.02237
G1 X120.231 Y115.804 E.01178
;WIDTH:0.448928
G1 X120.083 Y116.114 E.01099
;WIDTH:0.419999
G1 X119.855 Y116.406 E.01106
G1 X119.603 Y116.635 E.01013
G1 X119.317 Y116.819 E.01013
G1 X118.902 Y116.979 E.01324
G1 X118.366 Y117.06 E.01614
G1 X117.996 Y117.029 E.01108
G1 X117.666 Y116.943 E.01013
G1 X117.298 Y116.766 E.01219
G1 X116.85 Y116.411 E.01703
G1 X116.617 Y116.114 E.01123
G1 X116.457 Y115.813 E.01014
G1 X116.344 Y115.457 E.01115
G1 X116.296 Y115 E.01367
G1 X116.356 Y114.484 E.01548
G1 X116.47 Y114.158 E.01027
G1 X116.636 Y113.859 E.01021
G1 X116.933 Y113.513 E.01357
G1 X117.356 Y113.196 E.01574
G1 X117.696 Y113.047 E.01106
G1 X118.275 Y112.945 E.01752
G1 X118.704 Y112.971 E.0128
G1 X119.039 Y113.059 E.01032
G1 X119.344 Y113.196 E.00995
G1 X119.627 Y113.384 E.01013
G1 X119.876 Y113.616 E.01013
G1 X120.083 Y113.886 E.01013
;WIDTH:0.467078
G1 X120.365 Y114.471 E.02174
G1 X120.367 Y114.487 E.00055
; stop printing object 支撑7.STL id:0 copy 0
;LAYER_CHANGE
;Z:0.28
;HEIGHT:0.08
;BEFORE_LAYER_CHANGE
G92 E0
;0.28


G1 E-.68 F3600
;WIPE_START
G1 F3000
G1 X120.419 Y114.845 E-.04346
G1 X120.38 Y115.482 E-.07654
;WIPE_END
EXCLUDE_OBJECT_END NAME=支撑7.STL_id_0_copy_0
;AFTER_LAYER_CHANGE
;0.28
;_SET_FAN_SPEED_CHANGING_LAYER
SET_VELOCITY_LIMIT ACCEL=5000 ACCEL_TO_DECEL=2500
SET_VELOCITY_LIMIT SQUARE_CORNER_VELOCITY=9
M140 S70 ; set bed temperature
; printing object 支撑7.STL id:0 copy 0
EXCLUDE_OBJECT_START NAME=支撑7.STL_id_0_copy_0
G1 X120.05 Y112.731 Z.6 F21000
G1 Z.28
G1 E.8 F2700
SET_VELOCITY_LIMIT ACCEL=3000 ACCEL_TO_DECEL=1500 SQUARE_CORNER_VELOCITY=7
;TYPE:Inner wall
;WIDTH:0.568038
G1 F803
G1 X119.949 Y112.653 E.00222
G1 X119.357 Y112.338 E.01169
;WIDTH:0.565582
G1 X118.721 Y112.181 E.01134
;WIDTH:0.570603
G1 X118.154 Y112.165 E.00992
G1 X117.598 Y112.264 E.00988
;WIDTH:0.56319
G1 X117.261 Y112.379 E.00614
;WIDTH:0.564703
G1 X116.751 Y112.654 E.01002
;WIDTH:0.572358
G1 X116.42 Y112.921 E.00747
G1 X116.076 Y113.3 E.00897
;WIDTH:0.564538
G1 X115.882 Y113.601 E.0062
;WIDTH:0.561645
G1 X115.649 Y114.131 E.00996
;WIDTH:0.56574
G1 X115.559 Y114.478 E.00621
;WIDTH:0.568019
G1 X115.51 Y115.055 E.01008
;WIDTH:0.574796
G1 X115.574 Y115.561 E.00899
G1 X115.736 Y116.131 E.01044
;WIDTH:0.575472
G1 X116.037 Y116.633 E.01032
G1 X116.398 Y117.068 E.00997
;WIDTH:0.573915
G1 X116.852 Y117.406 E.00995
G1 X117.385 Y117.679 E.01055
;WIDTH:0.575949
G1 X117.95 Y117.802 E.01021
G1 X118.514 Y117.839 E.00998
;WIDTH:0.572838
G1 X119.072 Y117.742 E.00993
G1 X119.643 Y117.537 E.01065
;WIDTH:0.565156
G1 X120.053 Y117.253 E.00863
;WIDTH:0.563518
G1 X120.053 Y117.923 E.01156
;WIDTH:0.564112
G1 X119.727 Y118.091 E.00633
;WIDTH:0.565941
G1 X119.127 Y118.296 E.011
;WIDTH:0.566942
G1 X118.581 Y118.385 E.0096
G1 X118.115 Y118.373 E.00811
;WIDTH:0.562195
G1 X117.489 Y118.269 E.01092
;WIDTH:0.56319
G1 X117.012 Y118.107 E.00869
;WIDTH:0.564703
G1 X116.455 Y117.804 E.01098
G1 X115.93 Y117.369 E.01179
;WIDTH:0.575472
G1 X115.574 Y116.947 E.00975
G1 X115.316 Y116.502 E.00907
;WIDTH:0.562464
G1 X115.16 Y116.123 E.00707
;WIDTH:0.563665
G1 X115.005 Y115.507 E.01096
;WIDTH:0.571003
G1 X114.96 Y114.972 E.00941
G1 X115.013 Y114.428 E.00957
;WIDTH:0.56574
G1 X115.14 Y113.94 E.00874
;WIDTH:0.561645
G1 X115.395 Y113.359 E.01091
;WIDTH:0.564538
G1 X115.668 Y112.936 E.00871
;WIDTH:0.566494
G1 X116.099 Y112.47 E.01102
;WIDTH:0.573919
G1 X116.55 Y112.129 E.00996
G1 X117.012 Y111.893 E.00912
;WIDTH:0.56319
G1 X117.383 Y111.757 E.00681
;WIDTH:0.576966
G1 X117.913 Y111.636 E.00962
G1 X118.454 Y111.619 E.00958
;WIDTH:0.560596
G1 X119.044 Y111.686 E.01019
;WIDTH:0.565582
G1 X119.59 Y111.841 E.00984
;WIDTH:0.568038
G1 X120.05 Y112.075 E.00899
G1 X120.05 Y112.691 E.01072
SET_VELOCITY_LIMIT ACCEL=5000 ACCEL_TO_DECEL=2500 SQUARE_CORNER_VELOCITY=9
G1 E-.68 F3600
;WIPE_START
G1 F12000
G1 X119.949 Y112.653 E-.01295
G1 X119.357 Y112.338 E-.08057
G1 X119.142 Y112.285 E-.02647
;WIPE_END
G1 X120.542 Y114.188 Z.68 F21000
G1 Z.28
G1 E.8 F2700
SET_VELOCITY_LIMIT ACCEL=3000 ACCEL_TO_DECEL=1500 SQUARE_CORNER_VELOCITY=7
;WIDTH:0.449999
G1 F803
G1 X120.263 Y113.632 E.0085
G1 X119.715 Y113.085 E.01059
G1 X119.206 Y112.81 E.00792
G1 X118.787 Y112.684 E.00599
G1 X118.381 Y112.645 E.00557
G1 X118.068 Y112.68 E.00431
G1 X117.563 Y112.778 E.00704
G1 X117.087 Y113.03 E.00735
G1 X116.829 Y113.206 E.00428
G1 X116.437 Y113.632 E.00792
G1 X116.206 Y114.079 E.00687
G1 X116.048 Y114.519 E.00639
G1 X116.003 Y115.064 E.00748
G1 X116.016 Y115.292 E.00313
G1 X116.159 Y115.854 E.00792
G1 X116.238 Y116.034 E.0027
M73 P6 R8
G1 X116.603 Y116.583 E.00902
G1 X116.985 Y116.915 E.00691
G1 X117.494 Y117.19 E.00792
G1 X117.68 Y117.254 E.0027
G1 X118.325 Y117.357 E.00893
G1 X118.834 Y117.301 E.00701
G1 X119.382 Y117.113 E.00792
G1 X119.555 Y117.02 E.0027
G1 X120.146 Y116.519 E.01059
G1 X120.542 Y115.854 E.01059
G1 X120.542 Y118.19 E.03196
G1 X120.103 Y118.471 E.00712
G1 X119.364 Y118.754 E.01082
G1 X118.583 Y118.882 E.01082
G1 X117.793 Y118.849 E.01082
G1 X117.025 Y118.656 E.01082
G1 X116.312 Y118.312 E.01082
G1 X115.684 Y117.831 E.01082
G1 X115.166 Y117.233 E.01082
G1 X114.78 Y116.542 E.01082
G1 X114.541 Y115.787 E.01082
G1 X114.461 Y115 E.01082
G1 X114.541 Y114.213 E.01082
G1 X114.78 Y113.458 E.01082
G1 X115.166 Y112.767 E.01082
G1 X115.684 Y112.169 E.01082
G1 X116.312 Y111.688 E.01082
G1 X117.025 Y111.344 E.01082
G1 X117.75 Y111.162 E.01022
G1 X118.172 Y111.113 E.00581
G1 X118.899 Y111.157 E.00997
G1 X119.452 Y111.29 E.00777
G1 X119.914 Y111.456 E.00672
G1 X120.542 Y111.79 E.00973
G1 X120.542 Y114.148 E.03224
SET_VELOCITY_LIMIT ACCEL=5000 ACCEL_TO_DECEL=2500 SQUARE_CORNER_VELOCITY=9
G1 E-.68 F3600
;WIPE_START
G1 F12000
G1 X120.263 Y113.632 E-.07032
G1 X119.97 Y113.34 E-.04968
;WIPE_END
G1 X120.95 Y111.58 Z.68 F21000
G1 Z.28
G1 E.8 F2700
SET_VELOCITY_LIMIT ACCEL=3000 ACCEL_TO_DECEL=1500 SQUARE_CORNER_VELOCITY=7
;TYPE:Outer wall
;WIDTH:0.399999
G1 F803
G1 X120.95 Y113.762 E.02639
;WIDTH:0.440351
G1 X120.93 Y113.952 E.00256
;WIDTH:0.480702
G1 X120.91 Y114.142 E.00281
;WIDTH:0.521054
G1 X120.889 Y114.333 E.00305
;WIDTH:0.561405
G1 X120.869 Y114.523 E.00329
G1 X120.887 Y115.275 E.01292
;WIDTH:0.526708
G1 X120.908 Y115.468 E.00313
;WIDTH:0.484472
G1 X120.929 Y115.661 E.00287
;WIDTH:0.442235
G1 X120.95 Y115.854 E.00261
;WIDTH:0.399999
G1 X120.95 Y118.414 E.03097
G1 X120.288 Y118.837 E.0095
G1 X119.471 Y119.15 E.01058
G1 X118.608 Y119.291 E.01058
G1 X117.734 Y119.255 E.01058
G1 X116.885 Y119.042 E.01058
G1 X116.097 Y118.662 E.01058
G1 X115.403 Y118.13 E.01058
G1 X114.83 Y117.468 E.01058
G1 X114.403 Y116.705 E.01058
G1 X114.14 Y115.87 E.01058
G1 X114.051 Y115 E.01058
G1 X114.14 Y114.13 E.01058
G1 X114.403 Y113.295 E.01058
G1 X114.83 Y112.532 E.01058
G1 X115.403 Y111.87 E.01058
G1 X116.097 Y111.338 E.01058
G1 X116.885 Y110.958 E.01058
G1 X117.651 Y110.766 E.00954
G1 X118.165 Y110.704 E.00627
G1 X119.043 Y110.757 E.01064
G1 X119.888 Y110.985 E.01058
G1 X120.634 Y111.362 E.01011
G1 X120.917 Y111.557 E.00416
SET_VELOCITY_LIMIT ACCEL=5000 ACCEL_TO_DECEL=2500 SQUARE_CORNER_VELOCITY=9
G1 E-.68 F3600
;WIPE_START
G1 F7200
G1 X120.932 Y112.557 E-.12
;WIPE_END
G1 X120.324 Y114.544 Z.68 F21000
G1 Z.28
G1 E.8 F2700
SET_VELOCITY_LIMIT ACCEL=3000 ACCEL_TO_DECEL=1500 SQUARE_CORNER_VELOCITY=7
;WIDTH:0.561405
G1 F803
G1 X120.326 Y114.546 E.00004
G1 X120.362 Y115.124 E.00996
;WIDTH:0.537461
G1 X120.29 Y115.334 E.00365
;WIDTH:0.49164
G1 X120.218 Y115.544 E.00333
;WIDTH:0.44582
G1 X120.146 Y115.753 E.00301
;WIDTH:0.399999
G1 X119.804 Y116.296 E.00776
G1 X119.305 Y116.698 E.00776
G1 X118.779 Y116.889 E.00677
G1 X118.342 Y116.95 E.00533
G1 X117.747 Y116.852 E.00729
G1 X117.281 Y116.612 E.00634
G1 X116.927 Y116.332 E.00547
G1 X116.579 Y115.811 E.00757
G1 X116.412 Y115.192 E.00776
G1 X116.454 Y114.552 E.00776
G1 X116.702 Y113.961 E.00776
G1 X117.083 Y113.532 E.00694
G1 X117.282 Y113.388 E.00296
G1 X117.732 Y113.151 E.00616
G1 X118.304 Y113.054 E.00702
G1 X118.686 Y113.08 E.00463
G1 X119.012 Y113.168 E.00408
G1 X119.521 Y113.444 E.007
G1 X119.963 Y113.908 E.00776
;WIDTH:0.443512
G1 X120.117 Y114.191 E.00433
;WIDTH:0.487025
G1 X120.27 Y114.474 E.00478
;WIDTH:0.524215
G1 X120.298 Y114.51 E.00073
;WIDTH:0.561405
G1 X120.3 Y114.512 E.00005
; stop printing object 支撑7.STL id:0 copy 0
;LAYER_CHANGE
;Z:0.36
;HEIGHT:0.08
;BEFORE_LAYER_CHANGE
G92 E0
;0.36


G1 E-.68 F3600
;WIPE_START
G1 F7200
M73 P7 R8
G1 X120.326 Y114.546 E-.0051
G1 X120.362 Y115.124 E-.06948
G1 X120.29 Y115.334 E-.02663
G1 X120.239 Y115.482 E-.01879
;WIPE_END
EXCLUDE_OBJECT_END NAME=支撑7.STL_id_0_copy_0
;AFTER_LAYER_CHANGE
;0.36
;_SET_FAN_SPEED_CHANGING_LAYER
; printing object 支撑7.STL id:0 copy 0
