; HEADER_BLOCK_START
; generated by OrcaSlicer 2.1.1 on 2024-12-07 at 18:12:59
; total layer number: 126
; filament_density: 1.27
; filament_diameter: 1.75
; max_z_height: 10.20
; HEADER_BLOCK_END

; THUMBNAIL_BLOCK_START

;
; THUMBNAIL_BLOCK_END







; external perimeters extrusion width = 0.40mm
; perimeters extrusion width = 0.45mm
; infill extrusion width = 0.45mm
; solid infill extrusion width = 0.45mm
; top infill extrusion width = 0.38mm
; first layer extrusion width = 0.42mm

; EXECUTABLE_BLOCK_START
EXCLUDE_OBJECT_DEFINE NAME=支撑5.STL_id_0_copy_0 CENTER=117.5,115 POLYGON=[[113.85,115],[113.878,114.497],[113.963,113.999],[114.102,113.515],[114.295,113.049],[114.539,112.607],[114.83,112.196],[115.166,111.82],[115.542,111.484],[115.953,111.191],[116.394,110.947],[116.86,110.754],[117.344,110.614],[117.841,110.529],[118.345,110.5],[118.848,110.528],[119.346,110.612],[119.83,110.75],[120.297,110.943],[120.738,111.186],[121.15,111.477],[121.15,118.523],[120.738,118.814],[120.297,119.057],[119.83,119.25],[119.346,119.388],[118.848,119.472],[118.345,119.5],[117.841,119.471],[117.344,119.386],[116.86,119.246],[116.394,119.053],[115.953,118.809],[115.542,118.516],[115.166,118.18],[114.83,117.804],[114.539,117.393],[114.295,116.951],[114.102,116.485],[113.963,116.001],[113.878,115.503],[113.85,115]]
M73 P0 R17
;TYPE:Custom
;ELEGOO NEPTUNE 4 PRO
M220 S100 ;Set the feed speed to 100%
M221 S100 ;Set the flow rate to 100%
M104 S140
M190 S70
G90
G28 ;home
G1 Z10 F300
G1 X67.5 Y0 F6000
G1 Z0 F300
M109 S240
G92 E0 ;Reset Extruder
G1 X67.5 Y0 Z0.4 F300 ;Move to start position
G1 X167.5 E30 F400 ;Draw the first line
G1 Z0.6 F120.0 ;Move to side a little
M73 P1 R17
G1 X162.5 F3000
G92 E0 ;Reset Extruder
G90
G21
M83 ; use relative distances for extrusion
; filament start gcode
M106 S0
;LAYER_CHANGE
;Z:0.2
;HEIGHT:0.2
;BEFORE_LAYER_CHANGE
G92 E0
;0.2


G1 E-.8 F3600
;AFTER_LAYER_CHANGE
;0.2
;_SET_FAN_SPEED_CHANGING_LAYER
SET_VELOCITY_LIMIT ACCEL=1000 ACCEL_TO_DECEL=500
SET_VELOCITY_LIMIT SQUARE_CORNER_VELOCITY=7
; printing object 支撑5.STL id:0 copy 0
EXCLUDE_OBJECT_START NAME=支撑5.STL_id_0_copy_0
G1 X117.063 Y112.44 F21000
G1 Z.4
G1 Z.2
G1 E.8 F2700
;TYPE:Inner wall
;WIDTH:0.540116
G1 F833
G1 X116.952 Y112.489 E.00477
G1 X116.48 Y112.82 E.02261
;WIDTH:0.543332
G1 X116.11 Y113.203 E.02107
;WIDTH:0.544102
G1 X115.761 Y113.76 E.026
G1 X115.561 Y114.312 E.02326
;WIDTH:0.540801
G1 X115.485 Y114.793 E.01916
;WIDTH:0.541261
G1 X115.494 Y115.327 E.021
G1 X115.597 Y115.825 E.02005
;WIDTH:0.539206
G1 X115.801 Y116.327 E.02124
;WIDTH:0.54246
G1 X116.095 Y116.78 E.0213
;WIDTH:0.544348
M73 P2 R17
G1 X116.56 Y117.244 E.02602
G1 X117.09 Y117.582 E.02488
;WIDTH:0.54163
G1 X117.544 Y117.757 E.0192
;WIDTH:0.54852
G1 X118.03 Y117.846 E.01971
G1 X118.477 Y117.867 E.01788
;WIDTH:0.541736
G1 X119.098 Y117.775 E.02474
;WIDTH:0.541619
G1 X119.586 Y117.595 E.02048
G1 X120.025 Y117.334 E.02013
G1 X120.025 Y117.922 E.02318
G1 X119.633 Y118.115 E.01722
;WIDTH:0.542654
G1 X119.022 Y118.302 E.02522
G1 X118.522 Y118.364 E.01987
;WIDTH:0.54852
G1 X117.955 Y118.346 E.02265
G1 X117.392 Y118.23 E.02294
;WIDTH:0.54163
G1 X116.847 Y118.018 E.02305
G1 X116.372 Y117.727 E.02195
;WIDTH:0.541182
G1 X115.929 Y117.345 E.02302
G1 X115.577 Y116.913 E.02194
G1 X115.286 Y116.405 E.02303
G1 X115.098 Y115.881 E.02193
;WIDTH:0.540984
G1 X114.994 Y115.305 E.02302
G1 X114.99 Y114.748 E.02192
;WIDTH:0.540801
G1 X115.084 Y114.17 E.02301
G1 X115.266 Y113.643 E.02191
;WIDTH:0.540488
G1 X115.547 Y113.131 E.02298
G1 X115.893 Y112.694 E.02191
G1 X116.329 Y112.304 E.02299
;WIDTH:0.543743
G1 X116.868 Y111.972 E.02506
G1 X117.342 Y111.785 E.02014
G1 X117.969 Y111.649 E.02537
G1 X118.47 Y111.633 E.01983
;WIDTH:0.540879
G1 X119.023 Y111.698 E.02191
G1 X119.545 Y111.849 E.02139
;WIDTH:0.54059
G1 X120.026 Y112.077 E.0209
G1 X120.026 Y112.671 E.02333
;WIDTH:0.543965
G1 X119.597 Y112.414 E.01977
G1 X118.978 Y112.198 E.02593
;WIDTH:0.54358
G1 X118.435 Y112.129 E.02166
;WIDTH:0.540777
G1 X117.949 Y112.156 E.01916
G1 X117.448 Y112.272 E.02021
;WIDTH:0.540116
G1 X117.1 Y112.424 E.01494
G1 X117.18 Y112.877 F21000
;WIDTH:0.419999
G1 F833
G1 X116.825 Y113.099 E.01248
G1 X116.463 Y113.464 E.01531
G1 X116.153 Y113.957 E.01734
G1 X115.971 Y114.47 E.01621
G1 X115.916 Y114.971 E.01501
G1 X115.983 Y115.553 E.01745
G1 X116.156 Y116.059 E.01594
G1 X116.424 Y116.491 E.01513
G1 X116.836 Y116.902 E.01735
G1 X117.314 Y117.206 E.01687
G1 X117.807 Y117.373 E.01549
G1 X118.381 Y117.436 E.01721
G1 X118.893 Y117.373 E.01537
G1 X119.147 Y117.297 E.00789
G1 X119.674 Y117.045 E.0174
G1 X120.001 Y116.792 E.01231
G1 X120.28 Y116.487 E.01231
G1 X120.463 Y116.205 E.01002
G1 X120.463 Y118.167 E.05846
G1 X120.063 Y118.401 E.01379
G1 X119.604 Y118.6 E.01491
G1 X119.095 Y118.734 E.0157
G1 X118.384 Y118.81 E.02128
G1 X117.881 Y118.781 E.01502
G1 X117.125 Y118.608 E.0231
G1 X116.635 Y118.401 E.01584
G1 X115.971 Y117.979 E.02343
G1 X115.603 Y117.637 E.01498
G1 X115.122 Y117.027 E.02314
G1 X114.882 Y116.572 E.0153
G1 X114.635 Y115.852 E.02268
G1 X114.557 Y115.329 E.01574
G1 X114.562 Y114.574 E.02251
G1 X114.663 Y114.049 E.01591
G1 X114.826 Y113.562 E.01529
G1 X115.061 Y113.083 E.01591
G1 X115.346 Y112.656 E.01528
G1 X115.682 Y112.28 E.01501
G1 X116.076 Y111.947 E.01536
G1 X116.725 Y111.554 E.0226
G1 X117.221 Y111.365 E.01581
G1 X117.919 Y111.213 E.0213
G1 X118.456 Y111.194 E.01601
G1 X118.986 Y111.248 E.01585
G1 X119.507 Y111.373 E.01598
G1 X119.999 Y111.563 E.0157
G1 X120.463 Y111.833 E.01599
G1 X120.463 Y113.761 E.05742
G1 X120.21 Y113.427 E.01247
G1 X119.917 Y113.135 E.01231
G1 X119.416 Y112.814 E.01773
G1 X118.868 Y112.623 E.0173
G1 X118.348 Y112.562 E.01557
G1 X117.826 Y112.625 E.01567
G1 X117.274 Y112.819 E.01745
G1 X117.214 Y112.856 E.00209
G1 E-.68 F3600
;WIPE_START
G1 F3000
G1 X116.825 Y113.099 E-.05506
G1 X116.463 Y113.464 E-.06169
G1 X116.448 Y113.487 E-.00325
;WIPE_END
G1 X120.84 Y118.362 Z.6 F21000
G1 Z.2
G1 E.8 F2700
;TYPE:Outer wall
G1 F833
G1 X120.546 Y118.566 E.01067
G1 X119.943 Y118.868 E.02007
G1 X119.459 Y119.034 E.01525
G1 X118.873 Y119.154 E.0178
G1 X118.345 Y119.19 E.01576
G1 X117.817 Y119.153 E.01577
G1 X117.166 Y119.012 E.01983
G1 X116.584 Y118.796 E.01849
G1 X116.118 Y118.546 E.01575
G1 X115.691 Y118.234 E.01576
G1 X115.322 Y117.888 E.01507
G1 X114.912 Y117.384 E.01935
G1 X114.604 Y116.869 E.01789
G1 X114.395 Y116.383 E.01575
G1 X114.257 Y115.878 E.0156
G1 X114.18 Y115.351 E.01587
G1 X114.177 Y114.702 E.01932
G1 X114.255 Y114.127 E.01728
G1 X114.395 Y113.617 E.01575
G1 X114.604 Y113.131 E.01576
G1 X114.882 Y112.66 E.01628
G1 X115.286 Y112.152 E.01935
G1 X115.691 Y111.766 E.01667
G1 X116.118 Y111.454 E.01575
G1 X116.58 Y111.206 E.0156
G1 X117.116 Y111.003 E.01708
G1 X117.644 Y110.877 E.01618
G1 X118.218 Y110.818 E.01717
G1 X118.75 Y110.833 E.01586
G1 X119.277 Y110.914 E.01589
G1 X119.783 Y111.066 E.01575
G1 X120.29 Y111.293 E.01652
G1 X120.84 Y111.638 E.01934
G1 X120.84 Y113.661 E.06027
;WIDTH:0.420689
G1 X120.84 Y114.161 E.01492
;WIDTH:0.447266
G1 X120.826 Y114.938 E.02481
G1 X120.84 Y115.72 E.02499
;WIDTH:0.419999
G1 X120.84 Y118.322 E.07751
G1 E-.68 F3600
;WIPE_START
G1 F3000
G1 X120.546 Y118.566 E-.04588
G1 X119.993 Y118.843 E-.07412
;WIPE_END
G1 X117.389 Y113.192 Z.6 F21000
G1 Z.2
G1 E.8 F2700
G1 F833
G1 X117.679 Y113.053 E.00958
G1 X118.088 Y112.961 E.01248
G1 X118.601 Y112.96 E.01529
G1 X119.051 Y113.063 E.01376
G1 X119.369 Y113.21 E.01041
G1 X119.656 Y113.407 E.01041
G1 X119.907 Y113.651 E.01041
G1 X120.112 Y113.934 E.01041
;WIDTH:0.459993
G1 X120.379 Y114.545 E.02196
G1 X120.422 Y114.929 E.01275
;WIDTH:0.455448
G1 X120.408 Y115.281 E.01148
G1 X120.196 Y115.913 E.02172
;WIDTH:0.419999
G1 X119.997 Y116.238 E.01136
G1 X119.764 Y116.498 E.01041
G1 X119.49 Y116.715 E.01041
G1 X119.021 Y116.941 E.0155
G1 X118.56 Y117.035 E.01402
G1 X118.326 Y117.059 E.007
G1 X117.826 Y116.993 E.01503
G1 X117.487 Y116.87 E.01073
G1 X117.073 Y116.608 E.01459
G1 X116.707 Y116.241 E.01544
G1 X116.504 Y115.913 E.0115
G1 X116.351 Y115.473 E.01386
G1 X116.293 Y114.955 E.01554
G1 X116.34 Y114.55 E.01213
G1 X116.49 Y114.127 E.01338
G1 X116.602 Y113.91 E.00728
G1 X116.88 Y113.564 E.0132
G1 X117.284 Y113.241 E.01542
G1 X117.353 Y113.209 E.00225
; stop printing object 支撑5.STL id:0 copy 0
;LAYER_CHANGE
;Z:0.28
;HEIGHT:0.08
;BEFORE_LAYER_CHANGE
G92 E0
;0.28


G1 E-.68 F3600
;WIPE_START
G1 F3000
G1 X117.679 Y113.053 E-.04341
G1 X118.088 Y112.961 E-.05026
G1 X118.307 Y112.961 E-.02633
;WIPE_END
EXCLUDE_OBJECT_END NAME=支撑5.STL_id_0_copy_0
;AFTER_LAYER_CHANGE
;0.28
;_SET_FAN_SPEED_CHANGING_LAYER
SET_VELOCITY_LIMIT ACCEL=5000 ACCEL_TO_DECEL=2500
SET_VELOCITY_LIMIT SQUARE_CORNER_VELOCITY=9
M140 S70 ; set bed temperature
; printing object 支撑5.STL id:0 copy 0
EXCLUDE_OBJECT_START NAME=支撑5.STL_id_0_copy_0
G1 X117.072 Y112.465 Z.6 F21000
G1 Z.28
G1 E.8 F2700
SET_VELOCITY_LIMIT ACCEL=3000 ACCEL_TO_DECEL=1500 SQUARE_CORNER_VELOCITY=7
;TYPE:Inner wall
;WIDTH:0.56586
G1 F794
G1 X116.965 Y112.512 E.00204
G1 X116.491 Y112.845 E.01004
;WIDTH:0.568903
G1 X116.131 Y113.217 E.00903
;WIDTH:0.569722
G1 X115.784 Y113.771 E.01141
G1 X115.588 Y114.31 E.01001
;WIDTH:0.566502
G1 X115.512 Y114.787 E.00838
;WIDTH:0.567058
G1 X115.52 Y115.324 E.00933
G1 X115.622 Y115.816 E.00873
;WIDTH:0.56499
G1 X115.826 Y116.318 E.00938
;WIDTH:0.567997
G1 X116.117 Y116.767 E.0093
;WIDTH:0.569969
G1 X116.576 Y117.224 E.01132
G1 X117.094 Y117.555 E.01073
;WIDTH:0.567267
G1 X117.544 Y117.73 E.00839
;WIDTH:0.567633
G1 X118.038 Y117.831 E.00878
G1 X118.559 Y117.84 E.00906
;WIDTH:0.564766
G1 X119.093 Y117.749 E.00938
;WIDTH:0.567114
G1 X119.606 Y117.555 E.00953
;WIDTH:0.567238
G1 X120.051 Y117.281 E.00907
G1 X120.051 Y117.938 E.01142
G1 X119.633 Y118.142 E.00808
;WIDTH:0.567751
G1 X119.07 Y118.32 E.01028
G1 X118.514 Y118.39 E.00974
;WIDTH:0.567502
G1 X117.924 Y118.37 E.01028
G1 X117.376 Y118.252 E.00974
;WIDTH:0.567267
G1 X116.826 Y118.035 E.01027
G1 X116.349 Y117.742 E.00973
;WIDTH:0.566562
G1 X115.904 Y117.355 E.01024
G1 X115.55 Y116.92 E.00973
;WIDTH:0.566851
G1 X115.259 Y116.406 E.01026
G1 X115.071 Y115.878 E.00973
;WIDTH:0.566668
G1 X114.967 Y115.297 E.01026
G1 X114.965 Y114.737 E.00972
;WIDTH:0.566502
G1 X115.062 Y114.154 E.01025
G1 X115.246 Y113.625 E.00972
;WIDTH:0.566314
G1 X115.531 Y113.109 E.01024
;WIDTH:0.569619
G1 X115.936 Y112.61 E.0112
G1 X116.322 Y112.277 E.0089
;WIDTH:0.56909
G1 X116.878 Y111.939 E.01135
;WIDTH:0.570041
G1 X117.455 Y111.728 E.01073
;WIDTH:0.576735
G1 X117.966 Y111.628 E.00922
G1 X118.469 Y111.607 E.00889
;WIDTH:0.566829
G1 X119.036 Y111.674 E.00993
G1 X119.561 Y111.827 E.00949
;WIDTH:0.56622
G1 X120.051 Y112.062 E.00943
G1 X120.051 Y112.719 E.0114
;WIDTH:0.569584
G1 X119.586 Y112.438 E.00948
G1 X118.973 Y112.223 E.01134
;WIDTH:0.569189
G1 X118.431 Y112.155 E.00952
;WIDTH:0.576735
G1 X118.046 Y112.182 E.00683
G1 X117.461 Y112.295 E.01052
;WIDTH:0.56586
G1 X117.109 Y112.449 E.00667
SET_VELOCITY_LIMIT ACCEL=5000 ACCEL_TO_DECEL=2500 SQUARE_CORNER_VELOCITY=9
G1 X117.257 Y112.927 F21000
SET_VELOCITY_LIMIT ACCEL=3000 ACCEL_TO_DECEL=1500 SQUARE_CORNER_VELOCITY=7
;WIDTH:0.449999
G1 F794
G1 X117.118 Y112.995 E.00212
G1 X116.674 Y113.349 E.00777
G1 X116.363 Y113.733 E.00675
G1 X116.137 Y114.195 E.00703
G1 X116.011 Y114.749 E.00777
G1 X116.007 Y115.249 E.00684
G1 X116.115 Y115.744 E.00694
G1 X116.362 Y116.256 E.00777
G1 X116.683 Y116.666 E.00712
G1 X117.073 Y116.98 E.00685
G1 X117.573 Y117.219 E.00758
G1 X118.1 Y117.343 E.0074
G1 X118.6 Y117.343 E.00685
G1 X119.12 Y117.222 E.0073
G1 X119.627 Y116.98 E.00768
G1 X119.943 Y116.736 E.00547
G1 X120.274 Y116.36 E.00685
G1 X120.542 Y115.851 E.00786
G1 X120.542 Y118.208 E.03223
G1 X120.145 Y118.447 E.00633
M73 P3 R17
G1 X119.67 Y118.658 E.00712
G1 X119.152 Y118.805 E.00737
G1 X118.616 Y118.876 E.00739
G1 X118.079 Y118.876 E.00734
G1 X117.547 Y118.804 E.00735
G1 X117.062 Y118.672 E.00688
G1 X116.588 Y118.465 E.00706
G1 X115.922 Y118.041 E.01081
G1 X115.538 Y117.683 E.00717
G1 X115.054 Y117.069 E.01069
G1 X114.805 Y116.594 E.00734
G1 X114.625 Y116.103 E.00715
G1 X114.508 Y115.58 E.00734
G1 X114.461 Y115.043 E.00737
G1 X114.49 Y114.522 E.00714
G1 X114.59 Y114.018 E.00703
G1 X114.753 Y113.531 E.00702
G1 X114.989 Y113.049 E.00734
G1 X115.282 Y112.611 E.00721
G1 X115.629 Y112.221 E.00714
G1 X116.038 Y111.877 E.00731
G1 X116.462 Y111.604 E.0069
G1 X116.943 Y111.378 E.00726
G1 X117.439 Y111.219 E.00712
G1 X117.954 Y111.131 E.00715
G1 X118.496 Y111.117 E.00741
G1 X118.995 Y111.17 E.00687
G1 X119.589 Y111.314 E.00835
G1 X120.071 Y111.512 E.00713
G1 X120.542 Y111.792 E.00749
G1 X120.542 Y114.137 E.03208
G1 X120.383 Y113.808 E.005
G1 X120.152 Y113.482 E.00547
G1 X119.869 Y113.199 E.00547
G1 X119.383 Y112.887 E.0079
G1 X118.849 Y112.7 E.00775
G1 X118.392 Y112.645 E.0063
G1 X118.13 Y112.671 E.00359
G1 X117.568 Y112.776 E.00782
G1 X117.293 Y112.91 E.00419
SET_VELOCITY_LIMIT ACCEL=5000 ACCEL_TO_DECEL=2500 SQUARE_CORNER_VELOCITY=9
G1 E-.68 F3600
;WIPE_START
G1 F12000
G1 X117.118 Y112.995 E-.02337
G1 X116.674 Y113.349 E-.06817
G1 X116.524 Y113.534 E-.02846
;WIPE_END
G1 X120.95 Y118.419 Z.68 F21000
G1 Z.28
G1 E.8 F2700
SET_VELOCITY_LIMIT ACCEL=3000 ACCEL_TO_DECEL=1500 SQUARE_CORNER_VELOCITY=7
;TYPE:Outer wall
;WIDTH:0.399999
G1 F794
G1 X120.268 Y118.845 E.00973
G1 X119.765 Y119.06 E.00662
G1 X119.219 Y119.207 E.00683
G1 X118.564 Y119.288 E.00799
G1 X117.93 Y119.276 E.00767
G1 X117.389 Y119.191 E.00662
G1 X116.865 Y119.032 E.00662
G1 X116.391 Y118.822 E.00628
G1 X115.829 Y118.475 E.00799
G1 X115.365 Y118.089 E.0073
G1 X114.987 Y117.679 E.00675
G1 X114.677 Y117.228 E.00662
G1 X114.428 Y116.75 E.00652
G1 X114.207 Y116.127 E.00799
G1 X114.088 Y115.546 E.00717
G1 X114.05 Y115 E.00662
G1 X114.088 Y114.454 E.00662
G1 X114.198 Y113.905 E.00677
G1 X114.415 Y113.281 E.00799
G1 X114.672 Y112.78 E.0068
G1 X114.987 Y112.321 E.00674
G1 X115.357 Y111.917 E.00662
G1 X115.801 Y111.545 E.00701
G1 X116.415 Y111.164 E.00873
G1 X116.927 Y110.943 E.00675
G1 X117.455 Y110.798 E.00662
G1 X118.198 Y110.709 E.00906
G1 X118.75 Y110.723 E.00668
G1 X119.302 Y110.807 E.00675
G1 X119.825 Y110.965 E.00662
G1 X120.343 Y111.197 E.00686
G1 X120.95 Y111.581 E.00869
G1 X120.95 Y114.068 E.03009
;WIDTH:0.43887
G1 X120.931 Y114.192 E.00166
;WIDTH:0.477742
G1 X120.911 Y114.315 E.00181
;WIDTH:0.516613
G1 X120.892 Y114.438 E.00197
;WIDTH:0.555484
G1 X120.872 Y114.561 E.00212
G1 X120.88 Y115.246 E.01164
;WIDTH:0.540925
G1 X120.903 Y115.407 E.0027
;WIDTH:0.49395
G1 X120.927 Y115.568 E.00246
;WIDTH:0.446974
G1 X120.95 Y115.73 E.00221
;WIDTH:0.399999
G1 X120.95 Y118.379 E.03205
SET_VELOCITY_LIMIT ACCEL=5000 ACCEL_TO_DECEL=2500 SQUARE_CORNER_VELOCITY=9
G1 E-.68 F3600
;WIPE_START
G1 F7200
G1 X120.268 Y118.845 E-.09912
G1 X120.108 Y118.913 E-.02088
;WIPE_END
G1 X117.431 Y113.286 Z.68 F21000
G1 Z.28
G1 E.8 F2700
SET_VELOCITY_LIMIT ACCEL=3000 ACCEL_TO_DECEL=1500 SQUARE_CORNER_VELOCITY=7
G1 F794
G1 X117.732 Y113.153 E.00397
G1 X118.31 Y113.053 E.00711
G1 X118.746 Y113.095 E.00529
G1 X119.287 Y113.29 E.00695
G1 X119.587 Y113.494 E.00439
G1 X119.824 Y113.724 E.004
G1 X120.018 Y113.992 E.004
;WIDTH:0.43982
G1 X120.115 Y114.18 E.00283
;WIDTH:0.479642
G1 X120.212 Y114.368 E.00309
;WIDTH:0.519463
G1 X120.309 Y114.556 E.00336
;WIDTH:0.534594
G1 X120.366 Y114.936 E.00629
;WIDTH:0.537239
G1 X120.349 Y115.278 E.00562
G1 X120.265 Y115.473 E.00349
;WIDTH:0.491492
G1 X120.181 Y115.668 E.00318
;WIDTH:0.445746
G1 X120.098 Y115.863 E.00287
;WIDTH:0.399999
G1 X119.908 Y116.172 E.00439
G1 X119.687 Y116.419 E.004
G1 X119.203 Y116.75 E.0071
G1 X118.825 Y116.891 E.00487
G1 X118.346 Y116.944 E.00583
G1 X117.843 Y116.882 E.00613
G1 X117.532 Y116.77 E.004
G1 X117.142 Y116.523 E.00558
G1 X116.78 Y116.156 E.00623
G1 X116.491 Y115.586 E.00773
G1 X116.414 Y115.231 E.00439
G1 X116.416 Y114.8 E.00522
G1 X116.535 Y114.288 E.00636
G1 X116.699 Y113.964 E.00439
G1 X116.956 Y113.644 E.00497
G1 X117.385 Y113.306 E.00661
G1 X117.394 Y113.302 E.00012
; stop printing object 支撑5.STL id:0 copy 0
;LAYER_CHANGE
;Z:0.36
;HEIGHT:0.08
;BEFORE_LAYER_CHANGE
G92 E0
;0.36


G1 E-.68 F3600
;WIPE_START
G1 F7200
