; HEADER_BLOCK_START
; generated by OrcaSlicer 2.1.1 on 2024-11-30 at 19:10:32
; total layer number: 36
; filament_density: 1.24
; filament_diameter: 1.75
; max_z_height: 3.00
; HEADER_BLOCK_END

; THUMBNAIL_BLOCK_START

;
; THUMBNAIL_BLOCK_END







; external perimeters extrusion width = 0.40mm
; perimeters extrusion width = 0.45mm
; infill extrusion width = 0.45mm
; solid infill extrusion width = 0.45mm
; top infill extrusion width = 0.38mm
; first layer extrusion width = 0.42mm

; EXECUTABLE_BLOCK_START
EXCLUDE_OBJECT_DEFINE NAME=铲头连杆2.STL_id_0_copy_0 CENTER=117.5,115.001 POLYGON=[[112.503,125.271],[112.541,124.505],[114.016,103.035],[114.124,102.439],[114.332,101.87],[114.636,101.345],[115.026,100.881],[115.489,100.491],[116.014,100.187],[116.582,99.978],[117.179,99.8701],[117.785,99.8666],[118.382,99.9677],[118.953,100.17],[119.481,100.468],[119.949,100.853],[120.344,101.313],[120.654,101.834],[120.869,102.4],[120.983,102.995],[122.472,124.59],[122.497,125.357],[122.404,126.118],[122.196,126.856],[121.878,127.553],[121.457,128.194],[120.942,128.763],[120.347,129.246],[119.685,129.633],[118.972,129.914],[118.224,130.082],[117.459,130.135],[116.695,130.069],[115.95,129.888],[115.241,129.595],[114.586,129.197],[113.999,128.703],[113.495,128.126],[113.085,127.478],[112.778,126.775],[112.583,126.034],[112.503,125.271]]
M73 P0 R6
;TYPE:Custom
;ELEGOO NEPTUNE 4 PRO
M220 S100 ;Set the feed speed to 100%
M221 S100 ;Set the flow rate to 100%
M104 S140
M190 S60
G90
G28 ;home
G1 Z10 F300
G1 X67.5 Y0 F6000
G1 Z0 F300
M109 S210
G92 E0 ;Reset Extruder
G1 X67.5 Y0 Z0.4 F300 ;Move to start position
M73 P1 R6
G1 X167.5 E30 F400 ;Draw the first line
G1 Z0.6 F120.0 ;Move to side a little
M73 P5 R5
G1 X162.5 F3000
G92 E0 ;Reset Extruder
G90
G21
M83 ; use relative distances for extrusion
; filament start gcode
M106 S0
;LAYER_CHANGE
;Z:0.2
;HEIGHT:0.2
;BEFORE_LAYER_CHANGE
G92 E0
;0.2


G1 E-.8 F3600
;AFTER_LAYER_CHANGE
;0.2
;_SET_FAN_SPEED_CHANGING_LAYER
SET_VELOCITY_LIMIT ACCEL=1000 ACCEL_TO_DECEL=500
SET_VELOCITY_LIMIT SQUARE_CORNER_VELOCITY=7
; printing object 铲头连杆2.STL id:0 copy 0
EXCLUDE_OBJECT_START NAME=铲头连杆2.STL_id_0_copy_0
G1 X119.54 Y102.054 F21000
G1 Z.4
G1 Z.2
G1 E.8 F2700
;TYPE:Inner wall
;WIDTH:0.40899
G1 F3000
G1 X119.539 Y102.031 E.00069
G1 X119.617 Y102.161 E.00451
G1 X119.842 Y102.678 E.01683
G1 X119.923 Y103.089 E.01249
;WIDTH:0.412172
G1 X119.931 Y103.51 E.01268
G1 X119.883 Y103.932 E.01277
;WIDTH:0.381308
G1 X119.72 Y104.414 E.01401
;WIDTH:0.407959
G1 X119.613 Y104.648 E.00766
;WIDTH:0.43461
G1 X119.507 Y104.882 E.00821
G1 X119.527 Y104.631 E.00803
;WIDTH:0.407959
G1 X119.546 Y104.381 E.00748
;WIDTH:0.412172
G1 X119.56 Y102.73 E.04967
;WIDTH:0.40899
G1 X119.541 Y102.094 E.01898
G1 E-.68 F3600
;WIPE_START
G1 F3000
G1 X119.539 Y102.031 E-.00756
G1 X119.617 Y102.161 E-.01813
G1 X119.842 Y102.678 E-.06771
G1 X119.885 Y102.896 E-.0266
;WIPE_END
G1 X120.085 Y110.526 Z.6 F21000
G1 X120.395 Y122.293 Z.6
G1 Z.2
G1 E.8 F2700
;WIDTH:0.419999
G1 F3000
G1 X119.991 Y121.925 E.01681
G1 X119.412 Y121.55 E.02117
G1 X118.779 Y121.279 E.02117
G1 X118.045 Y121.113 E.02314
G1 X117.396 Y121.076 E.01996
G1 X116.736 Y121.145 E.02038
G1 X116.224 Y121.279 E.01627
G1 X115.822 Y121.446 E.01338
G1 X115.987 Y121.247 E.00795
G1 X116.066 Y120.869 E.01186
G1 X116.06 Y105.658 E.46739
G1 X115.933 Y105.356 E.01007
G1 X116.219 Y105.566 E.01091
G1 X116.505 Y105.709 E.00982
G1 X117.032 Y105.868 E.0169
G1 X117.349 Y105.907 E.00982
G1 X117.899 Y105.88 E.01692
G1 X118.211 Y105.811 E.00983
G1 X118.72 Y105.602 E.01689
G1 X119.042 Y105.398 E.01171
;WIDTH:0.449008
G1 X119.44 Y105.033 E.01787
G1 X119.256 Y105.548 E.01808
;WIDTH:0.419999
M73 P6 R5
G1 X118.97 Y106.499 E.03053
G1 X118.846 Y106.993 E.01565
G1 X118.641 Y107.981 E.03101
G1 X118.489 Y109.189 E.03739
G1 X118.437 Y110.422 E.03792
G1 X118.437 Y114.909 E.1379
G1 X118.486 Y116.112 E.03699
G1 X118.636 Y117.329 E.03766
G1 X118.883 Y118.529 E.03766
G1 X119.077 Y119.191 E.0212
G1 X119.326 Y119.961 E.02487
G1 X119.683 Y120.884 E.03041
G1 X120.126 Y121.808 E.03148
G1 X120.375 Y122.258 E.01582
G1 E-.68 F3600
;WIPE_START
G1 F3000
G1 X119.991 Y121.925 E-.0611
G1 X119.579 Y121.658 E-.0589
;WIPE_END
G1 X115.556 Y121.246 Z.6 F21000
G1 Z.2
G1 E.8 F2700
;WIDTH:0.506707
G1 F3000
G1 X115.585 Y121.195 E.00221
;WIDTH:0.463353
G1 X115.641 Y121.095 E.00392
;WIDTH:0.419999
G1 X115.689 Y120.869 E.00712
G1 X115.689 Y105.761 E.46421
;WIDTH:0.455184
G1 X115.659 Y105.63 E.00452
;WIDTH:0.490369
G1 X115.629 Y105.499 E.00491
;WIDTH:0.525554
G1 X115.6 Y105.367 E.00529
;WIDTH:0.554003
G1 X115.255 Y104.925 E.02336
G1 X115.012 Y104.516 E.01981
G1 X114.844 Y104.026 E.0216
G1 X114.763 Y103.417 E.02555
;WIDTH:0.542291
G1 X114.827 Y102.746 E.02745
;WIDTH:0.553911
G1 X115.01 Y102.212 E.02351
G1 X115.24 Y101.796 E.01981
;WIDTH:0.553799
G1 X115.578 Y101.402 E.02159
G1 X116.024 Y101.047 E.02373
;WIDTH:0.543156
G1 X116.646 Y100.75 E.02812
;WIDTH:0.553204
G1 X117.227 Y100.627 E.02465
G1 X117.745 Y100.62 E.02157
;WIDTH:0.544177
G1 X118.27 Y100.723 E.02183
G1 X118.913 Y101.005 E.02871
;WIDTH:0.53841
G1 X119.333 Y101.312 E.021
;WIDTH:0.53722
G1 X119.538 Y101.511 E.01151
;WIDTH:0.505838
G1 X119.743 Y101.71 E.01078
;WIDTH:0.474456
G1 X119.84 Y101.841 E.0057
;WIDTH:0.447228
G1 X119.936 Y101.971 E.00534
;WIDTH:0.419999
G1 X120.189 Y102.546 E.01931
G1 X120.288 Y103.019 E.01483
G1 X120.304 Y103.504 E.01492
G1 X120.229 Y104.033 E.01642
G1 X120.057 Y104.535 E.01631
G1 X119.668 Y105.523 E.03261
G1 X119.489 Y106.081 E.01802
G1 X119.215 Y107.071 E.03157
G1 X119.015 Y108.028 E.03005
G1 X118.865 Y109.22 E.03691
G1 X118.814 Y110.429 E.03719
G1 X118.814 Y114.902 E.13742
G1 X118.862 Y116.082 E.03628
G1 X119.008 Y117.268 E.03672
G1 X119.249 Y118.438 E.03671
G1 X119.593 Y119.606 E.03742
G1 X120.005 Y120.679 E.0353
G1 X120.542 Y121.797 E.03813
;WIDTH:0.458411
G1 X120.607 Y121.948 E.00555
;WIDTH:0.496823
G1 X120.673 Y122.098 E.00606
;WIDTH:0.535235
G1 X120.738 Y122.248 E.00658
;WIDTH:0.573646
G1 X120.804 Y122.398 E.00709
G1 X121.159 Y122.987 E.02972
;WIDTH:0.540109
G1 X121.455 Y123.603 E.02768
;WIDTH:0.54044
G1 X121.632 Y124.168 E.02403
;WIDTH:0.547971
G1 X121.724 Y124.692 E.02186
;WIDTH:0.548298
G1 X121.742 Y125.342 E.02681
G1 X121.66 Y125.988 E.02681
;WIDTH:0.548096
G1 X121.481 Y126.614 E.0268
;WIDTH:0.547361
G1 X121.209 Y127.205 E.02676
;WIDTH:0.546095
G1 X120.849 Y127.748 E.0267
;WIDTH:0.544298
G1 X120.369 Y128.264 E.02877
;WIDTH:0.542046
G1 X119.802 Y128.699 E.0291
;WIDTH:0.540245
G1 X119.169 Y129.034 E.02899
;WIDTH:0.540691
G1 X118.634 Y129.224 E.02302
;WIDTH:0.547685
G1 X118.096 Y129.338 E.02266
;WIDTH:0.548448
G1 X117.446 Y129.379 E.02682
G1 X116.798 Y129.321 E.02682
;WIDTH:0.548242
G1 X116.166 Y129.165 E.0268
;WIDTH:0.547724
G1 X115.565 Y128.913 E.02678
;WIDTH:0.546676
G1 X115.01 Y128.574 E.02673
;WIDTH:0.545092
G1 X114.495 Y128.133 E.02775
;WIDTH:0.542929
G1 X114.036 Y127.583 E.02916
;WIDTH:0.540913
G1 X113.676 Y126.965 E.02903
;WIDTH:0.539429
G1 X113.425 Y126.296 E.02889
;WIDTH:0.539783
G1 X113.303 Y125.741 E.02301
;WIDTH:0.548073
G1 X113.257 Y125.231 E.02108
;WIDTH:0.548301
G1 X113.293 Y124.581 E.02681
G1 X113.427 Y123.944 E.02681
;WIDTH:0.547999
G1 X113.656 Y123.335 E.02679
;WIDTH:0.547165
G1 X113.976 Y122.768 E.02675
;WIDTH:0.545798
G1 X114.379 Y122.256 E.02671
;WIDTH:0.543899
G1 X114.909 Y121.774 E.02922
;WIDTH:0.550061
G1 X115.472 Y121.394 E.02806
G1 X115.528 Y121.295 E.00473
;WIDTH:0.506707
G1 X115.536 Y121.281 E.00061
G1 X115.23 Y121.024 F21000
;TYPE:Outer wall
;WIDTH:0.419999
G1 F3000
G1 X115.312 Y120.869 E.0054
G1 X115.312 Y105.761 E.46421
G1 X115.269 Y105.641 E.00391
G1 X114.873 Y105.161 E.01913
G1 X114.601 Y104.68 E.01696
G1 X114.416 Y104.16 E.01696
G1 X114.323 Y103.616 E.01696
G1 X114.326 Y103.064 E.01696
G1 X114.424 Y102.52 E.01696
G1 X114.614 Y102.002 E.01696
G1 X114.891 Y101.524 E.01696
G1 X115.246 Y101.101 E.01696
G1 X115.668 Y100.746 E.01697
G1 X116.146 Y100.469 E.01696
G1 X116.664 Y100.278 E.01696
G1 X117.207 Y100.18 E.01696
G1 X117.759 Y100.177 E.01696
G1 X118.304 Y100.269 E.01696
G1 X118.824 Y100.453 E.01696
G1 X119.305 Y100.725 E.01696
G1 X119.731 Y101.076 E.01696
G1 X120.091 Y101.494 E.01696
G1 X120.373 Y101.969 E.01696
G1 X120.569 Y102.485 E.01696
G1 X120.673 Y103.027 E.01696
G1 X120.682 Y103.579 E.01696
G1 X120.596 Y104.125 E.01696
G1 X120.411 Y104.666 E.01758
G1 X120.018 Y105.661 E.03287
G1 X119.85 Y106.19 E.01705
G1 X119.584 Y107.149 E.0306
G1 X119.389 Y108.075 E.02908
G1 X119.241 Y109.252 E.03643
G1 X119.192 Y110.437 E.03647
G1 X119.192 Y114.894 E.13694
G1 X119.239 Y116.051 E.03558
G1 X119.38 Y117.206 E.03577
G1 X119.616 Y118.347 E.03577
G1 X119.945 Y119.471 E.03601
G1 X120.357 Y120.544 E.0353
G1 X120.867 Y121.607 E.03624
G1 X121.544 Y122.78 E.04162
G1 X121.867 Y123.457 E.02305
G1 X122.062 Y124.088 E.02027
G1 X122.164 Y124.677 E.0184
G1 X122.186 Y125.343 E.02046
G1 X122.099 Y126.056 E.02209
G1 X121.904 Y126.749 E.0221
G1 X121.606 Y127.403 E.02209
G1 X121.211 Y128.004 E.02209
G1 X120.728 Y128.537 E.02209
G1 X120.17 Y128.99 E.02209
G1 X119.549 Y129.353 E.02209
G1 X118.88 Y129.617 E.02209
G1 X118.179 Y129.775 E.0221
G1 X117.461 Y129.824 E.02209
G1 X116.745 Y129.762 E.02209
G1 X116.046 Y129.592 E.02209
G1 X115.382 Y129.317 E.0221
G1 X114.767 Y128.944 E.02209
G1 X114.217 Y128.481 E.02209
G1 X113.744 Y127.94 E.02209
G1 X113.359 Y127.332 E.02209
G1 X113.079 Y126.689 E.02156
G1 X112.889 Y125.977 E.02264
G1 X112.814 Y125.263 E.02208
G1 X112.85 Y124.544 E.0221
G1 X112.995 Y123.84 E.02209
G1 X113.246 Y123.166 E.02209
G1 X113.597 Y122.539 E.02209
G1 X114.039 Y121.972 E.02209
G1 X114.564 Y121.48 E.02209
G1 X115.196 Y121.047 E.02357
M73 P7 R5
G1 E-.68 F3600
;WIPE_START
G1 F3000
G1 X115.312 Y120.869 E-.02545
G1 X115.312 Y120.081 E-.09455
;WIPE_END
G1 X117.413 Y127.418 Z.6 F21000
G1 X117.824 Y128.852 Z.6
G1 Z.2
G1 E.8 F2700
;TYPE:Inner wall
;WIDTH:0.548448
G1 F3000
G1 X117.467 Y128.875 E.01473
G1 X116.9 Y128.827 E.02346
;WIDTH:0.548242
G1 X116.346 Y128.693 E.02345
;WIDTH:0.547724
G1 X115.819 Y128.478 E.02344
;WIDTH:0.546676
G1 X115.36 Y128.209 E.02185
;WIDTH:0.542542
G1 X114.948 Y127.875 E.02156
;WIDTH:0.54195
G1 X114.521 Y127.405 E.02584
;WIDTH:0.544201
G1 X114.184 Y126.877 E.02561
;WIDTH:0.545788
G1 X113.967 Y126.367 E.02271
;WIDTH:0.547227
G1 X113.819 Y125.798 E.02415
;WIDTH:0.548073
G1 X113.762 Y125.233 E.02338
;WIDTH:0.548301
G1 X113.791 Y124.664 E.02345
G1 X113.905 Y124.106 E.02345
;WIDTH:0.547999
G1 X114.101 Y123.572 E.02345
;WIDTH:0.547165
G1 X114.339 Y123.125 E.02078
;WIDTH:0.541692
G1 X114.655 Y122.7 E.02152
;WIDTH:0.541164
G1 X115.107 Y122.254 E.02579
;WIDTH:0.543254
G1 X115.628 Y121.89 E.02591
G1 X115.828 Y121.818 E.00867
;WIDTH:0.502169
G1 X116.028 Y121.747 E.00795
;WIDTH:0.461084
G1 X116.229 Y121.676 E.00724
;WIDTH:0.419999
G1 X116.831 Y121.51 E.01921
G1 X117.428 Y121.451 E.01842
G1 X118.016 Y121.489 E.01809
G1 X118.684 Y121.644 E.02108
G1 X119.257 Y121.894 E.01921
G1 X119.78 Y122.237 E.01921
;WIDTH:0.466867
G1 X120.024 Y122.434 E.01084
;WIDTH:0.513735
G1 X120.269 Y122.63 E.01204
;WIDTH:0.543691
G1 X120.315 Y122.66 E.00226
;WIDTH:0.573646
G1 X120.362 Y122.69 E.00239
G1 X120.665 Y123.125 E.02291
;WIDTH:0.545721
G1 X120.932 Y123.633 E.02352
;WIDTH:0.547585
G1 X121.118 Y124.174 E.02352
;WIDTH:0.547971
G1 X121.221 Y124.732 E.02336
;WIDTH:0.548298
G1 X121.238 Y125.301 E.02345
G1 X121.17 Y125.867 E.02345
;WIDTH:0.548096
G1 X121.018 Y126.415 E.02345
;WIDTH:0.547361
G1 X120.784 Y126.935 E.02343
;WIDTH:0.546095
G1 X120.482 Y127.406 E.02291
;WIDTH:0.54348
G1 X120.132 Y127.802 E.0216
;WIDTH:0.542821
G1 X119.644 Y128.209 E.02588
;WIDTH:0.545005
G1 X119.124 Y128.511 E.02457
;WIDTH:0.546612
G1 X118.592 Y128.715 E.0234
;WIDTH:0.547685
G1 X118.036 Y128.838 E.02344
;WIDTH:0.548448
G1 X117.864 Y128.849 E.00709
G1 X117.791 Y128.431 F21000
;TYPE:Outer wall
;WIDTH:0.419999
G1 F3000
G1 X117.234 Y128.433 E.01711
G1 X116.683 Y128.342 E.01717
G1 X116.153 Y128.157 E.01725
G1 X115.661 Y127.886 E.01725
G1 X115.223 Y127.535 E.01725
G1 X114.85 Y127.116 E.01725
G1 X114.558 Y126.646 E.01699
G1 X114.375 Y126.203 E.01474
G1 X114.25 Y125.705 E.01576
G1 X114.194 Y125.01 E.02143
G1 X114.263 Y124.453 E.01725
G1 X114.424 Y123.916 E.01725
G1 X114.675 Y123.413 E.01725
G1 X115.006 Y122.96 E.01725
G1 X115.41 Y122.57 E.01725
G1 X115.873 Y122.253 E.01725
G1 X116.384 Y122.019 E.01725
G1 X116.926 Y121.875 E.01725
G1 X117.46 Y121.827 E.01646
G1 X117.986 Y121.865 E.01622
G1 X118.589 Y122.009 E.01903
G1 X119.102 Y122.237 E.01725
G1 X119.568 Y122.55 E.01725
G1 X119.976 Y122.936 E.01725
G1 X120.279 Y123.341 E.01556
G1 X120.539 Y123.831 E.01703
G1 X120.697 Y124.306 E.01539
G1 X120.808 Y124.978 E.02093
G1 X120.787 Y125.539 E.01725
G1 X120.671 Y126.089 E.01725
G1 X120.464 Y126.611 E.01725
G1 X120.172 Y127.09 E.01725
G1 X119.803 Y127.513 E.01725
G1 X119.368 Y127.868 E.01725
G1 X118.91 Y128.127 E.01617
G1 X118.351 Y128.334 E.01831
G1 X117.83 Y128.426 E.01624
G1 E-.68 F3600
;WIPE_START
G1 F3000
G1 X117.234 Y128.433 E-.07155
G1 X116.836 Y128.367 E-.04845
;WIPE_END
G1 X117.51 Y120.765 Z.6 F21000
G1 X119.169 Y102.066 Z.6
G1 Z.2
G1 E.8 F2700
;TYPE:Inner wall
;WIDTH:0.545788
G1 F3000
G1 X119.172 Y102.147 E.00333
;WIDTH:0.503859
G1 X119.18 Y102.438 E.01095
;WIDTH:0.461929
G1 X119.189 Y102.73 E.00996
;WIDTH:0.419999
G1 X119.189 Y104.534 E.05543
G1 X119.105 Y104.829 E.00942
G1 X118.702 Y105.182 E.01648
G1 X118.068 Y105.462 E.02129
G1 X117.881 Y105.503 E.0059
G1 X117.331 Y105.53 E.01691
G1 X116.614 Y105.348 E.02273
;WIDTH:0.455073
G1 X116.399 Y105.225 E.00832
;WIDTH:0.490146
G1 X116.184 Y105.102 E.00903
;WIDTH:0.525219
G1 X115.968 Y104.979 E.00973
;WIDTH:0.541932
G1 X115.815 Y104.832 E.00863
;WIDTH:0.542256
G1 X115.506 Y104.377 E.02238
;WIDTH:0.554003
G1 X115.343 Y103.918 E.02031
G1 X115.261 Y103.44 E.02021
;WIDTH:0.542291
G1 X115.308 Y102.892 E.02239
;WIDTH:0.553911
G1 X115.483 Y102.405 E.02151
G1 X115.708 Y102.009 E.01899
;WIDTH:0.542824
G1 X116.09 Y101.613 E.02241
;WIDTH:0.553644
G1 X116.558 Y101.333 E.02272
G1 X116.956 Y101.18 E.01773
;WIDTH:0.543495
G1 X117.493 Y101.114 E.02208
;WIDTH:0.543762
G1 X118.051 Y101.176 E.02289
G1 X118.6 Y101.401 E.0242
;WIDTH:0.541855
G1 X119.019 Y101.694 E.02082
;WIDTH:0.545788
G1 X119.163 Y101.855 E.00886
G1 X119.168 Y102.026 E.00698
G1 X118.759 Y102.06 F21000
;TYPE:Outer wall
;WIDTH:0.419999
G1 F3000
G1 X118.785 Y102.08 E.00103
G1 X118.812 Y102.73 E.01998
G1 X118.812 Y104.534 E.05543
G1 X118.736 Y104.685 E.00518
G1 X118.475 Y104.881 E.01003
G1 X117.925 Y105.113 E.01836
G1 X117.313 Y105.153 E.01885
G1 X116.723 Y104.987 E.01884
G1 X116.223 Y104.633 E.01881
G1 X115.869 Y104.131 E.01887
G1 X115.703 Y103.541 E.01884
G1 X115.744 Y102.929 E.01884
G1 X115.988 Y102.366 E.01884
G1 X116.406 Y101.917 E.01884
G1 X116.949 Y101.634 E.01884
G1 X117.547 Y101.548 E.01856
G1 X117.924 Y101.597 E.01168
G1 X118.434 Y101.806 E.01691
G1 X118.727 Y102.035 E.01144
G1 E-.68 F3600
;WIPE_START
G1 F3000
G1 X118.785 Y102.08 E-.00882
G1 X118.812 Y102.73 E-.07804
G1 X118.812 Y103.006 E-.03313
;WIPE_END
G1 X119.507 Y104.882 Z.6 F21000
G1 Z.2
G1 E.8 F2700
;TYPE:Inner wall
;WIDTH:0.449008
G1 F3000
G1 X119.44 Y105.033 E.00548
G1 E-.68 F3600
;WIPE_START
G1 F3000
G1 X119.507 Y104.882 E-.12
;WIPE_END
G1 X118.953 Y106.168 Z.6 F21000
G1 Z.2
G1 E.8 F2700
;TYPE:Bottom surface
;WIDTH:0.420166
G1 F3439
G1 X118.701 Y105.916 E.01096
G1 X118.322 Y106.071 E.01257
G1 X118.694 Y106.443 E.01618
G1 X118.584 Y106.866 E.01345
G1 X117.882 Y106.164 E.03053
G1 X117.373 Y106.188 E.01566
G1 X118.491 Y107.307 E.04861
G1 X118.398 Y107.747 E.01384
M73 P8 R5
G1 X116.72 Y106.069 E.07295
G1 X116.348 Y105.948 E.01201
G1 X116.348 Y106.231 E.0087
G1 X118.33 Y108.213 E.08616
G1 X118.271 Y108.687 E.01468
G1 X116.348 Y106.765 E.08357
G1 X116.348 Y107.298 E.0164
G1 X118.211 Y109.161 E.08098
G1 X118.186 Y109.669 E.01565
G1 X116.348 Y107.832 E.07989
G1 X116.348 Y108.365 E.0164
G1 X118.165 Y110.182 E.07898
G1 X118.155 Y110.705 E.01608
G1 X116.348 Y108.899 E.07852
G1 X116.348 Y109.432 E.0164
G1 X118.155 Y111.238 E.07852
G1 X118.155 Y111.772 E.0164
G1 X116.348 Y109.966 E.07852
G1 X116.348 Y110.499 E.0164
