; HEADER_BLOCK_START
; generated by OrcaSlicer 2.1.1 on 2025-01-09 at 19:09:37
; total layer number: 36
; filament_density: 1.27
; filament_diameter: 1.75
; max_z_height: 3.00
; HEADER_BLOCK_END

; THUMBNAIL_BLOCK_START

;
; THUMBNAIL_BLOCK_END







; external perimeters extrusion width = 0.40mm
; perimeters extrusion width = 0.45mm
; infill extrusion width = 0.45mm
; solid infill extrusion width = 0.45mm
; top infill extrusion width = 0.38mm
; first layer extrusion width = 0.42mm

; EXECUTABLE_BLOCK_START
EXCLUDE_OBJECT_DEFINE NAME=观察平台_-_前板.STL_id_0_copy_0 CENTER=117.5,115 POLYGON=[[100.5,97.5],[134.5,97.5],[134.5,132.5],[109,132.5],[100.5,122.5],[100.5,97.5]]
M73 P0 R15
;TYPE:Custom
;ELEGOO NEPTUNE 4 PRO
M220 S100 ;Set the feed speed to 100%
M221 S100 ;Set the flow rate to 100%
M104 S140
M190 S70
G90
G28 ;home
G1 Z10 F300
G1 X67.5 Y0 F6000
G1 Z0 F300
M109 S240
G92 E0 ;Reset Extruder
G1 X67.5 Y0 Z0.4 F300 ;Move to start position
G1 X167.5 E30 F400 ;Draw the first line
G1 Z0.6 F120.0 ;Move to side a little
M73 P2 R14
G1 X162.5 F3000
G92 E0 ;Reset Extruder
G90
G21
M83 ; use relative distances for extrusion
; filament start gcode
M106 S0
;LAYER_CHANGE
;Z:0.2
;HEIGHT:0.2
;BEFORE_LAYER_CHANGE
G92 E0
;0.2


G1 E-.8 F3600
;AFTER_LAYER_CHANGE
;0.2
;_SET_FAN_SPEED_CHANGING_LAYER
SET_VELOCITY_LIMIT ACCEL=1000 ACCEL_TO_DECEL=500
SET_VELOCITY_LIMIT SQUARE_CORNER_VELOCITY=7
; printing object 观察平台 - 前板.STL id:0 copy 0
EXCLUDE_OBJECT_START NAME=观察平台_-_前板.STL_id_0_copy_0
G1 X129.717 Y131.437 F21000
G1 Z.4
G1 Z.2
G1 E.8 F2700
;TYPE:Inner wall
;WIDTH:0.419999
G1 F3000
G1 X129.735 Y131.383 E.00168
G1 X129.772 Y130.813 E.01702
G1 X129.616 Y130.273 E.01676
G1 X129.392 Y129.941 E.01194
G1 X128.96 Y129.56 E.01714
G1 X128.56 Y129.399 E.01283
G1 X128.246 Y129.345 E.0095
G1 X127.778 Y129.373 E.01398
G1 X127.281 Y129.58 E.01602
G1 X127.043 Y129.736 E.00847
G1 X126.698 Y130.144 E.01592
G1 X126.502 Y130.703 E.01765
G1 X126.487 Y131.183 E.0143
G1 X126.546 Y131.437 E.00775
G1 X116.986 Y131.436 E.28477
G1 X117.022 Y130.813 E.01859
G1 X116.866 Y130.273 E.01676
G1 X116.642 Y129.941 E.01194
G1 X116.26 Y129.592 E.0154
G1 X115.81 Y129.399 E.01456
G1 X115.496 Y129.345 E.0095
G1 X115.004 Y129.379 E.0147
G1 X114.531 Y129.58 E.01529
G1 X114.213 Y129.816 E.01181
G1 X113.897 Y130.242 E.01577
G1 X113.753 Y130.7 E.01431
G1 X113.737 Y131.183 E.0144
G1 X113.796 Y131.437 E.00776
G1 X110.064 Y131.436 E.11116
G1 X110.057 Y122.261 E.27331
G1 X109.961 Y121.949 E.0097
G1 X109.741 Y121.668 E.01065
G1 X109.472 Y121.503 E.00938
G1 X109.121 Y121.436 E.01063
G1 X101.564 Y121.436 E.22511
G1 X101.564 Y119.174 E.06736
G1 X101.907 Y119.406 E.01233
G1 X102.197 Y119.537 E.00949
G1 X102.646 Y119.654 E.01381
G1 X102.964 Y119.681 E.00949
G1 X103.509 Y119.631 E.0163
G1 X104.157 Y119.371 E.0208
G1 X104.421 Y119.192 E.00949
G1 X104.755 Y118.871 E.01381
G1 X104.945 Y118.615 E.00949
G1 X105.216 Y118.043 E.01886
G1 X105.306 Y117.437 E.01826
G1 X105.301 Y117.167 E.00804
G1 X105.195 Y116.665 E.01528
G1 X105.1 Y116.41 E.00809
G1 X104.833 Y115.974 E.01523
G1 X104.622 Y115.735 E.00949
G1 X104.076 Y115.327 E.0203
G1 X103.545 Y115.134 E.01684
G1 X103.055 Y115.064 E.01474
G1 X102.381 Y115.153 E.02026
G1 X102.083 Y115.258 E.00941
G1 X101.564 Y115.577 E.01814
G1 X101.564 Y107.925 E.22794
G1 X101.907 Y108.156 E.01233
G1 X102.197 Y108.287 E.00948
G1 X102.646 Y108.404 E.01381
G1 X102.964 Y108.431 E.00949
G1 X103.426 Y108.392 E.01381
G1 X103.8 Y108.282 E.01163
G1 X104.344 Y108.008 E.01813
G1 X104.755 Y107.621 E.01682
G1 X104.922 Y107.407 E.00809
G1 X105.154 Y106.951 E.01523
G1 X105.247 Y106.646 E.00949
G1 X105.31 Y105.986 E.01977
G1 X105.195 Y105.415 E.01735
G1 X105.045 Y105.07 E.01121
G1 X104.741 Y104.599 E.01669
G1 X104.425 Y104.326 E.01242
G1 X104.043 Y104.062 E.01385
G1 X103.545 Y103.884 E.01574
G1 X103.055 Y103.814 E.01474
G1 X102.381 Y103.903 E.02025
G1 X102.083 Y104.008 E.00941
G1 X101.564 Y104.327 E.01814
G1 X101.564 Y98.564 E.17165
G1 X107.415 Y98.564 E.17429
G1 X107.355 Y98.884 E.00971
G1 X107.368 Y99.248 E.01085
G1 X107.468 Y99.635 E.01191
G1 X107.577 Y99.852 E.00724
G1 X107.772 Y100.115 E.00974
G1 X108.14 Y100.423 E.01431
G1 X108.63 Y100.61 E.01561
G1 X108.958 Y100.662 E.00989
G1 X109.502 Y100.586 E.01637
G1 X109.985 Y100.329 E.0163
G1 X110.258 Y100.081 E.01098
G1 X110.548 Y99.596 E.01682
G1 X110.656 Y99.047 E.01665
G1 X110.589 Y98.564 E.01455
G1 X124.415 Y98.564 E.41185
G1 X124.355 Y98.884 E.00971
G1 X124.368 Y99.248 E.01085
G1 X124.468 Y99.635 E.01191
G1 X124.681 Y100.015 E.01296
G1 X124.955 Y100.287 E.01151
G1 X125.233 Y100.469 E.00992
G1 X125.761 Y100.645 E.01656
G1 X126.262 Y100.638 E.01493
G1 X126.571 Y100.558 E.0095
G1 X127.011 Y100.32 E.01492
G1 X127.354 Y99.946 E.01511
G1 X127.548 Y99.595 E.01194
G1 X127.656 Y99.047 E.01662
G1 X127.589 Y98.564 E.01455
G1 X133.436 Y98.564 E.17417
G1 X133.436 Y131.436 E.97914
G1 X129.757 Y131.437 E.10957
G1 X129.067 Y131.827 F21000
G1 F3000
G1 X129.287 Y131.534 E.01091
G1 X129.404 Y131.07 E.01427
G1 X129.355 Y130.638 E.01293
G1 X129.201 Y130.294 E.01124
G1 X128.867 Y129.961 E.01405
G1 X128.665 Y129.836 E.00709
G1 X128.246 Y129.723 E.01291
G1 X127.815 Y129.755 E.01289
G1 X127.356 Y129.969 E.01507
G1 X127.021 Y130.338 E.01483
G1 X126.863 Y130.81 E.01484
G1 X126.855 Y131.098 E.00858
G1 X126.906 Y131.321 E.00681
G1 X127.073 Y131.708 E.01255
G1 X127.179 Y131.823 E.00469
G1 X116.337 Y131.823 E.32295
G1 X116.555 Y131.49 E.01185
G1 X116.654 Y131.071 E.01282
G1 X116.605 Y130.638 E.01297
G1 X116.445 Y130.285 E.01156
G1 X116.066 Y129.917 E.01573
G1 X115.654 Y129.745 E.0133
G1 X115.182 Y129.727 E.01408
G1 X114.687 Y129.924 E.01585
G1 X114.496 Y130.065 E.00709
G1 X114.243 Y130.394 E.01235
G1 X114.114 Y130.808 E.01293
G1 X114.105 Y131.098 E.00864
G1 X114.207 Y131.519 E.0129
G1 X114.433 Y131.827 E.01138
G1 X109.687 Y131.813 E.14136
G1 X109.686 Y122.34 E.28217
G1 X109.608 Y122.09 E.00781
G1 X109.401 Y121.887 E.00864
G1 X109.121 Y121.813 E.0086
G1 X101.187 Y121.813 E.23634
G1 X101.187 Y118.004 E.11344
G1 X101.234 Y118.158 E.00479
G1 X101.596 Y118.702 E.01945
G1 X102.118 Y119.094 E.01945
G1 X102.741 Y119.289 E.01945
G1 X102.932 Y119.306 E.00569
G1 X103.579 Y119.218 E.01945
G1 X104.16 Y118.92 E.01945
G1 X104.608 Y118.445 E.01945
G1 X104.854 Y117.937 E.01684
G1 X104.932 Y117.389 E.01648
G1 X104.924 Y117.198 E.00569
G1 X104.78 Y116.613 E.01794
G1 X104.511 Y116.172 E.01537
G1 X104.385 Y116.029 E.00569
G1 X103.913 Y115.667 E.0177
G1 X103.42 Y115.489 E.01564
G1 X103.027 Y115.44 E.01178
G1 X102.446 Y115.524 E.0175
G1 X101.862 Y115.814 E.0194
G1 X101.407 Y116.283 E.01947
G1 X101.187 Y116.743 E.0152
G1 X101.187 Y106.754 E.29752
G1 X101.32 Y107.079 E.01045
G1 X101.735 Y107.585 E.01947
G1 X102.292 Y107.922 E.01942
G1 X102.932 Y108.056 E.01945
G1 X103.498 Y107.997 E.01697
M73 P3 R14
G1 X104.001 Y107.777 E.01635
G1 X104.16 Y107.67 E.00569
G1 X104.58 Y107.245 E.01781
G1 X104.817 Y106.781 E.0155
G1 X104.873 Y106.599 E.00569
G1 X104.934 Y106.018 E.01738
G1 X104.826 Y105.494 E.01594
G1 X104.724 Y105.267 E.00741
G1 X104.385 Y104.779 E.01772
G1 X103.893 Y104.408 E.01835
G1 X103.42 Y104.239 E.01497
G1 X103.027 Y104.19 E.01178
G1 X102.446 Y104.274 E.0175
G1 X101.862 Y104.564 E.0194
G1 X101.407 Y105.033 E.01947
G1 X101.187 Y105.493 E.0152
G1 X101.187 Y98.187 E.21762
G1 X108.048 Y98.176 E.20436
G1 X108.014 Y98.208 E.00138
G1 X107.787 Y98.601 E.01353
G1 X107.731 Y98.869 E.00816
G1 X107.745 Y99.233 E.01085
G1 X107.805 Y99.466 E.00714
G1 X107.938 Y99.726 E.00872
G1 X108.285 Y100.07 E.01453
G1 X108.754 Y100.254 E.015
G1 X108.951 Y100.285 E.00594
G1 X109.404 Y100.219 E.01366
G1 X109.844 Y99.97 E.01506
G1 X110.1 Y99.661 E.01193
G1 X110.257 Y99.254 E.013
G1 X110.268 Y98.822 E.01288
G1 X110.124 Y98.399 E.01331
G1 X109.952 Y98.176 E.00837
G1 X125.048 Y98.176 E.44964
G1 X125.014 Y98.208 E.00138
G1 X124.787 Y98.601 E.01353
G1 X124.731 Y98.869 E.00816
G1 X124.745 Y99.233 E.01085
G1 X124.805 Y99.466 E.00714
G1 X124.976 Y99.781 E.01067
G1 X125.347 Y100.107 E.0147
G1 X125.832 Y100.275 E.01531
G1 X126.288 Y100.254 E.01358
G1 X126.704 Y100.078 E.01345
G1 X127.096 Y99.666 E.01694
G1 X127.257 Y99.254 E.01318
G1 X127.268 Y98.822 E.01288
G1 X127.124 Y98.399 E.01331
G1 X126.952 Y98.176 E.00837
G1 X133.813 Y98.187 E.20436
G1 X133.813 Y131.813 E1.0016
G1 X129.107 Y131.827 E.14017
G1 E-.68 F3600
;WIPE_START
G1 F3000
G1 X129.287 Y131.534 E-.04122
G1 X129.404 Y131.07 E-.05747
G1 X129.384 Y130.893 E-.02131
;WIPE_END
G1 X122.371 Y127.881 Z.6 F21000
G1 X109.121 Y122.19 Z.6
G1 Z.2
G1 E.8 F2700
;TYPE:Outer wall
G1 F3000
G1 X100.81 Y122.19 E.24757
G1 X100.81 Y118.165 E.11988
;WIDTH:0.465217
G1 X100.833 Y117.989 E.00591
;WIDTH:0.510435
G1 X100.855 Y117.814 E.00655
;WIDTH:0.555653
G1 X100.878 Y117.638 E.00718
;WIDTH:0.56187
G1 X100.881 Y117.064 E.02353
G1 X100.857 Y116.85 E.00882
;WIDTH:0.51458
G1 X100.834 Y116.636 E.00802
;WIDTH:0.46729
G1 X100.81 Y116.422 E.00721
;WIDTH:0.419999
G1 X100.81 Y106.915 E.28318
;WIDTH:0.465217
G1 X100.833 Y106.739 E.00591
;WIDTH:0.510435
G1 X100.855 Y106.564 E.00655
;WIDTH:0.555653
G1 X100.878 Y106.388 E.00718
;WIDTH:0.56187
G1 X100.881 Y105.814 E.02353
G1 X100.857 Y105.6 E.00882
;WIDTH:0.51458
G1 X100.834 Y105.386 E.00802
;WIDTH:0.46729
G1 X100.81 Y105.172 E.00721
;WIDTH:0.419999
G1 X100.81 Y97.81 E.2193
G1 X107.995 Y97.8 E.214
;WIDTH:0.441114
G1 X108.557 Y97.799 E.0177
G1 X109.146 Y97.77 E.01854
;WIDTH:0.429575
G1 X109.647 Y97.798 E.01533
G1 X110.496 Y97.809 E.02594
;WIDTH:0.419999
G1 X124.995 Y97.8 E.43185
;WIDTH:0.441113
G1 X125.557 Y97.799 E.0177
G1 X126.146 Y97.77 E.01854
;WIDTH:0.429575
G1 X126.647 Y97.798 E.01533
G1 X127.496 Y97.809 E.02594
;WIDTH:0.419999
G1 X134.19 Y97.81 E.19938
G1 X134.19 Y132.19 E1.02406
G1 X129.494 Y132.191 E.13988
G1 X128.63 Y132.217 E.02575
;WIDTH:0.426525
G1 X127.995 Y132.232 E.01925
G1 X127.374 Y132.203 E.01884
;WIDTH:0.419999
G1 X126.503 Y132.19 E.02593
G1 X116.297 Y132.201 E.304
;WIDTH:0.432937
G1 X115.22 Y132.227 E.0332
;WIDTH:0.420888
G1 X114.616 Y132.21 E.01803
;WIDTH:0.419999
G1 X114 Y132.191 E.01836
G1 X109.31 Y132.19 E.13971
G1 X109.31 Y122.379 E.29225
G1 X109.263 Y122.254 E.00396
G1 X109.158 Y122.207 E.00344
G1 E-.68 F3600
;WIPE_START
G1 F3000
G1 X108.158 Y122.205 E-.12
;WIPE_END
G1 X115.08 Y125.421 Z.6 F21000
G1 X128.624 Y131.714 Z.6
G1 Z.2
G1 E.8 F2700
G1 F3000
G1 X128.567 Y131.768 E.00234
G1 X128.163 Y131.859 E.01233
;WIDTH:0.426536
G1 X127.755 Y131.811 E.01243
G1 X127.592 Y131.713 E.00577
;WIDTH:0.419999
G1 X127.304 Y131.366 E.01345
G1 X127.222 Y131.013 E.01079
G1 X127.326 Y130.575 E.01342
G1 X127.577 Y130.275 E.01165
G1 X128.003 Y130.1 E.01371
G1 X128.309 Y130.11 E.00913
G1 X128.607 Y130.233 E.00958
G1 X128.915 Y130.552 E.01321
G1 X129.018 Y130.841 E.00914
G1 X129.018 Y131.149 E.00918
G1 X128.901 Y131.452 E.00966
G1 X128.653 Y131.686 E.01018
G1 E-.68 F3600
;WIPE_START
G1 F3000
G1 X128.567 Y131.768 E-.01423
G1 X128.163 Y131.859 E-.04966
G1 X127.755 Y131.811 E-.04922
G1 X127.706 Y131.782 E-.0069
;WIPE_END
G1 X120.1 Y131.148 Z.6 F21000
G1 X114.554 Y130.686 Z.6
G1 Z.2
G1 E.8 F2700
G1 F3000
G1 X114.619 Y130.497 E.00595
G1 X114.843 Y130.267 E.00956
G1 X115.253 Y130.1 E.01319
G1 X115.559 Y130.11 E.00913
G1 X115.857 Y130.233 E.00958
G1 X116.165 Y130.552 E.01321
G1 X116.268 Y130.841 E.00914
G1 X116.268 Y131.15 E.0092
G1 X116.165 Y131.432 E.00897
;WIDTH:0.420506
G1 X115.965 Y131.669 E.00923
;WIDTH:0.430123
G1 X115.679 Y131.832 E.01008
G1 X115.272 Y131.855 E.01246
;WIDTH:0.420888
G1 X114.842 Y131.713 E.01353
;WIDTH:0.419999
G1 X114.554 Y131.366 E.01345
G1 X114.475 Y130.916 E.0136
G1 X114.541 Y130.724 E.00606
G1 E-.68 F3600
;WIPE_START
G1 F3000
G1 X114.619 Y130.497 E-.02877
G1 X114.843 Y130.267 E-.03853
G1 X115.249 Y130.101 E-.05269
;WIPE_END
G1 X110.264 Y124.322 Z.6 F21000
G1 X102.934 Y115.827 Z.6
G1 Z.2
G1 E.8 F2700
G1 F3000
G1 X102.999 Y115.816 E.00196
G1 X103.294 Y115.845 E.00882
G1 X103.771 Y116.019 E.01512
G1 X104.162 Y116.335 E.01498
G1 X104.434 Y116.765 E.01514
G1 X104.555 Y117.277 E.01569
G1 X104.499 Y117.801 E.01569
G1 X104.271 Y118.276 E.01569
G1 X103.899 Y118.648 E.01569
G1 X103.423 Y118.874 E.01569
G1 X102.9 Y118.93 E.01569
G1 X102.387 Y118.808 E.01569
G1 X101.945 Y118.522 E.01569
G1 X101.623 Y118.105 E.01569
;WIDTH:0.457959
G1 X101.55 Y117.944 E.0058
;WIDTH:0.495919
G1 X101.477 Y117.782 E.00633
;WIDTH:0.533879
G1 X101.404 Y117.621 E.00686
;WIDTH:0.56187
G1 X101.4 Y117.075 E.02239
;WIDTH:0.498223
G1 X101.545 Y116.803 E.01108
;WIDTH:0.459111
G1 X101.69 Y116.532 E.01012
;WIDTH:0.419999
G1 X102.046 Y116.143 E.01571
G1 X102.511 Y115.896 E.01567
G1 X102.895 Y115.833 E.0116
G1 E-.68 F3600
;WIPE_START
G1 F3000
G1 X102.999 Y115.816 E-.01269
G1 X103.294 Y115.845 E-.03554
G1 X103.771 Y116.019 E-.06092
G1 X103.841 Y116.075 E-.01085
;WIPE_END
G1 X103.528 Y108.449 Z.6 F21000
G1 X103.371 Y104.623 Z.6
G1 Z.2
G1 E.8 F2700
G1 F3000
G1 X103.765 Y104.765 E.01247
G1 X104.161 Y105.083 E.01513
G1 X104.434 Y105.515 E.01519
G1 X104.555 Y106.027 E.01569
G1 X104.499 Y106.551 E.01569
G1 X104.271 Y107.026 E.01569
G1 X103.899 Y107.398 E.01569
G1 X103.423 Y107.624 E.01569
G1 X102.9 Y107.68 E.01569
G1 X102.387 Y107.558 E.01569
M73 P4 R14
G1 X101.946 Y107.272 E.01567
G1 X101.623 Y106.855 E.01571
;WIDTH:0.457959
G1 X101.55 Y106.694 E.0058
;WIDTH:0.495919
G1 X101.477 Y106.532 E.00633
;WIDTH:0.533878
G1 X101.404 Y106.371 E.00686
;WIDTH:0.56187
G1 X101.4 Y105.825 E.02239
G1 X101.485 Y105.662 E.00755
;WIDTH:0.51458
G1 X101.571 Y105.499 E.00686
;WIDTH:0.46729
G1 X101.656 Y105.336 E.00617
;WIDTH:0.419999
G1 X101.997 Y104.933 E.01571
G1 X102.451 Y104.667 E.01569
G1 X102.953 Y104.569 E.01523
G1 X103.294 Y104.595 E.01019
G1 X103.334 Y104.609 E.00126
G1 E-.68 F3600
;WIPE_START
G1 F3000
G1 X103.765 Y104.765 E-.05504
G1 X104.161 Y105.083 E-.06096
G1 X104.179 Y105.111 E-.00399
;WIPE_END
G1 X108.116 Y98.959 Z.6 F21000
G1 Z.2
G1 E.8 F2700
G1 F3000
G1 X108.108 Y98.855 E.00309
G1 X108.221 Y98.55 E.00968
;WIDTH:0.438011
G1 X108.586 Y98.202 E.01574
G1 X109 Y98.142 E.01306
;WIDTH:0.437878
G1 X109.414 Y98.202 E.01305
G1 X109.779 Y98.55 E.01574
;WIDTH:0.419999
G1 X109.892 Y98.839 E.00924
G1 X109.895 Y99.146 E.00913
G1 X109.796 Y99.437 E.00917
G1 X109.592 Y99.685 E.00956
G1 X109.198 Y99.887 E.01319
G1 X108.878 Y99.898 E.00955
G1 X108.473 Y99.739 E.01296
G1 X108.251 Y99.514 E.00941
G1 X108.142 Y99.297 E.00724
G1 X108.119 Y98.998 E.00891
G1 E-.68 F3600
;WIPE_START
G1 F3000
G1 X108.108 Y98.855 E-.01724
G1 X108.221 Y98.55 E-.03901
G1 X108.586 Y98.202 E-.06053
G1 X108.612 Y98.198 E-.00322
;WIPE_END
G1 X116.237 Y98.538 Z.6 F21000
G1 X125.128 Y98.935 Z.6
G1 Z.2
G1 E.8 F2700
G1 F3000
G1 X125.133 Y98.753 E.00542
G1 X125.267 Y98.487 E.00889
;WIDTH:0.441113
G1 X125.614 Y98.191 E.01433
G1 X125.876 Y98.145 E.00836
;WIDTH:0.421078
G1 X126.156 Y98.148 E.00837
;WIDTH:0.437878
G1 X126.414 Y98.202 E.00823
G1 X126.779 Y98.55 E.01574
;WIDTH:0.419999
G1 X126.892 Y98.839 E.00924
G1 X126.895 Y99.146 E.00913
G1 X126.787 Y99.448 E.00958
G1 X126.483 Y99.77 E.01318
G1 X126.198 Y99.887 E.00916
G1 X125.878 Y99.898 E.00955
G1 X125.473 Y99.739 E.01296
G1 X125.251 Y99.514 E.00941
G1 X125.122 Y99.219 E.00958
G1 X125.128 Y98.975 E.00728
G1 E-.68 F3600
;WIPE_START
G1 F3000
G1 X125.133 Y98.753 E-.02665
G1 X125.267 Y98.487 E-.0358
G1 X125.614 Y98.191 E-.05467
G1 X125.638 Y98.187 E-.00288
;WIPE_END
G1 X118.008 Y98.385 Z.6 F21000
G1 X106.77 Y98.677 Z.6
G1 Z.2
G1 E.8 F2700
;TYPE:Bottom surface
;WIDTH:0.422763
G1 F4800
G1 X107.252 Y99.159 E.02046
G1 E-.68 F3600
;WIPE_START
G1 F4800
G1 X106.77 Y98.677 E-.12
;WIPE_END
G1 X114.402 Y98.677 Z.6 F21000
G1 X132.555 Y98.677 Z.6
G1 Z.2
G1 E.8 F2700
G1 F4800
G1 X133.153 Y99.276 E.0254
G1 X133.153 Y99.813 E.01612
G1 X132.187 Y98.847 E.04099
G1 X131.65 Y98.847 E.01612
G1 X133.153 Y100.35 E.06379
G1 X133.153 Y100.887 E.01612
G1 X131.113 Y98.847 E.08658
G1 X130.575 Y98.847 E.01612
G1 X133.153 Y101.424 E.10938
G1 X133.153 Y101.962 E.01612
G1 X130.038 Y98.847 E.13218
G1 X129.501 Y98.847 E.01612
G1 X133.153 Y102.499 E.15497
G1 X133.153 Y103.036 E.01612
G1 X128.964 Y98.847 E.17777
G1 X128.426 Y98.847 E.01612
G1 X133.153 Y103.573 E.20056
G1 X133.153 Y104.11 E.01612
