; HEADER_BLOCK_START
; generated by OrcaSlicer 2.1.1 on 2025-01-09 at 19:09:19
; total layer number: 361
; filament_density: 1.27
; filament_diameter: 1.75
; max_z_height: 29.00
; HEADER_BLOCK_END

; THUMBNAIL_BLOCK_START

;
; THUMBNAIL_BLOCK_END







; external perimeters extrusion width = 0.40mm
; perimeters extrusion width = 0.45mm
; infill extrusion width = 0.45mm
; solid infill extrusion width = 0.45mm
; top infill extrusion width = 0.38mm
; first layer extrusion width = 0.42mm

; EXECUTABLE_BLOCK_START
EXCLUDE_OBJECT_DEFINE NAME=观察平台_-_内板.STL_id_0_copy_0 CENTER=117.5,115 POLYGON=[[57.5,113.5],[177.5,113.5],[177.5,116.5],[57.5,116.5],[57.5,113.5]]
M73 P0 R57
;TYPE:Custom
;ELEGOO NEPTUNE 4 PRO
M220 S100 ;Set the feed speed to 100%
M221 S100 ;Set the flow rate to 100%
M104 S140
M190 S70
G90
G28 ;home
G1 Z10 F300
G1 X67.5 Y0 F6000
G1 Z0 F300
M109 S240
G92 E0 ;Reset Extruder
G1 X67.5 Y0 Z0.4 F300 ;Move to start position
G1 X167.5 E30 F400 ;Draw the first line
G1 Z0.6 F120.0 ;Move to side a little
G1 X162.5 F3000
G92 E0 ;Reset Extruder
G90
G21
M83 ; use relative distances for extrusion
; filament start gcode
M106 S0
;LAYER_CHANGE
;Z:0.2
;HEIGHT:0.2
;BEFORE_LAYER_CHANGE
G92 E0
;0.2


G1 E-.8 F3600
;AFTER_LAYER_CHANGE
;0.2
;_SET_FAN_SPEED_CHANGING_LAYER
SET_VELOCITY_LIMIT ACCEL=1000 ACCEL_TO_DECEL=500
SET_VELOCITY_LIMIT SQUARE_CORNER_VELOCITY=7
; printing object 观察平台 - 内板.STL id:0 copy 0
EXCLUDE_OBJECT_START NAME=观察平台_-_内板.STL_id_0_copy_0
G1 X151.089 Y114.564 F21000
G1 Z.4
G1 Z.2
G1 E.8 F2700
;TYPE:Inner wall
;WIDTH:0.419999
G1 F3000
G1 X176.436 Y114.564 E.75498
G1 X176.436 Y115.436 E.02596
G1 X151.081 Y115.436 E.75522
G1 X151.158 Y115 E.01318
G1 X151.096 Y114.604 E.01195
G1 X150.385 Y114.187 F21000
G1 F3000
G1 X176.813 Y114.187 E.7872
G1 X176.813 Y115.813 E.04843
G1 X150.387 Y115.813 E.78714
G1 X150.633 Y115.529 E.0112
G1 X150.731 Y115.311 E.00711
G1 X150.781 Y115.079 E.00707
G1 X150.749 Y114.732 E.01038
G1 X150.602 Y114.414 E.01041
G1 X150.412 Y114.216 E.00818
G1 E-.68 F3600
;WIPE_START
G1 F3000
G1 X151.412 Y114.215 E-.12
;WIPE_END
G1 X148.424 Y114.564 Z.6 F21000
G1 Z.2
G1 E.8 F2700
G1 F3000
G1 X148.338 Y115.013 E.01361
G1 X148.405 Y115.433 E.01266
G1 X120.323 Y115.436 E.83644
G1 X120.404 Y114.998 E.01327
G1 X120.339 Y114.564 E.01306
G1 X148.384 Y114.564 E.83535
G1 X149.115 Y114.187 F21000
G1 F3000
G1 X148.941 Y114.357 E.00725
G1 X148.762 Y114.711 E.01182
G1 X148.722 Y114.946 E.00711
G1 X148.732 Y115.183 E.00707
G1 X148.88 Y115.551 E.01179
G1 X149.126 Y115.813 E.01071
G1 X119.637 Y115.813 E.87838
G1 X119.861 Y115.572 E.0098
G1 X120.009 Y115.204 E.01181
G1 X120.029 Y114.966 E.00711
G1 X119.998 Y114.731 E.00707
G1 X119.852 Y114.414 E.01038
G1 X119.624 Y114.187 E.0096
G1 X149.075 Y114.187 E.87725
G1 X149.833 Y114.31 F21000
;TYPE:Outer wall
;WIDTH:0.501581
G1 F3000
G1 X149.924 Y114.35 E.00357
;WIDTH:0.468051
G1 X150.029 Y114.395 E.00383
;WIDTH:0.434521
G1 X150.209 Y114.527 E.0069
;WIDTH:0.419999
G1 X150.34 Y114.707 E.00663
G1 X150.404 Y115 E.00894
G1 X150.387 Y115.156 E.00468
G1 X150.242 Y115.438 E.00945
;WIDTH:0.452058
G1 X150.087 Y115.552 E.00621
;WIDTH:0.484117
G1 X149.933 Y115.666 E.00669
;WIDTH:0.506662
G1 X149.602 Y115.683 E.01212
G1 X149.463 Y115.591 E.00612
;WIDTH:0.463331
G1 X149.324 Y115.499 E.00555
;WIDTH:0.419999
G1 X149.137 Y115.242 E.00945
G1 X149.097 Y115.088 E.00473
G1 X149.134 Y114.774 E.00943
G1 X149.297 Y114.522 E.00895
;WIDTH:0.448524
G1 X149.495 Y114.38 E.0078
;WIDTH:0.475053
G1 X149.657 Y114.342 E.00568
;WIDTH:0.501581
G1 X149.795 Y114.31 E.00514
G1 E-.68 F3600
;WIPE_START
G1 F3000
G1 X149.924 Y114.35 E-.01615
G1 X150.029 Y114.395 E-.0137
G1 X150.209 Y114.527 E-.02677
G1 X150.34 Y114.707 E-.02672
G1 X150.404 Y115 E-.036
G1 X150.403 Y115.005 E-.00066
;WIPE_END
G1 X142.772 Y115.106 Z.6 F21000
G1 X117.67 Y115.436 Z.6
G1 Z.2
G1 E.8 F2700
;TYPE:Inner wall
;WIDTH:0.419999
G1 F3000
G1 X89.581 Y115.436 E.83665
G1 X89.658 Y115 E.01318
G1 X89.589 Y114.564 E.01314
G1 X117.674 Y114.564 E.83654
G1 X117.588 Y115.013 E.01361
G1 X117.662 Y115.397 E.01164
G1 X118.376 Y115.813 F21000
G1 F3000
G1 X88.887 Y115.813 E.87839
G1 X89.133 Y115.529 E.0112
G1 X89.231 Y115.311 E.00711
G1 X89.281 Y115.079 E.00707
G1 X89.249 Y114.732 E.01038
G1 X89.07 Y114.378 E.01181
G1 X88.877 Y114.187 E.00808
G1 X118.365 Y114.187 E.87836
G1 X118.191 Y114.357 E.00725
G1 X118.012 Y114.711 E.01181
G1 X117.964 Y115.024 E.00944
G1 X118.077 Y115.455 E.01325
G1 X118.237 Y115.69 E.00849
G1 X118.346 Y115.787 E.00435
G1 E-.68 F3600
;WIPE_START
G1 F3000
G1 X117.346 Y115.787 E-.12
;WIPE_END
G1 X119.482 Y115.445 Z.6 F21000
G1 Z.2
G1 E.8 F2700
;TYPE:Outer wall
;WIDTH:0.451995
G1 F3000
G1 X119.337 Y115.552 E.00583
;WIDTH:0.483991
G1 X119.182 Y115.666 E.00671
;WIDTH:0.508233
G1 X118.872 Y115.691 E.01142
G1 X118.767 Y115.628 E.00448
;WIDTH:0.465819
G1 X118.663 Y115.565 E.00407
;WIDTH:0.423405
G1 X118.432 Y115.328 E.00994
;WIDTH:0.419999
G1 X118.341 Y115.035 E.00913
G1 X118.414 Y114.7 E.01022
G1 X118.547 Y114.522 E.00663
;WIDTH:0.460741
M73 P0 R56
G1 X118.724 Y114.414 E.00683
;WIDTH:0.501482
G1 X118.9 Y114.306 E.0075
;WIDTH:0.501607
G1 X119.108 Y114.309 E.00753
G1 X119.283 Y114.418 E.00747
;WIDTH:0.460803
G1 X119.459 Y114.527 E.00681
;WIDTH:0.419999
G1 X119.59 Y114.707 E.00663
G1 X119.653 Y114.935 E.00705
G1 X119.61 Y115.249 E.00945
G1 X119.507 Y115.415 E.0058
G1 E-.68 F3600
;WIPE_START
G1 F3000
G1 X119.337 Y115.552 E-.02623
G1 X119.182 Y115.666 E-.0231
G1 X118.872 Y115.691 E-.03729
G1 X118.767 Y115.628 E-.01464
G1 X118.663 Y115.565 E-.01464
G1 X118.639 Y115.54 E-.0041
;WIPE_END
G1 X111.007 Y115.459 Z.6 F21000
G1 X86.873 Y115.2 Z.6
G1 Z.2
G1 E.8 F2700
;TYPE:Inner wall
G1 F3000
G1 X86.905 Y115.433 E.00699
G1 X58.564 Y115.436 E.84416
G1 X58.564 Y114.564 E.02596
G1 X86.915 Y114.564 E.84449
G1 X86.84 Y114.96 E.012
G1 X86.868 Y115.161 E.00603
G1 X87.232 Y115.102 F21000
G1 F3000
G1 X87.232 Y115.183 E.00239
G1 X87.351 Y115.511 E.01041
G1 X87.615 Y115.813 E.01195
G1 X58.187 Y115.813 E.87657
G1 X58.187 Y114.187 E.04843
G1 X87.626 Y114.187 E.87689
G1 X87.343 Y114.503 E.01265
G1 X87.23 Y114.833 E.01038
G1 X87.231 Y115.062 E.00683
G1 X87.601 Y115.103 F21000
;TYPE:Outer wall
G1 F3000
G1 X87.597 Y115.088 E.00048
G1 X87.621 Y114.803 E.0085
G1 X87.734 Y114.595 E.00705
;WIDTH:0.456914
G1 X87.977 Y114.38 E.01061
;WIDTH:0.498239
G1 X88.2 Y114.304 E.00847
G1 X88.429 Y114.341 E.00835
;WIDTH:0.46922
G1 X88.633 Y114.467 E.00807
;WIDTH:0.419999
G1 X88.84 Y114.707 E.00945
G1 X88.904 Y115 E.00893
G1 X88.887 Y115.156 E.00468
G1 X88.742 Y115.438 E.00945
;WIDTH:0.440514
G1 X88.556 Y115.592 E.00759
;WIDTH:0.468484
G1 X88.413 Y115.645 E.00512
;WIDTH:0.496453
G1 X88.27 Y115.698 E.00546
G1 X87.994 Y115.622 E.01024
;WIDTH:0.452783
G1 X87.753 Y115.432 E.00994
;WIDTH:0.419999
G1 X87.637 Y115.242 E.00663
G1 X87.611 Y115.142 E.00308
G1 E-.68 F3600
;WIPE_START
G1 F3000
G1 X87.597 Y115.088 E-.00674
G1 X87.621 Y114.803 E-.03423
G1 X87.734 Y114.595 E-.02839
G1 X87.977 Y114.38 E-.03892
G1 X88.069 Y114.349 E-.01172
;WIPE_END
G1 X95.7 Y114.507 Z.6 F21000
G1 X177.19 Y116.19 Z.6
G1 Z.2
M73 P1 R56
G1 E.8 F2700
G1 F3000
G1 X150.817 Y116.19 E.78557
;WIDTH:0.449752
G1 X150.186 Y116.175 E.02027
;WIDTH:0.478207
G1 X149.89 Y116.161 E.01022
;WIDTH:0.506662
G1 X149.593 Y116.147 E.01088
G1 X149.293 Y116.168 E.011
;WIDTH:0.463331
G1 X148.994 Y116.19 E.00997
;WIDTH:0.419999
G1 X120.002 Y116.19 E.86356
;WIDTH:0.449494
G1 X119.436 Y116.175 E.01818
;WIDTH:0.478864
G1 X119.12 Y116.161 E.0109
;WIDTH:0.508233
G1 X118.804 Y116.146 E.01164
G1 X118.497 Y116.168 E.0113
;WIDTH:0.464116
G1 X118.191 Y116.19 E.01023
;WIDTH:0.419999
G1 X88.866 Y116.19 E.87347
;WIDTH:0.458226
G1 X88.568 Y116.171 E.0098
;WIDTH:0.496453
G1 X88.27 Y116.152 E.0107
G1 X87.996 Y116.171 E.00984
;WIDTH:0.458226
G1 X87.722 Y116.19 E.00901
;WIDTH:0.419999
G1 X57.81 Y116.19 E.89097
G1 X57.81 Y113.81 E.07089
G1 X87.675 Y113.81 E.88959
;WIDTH:0.460813
G1 X88.022 Y113.83 E.01147
;WIDTH:0.501626
G1 X88.369 Y113.851 E.01259
G1 X88.641 Y113.83 E.00987
;WIDTH:0.460813
G1 X88.912 Y113.81 E.00899
;WIDTH:0.419999
G1 X118.312 Y113.81 E.87573
;WIDTH:0.459119
G1 X118.636 Y113.83 E.01065
;WIDTH:0.498239
G1 X118.959 Y113.849 E.01166
G1 X119.257 Y113.83 E.01073
;WIDTH:0.459119
G1 X119.555 Y113.81 E.00981
;WIDTH:0.419999
G1 X149.222 Y113.81 E.88369
;WIDTH:0.458216
G1 X149.496 Y113.829 E.00903
;WIDTH:0.496433
G1 X149.771 Y113.848 E.00986
G1 X150.061 Y113.829 E.01043
;WIDTH:0.458216
G1 X150.352 Y113.81 E.00955
;WIDTH:0.419999
G1 X177.19 Y113.81 E.79941
G1 X177.19 Y116.15 E.0697
G1 E-.68 F3600
;WIPE_START
G1 F3000
G1 X176.19 Y116.152 E-.12
;WIPE_END
G1 X176.199 Y115.323 Z.6 F21000
G1 Z.2
G1 E.8 F2700
;TYPE:Bottom surface
;WIDTH:0.423446
G1 F4800
G1 X175.723 Y114.847 E.02023
G1 X175.185 Y114.847 E.01618
G1 X175.491 Y115.153 E.01301
G1 X174.953 Y115.153 E.01618
G1 X174.647 Y114.847 E.01301
G1 X174.108 Y114.847 E.01618
G1 X174.414 Y115.153 E.01301
G1 X173.876 Y115.153 E.01618
G1 X173.57 Y114.847 E.01301
G1 X173.032 Y114.847 E.01618
G1 X173.338 Y115.153 E.01301
G1 X172.8 Y115.153 E.01618
G1 X172.494 Y114.847 E.01301
G1 X171.956 Y114.847 E.01618
G1 X172.262 Y115.153 E.01301
G1 X171.724 Y115.153 E.01618
G1 X171.418 Y114.847 E.01301
G1 X170.88 Y114.847 E.01618
G1 X171.186 Y115.153 E.01301
G1 X170.647 Y115.153 E.01618
G1 X170.341 Y114.847 E.01301
G1 X169.803 Y114.847 E.01618
G1 X170.109 Y115.153 E.01301
G1 X169.571 Y115.153 E.01618
G1 X169.265 Y114.847 E.01301
G1 X168.727 Y114.847 E.01618
G1 X169.033 Y115.153 E.01301
G1 X168.495 Y115.153 E.01618
G1 X168.189 Y114.847 E.01301
G1 X167.651 Y114.847 E.01618
G1 X167.957 Y115.153 E.01301
G1 X167.419 Y115.153 E.01618
G1 X167.113 Y114.847 E.01301
G1 X166.574 Y114.847 E.01618
G1 X166.88 Y115.153 E.01301
G1 X166.342 Y115.153 E.01618
G1 X166.036 Y114.847 E.01301
G1 X165.498 Y114.847 E.01618
G1 X165.804 Y115.153 E.01301
G1 X165.266 Y115.153 E.01618
G1 X164.96 Y114.847 E.01301
G1 X164.422 Y114.847 E.01618
G1 X164.728 Y115.153 E.01301
G1 X164.19 Y115.153 E.01618
G1 X163.884 Y114.847 E.01301
G1 X163.345 Y114.847 E.01618
G1 X163.652 Y115.153 E.01301
G1 X163.113 Y115.153 E.01618
G1 X162.807 Y114.847 E.01301
G1 X162.269 Y114.847 E.01618
G1 X162.575 Y115.153 E.01301
G1 X162.037 Y115.153 E.01618
G1 X161.731 Y114.847 E.01301
G1 X161.193 Y114.847 E.01618
G1 X161.499 Y115.153 E.01301
G1 X160.961 Y115.153 E.01618
G1 X160.655 Y114.847 E.01301
G1 X160.117 Y114.847 E.01618
G1 X160.423 Y115.153 E.01301
G1 X159.885 Y115.153 E.01618
G1 X159.578 Y114.847 E.01301
G1 X159.04 Y114.847 E.01618
G1 X159.346 Y115.153 E.01301
G1 X158.808 Y115.153 E.01618
G1 X158.502 Y114.847 E.01301
G1 X157.964 Y114.847 E.01618
G1 X158.27 Y115.153 E.01301
G1 X157.732 Y115.153 E.01618
G1 X157.426 Y114.847 E.01301
G1 X156.888 Y114.847 E.01618
G1 X157.194 Y115.153 E.01301
G1 X156.656 Y115.153 E.01618
G1 X156.35 Y114.847 E.01301
G1 X155.811 Y114.847 E.01618
G1 X156.118 Y115.153 E.01301
G1 X155.579 Y115.153 E.01618
G1 X155.273 Y114.847 E.01301
G1 X154.735 Y114.847 E.01618
G1 X155.041 Y115.153 E.01301
G1 X154.503 Y115.153 E.01618
G1 X154.197 Y114.847 E.01301
G1 X153.659 Y114.847 E.01618
G1 X153.965 Y115.153 E.01301
G1 X153.427 Y115.153 E.01618
G1 X153.121 Y114.847 E.01301
G1 X152.583 Y114.847 E.01618
G1 X152.889 Y115.153 E.01301
G1 X152.351 Y115.153 E.01618
G1 X152.044 Y114.847 E.01301
G1 X151.506 Y114.847 E.01618
G1 X151.982 Y115.323 E.02022
G1 E-.68 F3600
;WIPE_START
G1 F4800
G1 X151.506 Y114.847 E-.08074
G1 X151.833 Y114.847 E-.03926
;WIPE_END
G1 X148.146 Y115.323 Z.6 F21000
G1 Z.2
G1 E.8 F2700
;WIDTH:0.423169
G1 F4800
G1 X147.67 Y114.847 E.02021
G1 X147.132 Y114.847 E.01615
G1 X147.438 Y115.153 E.013
G1 X146.901 Y115.153 E.01615
G1 X146.595 Y114.847 E.013
G1 X146.057 Y114.847 E.01615
G1 X146.363 Y115.153 E.013
G1 X145.825 Y115.153 E.01615
G1 X145.519 Y114.847 E.013
G1 X144.981 Y114.847 E.01615
G1 X145.287 Y115.153 E.013
G1 X144.75 Y115.153 E.01615
G1 X144.444 Y114.847 E.013
G1 X143.906 Y114.847 E.01615
G1 X144.212 Y115.153 E.013
G1 X143.674 Y115.153 E.01615
G1 X143.368 Y114.847 E.013
G1 X142.83 Y114.847 E.01615
G1 X143.136 Y115.153 E.013
G1 X142.599 Y115.153 E.01615
G1 X142.293 Y114.847 E.013
G1 X141.755 Y114.847 E.01615
G1 X142.061 Y115.153 E.013
G1 X141.523 Y115.153 E.01615
G1 X141.217 Y114.847 E.013
G1 X140.679 Y114.847 E.01615
G1 X140.985 Y115.153 E.013
G1 X140.448 Y115.153 E.01615
G1 X140.142 Y114.847 E.013
G1 X139.604 Y114.847 E.01615
G1 X139.91 Y115.153 E.013
G1 X139.372 Y115.153 E.01615
G1 X139.066 Y114.847 E.013
G1 X138.528 Y114.847 E.01615
G1 X138.834 Y115.153 E.013
G1 X138.297 Y115.153 E.01615
G1 X137.991 Y114.847 E.013
G1 X137.453 Y114.847 E.01615
G1 X137.759 Y115.153 E.013
G1 X137.221 Y115.153 E.01615
G1 X136.915 Y114.847 E.013
G1 X136.377 Y114.847 E.01615
G1 X136.683 Y115.153 E.013
G1 X136.146 Y115.153 E.01615
G1 X135.84 Y114.847 E.013
G1 X135.302 Y114.847 E.01615
G1 X135.608 Y115.153 E.013
G1 X135.07 Y115.153 E.01615
G1 X134.764 Y114.847 E.013
G1 X134.226 Y114.847 E.01615
G1 X134.532 Y115.153 E.013
G1 X133.995 Y115.153 E.01615
G1 X133.689 Y114.847 E.013
G1 X133.151 Y114.847 E.01615
G1 X133.457 Y115.153 E.013
G1 X132.919 Y115.153 E.01615
G1 X132.613 Y114.847 E.013
G1 X132.075 Y114.847 E.01615
G1 X132.381 Y115.153 E.013
G1 X131.844 Y115.153 E.01615
G1 X131.538 Y114.847 E.013
G1 X131 Y114.847 E.01615
G1 X131.306 Y115.153 E.013
G1 X130.768 Y115.153 E.01615
G1 X130.462 Y114.847 E.013
G1 X129.924 Y114.847 E.01615
G1 X130.23 Y115.153 E.013
G1 X129.693 Y115.153 E.01615
G1 X129.387 Y114.847 E.013
G1 X128.849 Y114.847 E.01615
G1 X129.155 Y115.153 E.013
G1 X128.617 Y115.153 E.01615
G1 X128.311 Y114.847 E.013
G1 X127.773 Y114.847 E.01615
G1 X128.079 Y115.153 E.013
G1 X127.542 Y115.153 E.01615
G1 X127.236 Y114.847 E.013
G1 X126.698 Y114.847 E.01615
G1 X127.004 Y115.153 E.013
G1 X126.466 Y115.153 E.01615
G1 X126.16 Y114.847 E.013
G1 X125.622 Y114.847 E.01615
G1 X125.928 Y115.153 E.013
G1 X125.391 Y115.153 E.01615
G1 X125.084 Y114.847 E.013
G1 X124.547 Y114.847 E.01615
G1 X124.853 Y115.153 E.013
G1 X124.315 Y115.153 E.01615
G1 X124.009 Y114.847 E.013
G1 X123.471 Y114.847 E.01615
G1 X123.777 Y115.153 E.013
G1 X123.24 Y115.153 E.01615
G1 X122.933 Y114.847 E.013
G1 X122.396 Y114.847 E.01615
G1 X122.702 Y115.153 E.013
G1 X122.164 Y115.153 E.01615
G1 X121.858 Y114.847 E.013
G1 X121.32 Y114.847 E.01615
G1 X121.626 Y115.153 E.013
G1 X121.089 Y115.153 E.01615
G1 X120.613 Y114.677 E.02021
G1 E-.68 F3600
;WIPE_START
G1 F4800
G1 X121.089 Y115.153 E-.08074
G1 X121.416 Y115.153 E-.03926
;WIPE_END
G1 X116.75 Y114.677 Z.6 F21000
G1 Z.2
G1 E.8 F2700
;WIDTH:0.423526
G1 F4800
G1 X117.225 Y115.153 E.02023
G1 X116.687 Y115.153 E.01618
G1 X116.381 Y114.847 E.01301
G1 X115.843 Y114.847 E.01618
G1 X116.149 Y115.153 E.01301
G1 X115.611 Y115.153 E.01618
G1 X115.305 Y114.847 E.01301
G1 X114.766 Y114.847 E.01618
G1 X115.072 Y115.153 E.01301
G1 X114.534 Y115.153 E.01618
G1 X114.228 Y114.847 E.01301
G1 X113.69 Y114.847 E.01618
G1 X113.996 Y115.153 E.01301
G1 X113.458 Y115.153 E.01618
G1 X113.152 Y114.847 E.01301
G1 X112.613 Y114.847 E.01618
G1 X112.919 Y115.153 E.01301
G1 X112.381 Y115.153 E.01618
G1 X112.075 Y114.847 E.01301
G1 X111.537 Y114.847 E.01618
G1 X111.843 Y115.153 E.01301
G1 X111.305 Y115.153 E.01618
G1 X110.999 Y114.847 E.01301
G1 X110.46 Y114.847 E.01618
G1 X110.766 Y115.153 E.01301
G1 X110.228 Y115.153 E.01618
G1 X109.922 Y114.847 E.01301
G1 X109.384 Y114.847 E.01618
G1 X109.69 Y115.153 E.01301
G1 X109.152 Y115.153 E.01618
G1 X108.845 Y114.847 E.01301
G1 X108.307 Y114.847 E.01618
G1 X108.613 Y115.153 E.01301
G1 X108.075 Y115.153 E.01618
G1 X107.769 Y114.847 E.01301
G1 X107.231 Y114.847 E.01618
G1 X107.537 Y115.153 E.01301
G1 X106.999 Y115.153 E.01618
G1 X106.692 Y114.847 E.01301
G1 X106.154 Y114.847 E.01618
G1 X106.46 Y115.153 E.01301
G1 X105.922 Y115.153 E.01618
G1 X105.616 Y114.847 E.01301
G1 X105.078 Y114.847 E.01618
G1 X105.384 Y115.153 E.01301
G1 X104.846 Y115.153 E.01618
G1 X104.539 Y114.847 E.01301
G1 X104.001 Y114.847 E.01618
G1 X104.307 Y115.153 E.01301
G1 X103.769 Y115.153 E.01618
G1 X103.463 Y114.847 E.01301
G1 X102.925 Y114.847 E.01618
G1 X103.231 Y115.153 E.01301
