; HEADER_BLOCK_START
; generated by OrcaSlicer 2.1.1 on 2025-01-09 at 19:09:58
; total layer number: 36
; filament_density: 1.27
; filament_diameter: 1.75
; max_z_height: 3.00
; HEADER_BLOCK_END

; THUMBNAIL_BLOCK_START

;
; THUMBNAIL_BLOCK_END







; external perimeters extrusion width = 0.40mm
; perimeters extrusion width = 0.45mm
; infill extrusion width = 0.45mm
; solid infill extrusion width = 0.45mm
; top infill extrusion width = 0.38mm
; first layer extrusion width = 0.42mm

; EXECUTABLE_BLOCK_START
EXCLUDE_OBJECT_DEFINE NAME=观察平台.STL_id_0_copy_0 CENTER=117.5,115 POLYGON=[[56,97.5],[179,97.5],[179,132.5],[56,132.5],[56,97.5]]
M73 P0 R44
;TYPE:Custom
;ELEGOO NEPTUNE 4 PRO
M220 S100 ;Set the feed speed to 100%
M221 S100 ;Set the flow rate to 100%
M104 S140
M190 S70
G90
G28 ;home
G1 Z10 F300
G1 X67.5 Y0 F6000
G1 Z0 F300
M109 S240
G92 E0 ;Reset Extruder
G1 X67.5 Y0 Z0.4 F300 ;Move to start position
G1 X167.5 E30 F400 ;Draw the first line
G1 Z0.6 F120.0 ;Move to side a little
G1 X162.5 F3000
G92 E0 ;Reset Extruder
G90
G21
M83 ; use relative distances for extrusion
; filament start gcode
M106 S0
;LAYER_CHANGE
;Z:0.2
;HEIGHT:0.2
;BEFORE_LAYER_CHANGE
G92 E0
;0.2


G1 E-.8 F3600
;AFTER_LAYER_CHANGE
;0.2
;_SET_FAN_SPEED_CHANGING_LAYER
SET_VELOCITY_LIMIT ACCEL=1000 ACCEL_TO_DECEL=500
SET_VELOCITY_LIMIT SQUARE_CORNER_VELOCITY=7
; printing object 观察平台.STL id:0 copy 0
EXCLUDE_OBJECT_START NAME=观察平台.STL_id_0_copy_0
G1 X176.339 Y107.412 F21000
G1 Z.4
G1 Z.2
G1 E.8 F2700
;TYPE:Inner wall
;WIDTH:0.419999
G1 F3000
G1 X176.392 Y107.475 E.00243
G1 X176.711 Y107.709 E.01177
G1 X177.245 Y107.888 E.01678
G1 X177.786 Y107.883 E.01614
G1 X177.938 Y107.832 E.00476
G1 X177.939 Y122.155 E.42661
G1 X177.625 Y122.098 E.0095
G1 X177.069 Y122.149 E.01664
G1 X176.556 Y122.386 E.01682
G1 X176.277 Y122.621 E.01085
G1 X176.116 Y122.849 E.00833
G1 X175.889 Y123.335 E.01597
M73 P0 R43
G1 X175.843 Y123.9 E.01688
G1 X175.96 Y124.364 E.01427
G1 X176.155 Y124.708 E.01176
G1 X176.531 Y125.103 E.01624
G1 X176.932 Y125.308 E.01345
G1 X177.488 Y125.407 E.01679
G1 X177.938 Y125.332 E.01359
G1 X177.936 Y131.436 E.1818
G1 X149.829 Y131.438 E.83722
G1 X149.865 Y131.282 E.00476
G1 X149.892 Y130.777 E.01508
G1 X149.723 Y130.237 E.01686
G1 X149.48 Y129.878 E.01291
G1 X149.135 Y129.592 E.01335
G1 X148.685 Y129.399 E.01456
G1 X148.412 Y129.346 E.00828
G1 X147.881 Y129.378 E.01585
G1 X147.406 Y129.58 E.01537
G1 X147.159 Y129.744 E.00882
G1 X146.823 Y130.144 E.01558
G1 X146.627 Y130.703 E.01765
G1 X146.612 Y131.183 E.01431
G1 X146.672 Y131.439 E.00782
G1 X119.078 Y131.44 E.82191
G1 X119.138 Y131.182 E.00788
G1 X119.143 Y130.778 E.01204
G1 X118.973 Y130.237 E.01689
G1 X118.73 Y129.878 E.01291
G1 X118.335 Y129.56 E.01511
G1 X117.863 Y129.377 E.01507
G1 X117.337 Y129.346 E.0157
G1 X116.989 Y129.43 E.01067
G1 X116.476 Y129.688 E.01711
G1 X116.093 Y130.11 E.01696
G1 X115.916 Y130.514 E.01315
G1 X115.853 Y130.903 E.01175
G1 X115.871 Y131.259 E.0106
G1 X115.931 Y131.44 E.00568
G1 X88.329 Y131.439 E.82217
G1 X88.363 Y131.289 E.00458
G1 X88.393 Y130.778 E.01525
G1 X88.223 Y130.237 E.01689
G1 X87.98 Y129.878 E.01291
G1 X87.635 Y129.592 E.01335
G1 X87.185 Y129.399 E.01456
G1 X86.906 Y129.346 E.00848
G1 X86.392 Y129.375 E.01531
G1 X85.906 Y129.58 E.01571
G1 X85.662 Y129.741 E.00869
G1 X85.329 Y130.132 E.01531
G1 X85.128 Y130.7 E.01795
G1 X85.112 Y131.183 E.01441
G1 X85.171 Y131.438 E.00779
G1 X57.064 Y131.436 E.83721
G1 X57.064 Y98.564 E.97913
G1 X85.155 Y98.562 E.83674
G1 X85.116 Y98.7 E.00426
G1 X85.118 Y99.248 E.01633
G1 X85.218 Y99.635 E.01191
G1 X85.327 Y99.852 E.00724
G1 X85.522 Y100.115 E.00974
G1 X85.875 Y100.415 E.0138
G1 X86.38 Y100.61 E.01611
G1 X86.7 Y100.662 E.00968
G1 X87.207 Y100.601 E.0152
G1 X87.681 Y100.38 E.01556
G1 X88.09 Y99.988 E.01689
G1 X88.341 Y99.437 E.01803
G1 X88.406 Y99.046 E.0118
G1 X88.395 Y98.804 E.00723
G1 X88.345 Y98.561 E.00739
G1 X115.916 Y98.56 E.82126
G1 X115.855 Y98.884 E.00982
M73 P1 R43
G1 X115.868 Y99.248 E.01085
G1 X115.968 Y99.635 E.01191
G1 X116.077 Y99.852 E.00724
G1 X116.272 Y100.115 E.00974
G1 X116.625 Y100.415 E.01379
G1 X117.13 Y100.61 E.01612
G1 X117.45 Y100.662 E.00968
G1 X117.957 Y100.601 E.0152
G1 X118.43 Y100.381 E.01556
G1 X118.84 Y99.988 E.0169
G1 X119.091 Y99.437 E.01803
G1 X119.156 Y99.046 E.0118
G1 X119.088 Y98.559 E.01466
G1 X146.655 Y98.561 E.82115
G1 X146.605 Y98.804 E.00738
G1 X146.632 Y99.362 E.01665
G1 X146.847 Y99.885 E.01685
G1 X147.09 Y100.194 E.01172
G1 X147.291 Y100.345 E.00747
G1 X147.788 Y100.599 E.01661
G1 X148.299 Y100.662 E.01536
G1 X148.663 Y100.595 E.011
G1 X149.182 Y100.38 E.01674
G1 X149.573 Y100.01 E.01602
G1 X149.782 Y99.634 E.01283
G1 X149.905 Y99.082 E.01686
G1 X149.879 Y98.722 E.01074
G1 X149.827 Y98.562 E.00501
G1 X177.936 Y98.564 E.83726
G1 X177.938 Y104.656 E.18147
G1 X177.383 Y104.597 E.01663
G1 X176.838 Y104.729 E.01669
G1 X176.556 Y104.886 E.00961
G1 X176.179 Y105.242 E.01544
G1 X175.907 Y105.778 E.01791
G1 X175.852 Y106.059 E.00852
G1 X175.866 Y106.557 E.01485
G1 X176.057 Y107.076 E.01646
G1 X176.314 Y107.382 E.0119
G1 X176.626 Y107.165 F21000
G1 F3000
G1 X176.674 Y107.224 E.00227
G1 X176.865 Y107.365 E.00706
G1 X177.274 Y107.512 E.01295
G1 X177.696 Y107.516 E.01258
G1 X178.101 Y107.366 E.01287
G1 X178.323 Y107.208 E.00811
G1 X178.313 Y122.011 E.44094
G1 X178.328 Y122.808 E.02373
G1 X178.051 Y122.6 E.01032
G1 X177.822 Y122.512 E.0073
G1 X177.381 Y122.474 E.01319
G1 X176.962 Y122.585 E.01291
G1 X176.603 Y122.833 E.01299
G1 X176.47 Y122.987 E.00606
G1 X176.251 Y123.441 E.01501
G1 X176.227 Y123.941 E.01494
G1 X176.384 Y124.389 E.01413
G1 X176.757 Y124.801 E.01655
G1 X177.087 Y124.964 E.01096
G1 X177.517 Y125.031 E.01297
G1 X177.764 Y124.995 E.00742
G1 X178.102 Y124.866 E.01079
G1 X178.325 Y124.706 E.00817
G1 X178.313 Y131.813 E.21168
G1 X149.196 Y131.823 E.86729
G1 X149.303 Y131.708 E.00467
G1 X149.439 Y131.451 E.00866
G1 X149.497 Y131.198 E.00774
G1 X149.523 Y130.854 E.01027
G1 X149.402 Y130.434 E.01301
G1 X149.205 Y130.136 E.01065
G1 X148.892 Y129.884 E.01198
G1 X148.445 Y129.727 E.01409
G1 X147.957 Y129.749 E.01455
G1 X147.485 Y129.966 E.01548
G1 X147.146 Y130.338 E.01497
G1 X146.988 Y130.81 E.01484
G1 X146.98 Y131.098 E.00859
G1 X147.061 Y131.451 E.01079
G1 X147.198 Y131.708 E.00866
G1 X147.309 Y131.828 E.00487
G1 X146.5 Y131.813 E.02409
G1 X118.98 Y131.817 E.81973
G1 X118.467 Y131.8 E.01528
G1 X118.689 Y131.451 E.01232
G1 X118.771 Y131.097 E.01082
G1 X118.773 Y130.855 E.00722
G1 X118.724 Y130.616 E.00726
G1 X118.524 Y130.227 E.01304
G1 X118.172 Y129.903 E.01424
G1 X117.72 Y129.731 E.01439
G1 X117.237 Y129.741 E.0144
G1 X116.763 Y129.949 E.01542
G1 X116.46 Y130.248 E.01266
G1 X116.267 Y130.651 E.01331
G1 X116.229 Y130.884 E.00705
G1 X116.247 Y131.24 E.0106
G1 X116.341 Y131.524 E.00892
G1 X116.53 Y131.808 E.01016
G1 X116.501 Y131.817 E.00092
G1 X88.489 Y131.813 E.83436
G1 X87.691 Y131.828 E.02378
G1 X87.802 Y131.708 E.00487
G1 X87.939 Y131.451 E.00866
G1 X87.996 Y131.204 E.00755
G1 X88.023 Y130.855 E.01044
G1 X87.902 Y130.434 E.01303
G1 X87.705 Y130.136 E.01065
G1 X87.392 Y129.884 E.01198
G1 X86.922 Y129.725 E.01477
G1 X86.444 Y129.753 E.01426
G1 X85.986 Y129.966 E.01504
G1 X85.652 Y130.328 E.01468
G1 X85.489 Y130.808 E.01511
G1 X85.48 Y131.098 E.00864
G1 X85.561 Y131.451 E.01079
G1 X85.698 Y131.708 E.00866
G1 X85.804 Y131.823 E.00467
G1 X56.687 Y131.813 E.8673
G1 X56.687 Y98.187 E1.0016
G1 X85.797 Y98.177 E.86709
G1 X85.626 Y98.399 E.00835
G1 X85.489 Y98.752 E.01128
G1 X85.495 Y99.233 E.01434
G1 X85.555 Y99.466 E.00714
G1 X85.726 Y99.781 E.01067
G1 X86.066 Y100.09 E.01368
G1 X86.546 Y100.267 E.01525
G1 X86.98 Y100.262 E.01292
G1 X87.416 Y100.1 E.01388
G1 X87.786 Y99.764 E.01487
G1 X87.991 Y99.298 E.01515
G1 X88.03 Y99.064 E.00708
G1 X88.018 Y98.822 E.00723
G1 X87.874 Y98.399 E.01331
G1 X87.697 Y98.172 E.00857
G1 X88.5 Y98.187 E.02392
G1 X116.525 Y98.182 E.83478
G1 X116.279 Y98.621 E.01499
G1 X116.231 Y98.869 E.00754
G1 X116.245 Y99.233 E.01085
G1 X116.305 Y99.466 E.00714
G1 X116.476 Y99.781 E.01067
G1 X116.816 Y100.09 E.01368
G1 X117.296 Y100.267 E.01525
G1 X117.73 Y100.262 E.01292
G1 X118.166 Y100.1 E.01388
G1 X118.536 Y99.764 E.01487
G1 X118.741 Y99.298 E.01515
G1 X118.78 Y99.064 E.00708
G1 X118.768 Y98.822 E.00723
G1 X118.624 Y98.399 E.01331
G1 X118.449 Y98.174 E.00849
G1 X119.5 Y98.187 E.0313
G1 X145.56 Y98.187 E.77623
G1 X147.303 Y98.172 E.05193
G1 X147.126 Y98.399 E.00858
G1 X146.99 Y98.748 E.01117
G1 X146.993 Y99.254 E.01506
G1 X147.15 Y99.661 E.013
G1 X147.403 Y99.968 E.01183
G1 X147.878 Y100.231 E.01619
G1 X148.363 Y100.283 E.01451
G1 X148.845 Y100.13 E.01506
G1 X149.047 Y100.005 E.00709
G1 X149.336 Y99.683 E.01289
G1 X149.502 Y99.279 E.01301
G1 X149.515 Y98.821 E.01365
G1 X149.392 Y98.447 E.01171
G1 X149.203 Y98.177 E.00983
G1 X178.313 Y98.187 E.86709
G1 X178.322 Y105.301 E.21191
G1 X178.051 Y105.1 E.01006
G1 X177.623 Y104.975 E.01328
G1 X177.192 Y105.005 E.01286
G1 X176.802 Y105.172 E.01266
G1 X176.491 Y105.454 E.0125
G1 X176.262 Y105.906 E.01509
G1 X176.219 Y106.374 E.014
G1 X176.346 Y106.82 E.01381
G1 X176.601 Y107.134 E.01203
G1 E-.68 F3600
;WIPE_START
G1 F3000
G1 X176.674 Y107.224 E-.01396
G1 X176.865 Y107.365 E-.02845
G1 X177.274 Y107.512 E-.05218
G1 X177.486 Y107.514 E-.02541
;WIPE_END
G1 X170.254 Y105.074 Z.6 F21000
G1 X148.66 Y97.788 Z.6
G1 Z.2
G1 E.8 F2700
;TYPE:Outer wall
;WIDTH:0.441645
G1 F3000
G1 X149.252 Y97.801 E.01864
;WIDTH:0.419999
G1 X178.69 Y97.81 E.87686
G1 X178.692 Y104.673 E.20441
G1 X178.716 Y106.003 E.03964
;WIDTH:0.433825
G1 X178.71 Y106.662 E.02035
;WIDTH:0.43838
G1 X178.7 Y107.2 E.01682
;WIDTH:0.419999
G1 X178.69 Y122.004 E.44094
G1 X178.723 Y123.637 E.04867
;WIDTH:0.429331
G1 X178.692 Y125 E.04159
;WIDTH:0.419999
G1 X178.69 Y132.19 E.21418
G1 X150.703 Y132.19 E.83364
G1 X148.99 Y132.203 E.05102
G1 X148.268 Y132.226 E.02153
;WIDTH:0.422013
G1 X147.138 Y132.202 E.03383
;WIDTH:0.419999
G1 X118.6 Y132.194 E.85005
;WIDTH:0.420105
G1 X118.008 Y132.215 E.01766
;WIDTH:0.430157
G1 X117.169 Y132.218 E.02565
G1 X116.501 Y132.194 E.02046
;WIDTH:0.419999
G1 X88.496 Y132.19 E.83415
G1 X87.252 Y132.213 E.03708
;WIDTH:0.427924
G1 X86.503 Y132.223 E.02276
G1 X86.003 Y132.202 E.01523
;WIDTH:0.419999
G1 X56.31 Y132.19 E.88445
G1 X56.31 Y97.81 E1.02406
G1 X84.773 Y97.81 E.8478
G1 X86.64 Y97.772 E.05564
;WIDTH:0.419113
G1 X87.186 Y97.784 E.01621
;WIDTH:0.419999
G1 X88.5 Y97.81 E.03915
G1 X116.235 Y97.806 E.82613
G1 X116.845 Y97.791 E.01818
;WIDTH:0.422035
G1 X117.489 Y97.763 E.0193
;WIDTH:0.437751
G1 X117.997 Y97.8 E.01588
G1 X118.504 Y97.797 E.01583
;WIDTH:0.419999
G1 X119.497 Y97.81 E.02959
G1 X146.504 Y97.81 E.80443
G1 X148.127 Y97.776 E.04835
;WIDTH:0.441645
G1 X148.62 Y97.787 E.01555
G1 E-.68 F3600
;WIPE_START
G1 F3000
G1 X149.252 Y97.801 E-.07584
G1 X149.62 Y97.801 E-.04416
;WIPE_END
G1 X156.859 Y100.221 Z.6 F21000
G1 X176.918 Y106.928 Z.6
G1 Z.2
G1 E.8 F2700
;WIDTH:0.419999
G1 F3000
G1 X176.679 Y106.638 E.01117
G1 X176.595 Y106.334 E.0094
G1 X176.626 Y106.014 E.00957
G1 X176.84 Y105.626 E.01319
G1 X177.086 Y105.442 E.00917
G1 X177.379 Y105.351 E.00914
G1 X177.688 Y105.365 E.00919
G1 X177.983 Y105.495 E.00963
G1 X178.282 Y105.83 E.01337
;WIDTH:0.419863
G1 X178.35 Y106.125 E.00902
;WIDTH:0.43838
G1 X178.32 Y106.608 E.01511
G1 X178.044 Y106.958 E.01393
;WIDTH:0.419999
G1 X177.606 Y107.15 E.01424
G1 X177.241 Y107.12 E.01091
G1 X176.956 Y106.974 E.00955
G1 X176.943 Y106.958 E.00059
G1 E-.68 F3600
;WIPE_START
G1 F3000
G1 X176.679 Y106.638 E-.04981
G1 X176.595 Y106.334 E-.03787
G1 X176.621 Y106.066 E-.03232
;WIPE_END
G1 X176.864 Y113.694 Z.6 F21000
G1 X177.212 Y124.605 Z.6
G1 Z.2
G1 E.8 F2700
G1 F3000
G1 X176.956 Y124.474 E.00857
G1 X176.679 Y124.138 E.01296
G1 X176.595 Y123.834 E.0094
G1 X176.626 Y123.514 E.00957
G1 X176.84 Y123.126 E.01319
G1 X177.086 Y122.942 E.00917
G1 X177.379 Y122.851 E.00914
G1 X177.688 Y122.865 E.00919
G1 X177.983 Y122.995 E.00963
;WIDTH:0.420376
G1 X178.282 Y123.33 E.01339
G1 X178.351 Y123.625 E.00903
;WIDTH:0.439114
G1 X178.321 Y124.105 E.01505
G1 X178.045 Y124.458 E.01402
;WIDTH:0.419999
G1 X177.629 Y124.643 E.01356
G1 X177.248 Y124.62 E.01136
G1 E-.68 F3600
;WIPE_START
G1 F3000
G1 X176.956 Y124.474 E-.03925
G1 X176.679 Y124.138 E-.0522
G1 X176.616 Y123.909 E-.02856
;WIPE_END
G1 X169.169 Y125.583 Z.6 F21000
G1 X147.546 Y130.446 Z.6
G1 Z.2
G1 E.8 F2700
G1 F3000
G1 X147.718 Y130.267 E.00737
G1 X148.128 Y130.1 E.01319
G1 X148.434 Y130.11 E.00913
G1 X148.69 Y130.203 E.0081
G1 X148.953 Y130.424 E.01022
G1 X149.105 Y130.692 E.00918
G1 X149.153 Y131.011 E.00961
G1 X149.026 Y131.451 E.01364
G1 X148.692 Y131.768 E.0137
;WIDTH:0.419876
G1 X148.289 Y131.856 E.0123
;WIDTH:0.424014
G1 X147.891 Y131.813 E.01204
G1 X147.717 Y131.714 E.00602
;WIDTH:0.419999
G1 X147.429 Y131.366 E.01346
G1 X147.35 Y130.917 E.01358
G1 X147.489 Y130.505 E.01297
G1 X147.518 Y130.474 E.00125
G1 E-.68 F3600
;WIPE_START
G1 F3000
G1 X147.718 Y130.267 E-.03451
G1 X148.128 Y130.1 E-.05315
G1 X148.397 Y130.109 E-.03234
;WIPE_END
G1 X140.776 Y130.527 Z.6 F21000
G1 X117.236 Y131.818 Z.6
G1 Z.2
G1 E.8 F2700
;WIDTH:0.425376
G1 F3000
G1 X117.112 Y131.8 E.00379
G1 X116.83 Y131.579 E.01083
;WIDTH:0.419999
G1 X116.624 Y131.221 E.01231
G1 X116.618 Y130.787 E.01291
G1 X116.744 Y130.497 E.00941
G1 X116.968 Y130.267 E.00957
G1 X117.378 Y130.1 E.01319
G1 X117.638 Y130.1 E.00776
G1 X117.971 Y130.223 E.01055
G1 X118.203 Y130.424 E.00914
G1 X118.355 Y130.693 E.00919
G1 X118.403 Y131.012 E.00963
G1 X118.276 Y131.452 E.01363
;WIDTH:0.420105
G1 X117.942 Y131.768 E.01372
;WIDTH:0.421556
G1 X117.518 Y131.859 E.01295
;WIDTH:0.425376
G1 X117.276 Y131.824 E.0074
G1 E-.68 F3600
;WIPE_START
G1 F3000
G1 X117.112 Y131.8 E-.01984
G1 X116.83 Y131.579 E-.04303
G1 X116.624 Y131.221 E-.04959
G1 X116.623 Y131.158 E-.00753
;WIPE_END
G1 X108.992 Y131 Z.6 F21000
G1 X87.528 Y130.557 Z.6
G1 Z.2
G1 E.8 F2700
;WIDTH:0.419999
G1 F3000
G1 X87.605 Y130.693 E.00464
G1 X87.653 Y131.012 E.00963
G1 X87.526 Y131.452 E.01363
G1 X87.192 Y131.768 E.01371
;WIDTH:0.419652
G1 X86.789 Y131.856 E.01228
;WIDTH:0.426255
G1 X86.39 Y131.814 E.01212
G1 X86.217 Y131.714 E.00606
;WIDTH:0.419999
G1 X85.929 Y131.366 E.01346
G1 X85.85 Y130.916 E.0136
G1 X85.994 Y130.497 E.0132
G1 X86.218 Y130.267 E.00956
G1 X86.628 Y130.1 E.01319
G1 X86.934 Y130.11 E.00913
G1 X87.221 Y130.223 E.00917
G1 X87.453 Y130.424 E.00914
G1 X87.508 Y130.522 E.00335
G1 E-.68 F3600
;WIPE_START
G1 F3000
G1 X87.605 Y130.693 E-.0235
G1 X87.653 Y131.012 E-.03878
G1 X87.526 Y131.452 E-.05491
G1 X87.509 Y131.468 E-.00281
;WIPE_END
G1 X87.152 Y123.844 Z.6 F21000
G1 X86.012 Y99.525 Z.6
G1 Z.2
G1 E.8 F2700
G1 F3000
G1 X86.001 Y99.514 E.00047
G1 X85.872 Y99.219 E.00958
G1 X85.874 Y98.772 E.01331
G1 X86.017 Y98.487 E.00952
G1 X86.366 Y98.202 E.01343
;WIDTH:0.419567
G1 X86.637 Y98.145 E.00821
;WIDTH:0.417851
G1 X86.906 Y98.149 E.00797
;WIDTH:0.419113
G1 X87.134 Y98.202 E.00695
;WIDTH:0.419999
G1 X87.483 Y98.487 E.01342
G1 X87.642 Y98.839 E.01152
G1 X87.64 Y99.16 E.00955
G1 X87.461 Y99.565 E.01319
G1 X87.232 Y99.77 E.00917
G1 X86.948 Y99.887 E.00915
G1 X86.628 Y99.898 E.00955
G1 X86.223 Y99.739 E.01296
G1 X86.04 Y99.554 E.00775
G1 E-.68 F3600
;WIPE_START
G1 F3000
G1 X86.001 Y99.514 E-.00668
G1 X85.872 Y99.219 E-.03861
G1 X85.874 Y98.772 E-.05363
G1 X85.953 Y98.615 E-.02108
;WIPE_END
G1 X93.585 Y98.688 Z.6 F21000
G1 X116.623 Y98.908 Z.6
G1 Z.2
G1 E.8 F2700
G1 F3000
G1 X116.624 Y98.772 E.00404
G1 X116.783 Y98.472 E.01013
;WIDTH:0.420927
G1 X117.116 Y98.201 E.01282
;WIDTH:0.422035
G1 X117.497 Y98.142 E.01154
;WIDTH:0.437751
G1 X117.915 Y98.202 E.01317
G1 X118.279 Y98.55 E.0157
;WIDTH:0.419999
G1 X118.392 Y98.839 E.00924
G1 X118.39 Y99.16 E.00955
G1 X118.211 Y99.565 E.01319
G1 X117.982 Y99.77 E.00917
G1 X117.698 Y99.887 E.00915
G1 X117.378 Y99.898 E.00955
G1 X116.973 Y99.739 E.01296
G1 X116.751 Y99.514 E.00941
G1 X116.622 Y99.219 E.00959
G1 X116.623 Y98.948 E.00808
G1 E-.68 F3600
;WIPE_START
G1 F3000
G1 X116.624 Y98.772 E-.02108
G1 X116.783 Y98.472 E-.0408
G1 X117.116 Y98.201 E-.05151
G1 X117.171 Y98.193 E-.00661
;WIPE_END
G1 X124.799 Y98.45 Z.6 F21000
