;FLAVOR:Marlin
;TIME:4387
;Filament used: 1.93276m
;Layer height: 0.2
;MINX:127.3
;MINY:127.3
;MINZ:0.2
;MAXX:172.7
;MAXY:172.7
;MAXZ:48.2
;Generated with Creality Slicer 4.8.2-191
M140 S50
M105
M190 S50
M104 S200
M105
M109 S200
M82 ;absolute extrusion mode

G28 ;Home

G92 E0 ;Reset Extruder
G1 Z2.0 F3000 ;Move Z Axis up
G1 X10.1 Y20 Z0.28 F5000.0 ;Move to start position
G1 X10.1 Y200.0 Z0.28 F1500.0 E15 ;Draw the first line
G1 X10.4 Y200.0 Z0.28 F5000.0 ;Move to side a little
G1 X10.4 Y20 Z0.28 F1500.0 E30 ;Draw the second line
G92 E0 ;Reset Extruder
G1 Z2.0 F3000 ;Move Z Axis up

G92 E0
G92 E0
G1 F2700 E-5
;LAYER_COUNT:241
;LAYER:0
M107
G0 F6000 X131.006 Y133.035 Z0.2
;TYPE:SKIRT
G1 F2700 E0
G1 F1200 X133.131 Y130.911 E0.09993
G1 X133.61 Y130.446 E0.12213
G1 X134.31 Y129.822 E0.15332
G1 X135.061 Y129.26 E0.18452
G1 X135.857 Y128.764 E0.21572
G1 X136.692 Y128.338 E0.24689
G1 X137.561 Y127.984 E0.2781
G1 X138.456 Y127.705 E0.30928
G1 X139.67 Y127.456 E0.3505
G1 X139.901 Y127.422 E0.35827
G1 X140.834 Y127.325 E0.38947
G1 X141.375 Y127.306 E0.40747
G1 X141.932 Y127.3 E0.426
G1 X144.933 Y127.3 E0.52581
G1 X146.939 Y127.327 E0.59254
G1 X149.492 Y127.329 E0.67745
G1 X149.841 Y127.326 E0.68906
G1 X152.602 Y127.338 E0.78089
G1 X154.369 Y127.303 E0.83967
G1 X154.74 Y127.3 E0.85201
G1 X158.124 Y127.301 E0.96457
G1 X158.83 Y127.312 E0.98805
G1 X159.767 Y127.367 E1.01927
G1 X160.695 Y127.501 E1.05045
G1 X161.608 Y127.714 E1.08164
G1 X162.5 Y128.004 E1.11283
G1 X163.269 Y128.323 E1.14052
G1 X163.347 Y128.359 E1.14338
G1 X164.181 Y128.788 E1.17457
G1 X164.975 Y129.287 E1.20576
G1 X165.724 Y129.851 E1.23695
G1 X166.4 Y130.456 E1.26712
G1 X166.965 Y131.006 E1.29335
G1 X169.072 Y133.114 E1.39248
G1 X169.543 Y133.598 E1.41494
G1 X170.168 Y134.298 E1.44615
G1 X170.731 Y135.048 E1.47734
G1 X171.228 Y135.843 E1.50853
G1 X171.656 Y136.678 E1.53974
G1 X172.011 Y137.546 E1.57093
G1 X172.29 Y138.441 E1.60211
G1 X172.538 Y139.636 E1.6427
G1 X172.573 Y139.869 E1.65054
G1 X172.673 Y140.802 E1.68175
G1 X172.694 Y141.375 E1.70082
G1 X172.7 Y141.932 E1.71934
G1 X172.699 Y145.14 E1.82604
G1 X172.68 Y146.524 E1.87208
G1 X172.692 Y148.823 E1.94855
G1 X172.686 Y151.183 E2.02704
G1 X172.674 Y151.972 E2.05328
G1 X172.693 Y153.202 E2.0942
G1 X172.687 Y153.408 E2.10105
G1 X172.7 Y154.755 E2.14586
G1 X172.699 Y161 E2.35357
G1 X172.689 Y161.729 E2.37782
G1 X172.636 Y162.665 E2.409
G1 X172.504 Y163.594 E2.44021
G1 X172.293 Y164.508 E2.47141
G1 X172.005 Y165.4 E2.50258
G1 X171.642 Y166.265 E2.53378
G1 X171.206 Y167.096 E2.56499
G1 X170.702 Y167.886 E2.59616
G1 X170.131 Y168.631 E2.62738
G1 X169.468 Y169.356 E2.66006
G1 X169.356 Y169.468 E2.66533
G1 X168.665 Y170.102 E2.69652
G1 X167.923 Y170.676 E2.72772
G1 X167.134 Y171.183 E2.75891
G1 X166.306 Y171.622 E2.79008
G1 X165.442 Y171.989 E2.8213
G1 X164.551 Y172.281 E2.85249
G1 X163.638 Y172.495 E2.88368
G1 X162.71 Y172.632 E2.91488
G1 X161.949 Y172.684 E2.94025
G1 X161.564 Y172.694 E2.95306
G1 X161.021 Y172.7 E2.97112
G1 X154.912 Y172.699 E3.17431
G1 X153.061 Y172.673 E3.23588
G1 X150.508 Y172.671 E3.32079
G1 X150.159 Y172.674 E3.3324
G1 X147.398 Y172.662 E3.42423
G1 X145.631 Y172.697 E3.48301
G1 X145.26 Y172.7 E3.49535
G1 X138.952 Y172.699 E3.70516
G1 X138.248 Y172.688 E3.72858
G1 X137.312 Y172.633 E3.75976
G1 X136.384 Y172.499 E3.79095
G1 X135.47 Y172.286 E3.82216
G1 X134.578 Y171.996 E3.85336
G1 X133.714 Y171.632 E3.88454
G1 X132.884 Y171.195 E3.91574
G1 X132.095 Y170.689 E3.94691
G1 X131.351 Y170.117 E3.97813
G1 X130.607 Y169.432 E4.01176
G1 X130.497 Y169.321 E4.01696
G1 X129.866 Y168.627 E4.04816
G1 X129.296 Y167.882 E4.07936
G1 X128.792 Y167.091 E4.11055
G1 X128.356 Y166.261 E4.14174
G1 X127.994 Y165.396 E4.17292
G1 X127.706 Y164.503 E4.20413
G1 X127.495 Y163.589 E4.23533
G1 X127.363 Y162.661 E4.26651
G1 X127.316 Y161.949 E4.29024
G1 X127.306 Y161.552 E4.30345
G1 X127.3 Y160.978 E4.32254
G1 X127.301 Y154.86 E4.52603
G1 X127.32 Y153.476 E4.57206
G1 X127.308 Y151.177 E4.64853
G1 X127.314 Y148.836 E4.72639
G1 X127.328 Y147.941 E4.75616
G1 X127.32 Y146.574 E4.80163
G1 X127.3 Y145.012 E4.85359
G1 X127.301 Y141.876 E4.95789
G1 X127.312 Y141.167 E4.98147
G1 X127.367 Y140.231 E5.01266
G1 X127.501 Y139.303 E5.04384
G1 X127.714 Y138.389 E5.07506
G1 X128.003 Y137.497 E5.10625
G1 X128.472 Y136.419 E5.14535
G1 X128.512 Y136.339 E5.14832
G1 X128.967 Y135.518 E5.17954
G1 X129.49 Y134.74 E5.21072
G1 X130.078 Y134.009 E5.24192
G1 X130.467 Y133.587 E5.26101
G1 X131.006 Y133.035 E5.28667
G0 F6000 X131.289 Y133.318
G1 F1200 X133.41 Y131.198 E5.38641
G1 X133.889 Y130.733 E5.40862
G1 X134.576 Y130.121 E5.43922
G1 X135.315 Y129.571 E5.46986
G1 X136.098 Y129.088 E5.50046
G1 X136.92 Y128.673 E5.53108
G1 X137.775 Y128.332 E5.5617
G1 X138.657 Y128.067 E5.59233
G1 X139.728 Y127.852 E5.62866
G1 X139.959 Y127.818 E5.63643
G1 X140.875 Y127.724 E5.66706
G1 X141.379 Y127.706 E5.68383
G1 X141.932 Y127.7 E5.70222
G1 X144.933 Y127.7 E5.80204
G1 X146.933 Y127.727 E5.86856
G1 X149.495 Y127.729 E5.95378
G1 X149.839 Y127.726 E5.96522
G1 X152.609 Y127.738 E6.05735
G1 X154.372 Y127.703 E6.116
G1 X154.743 Y127.7 E6.12834
G1 X158.118 Y127.701 E6.24059
G1 X158.824 Y127.712 E6.26408
G1 X159.743 Y127.767 E6.2947
G1 X160.654 Y127.9 E6.32532
G1 X161.55 Y128.113 E6.35595
G1 X162.424 Y128.402 E6.38657
G1 X163.101 Y128.687 E6.411
G1 X163.179 Y128.723 E6.41386
G1 X163.997 Y129.144 E6.44445
G1 X164.776 Y129.636 E6.4751
G1 X165.509 Y130.192 E6.5057
G1 X166.122 Y130.743 E6.53311
G1 X166.682 Y131.289 E6.55913
G1 X168.786 Y133.393 E6.65809
G1 X169.257 Y133.877 E6.68055
G1 X169.869 Y134.564 E6.71116
G1 X170.42 Y135.302 E6.74179
G1 X170.905 Y136.085 E6.77242
G1 X171.32 Y136.907 E6.80305
G1 X171.662 Y137.761 E6.83365
G1 X171.929 Y138.642 E6.86426
G1 X172.142 Y139.695 E6.9
G1 X172.177 Y139.928 E6.90783
G1 X172.274 Y140.844 E6.93847
G1 X172.294 Y141.379 E6.95628
G1 X172.3 Y141.932 E6.97467
G1 X172.299 Y145.135 E7.0812
G1 X172.28 Y146.521 E7.12731
G1 X172.292 Y148.822 E7.20384
G1 X172.286 Y151.177 E7.28217
G1 X172.274 Y151.973 E7.30864
G1 X172.293 Y153.209 E7.34976
G1 X172.287 Y153.411 E7.35648
G1 X172.3 Y154.759 E7.40132
G1 X172.299 Y160.994 E7.60869
G1 X172.289 Y161.723 E7.63294
G1 X172.236 Y162.643 E7.66359
G1 X172.104 Y163.554 E7.69421
G1 X171.894 Y164.45 E7.72482
G1 X171.606 Y165.324 E7.75542
G1 X171.243 Y166.171 E7.78607
G1 X170.809 Y166.982 E7.81667
G1 X170.305 Y167.753 E7.8473
G1 X169.737 Y168.478 E7.87794
G1 X169.185 Y169.073 E7.90493
G1 X169.073 Y169.185 E7.9102
G1 X168.395 Y169.807 E7.9408
G1 X167.665 Y170.368 E7.97142
G1 X166.889 Y170.864 E8.00205
G1 X166.073 Y171.29 E8.03267
G1 X165.223 Y171.644 E8.0633
G1 X164.345 Y171.922 E8.09393
G1 X163.447 Y172.124 E8.12454
G1 X162.534 Y172.247 E8.15518
G1 X161.936 Y172.284 E8.17511
G1 X161.56 Y172.294 E8.18762
G1 X161.021 Y172.3 E8.20555
G1 X154.918 Y172.299 E8.40853
G1 X153.067 Y172.273 E8.4701
G1 X150.505 Y172.271 E8.55532
G1 X150.161 Y172.274 E8.56676
G1 X147.391 Y172.262 E8.65889
G1 X145.628 Y172.297 E8.71754
G1 X145.257 Y172.3 E8.72988
G1 X138.958 Y172.299 E8.93939
G1 X138.254 Y172.288 E8.9628
G1 X137.335 Y172.233 E8.99342
G1 X136.424 Y172.099 E9.02405
G1 X135.529 Y171.887 E9.05464
G1 X134.655 Y171.598 E9.08526
G1 X133.809 Y171.234 E9.11589
G1 X132.998 Y170.798 E9.14652
G1 X132.228 Y170.293 E9.17714
G1 X131.505 Y169.723 E9.20776
G1 X130.891 Y169.15 E9.2357
G1 X130.781 Y169.039 E9.2409
G1 X130.162 Y168.358 E9.2715
G1 X129.604 Y167.625 E9.30214
G1 X129.112 Y166.847 E9.33276
G1 X128.69 Y166.029 E9.36337
G1 X128.34 Y165.178 E9.39398
G1 X128.065 Y164.299 E9.42461
G1 X127.868 Y163.4 E9.45522
G1 X127.749 Y162.487 E9.48585
G1 X127.716 Y161.936 E9.50421
G1 X127.706 Y161.547 E9.51715
G1 X127.7 Y160.978 E9.53607
G1 X127.701 Y154.865 E9.73939
G1 X127.72 Y153.479 E9.7855
G1 X127.708 Y151.178 E9.86203
G1 X127.714 Y148.843 E9.93969
G1 X127.728 Y147.945 E9.96956
G1 X127.72 Y146.572 E10.01523
G1 X127.7 Y145.012 E10.06712
G1 X127.701 Y141.883 E10.17119
G1 X127.712 Y141.174 E10.19477
G1 X127.767 Y140.255 E10.2254
G1 X127.9 Y139.344 E10.25602
G1 X128.113 Y138.448 E10.28665
G1 X128.402 Y137.574 E10.31727
G1 X128.83 Y136.598 E10.35271
G1 X128.87 Y136.518 E10.35569
G1 X129.317 Y135.713 E10.38631
G1 X129.832 Y134.95 E10.41693
G1 X130.412 Y134.234 E10.44758
G1 X130.754 Y133.866 E10.46429
G1 X131.289 Y133.318 E10.48976
G0 F6000 X131.572 Y133.601
G1 F1200 X133.688 Y131.485 E10.58929
G1 X134.167 Y131.02 E10.61149
G1 X134.842 Y130.421 E10.64151
G1 X135.568 Y129.883 E10.67156
G1 X136.338 Y129.412 E10.70158
G1 X137.147 Y129.01 E10.73163
G1 X137.989 Y128.682 E10.76168
G1 X138.856 Y128.429 E10.79172
G1 X139.787 Y128.248 E10.82327
G1 X140.018 Y128.214 E10.83103
G1 X140.916 Y128.122 E10.86106
G1 X141.384 Y128.106 E10.87663
G1 X141.932 Y128.1 E10.89486
G1 X144.933 Y128.1 E10.99467
G1 X146.928 Y128.127 E11.06103
G1 X149.499 Y128.129 E11.14655
G1 X149.838 Y128.126 E11.15782
G1 X152.615 Y128.138 E11.25019
G1 X154.376 Y128.103 E11.30877
G1 X154.747 Y128.1 E11.32111
G1 X158.112 Y128.101 E11.43303
G1 X158.818 Y128.112 E11.45651
G1 X159.719 Y128.166 E11.48654
G1 X160.613 Y128.3 E11.5166
G1 X161.49 Y128.512 E11.54661
G1 X162.346 Y128.801 E11.57666
G1 X162.933 Y129.05 E11.59787
G1 X163.011 Y129.086 E11.60073
G1 X163.814 Y129.5 E11.63077
G1 X164.576 Y129.984 E11.6608
G1 X165.293 Y130.533 E11.69083
G1 X165.843 Y131.03 E11.71549
G1 X166.399 Y131.572 E11.74131
G1 X168.499 Y133.672 E11.84009
G1 X168.97 Y134.156 E11.86255
G1 X169.571 Y134.831 E11.89261
G1 X170.109 Y135.556 E11.92264
G1 X170.581 Y136.326 E11.95268
G1 X170.984 Y137.134 E11.98271
G1 X171.313 Y137.975 E12.01275
G1 X171.567 Y138.842 E12.0428
G1 X171.747 Y139.755 E12.07375
G1 X171.782 Y139.988 E12.08158
G1 X171.876 Y140.886 E12.11162
G1 X171.894 Y141.384 E12.12819
G1 X171.9 Y141.932 E12.14642
G1 X171.899 Y145.129 E12.25275
G1 X171.88 Y146.518 E12.29895
G1 X171.892 Y148.821 E12.37555
G1 X171.886 Y151.171 E12.45371
G1 X171.873 Y151.973 E12.48039
G1 X171.893 Y153.215 E12.52171
G1 X171.887 Y153.414 E12.52833
G1 X171.9 Y154.763 E12.5732
G1 X171.899 Y160.989 E12.78028
G1 X171.889 Y161.718 E12.80452
G1 X171.837 Y162.619 E12.83454
G1 X171.705 Y163.513 E12.8646
G1 X171.494 Y164.391 E12.89463
G1 X171.207 Y165.247 E12.92466
G1 X170.845 Y166.075 E12.95472
G1 X170.412 Y166.867 E12.98474
G1 X169.91 Y167.618 E13.01478
G1 X169.343 Y168.321 E13.04482
G1 X168.902 Y168.79 E13.06623
G1 X168.79 Y168.902 E13.0715
G1 X168.124 Y169.512 E13.10154
G1 X167.407 Y170.061 E13.13158
G1 X166.643 Y170.543 E13.16162
G1 X165.84 Y170.957 E13.19167
G1 X165.004 Y171.297 E13.22169
G1 X164.141 Y171.563 E13.25172
G1 X163.258 Y171.751 E13.28175
G1 X161.922 Y171.884 E13.32641
G1 X161.555 Y171.894 E13.33862
G1 X161.021 Y171.9 E13.35638
G1 X154.923 Y171.899 E13.5592
G1 X153.072 Y171.873 E13.62077
G1 X150.501 Y171.871 E13.70628
G1 X150.162 Y171.874 E13.71756
G1 X147.385 Y171.862 E13.80992
G1 X145.624 Y171.897 E13.8685
G1 X145.253 Y171.9 E13.88084
G1 X138.965 Y171.899 E14.08998
G1 X138.261 Y171.888 E14.1134
G1 X137.359 Y171.834 E14.14346
G1 X136.466 Y171.7 E14.17349
G1 X135.588 Y171.488 E14.20353
G1 X134.732 Y171.199 E14.23358
G1 X133.906 Y170.836 E14.26359
G1 X133.114 Y170.401 E14.29364
G1 X132.365 Y169.897 E14.32367
G1 X131.662 Y169.329 E14.35373
G1 X131.175 Y168.869 E14.37601
G1 X131.065 Y168.758 E14.38121
G1 X130.458 Y168.089 E14.41125
G1 X129.913 Y167.369 E14.44129
G1 X129.434 Y166.603 E14.47134
G1 X129.024 Y165.799 E14.50135
G1 X128.687 Y164.961 E14.5314
G1 X128.426 Y164.096 E14.56145
G1 X128.242 Y163.212 E14.59148
G1 X128.116 Y161.922 E14.63459
G1 X128.106 Y161.543 E14.6472
G1 X128.1 Y160.978 E14.66599
G1 X128.101 Y154.871 E14.86911
G1 X128.12 Y153.482 E14.91531
G1 X128.108 Y151.179 E14.99191
G1 X128.114 Y148.849 E15.06941
G1 X128.128 Y147.949 E15.09935
G1 X128.12 Y146.569 E15.14525
G1 X128.1 Y145.012 E15.19704
G1 X128.101 Y141.889 E15.30091
G1 X128.112 Y141.18 E15.32449
G1 X128.166 Y140.278 E15.35455
G1 X128.3 Y139.385 E15.38458
G1 X128.512 Y138.507 E15.41462
G1 X128.8 Y137.652 E15.44463
G1 X129.188 Y136.776 E15.4765
G1 X129.228 Y136.696 E15.47947
G1 X129.667 Y135.907 E15.5095
G1 X130.174 Y135.16 E15.53953
G1 X131.041 Y134.145 E15.58393
G1 X131.572 Y133.601 E15.60921
G0 F6000 X149.977 Y141.914
G1 F1200 X150.085 Y141.975 E15.61334
G1 X150.059 Y142.066 E15.61648
G1 X149.958 Y142.078 E15.61987
G1 X149.911 Y141.992 E15.62313
G1 X149.977 Y141.914 E15.62653
G0 F6000 X149.941 Y141.513
G1 F1200 X150.251 Y141.579 E15.63707
G1 X150.429 Y141.763 E15.64558
G1 X150.492 Y142 E15.65374
G1 X150.429 Y142.237 E15.6619
G1 X150.251 Y142.421 E15.67041
G1 X150.021 Y142.491 E15.67841
G1 X149.775 Y142.436 E15.68679
G1 X149.593 Y142.274 E15.69489
G1 X149.511 Y142.04 E15.70314
G1 X149.555 Y141.794 E15.71145
G1 X149.709 Y141.605 E15.71956
G1 X149.941 Y141.513 E15.72786
G0 F6000 X149.887 Y141.115
G1 F1200 X150.038 Y141.109 E15.73289
G1 X150.333 Y141.172 E15.74292
G1 X150.587 Y141.329 E15.75285
G1 X150.778 Y141.567 E15.763
G1 X150.88 Y141.853 E15.7731
G1 X150.88 Y142.147 E15.78288
G1 X150.778 Y142.433 E15.79298
G1 X150.587 Y142.671 E15.80313
G1 X150.333 Y142.828 E15.81306
G1 X150.038 Y142.891 E15.82309
G1 X149.739 Y142.853 E15.83312
G1 X149.47 Y142.717 E15.84315
G1 X149.261 Y142.499 E15.85319
G1 X149.136 Y142.218 E15.86342
G1 X149.111 Y141.925 E15.8732
G1 X149.19 Y141.628 E15.88342
G1 X149.356 Y141.383 E15.89326
G1 X149.6 Y141.203 E15.90335
G1 X149.887 Y141.115 E15.91333
G0 F6000 X149.837 Y140.717
G1 F1200 X150.055 Y140.708 E15.92059
G1 X150.485 Y140.801 E15.93522
G1 X150.856 Y141.031 E15.94974
G1 X151.128 Y141.369 E15.96417
G1 X151.277 Y141.788 E15.97896
G1 X151.277 Y142.212 E15.99306
G1 X151.128 Y142.631 E16.00786
G1 X150.856 Y142.969 E16.02229
G1 X150.485 Y143.199 E16.0368
G1 X150.055 Y143.292 E16.05144
G1 X149.623 Y143.237 E16.06592
G1 X149.228 Y143.037 E16.08065
G1 X148.93 Y142.727 E16.09495
G1 X148.747 Y142.319 E16.10982
G1 X148.711 Y141.886 E16.12427
G1 X148.822 Y141.467 E16.13869
G1 X149.066 Y141.105 E16.15321
G1 X149.42 Y140.844 E16.16784
G1 X149.837 Y140.717 E16.18234
G0 F6000 X149.506 Y140.379
G1 F1200 X149.789 Y140.318 E16.19196
G1 X150.072 Y140.306 E16.20139
G1 X150.354 Y140.342 E16.21084
G1 X150.631 Y140.427 E16.22048
G1 X150.885 Y140.555 E16.22994
G1 X151.121 Y140.73 E16.23971
G1 X151.314 Y140.931 E16.24898
G1 X151.481 Y141.178 E16.2589
G1 X151.598 Y141.436 E16.26832
G1 X151.671 Y141.717 E16.27797
G1 X151.696 Y142 E16.28742
G1 X151.671 Y142.283 E16.29687
G1 X151.598 Y142.564 E16.30653
G1 X151.481 Y142.822 E16.31595
G1 X151.314 Y143.069 E16.32587
G1 X151.121 Y143.27 E16.33514
G1 X150.887 Y143.444 E16.34483
G1 X150.631 Y143.573 E16.35437
G1 X150.354 Y143.658 E16.36401
G1 X150.072 Y143.694 E16.37346
G1 X149.789 Y143.682 E16.38288
G1 X149.506 Y143.621 E16.39251
G1 X149.232 Y143.511 E16.40233
G1 X148.995 Y143.365 E16.41159
G1 X148.777 Y143.173 E16.42125
G1 X148.596 Y142.948 E16.43086
G1 X148.457 Y142.701 E16.44028
G1 X148.358 Y142.42 E16.45019
G1 X148.311 Y142.147 E16.45941
G1 X148.311 Y141.853 E16.46918
G1 X148.358 Y141.58 E16.4784
G1 X148.457 Y141.299 E16.48831
G1 X148.596 Y141.052 E16.49773
G1 X148.777 Y140.827 E16.50734
G1 X148.995 Y140.635 E16.517
G1 X149.232 Y140.489 E16.52626
G1 X149.506 Y140.379 E16.53608
G0 F6000 X149.391 Y139.995
G1 F1200 X149.733 Y139.92 E16.54772
G1 X150.095 Y139.906 E16.55977
G1 X150.44 Y139.95 E16.57134
G1 X150.777 Y140.053 E16.58306
G1 X151.098 Y140.215 E16.59502
G1 X151.388 Y140.429 E16.60701
G1 X151.626 Y140.678 E16.61846
G1 X151.829 Y140.978 E16.63051
G1 X151.977 Y141.303 E16.64239
G1 X152.068 Y141.652 E16.65439
G1 X152.098 Y142 E16.666
G1 X152.068 Y142.348 E16.67762
G1 X151.977 Y142.697 E16.68962
G1 X151.829 Y143.022 E16.70149
G1 X151.626 Y143.322 E16.71354
G1 X151.388 Y143.571 E16.725
G1 X151.098 Y143.785 E16.73699
G1 X150.777 Y143.947 E16.74894
G1 X150.44 Y144.05 E16.76067
G1 X150.095 Y144.094 E16.77223
G1 X149.733 Y144.08 E16.78428
G1 X149.391 Y144.005 E16.79593
G1 X149.053 Y143.87 E16.80803
G1 X148.753 Y143.685 E16.81976
G1 X148.49 Y143.454 E16.8314
G1 X148.263 Y143.172 E16.84344
G1 X148.091 Y142.866 E16.85511
G1 X147.97 Y142.521 E16.86727
G1 X147.911 Y142.18 E16.87878
