;FLAVOR:Marlin
;TIME:591
;Filament used: 0.158488m
;Layer height: 0.2
;MINX:134.022
;MINY:134.018
;MINZ:0.2
;MAXX:165.987
;MAXY:165.986
;MAXZ:12.4
;Generated with Creality Slicer 4.8.2-191
M140 S50
M105
M190 S50
M104 S200
M105
M109 S200
M82 ;absolute extrusion mode

G28 ;Home

G92 E0 ;Reset Extruder
G1 Z2.0 F3000 ;Move Z Axis up
G1 X10.1 Y20 Z0.28 F5000.0 ;Move to start position
G1 X10.1 Y200.0 Z0.28 F1500.0 E15 ;Draw the first line
G1 X10.4 Y200.0 Z0.28 F5000.0 ;Move to side a little
G1 X10.4 Y20 Z0.28 F1500.0 E30 ;Draw the second line
G92 E0 ;Reset Extruder
G1 Z2.0 F3000 ;Move Z Axis up

G92 E0
G92 E0
G1 F2700 E-5
;LAYER_COUNT:62
;LAYER:0
M107
G0 F6000 X138.725 Y138.67 Z0.2
;TYPE:SKIRT
G1 F2700 E0
G1 F1200 X138.823 Y138.572 E0.00461
G1 X139.534 Y137.92 E0.0367
G1 X139.868 Y137.64 E0.05119
G1 X140.125 Y137.431 E0.06221
G1 X140.262 Y137.323 E0.06801
G1 X141.044 Y136.76 E0.10006
G1 X141.36 Y136.553 E0.11262
G1 X141.644 Y136.374 E0.12379
G1 X141.791 Y136.284 E0.12952
G1 X142.624 Y135.822 E0.1612
G1 X143.095 Y135.587 E0.17871
G1 X143.538 Y135.378 E0.195
G1 X143.628 Y135.338 E0.19828
G1 X144.382 Y135.036 E0.22529
G1 X144.75 Y134.904 E0.2383
G1 X145.098 Y134.786 E0.25052
G1 X145.266 Y134.732 E0.25639
G1 X146.188 Y134.479 E0.28819
G1 X146.662 Y134.371 E0.30436
G1 X147.064 Y134.287 E0.31802
G1 X148.055 Y134.135 E0.35136
G1 X148.477 Y134.09 E0.36548
G1 X148.833 Y134.058 E0.37737
G1 X148.982 Y134.047 E0.38234
G1 X149.926 Y134.018 E0.41375
G1 X150.42 Y134.024 E0.43018
G1 X150.801 Y134.035 E0.44286
G1 X150.929 Y134.041 E0.44712
G1 X151.844 Y134.122 E0.47767
G1 X152.233 Y134.173 E0.49072
G1 X152.56 Y134.221 E0.50171
G1 X152.733 Y134.249 E0.50754
G1 X153.687 Y134.447 E0.53995
G1 X154.147 Y134.564 E0.55573
G1 X154.568 Y134.68 E0.57026
G1 X154.669 Y134.71 E0.57376
G1 X155.487 Y134.989 E0.60251
G1 X155.921 Y135.156 E0.61798
G1 X156.252 Y135.289 E0.62984
G1 X156.394 Y135.349 E0.63497
G1 X157.259 Y135.76 E0.66682
G1 X157.618 Y135.95 E0.68033
G1 X157.91 Y136.11 E0.6914
G1 X158.07 Y136.201 E0.69753
G1 X158.9 Y136.724 E0.73016
G1 X159.249 Y136.966 E0.74428
G1 X159.504 Y137.148 E0.7547
G1 X159.633 Y137.243 E0.76003
G1 X160.384 Y137.848 E0.7921
G1 X160.713 Y138.138 E0.80669
G1 X160.992 Y138.393 E0.81926
G1 X161.082 Y138.478 E0.82338
G1 X161.736 Y139.151 E0.85459
G1 X162.068 Y139.523 E0.87118
G1 X162.318 Y139.813 E0.88391
G1 X162.402 Y139.914 E0.88828
G1 X162.963 Y140.649 E0.91903
G1 X163.197 Y140.984 E0.93263
G1 X163.362 Y141.227 E0.94239
G1 X163.453 Y141.365 E0.94789
G1 X163.961 Y142.216 E0.98086
G1 X164.171 Y142.607 E0.99562
G1 X164.368 Y142.993 E1.01003
G1 X164.426 Y143.112 E1.01443
G1 X164.777 Y143.909 E1.0434
G1 X164.962 Y144.38 E1.06023
G1 X165.128 Y144.834 E1.07631
G1 X165.164 Y144.939 E1.08
G1 X165.404 Y145.733 E1.10759
G1 X165.515 Y146.159 E1.12223
G1 X165.611 Y146.555 E1.13578
G1 X165.799 Y147.583 E1.17054
G1 X165.868 Y148.096 E1.18776
G1 X165.939 Y148.791 E1.21099
G1 X165.961 Y149.104 E1.22143
G1 X165.987 Y150.019 E1.25188
G1 X165.982 Y150.401 E1.26458
G1 X165.926 Y151.371 E1.2969
G1 X165.886 Y151.764 E1.31004
G1 X165.839 Y152.157 E1.3232
G1 X165.813 Y152.345 E1.32951
G1 X165.656 Y153.219 E1.35905
G1 X165.56 Y153.652 E1.3738
G1 X165.46 Y154.067 E1.388
G1 X165.424 Y154.204 E1.39271
G1 X165.171 Y155.031 E1.42147
G1 X165.036 Y155.418 E1.43511
G1 X164.906 Y155.773 E1.44768
G1 X164.842 Y155.938 E1.45357
G1 X164.456 Y156.817 E1.4855
G1 X164.238 Y157.26 E1.50192
G1 X164.046 Y157.632 E1.51584
G1 X163.554 Y158.471 E1.54819
G1 X163.313 Y158.843 E1.56293
G1 X163.111 Y159.144 E1.57499
G1 X163.015 Y159.282 E1.58058
G1 X162.455 Y160.019 E1.61137
G1 X162.184 Y160.346 E1.62549
G1 X161.921 Y160.651 E1.63889
G1 X161.838 Y160.744 E1.64303
G1 X161.194 Y161.407 E1.67378
G1 X160.817 Y161.764 E1.69105
G1 X160.535 Y162.022 E1.70376
G1 X160.458 Y162.09 E1.70717
G1 X159.745 Y162.669 E1.73772
G1 X159.393 Y162.931 E1.75232
G1 X159.03 Y163.191 E1.76717
G1 X158.171 Y163.736 E1.801
G1 X157.76 Y163.971 E1.81675
G1 X157.501 Y164.115 E1.82661
G1 X157.378 Y164.181 E1.83125
G1 X156.485 Y164.609 E1.86419
G1 X156.088 Y164.778 E1.87854
G1 X155.8 Y164.896 E1.88889
G1 X155.665 Y164.949 E1.89371
G1 X154.709 Y165.275 E1.92731
G1 X154.278 Y165.4 E1.94223
G1 X153.956 Y165.488 E1.95334
G1 X153.82 Y165.523 E1.95801
G1 X152.894 Y165.719 E1.98949
G1 X152.422 Y165.798 E2.0054
G1 X152.001 Y165.86 E2.01956
G1 X151.868 Y165.877 E2.02402
G1 X150.996 Y165.954 E2.05313
G1 X150.618 Y165.972 E2.06572
G1 X150.272 Y165.983 E2.07723
G1 X150.086 Y165.986 E2.08342
G1 X149.12 Y165.959 E2.11556
G1 X148.647 Y165.925 E2.13134
G1 X148.159 Y165.879 E2.14764
G1 X147.216 Y165.739 E2.17935
G1 X146.807 Y165.66 E2.1932
G1 X146.435 Y165.582 E2.20584
G1 X146.278 Y165.546 E2.2112
G1 X145.402 Y165.306 E2.24141
G1 X144.965 Y165.167 E2.25666
G1 X144.641 Y165.059 E2.26802
G1 X144.485 Y165.004 E2.27352
G1 X143.58 Y164.639 E2.30598
G1 X143.251 Y164.489 E2.31801
G1 X142.99 Y164.366 E2.3276
G1 X142.824 Y164.285 E2.33375
G1 X141.916 Y163.787 E2.36819
G1 X141.482 Y163.522 E2.3851
G1 X141.159 Y163.317 E2.39783
G1 X141.068 Y163.257 E2.40145
G1 X140.349 Y162.741 E2.43089
G1 X140.024 Y162.487 E2.44461
G1 X139.732 Y162.25 E2.45712
G1 X139.596 Y162.136 E2.46302
G1 X138.909 Y161.509 E2.49395
G1 X138.595 Y161.197 E2.50868
G1 X138.318 Y160.912 E2.52189
G1 X138.23 Y160.818 E2.52618
G1 X137.634 Y160.125 E2.55658
G1 X137.327 Y159.737 E2.57303
G1 X137.079 Y159.413 E2.5866
G1 X137.016 Y159.327 E2.59015
G1 X136.51 Y158.571 E2.62041
G1 X136.265 Y158.171 E2.63601
G1 X136.057 Y157.819 E2.64961
G1 X135.587 Y156.909 E2.68367
G1 X135.392 Y156.484 E2.69923
G1 X135.257 Y156.178 E2.71035
G1 X134.873 Y155.161 E2.74651
G1 X134.73 Y154.717 E2.76202
G1 X134.605 Y154.302 E2.77644
G1 X134.569 Y154.173 E2.78089
G1 X134.378 Y153.373 E2.80825
G1 X134.288 Y152.923 E2.82351
G1 X134.224 Y152.574 E2.83531
G1 X134.203 Y152.448 E2.83956
G1 X134.084 Y151.47 E2.87233
G1 X134.048 Y150.994 E2.88821
G1 X134.022 Y150.522 E2.90393
G1 X134.022 Y149.569 E2.93562
G1 X134.042 Y149.11 E2.95091
G1 X134.07 Y148.669 E2.9656
G1 X134.184 Y147.694 E2.99825
G1 X134.268 Y147.179 E3.01561
G1 X134.341 Y146.778 E3.02916
G1 X134.569 Y145.832 E3.06153
G1 X134.688 Y145.419 E3.07582
G1 X134.815 Y145.007 E3.09016
G1 X135.169 Y144.042 E3.12435
G1 X135.352 Y143.608 E3.14002
G1 X135.519 Y143.231 E3.15373
G1 X135.989 Y142.309 E3.18815
G1 X136.208 Y141.925 E3.20285
G1 X136.417 Y141.571 E3.21653
G1 X136.984 Y140.723 E3.25046
G1 X137.254 Y140.357 E3.26558
G1 X137.508 Y140.026 E3.27946
G1 X137.587 Y139.927 E3.28367
G1 X138.151 Y139.274 E3.31237
G1 X138.469 Y138.934 E3.32786
G1 X138.725 Y138.67 E3.34009
G0 F6000 X139.106 Y138.855
G1 F1200 X139.791 Y138.227 E3.371
G1 X140.125 Y137.947 E3.38549
G1 X140.373 Y137.746 E3.39611
G1 X140.51 Y137.638 E3.40191
G1 X141.264 Y137.095 E3.43282
G1 X141.58 Y136.888 E3.44538
G1 X141.853 Y136.715 E3.45613
G1 X142 Y136.625 E3.46186
G1 X142.803 Y136.18 E3.4924
G1 X143.274 Y135.945 E3.5099
G1 X143.701 Y135.744 E3.5256
G1 X143.791 Y135.704 E3.52888
G1 X144.517 Y135.412 E3.5549
G1 X144.885 Y135.28 E3.56791
G1 X145.22 Y135.166 E3.57968
G1 X145.388 Y135.112 E3.58555
G1 X146.277 Y134.869 E3.6162
G1 X146.751 Y134.761 E3.63237
G1 X147.142 Y134.679 E3.64566
G1 X148.097 Y134.533 E3.67779
G1 X148.519 Y134.488 E3.6919
G1 X148.863 Y134.457 E3.70339
G1 X149.012 Y134.446 E3.70836
G1 X149.921 Y134.418 E3.73861
G1 X150.415 Y134.424 E3.75504
G1 X150.782 Y134.435 E3.76725
G1 X150.91 Y134.441 E3.77151
G1 X151.792 Y134.519 E3.80096
G1 X152.181 Y134.57 E3.81401
G1 X152.497 Y134.616 E3.82463
G1 X152.67 Y134.644 E3.83046
G1 X153.589 Y134.835 E3.86168
G1 X154.049 Y134.952 E3.87747
G1 X154.454 Y135.064 E3.89144
G1 X154.555 Y135.094 E3.89495
G1 X155.344 Y135.362 E3.92266
G1 X155.778 Y135.529 E3.93813
G1 X156.097 Y135.658 E3.94958
G1 X156.239 Y135.718 E3.9547
G1 X157.071 Y136.113 E3.98534
G1 X157.43 Y136.303 E3.99884
G1 X157.712 Y136.458 E4.00955
G1 X157.872 Y136.549 E4.01567
G1 X158.672 Y137.052 E4.0471
G1 X159.021 Y137.294 E4.06123
G1 X159.267 Y137.47 E4.07129
G1 X159.396 Y137.565 E4.07661
G1 X160.119 Y138.148 E4.10751
G1 X160.448 Y138.438 E4.12209
G1 X160.717 Y138.684 E4.13422
G1 X160.807 Y138.769 E4.13833
G1 X161.437 Y139.417 E4.16839
G1 X161.769 Y139.789 E4.18498
G1 X162.011 Y140.069 E4.19729
G1 X162.095 Y140.17 E4.20166
G1 X162.635 Y140.878 E4.23127
G1 X162.869 Y141.213 E4.24486
G1 X163.119 Y141.586 E4.2598
G1 X163.608 Y142.406 E4.29155
G1 X163.818 Y142.797 E4.30631
G1 X164.008 Y143.168 E4.32018
G1 X164.066 Y143.287 E4.32458
G1 X164.404 Y144.056 E4.35252
G1 X164.589 Y144.527 E4.36935
G1 X164.75 Y144.964 E4.38484
G1 X164.786 Y145.069 E4.38853
G1 X165.017 Y145.834 E4.41511
G1 X165.128 Y146.26 E4.42975
G1 X165.221 Y146.646 E4.44296
G1 X165.402 Y147.636 E4.47643
G1 X165.471 Y148.149 E4.49365
G1 X165.54 Y148.819 E4.51605
G1 X165.562 Y149.132 E4.52649
G1 X165.587 Y150.014 E4.55583
G1 X165.582 Y150.396 E4.56854
G1 X165.529 Y151.33 E4.59965
G1 X165.489 Y151.723 E4.61279
G1 X165.443 Y152.102 E4.62549
G1 X165.417 Y152.29 E4.6318
G1 X165.266 Y153.132 E4.66026
G1 X165.17 Y153.565 E4.67501
G1 X165.073 Y153.965 E4.6887
G1 X165.037 Y154.102 E4.69341
G1 X164.794 Y154.899 E4.72112
G1 X164.659 Y155.286 E4.73475
G1 X164.533 Y155.628 E4.74688
G1 X164.469 Y155.793 E4.75276
G1 X164.097 Y156.64 E4.78353
G1 X163.879 Y157.083 E4.79995
G1 X163.693 Y157.445 E4.81349
G1 X163.218 Y158.253 E4.84466
G1 X162.977 Y158.625 E4.8594
G1 X162.783 Y158.915 E4.87101
G1 X162.687 Y159.053 E4.8766
G1 X162.147 Y159.764 E4.9063
G1 X161.876 Y160.091 E4.92042
G1 X161.622 Y160.385 E4.93334
G1 X161.539 Y160.478 E4.93749
G1 X160.919 Y161.117 E4.9671
G1 X160.542 Y161.474 E4.98437
G1 X160.271 Y161.722 E4.99659
G1 X160.194 Y161.79 E5.00001
G1 X159.506 Y162.348 E5.02947
G1 X159.154 Y162.61 E5.04406
G1 X158.914 Y162.784 E5.05392
G1 X158.8 Y162.864 E5.05856
G1 X157.972 Y163.389 E5.09116
G1 X157.561 Y163.624 E5.10691
G1 X157.189 Y163.828 E5.12102
G1 X156.329 Y164.241 E5.15275
G1 X155.932 Y164.41 E5.1671
G1 X155.654 Y164.524 E5.1771
G1 X155.519 Y164.577 E5.18192
G1 X154.598 Y164.89 E5.21427
G1 X154.167 Y165.015 E5.2292
G1 X153.856 Y165.101 E5.23993
G1 X153.72 Y165.136 E5.2446
G1 X152.828 Y165.325 E5.27493
G1 X152.356 Y165.404 E5.29085
G1 X151.95 Y165.463 E5.30449
G1 X151.817 Y165.48 E5.30895
G1 X150.977 Y165.554 E5.337
G1 X150.599 Y165.572 E5.34959
G1 X150.266 Y165.583 E5.36067
G1 X150.08 Y165.586 E5.36685
G1 X149.149 Y165.56 E5.39783
G1 X148.676 Y165.526 E5.4136
G1 X148.335 Y165.496 E5.42499
G1 X148.201 Y165.482 E5.42947
G1 X147.292 Y165.347 E5.46004
G1 X146.883 Y165.268 E5.47389
G1 X146.524 Y165.192 E5.4861
G1 X146.367 Y165.156 E5.49145
G1 X145.523 Y164.925 E5.52056
G1 X145.086 Y164.786 E5.53581
G1 X144.774 Y164.682 E5.54675
G1 X144.618 Y164.627 E5.55225
G1 X143.746 Y164.275 E5.58353
G1 X143.417 Y164.125 E5.59555
G1 X143 Y163.925 E5.61093
G1 X142.124 Y163.446 E5.64414
G1 X141.69 Y163.181 E5.66106
G1 X141.379 Y162.984 E5.6733
G1 X141.288 Y162.924 E5.67693
G1 X140.596 Y162.426 E5.70528
G1 X140.271 Y162.172 E5.719
G1 X139.989 Y161.944 E5.73106
G1 X139.853 Y161.83 E5.73696
G1 X139.191 Y161.225 E5.76679
G1 X138.877 Y160.913 E5.78152
G1 X138.61 Y160.638 E5.79426
G1 X138.522 Y160.544 E5.79855
G1 X137.947 Y159.877 E5.82784
G1 X137.64 Y159.489 E5.84429
G1 X137.402 Y159.176 E5.85737
G1 X137.339 Y159.09 E5.86092
G1 X136.851 Y158.363 E5.89004
G1 X136.606 Y157.963 E5.90564
G1 X136.403 Y157.619 E5.91893
G1 X135.951 Y156.742 E5.95174
G1 X135.67 Y156.127 E5.97423
G1 X135.623 Y156.019 E5.97815
G1 X135.253 Y155.039 E6.01299
G1 X135.11 Y154.595 E6.0285
G1 X134.99 Y154.194 E6.04242
G1 X134.954 Y154.065 E6.04688
G1 X134.77 Y153.295 E6.07321
G1 X134.68 Y152.845 E6.08847
G1 X134.618 Y152.509 E6.09984
G1 X134.597 Y152.383 E6.10409
G1 X134.483 Y151.439 E6.13571
G1 X134.447 Y150.963 E6.15159
G1 X134.422 Y150.504 E6.16688
G1 X134.422 Y149.587 E6.19738
G1 X134.442 Y149.128 E6.21266
G1 X134.469 Y148.698 E6.22699
G1 X134.579 Y147.759 E6.25843
G1 X134.663 Y147.244 E6.27579
G1 X134.734 Y146.855 E6.28894
G1 X134.953 Y145.943 E6.32014
G1 X135.072 Y145.53 E6.33443
G1 X135.196 Y145.127 E6.34845
G1 X135.538 Y144.198 E6.38138
G1 X135.721 Y143.764 E6.39705
G1 X135.827 Y143.519 E6.40593
G1 X135.883 Y143.395 E6.41045
G1 X136.336 Y142.507 E6.44361
G1 X136.555 Y142.123 E6.45831
G1 X136.76 Y141.777 E6.47169
G1 X137.306 Y140.96 E6.50437
G1 X137.576 Y140.594 E6.5195
G1 X137.821 Y140.275 E6.53287
G1 X137.9 Y140.176 E6.53709
G1 X138.443 Y139.547 E6.56472
G1 X138.761 Y139.207 E6.58021
G1 X139.106 Y138.855 E6.5966
G0 F6000 X139.291 Y139.236
G1 F1200 X139.389 Y139.138 E6.60121
G1 X140.048 Y138.533 E6.63097
G1 X140.382 Y138.253 E6.64546
G1 X140.62 Y138.06 E6.65565
G1 X140.757 Y137.952 E6.66146
G1 X141.483 Y137.43 E6.6912
G1 X141.799 Y137.223 E6.70376
G1 X142.062 Y137.056 E6.71412
G1 X142.209 Y136.966 E6.71986
G1 X142.981 Y136.538 E6.74921
G1 X143.452 Y136.303 E6.76672
G1 X143.863 Y136.109 E6.78184
G1 X143.953 Y136.069 E6.78511
G1 X144.652 Y135.789 E6.81016
G1 X145.02 Y135.657 E6.82316
G1 X145.343 Y135.547 E6.83451
G1 X145.511 Y135.493 E6.84038
G1 X146.366 Y135.259 E6.86986
G1 X146.84 Y135.151 E6.88603
G1 X147.221 Y135.071 E6.89898
G1 X148.139 Y134.931 E6.92987
G1 X148.561 Y134.886 E6.94398
G1 X148.892 Y134.856 E6.95504
G1 X149.041 Y134.845 E6.96001
G1 X149.916 Y134.818 E6.98912
G1 X150.41 Y134.824 E7.00555
G1 X150.764 Y134.834 E7.01733
G1 X150.892 Y134.84 E7.02159
G1 X151.74 Y134.916 E7.04991
G1 X152.129 Y134.967 E7.06296
G1 X152.433 Y135.011 E7.07318
G1 X152.606 Y135.039 E7.07901
G1 X153.49 Y135.223 E7.10904
G1 X153.95 Y135.34 E7.12483
G1 X154.34 Y135.447 E7.13828
G1 X154.441 Y135.477 E7.14178
G1 X155.2 Y135.735 E7.16844
G1 X155.634 Y135.902 E7.18391
G1 X155.941 Y136.026 E7.19492
G1 X156.083 Y136.086 E7.20005
G1 X156.884 Y136.467 E7.22955
G1 X157.243 Y136.657 E7.24306
G1 X157.515 Y136.806 E7.25338
G1 X157.675 Y136.897 E7.2595
G1 X158.444 Y137.381 E7.28972
G1 X158.793 Y137.623 E7.30384
G1 X159.158 Y137.887 E7.31883
G1 X159.855 Y138.448 E7.34859
G1 X160.184 Y138.738 E7.36317
G1 X160.443 Y138.974 E7.37483
G1 X160.533 Y139.059 E7.37894
G1 X161.139 Y139.683 E7.40788
G1 X161.471 Y140.055 E7.42446
G1 X161.703 Y140.325 E7.4363
G1 X161.787 Y140.426 E7.44067
G1 X162.307 Y141.107 E7.46917
G1 X162.541 Y141.442 E7.48276
G1 X162.785 Y141.806 E7.49733
G1 X163.256 Y142.595 E7.5279
G1 X163.466 Y142.986 E7.54266
G1 X163.649 Y143.343 E7.556
G1 X163.707 Y143.462 E7.5604
G1 X164.032 Y144.202 E7.58728
G1 X164.217 Y144.673 E7.60412
G1 X164.372 Y145.094 E7.61904
G1 X164.408 Y145.199 E7.62273
G1 X164.629 Y145.935 E7.64829
G1 X164.74 Y146.361 E7.66293
G1 X164.831 Y146.737 E7.6758
G1 X165.006 Y147.689 E7.70799
G1 X165.075 Y148.202 E7.72521
G1 X165.141 Y148.847 E7.74677
G1 X165.163 Y149.16 E7.75721
G1 X165.187 Y150.008 E7.78542
G1 X165.182 Y150.39 E7.79813
G1 X165.131 Y151.29 E7.82811
G1 X165.091 Y151.683 E7.84125
G1 X165.047 Y152.047 E7.85345
G1 X165.021 Y152.235 E7.85976
G1 X164.875 Y153.046 E7.88717
G1 X164.779 Y153.479 E7.90192
G1 X164.686 Y153.863 E7.91506
G1 X164.65 Y154 E7.91977
G1 X164.416 Y154.768 E7.94647
G1 X164.281 Y155.155 E7.9601
G1 X164.16 Y155.484 E7.97176
G1 X164.096 Y155.649 E7.97765
G1 X163.738 Y156.464 E8.00726
G1 X163.52 Y156.907 E8.02368
G1 X163.339 Y157.258 E8.03681
G1 X162.883 Y158.036 E8.06681
G1 X162.642 Y158.408 E8.08155
G1 X162.454 Y158.687 E8.09274
G1 X162.358 Y158.825 E8.09833
G1 X161.839 Y159.509 E8.12689
G1 X161.568 Y159.836 E8.14101
G1 X161.324 Y160.119 E8.15344
G1 X161.241 Y160.212 E8.15759
G1 X160.644 Y160.826 E8.18607
G1 X160.267 Y161.183 E8.20334
G1 X160.006 Y161.422 E8.21511
G1 X159.929 Y161.49 E8.21853
G1 X159.267 Y162.027 E8.24688
G1 X158.915 Y162.289 E8.26147
G1 X158.57 Y162.536 E8.27559
G1 X157.774 Y163.042 E8.30696
G1 X157.363 Y163.277 E8.3227
G1 X157 Y163.476 E8.33647
G1 X156.172 Y163.873 E8.36701
G1 X155.775 Y164.042 E8.38137
G1 X155.507 Y164.152 E8.391
G1 X155.372 Y164.205 E8.39582
G1 X154.486 Y164.506 E8.42695
G1 X154.055 Y164.631 E8.44187
G1 X153.756 Y164.713 E8.45219
G1 X153.62 Y164.748 E8.45686
G1 X152.762 Y164.93 E8.48603
G1 X152.29 Y165.009 E8.50195
G1 X151.899 Y165.067 E8.51509
G1 X151.766 Y165.084 E8.51955
