;FLAVOR:Marlin
;TIME:4389
;Filament used:1.85073m
;Layer height: 0.15
;MINX:93.355
;MINY:89.825
;MINZ:0.15
;MAXX:126.379
;MAXY:132.449
;MAXZ:25.05
                            
;Creality Print GCode Generated by CXEngine:NO_MAGE_VERSION_GIT_HEAD_BRANCH
;CXEngine Release Time:2022-09-30 09:53:04
;Gcode Generated Time:2023-02-26 10:36:06
;----------Machine Config--------------
;Machine Name:Creality Ender-3
;Machine Height:250
;Machine Width:220
;Machine Depth:220
;Material name:PLA
;Number of Extruders:1
;ExtruderParams[0] Nozzle Diameter1000
;----------Profile Config---------------
;Engine Version:275f99b
;Engine Release Time:2022-09-30 09:42:18
;Layer Height:0.15
;Wall Thickness:0.8
;Top/Bottom Thickness:1
;Out Wall Line Width:0.4
;Inner Wall Line Width:0.4
;Inital Layer Height:150
;Wall Line Count:2
;Infill Line Distance:4
;Infill Pattern:grid
;Infill Sparse Density:20
;Infill Wipe Distance:0
;Print Temperature:200
;Bed Temperature:60
;Support Enable:true
;Support Density:30
;Support Angle:60
;Adhesion Type:none
;machine is belt:false
;machine belt offset:10
;machine belt offset Y:0
;Raft Base Line Spacing:1.6
;Wait Heatup Sync:true
;----------Shell Config----------------
;Outer Wall Wipe Distance:200
;Outer Inset First:false
;Infill Before Walls:false
;Infill Overlap:0.16
;Fill Gaps Between Walls:everywhere
;Minimum Infill Area:1
;Top Surface Skin Layer:0
;Top Layers:4
;Z Seam Alignment:sharpest_corner
;Seam Corner Preference:z_seam_corner_inner
;Z Seam X:110
;Z Seam Y:110
;Horizontal Expansion:0
;Top/Bottom Pattern:zigzag
;Ironing Pattern:zigzag
;Vase Model:false
;----------Support Config----------------
;Support Type:everywhere
;Support Pattern:zigzag
;Support Infill Layer Thickness:0.15
;Minimum Support Area:5
;Enable Support Roof:false
;Support Roof Thickness:0.8
;Support Roof Pattern:lines
;Connect Support Lines:0
;Connect Support ZigZags:1
;Minimum Support X/Y Distance:0.2
;Support Line Distance:1.33
; ---------PrintSpeed & Travel----------
;Enable Print Cool:true
;Avoid Printed Parts Traveling:true
;Enable Retraction:true
;Retraction Distance:8
;Retraction Speed:100
;Retraction Prime Speed:100
;Maximum Retraction Count:100
;Minimum Extrusion Distance Window:1
;Z Hop When Retracted:false
;Z Hop Height:0.2
;Retract Before Outer Wall:true
;Print Speed:50
;Infill Speed:50

;Prime Tower Speed:50
;Travel Speed:120
;Initial Layer Speed:25
;Skirt/Brim Speed:25
;Combing Mode:infill
; --------SpecialModel&Mesh Fixes--------
;Union Overlapping Volum:true
;Remove All Holes:false
;Maximum Travel Resolution:0.6
;Maximum Deviation:0.05
;Maximum Model Angle:0.872665
;IS Mold Print:false
;Make Overhang Printable:false
;Enable Coasting:false
;Coasting Volumes:0.06
;Coasting Speed:0.9
;Raft AirGap:0.25
;Layer0 ZOverLap:0.13
;---------------------End of Head--------------------------
M140 S60
M105
M104 S200
M105
M109 S200
M105
M190 S60
M82 ;absolute extrusion mode
M220 S100 ;Reset Feedrate
M221 S100 ;Reset Flowrate

G28 ;Home

G92 E0 ;Reset Extruder
G1 Z2.0 F3000 ;Move Z Axis up
G1 X10.1 Y20 Z0.28 F5000.0 ;Move to start position
G1 X10.1 Y145.0 Z0.28 F1500.0 E15 ;Draw the first line
G1 X10.4 Y145.0 Z0.28 F5000.0 ;Move to side a little
G1 X10.4 Y20 Z0.28 F1500.0 E30 ;Draw the second line
G92 E0  ;Reset Extruder
G1 E-1.0000 F1800 ;Retract a bit
G1 Z2.0 F3000 ;Move Z Axis up
G1 E0.0000 F1800 

G92 E0
G92 E0
G1 F6000 E-8

;LAYER_COUNT:167

;LAYER:0
M107
G0 F3600 X111.438 Y114.767 Z0.15
;TYPE:SUPPORT
G1 F6000 E0
G1 F1500 X110.993 Y115.487 E0.01858
G1 X110.366 Y114.884 E0.03768
G1 X110.741 Y114.762 E0.04633
G1 X111.438 Y114.767 E0.06163
G0 F3600 X111.619 Y114.368
G1 F1500 X112.034 Y114.182 E0.07162
G1 X111.893 Y114.791 E0.08534
G1 X111.073 Y116.118 E0.11958
G1 X109.345 Y114.457 E0.1722
G1 X110.336 Y114.483 E0.19396
G1 X110.673 Y114.361 E0.20183
G1 X111.619 Y114.368 E0.22259
G0 F3600 X111.535 Y113.967
G1 F1500 X112.606 Y113.487 E0.24836
G1 X112.269 Y114.944 E0.28118
G1 X111.349 Y116.431 E0.31957
G1 X111.041 Y116.641 E0.32775
G1 X108.978 Y114.658 E0.39057
G1 X108.458 Y114.033 E0.40841
G1 X110.271 Y114.081 E0.44823
G1 X110.604 Y113.96 E0.456
G1 X111.535 Y113.967 E0.47644
G0 F3600 X111.451 Y113.566
G1 F1500 X113.177 Y112.793 E0.51796
G1 X112.645 Y115.097 E0.56986
G1 X111.701 Y116.623 E0.60925
G1 X111.709 Y116.67 E0.6103
G1 X110.998 Y117.154 E0.62918
G1 X108.679 Y114.925 E0.69979
G1 X107.586 Y113.609 E0.73734
G1 X110.206 Y113.679 E0.79488
G1 X110.536 Y113.56 E0.80258
G1 X111.451 Y113.566 E0.82266
G0 F3600 X111.367 Y113.165
G1 F1500 X113.748 Y112.1 E0.87992
G1 X113.021 Y115.25 E0.95089
G1 X112.12 Y116.707 E0.98849
G1 X112.144 Y116.856 E0.9918
G1 X110.827 Y117.754 E1.0268
G1 X110.726 Y117.447 E1.03389
G1 X108.38 Y115.192 E1.10532
G1 X106.696 Y113.164 E1.16319
G1 X106.752 Y113.187 E1.16452
G1 X110.141 Y113.277 E1.23894
G1 X110.468 Y113.159 E1.24657
G1 X111.367 Y113.165 E1.2663
G0 F3600 X111.283 Y112.764
G1 F1500 X114.319 Y111.407 E1.3393
G1 X113.397 Y115.402 E1.4293
G1 X112.538 Y116.791 E1.46516
G1 X112.578 Y117.043 E1.47076
G1 X110.612 Y118.384 E1.523
G1 X110.377 Y117.666 E1.53958
G1 X108.086 Y115.464 E1.60934
G1 X106.113 Y113.087 E1.67715
G1 X105.979 Y112.43 E1.69187
G1 X106.837 Y112.789 E1.71228
G1 X110.076 Y112.875 E1.78341
G1 X110.4 Y112.758 E1.79097
G1 X111.283 Y112.764 E1.81036
G0 F3600 X111.199 Y112.363
G1 F1500 X114.518 Y110.88 E1.89016
G1 X114.975 Y110.347 E1.90557
G1 X113.773 Y115.554 E2.02288
G1 X112.956 Y116.875 E2.05697
G1 X113.001 Y117.161 E2.06333
G1 X112.935 Y117.283 E2.06637
G1 X110.397 Y119.014 E2.13381
G1 X110.028 Y117.885 E2.15988
G1 X107.794 Y115.738 E2.2279
G1 X105.741 Y113.265 E2.29846
G1 X105.435 Y111.768 E2.332
G1 X106.922 Y112.391 E2.36739
G1 X110.011 Y112.473 E2.43522
G1 X110.332 Y112.357 E2.44271
G1 X111.199 Y112.363 E2.46175
G0 F3600 X111.115 Y111.962
G1 F1500 X114.273 Y110.551 E2.53767
G1 X115.731 Y108.851 E2.58684
G1 X114.149 Y115.706 E2.74127
G1 X113.374 Y116.959 E2.77361
G1 X113.417 Y117.232 E2.77968
G1 X113.242 Y117.557 E2.78778
G1 X110.346 Y119.532 E2.86473
G1 X110.078 Y119.324 E2.87218
G1 X109.679 Y118.104 E2.90035
G1 X107.499 Y116.009 E2.96672
G1 X105.369 Y113.443 E3.03993
G1 X104.913 Y111.215 E3.08985
G1 X105.189 Y111.232 E3.09592
G1 X107.007 Y111.993 E3.13919
G1 X109.946 Y112.071 E3.20373
G1 X110.264 Y111.956 E3.21115
G1 X111.115 Y111.962 E3.22983
G0 F3600 X111.031 Y111.561
G1 F1500 X114.028 Y110.222 E3.30189
G1 X115.855 Y108.092 E3.36349
G1 X116.647 Y106.672 E3.39918
G1 X117.176 Y105.063 E3.43636
G1 X117.31 Y104.294 E3.45349
G1 X118.064 Y106.129 E3.49704
G1 X118.041 Y106.415 E3.50334
G1 X117.997 Y106.515 E3.50574
G1 X116.254 Y108.362 E3.56149
G1 X114.525 Y115.859 E3.73038
G1 X113.792 Y117.044 E3.76097
G1 X113.832 Y117.303 E3.76672
G1 X113.548 Y117.832 E3.7799
G1 X110.329 Y120.027 E3.86543
G1 X109.737 Y119.566 E3.8819
G1 X109.33 Y118.323 E3.91061
G1 X107.204 Y116.28 E3.97534
G1 X104.997 Y113.621 E4.05119
G1 X104.417 Y110.784 E4.11476
G1 X105.283 Y110.837 E4.1338
G1 X107.092 Y111.595 E4.17686
G1 X109.881 Y111.669 E4.2381
G1 X110.196 Y111.555 E4.24546
G1 X111.031 Y111.561 E4.26379
G0 F3600 X110.947 Y111.16
G1 F1500 X113.783 Y109.893 E4.33197
G1 X115.525 Y107.862 E4.39071
G1 X116.279 Y106.511 E4.42467
G1 X116.787 Y104.966 E4.46037
G1 X117.259 Y102.264 E4.52058
G1 X116.82 Y101.122 E4.54744
G1 X117.301 Y101.27 E4.55849
G1 X117.287 Y101.393 E4.56121
G1 X117.812 Y102.044 E4.57957
G1 X117.297 Y103.21 E4.60755
G1 X118.471 Y106.066 E4.67533
G1 X118.435 Y106.515 E4.68522
G1 X118.336 Y106.738 E4.69057
G1 X116.619 Y108.558 E4.7455
G1 X114.901 Y116.012 E4.91342
G1 X114.21 Y117.129 E4.94225
G1 X114.248 Y117.373 E4.94767
G1 X113.854 Y118.107 E4.96596
G1 X110.493 Y120.399 E5.05526
G1 X110.456 Y120.633 E5.06046
G1 X109.395 Y119.806 E5.08999
G1 X108.981 Y118.542 E5.11919
G1 X106.909 Y116.551 E5.18227
G1 X104.722 Y113.913 E5.25749
G1 X104.633 Y113.839 E5.26003
G1 X103.985 Y110.67 E5.33103
G1 X104.079 Y110.363 E5.33808
G1 X105.377 Y110.442 E5.36663
G1 X107.178 Y111.197 E5.4095
G1 X109.816 Y111.267 E5.46742
G1 X110.128 Y111.154 E5.47471
G1 X110.947 Y111.16 E5.49269
G0 F3600 X110.359 Y108.353
G1 F1500 X112.068 Y107.59 E5.53377
G1 X113.215 Y106.252 E5.57246
G1 X113.703 Y105.378 E5.59443
G1 X114.064 Y104.283 E5.61974
G1 X114.368 Y102.544 E5.6585
G1 X113.86 Y101.224 E5.68954
G1 X113.638 Y100.39 E5.70849
G1 X112.804 Y99.174 E5.74086
G1 X112.365 Y98.006 E5.76825
G1 X109.124 Y96.912 E5.84334
G1 X107.357 Y97.054 E5.88225
G1 X105.771 Y97.646 E5.91941
G1 X104.232 Y98.96 E5.96383
G1 X104.098 Y99.317 E5.97221
G1 X102.407 Y100.304 E6.01519
G1 X103.395 Y103.843 E6.09584
G1 X103.352 Y104.987 E6.12097
G1 X103.861 Y105.519 E6.13714
G1 X104.44 Y107.581 E6.18415
G1 X106.029 Y107.677 E6.2191
G1 X107.78 Y108.411 E6.26077
G1 X109.361 Y108.453 E6.29549
G1 X109.651 Y108.348 E6.30226
G1 X110.359 Y108.353 E6.3178
G0 F3600 X110.275 Y107.952
G1 F1500 X111.823 Y107.261 E6.35502
G1 X112.885 Y106.022 E6.39084
G1 X113.335 Y105.216 E6.4111
G1 X113.675 Y104.185 E6.43493
G1 X113.955 Y102.584 E6.47061
G1 X113.48 Y101.35 E6.49964
G1 X113.269 Y100.56 E6.51759
G1 X112.445 Y99.358 E6.54958
G1 X112.057 Y98.324 E6.57382
G1 X109.074 Y97.317 E6.64294
G1 X107.445 Y97.448 E6.67881
G1 X105.977 Y97.996 E6.71321
G1 X104.57 Y99.197 E6.75381
G1 X104.422 Y99.591 E6.76305
G1 X102.875 Y100.494 E6.80238
G1 X103.797 Y103.797 E6.87765
G1 X103.758 Y104.833 E6.90041
G1 X104.219 Y105.315 E6.91505
G1 X104.748 Y107.199 E6.95801
G1 X106.122 Y107.282 E6.98823
G1 X107.866 Y108.013 E7.02974
G1 X109.296 Y108.051 E7.06114
G1 X109.583 Y107.947 E7.06784
G1 X110.275 Y107.952 E7.08303
G0 F3600 X110.191 Y107.551
G1 F1500 X111.578 Y106.932 E7.11637
G1 X112.555 Y105.792 E7.14933
G1 X112.967 Y105.054 E7.16788
G1 X113.286 Y104.087 E7.19024
G1 X113.542 Y102.624 E7.22284
G1 X113.097 Y101.468 E7.25003
G1 X112.9 Y100.729 E7.26682
G1 X112.087 Y99.543 E7.29838
G1 X111.749 Y98.642 E7.31951
G1 X109.024 Y97.722 E7.38264
G1 X107.533 Y97.842 E7.41548
G1 X106.183 Y98.346 E7.44711
G1 X104.908 Y99.434 E7.48391
G1 X104.746 Y99.865 E7.49401
G1 X103.343 Y100.684 E7.52967
G1 X104.199 Y103.751 E7.59957
G1 X104.164 Y104.679 E7.61996
G1 X104.577 Y105.111 E7.63308
G1 X105.056 Y106.817 E7.67198
G1 X106.215 Y106.887 E7.69747
G1 X107.952 Y107.615 E7.73881
G1 X109.231 Y107.649 E7.76689
G1 X109.515 Y107.546 E7.77353
G1 X110.191 Y107.551 E7.78837
G0 F3600 X110.107 Y107.15
G1 F1500 X111.333 Y106.603 E7.81784
G1 X112.225 Y105.562 E7.84793
G1 X112.599 Y104.892 E7.86477
G1 X112.897 Y103.989 E7.88565
G1 X113.129 Y102.664 E7.91518
G1 X112.716 Y101.589 E7.94046
G1 X112.531 Y100.899 E7.95614
G1 X111.73 Y99.73 E7.98724
G1 X111.441 Y98.96 E8.0053
G1 X108.974 Y98.127 E8.06246
G1 X107.621 Y98.236 E8.09225
G1 X106.389 Y98.696 E8.12112
G1 X105.246 Y99.671 E8.1541
G1 X105.07 Y100.139 E8.16508
G1 X103.811 Y100.874 E8.19708
G1 X104.601 Y103.705 E8.2616
G1 X104.57 Y104.525 E8.27961
G1 X104.935 Y104.907 E8.29121
G1 X105.364 Y106.435 E8.32605
G1 X106.308 Y106.492 E8.34681
G1 X108.038 Y107.217 E8.38799
G1 X109.166 Y107.247 E8.41276
G1 X109.447 Y107.145 E8.41932
G1 X110.107 Y107.15 E8.43381
G0 F3600 X110.023 Y106.749
G1 F1500 X111.088 Y106.274 E8.45941
G1 X111.895 Y105.332 E8.48663
G1 X112.231 Y104.73 E8.50177
G1 X112.508 Y103.891 E8.52116
G1 X112.716 Y102.704 E8.54762
G1 X112.335 Y101.713 E8.57092
G1 X112.162 Y101.069 E8.58556
G1 X111.373 Y99.917 E8.61621
G1 X111.133 Y99.278 E8.6312
G1 X108.924 Y98.532 E8.68238
G1 X107.709 Y98.63 E8.70914
G1 X106.595 Y99.046 E8.73524
G1 X105.584 Y99.908 E8.76441
G1 X105.395 Y100.413 E8.77624
G1 X104.279 Y101.064 E8.8046
G1 X105.003 Y103.66 E8.86376
G1 X104.976 Y104.371 E8.87938
G1 X105.293 Y104.703 E8.88946
G1 X105.672 Y106.053 E8.92024
G1 X106.516 Y106.104 E8.9388
G1 X106.584 Y106.194 E8.94128
G1 X108.121 Y106.819 E8.9777
G1 X109.101 Y106.845 E8.99922
G1 X109.378 Y106.744 E9.00569
G1 X110.023 Y106.749 E9.01985
G0 F3600 X109.939 Y106.348
G1 F1500 X110.843 Y105.945 E9.04158
G1 X111.565 Y105.102 E9.06594
G1 X111.863 Y104.568 E9.07937
G1 X112.119 Y103.793 E9.09728
G1 X112.303 Y102.744 E9.12066
G1 X111.954 Y101.837 E9.142
G1 X111.793 Y101.236 E9.15565
G1 X111.121 Y100.228 E9.18225
G1 X111.036 Y100.159 E9.18465
G1 X110.825 Y99.596 E9.19785
G1 X108.874 Y98.937 E9.24305
G1 X107.797 Y99.024 E9.26677
G1 X106.801 Y99.396 E9.29011
G1 X105.922 Y100.145 E9.31546
G1 X105.719 Y100.687 E9.32817
G1 X104.747 Y101.254 E9.35287
G1 X105.405 Y103.615 E9.40667
G1 X105.382 Y104.217 E9.4199
G1 X105.651 Y104.499 E9.42845
G1 X105.98 Y105.671 E9.45517
G1 X106.725 Y105.716 E9.47156
G1 X106.837 Y105.865 E9.47565
G1 X108.204 Y106.421 E9.50805
G1 X109.036 Y106.443 E9.52632
G1 X109.31 Y106.344 E9.53271
G1 X109.939 Y106.348 E9.54652
G0 F3600 X109.855 Y105.947
G1 F1500 X110.598 Y105.616 E9.56437
G1 X111.235 Y104.872 E9.58587
G1 X111.495 Y104.406 E9.59759
G1 X111.73 Y103.695 E9.61403
G1 X111.89 Y102.784 E9.63433
G1 X111.574 Y101.962 E9.65366
G1 X111.424 Y101.403 E9.66637
G1 X110.822 Y100.5 E9.69019
G1 X110.699 Y100.4 E9.69367
G1 X110.517 Y99.914 E9.70506
G1 X108.824 Y99.342 E9.74429
G1 X107.885 Y99.418 E9.76497
G1 X107.007 Y99.746 E9.78555
G1 X106.26 Y100.382 E9.80708
G1 X106.043 Y100.961 E9.82066
G1 X105.215 Y101.444 E9.8417
G1 X105.807 Y103.57 E9.89014
G1 X105.788 Y104.063 E9.90097
G1 X106.009 Y104.294 E9.90799
G1 X106.288 Y105.289 E9.93068
G1 X106.933 Y105.328 E9.94486
G1 X107.09 Y105.536 E9.95058
G1 X108.287 Y106.023 E9.97895
G1 X108.971 Y106.041 E9.99397
G1 X109.242 Y105.943 E10.00029
G1 X109.855 Y105.947 E10.01375
G0 F3600 X109.771 Y105.546
G1 F1500 X110.353 Y105.287 E10.02773
G1 X110.905 Y104.642 E10.04637
G1 X111.127 Y104.244 E10.05637
G1 X111.341 Y103.597 E10.07133
G1 X111.477 Y102.824 E10.08856
G1 X111.194 Y102.089 E10.10585
G1 X111.055 Y101.57 E10.11765
G1 X110.523 Y100.772 E10.1387
G1 X110.362 Y100.641 E10.14326
G1 X110.209 Y100.232 E10.15284
G1 X108.774 Y99.747 E10.18609
G1 X107.973 Y99.812 E10.20373
G1 X107.213 Y100.096 E10.22155
G1 X106.598 Y100.619 E10.23927
G1 X106.368 Y101.234 E10.25368
G1 X105.683 Y101.634 E10.27109
G1 X106.209 Y103.525 E10.31418
G1 X106.194 Y103.909 E10.32262
G1 X106.367 Y104.09 E10.32811
G1 X106.596 Y104.907 E10.34674
G1 X107.142 Y104.94 E10.35875
G1 X107.343 Y105.207 E10.36608
G1 X108.37 Y105.625 E10.39042
G1 X108.906 Y105.639 E10.40219
G1 X109.174 Y105.542 E10.40845
G1 X109.771 Y105.546 E10.42155
G0 F3600 X109.687 Y105.145
G1 F1500 X110.108 Y104.958 E10.43167
G1 X110.575 Y104.412 E10.44744
G1 X110.759 Y104.082 E10.45573
G1 X110.952 Y103.499 E10.46921
G1 X111.064 Y102.864 E10.48337
G1 X110.814 Y102.214 E10.49865
G1 X110.686 Y101.737 E10.5095
G1 X110.224 Y101.044 E10.52778
G1 X110.025 Y100.882 E10.53341
G1 X109.901 Y100.55 E10.54119
G1 X108.724 Y100.152 E10.56847
G1 X108.061 Y100.206 E10.58307
G1 X107.419 Y100.446 E10.59811
G1 X106.936 Y100.856 E10.61202
G1 X106.693 Y101.508 E10.6273
G1 X106.151 Y101.824 E10.64107
G1 X106.611 Y103.48 E10.6788
G1 X106.6 Y103.756 E10.68486
G1 X106.725 Y103.887 E10.68883
G1 X106.904 Y104.525 E10.70338
G1 X107.35 Y104.552 E10.71319
G1 X107.596 Y104.878 E10.72215
G1 X108.453 Y105.227 E10.74247
G1 X108.841 Y105.237 E10.75099
G1 X109.105 Y105.141 E10.75715
G1 X109.687 Y105.145 E10.76993
G0 F3600 X109.604 Y104.744
G1 F1500 X109.863 Y104.629 E10.77615
G1 X110.245 Y104.182 E10.78906
G1 X110.391 Y103.92 E10.79564
G1 X110.563 Y103.401 E10.80764
G1 X110.651 Y102.904 E10.81872
G1 X110.434 Y102.341 E10.83197
G1 X110.317 Y101.904 E10.8419
G1 X109.925 Y101.316 E10.85741
G1 X109.688 Y101.123 E10.86412
G1 X109.593 Y100.868 E10.8701
G1 X108.674 Y100.557 E10.89139
G1 X108.149 Y100.6 E10.90296
G1 X107.624 Y100.796 E10.91526
G1 X107.274 Y101.093 E10.92533
G1 X107.041 Y101.719 E10.94
G1 X107.054 Y101.76 E10.94094
G1 X106.619 Y102.014 E10.952
G1 X107.014 Y103.436 E10.9844
G1 X107.007 Y103.603 E10.98807
G1 X107.083 Y103.683 E10.99049
G1 X107.212 Y104.143 E11.00097
G1 X107.518 Y104.162 E11.00771
G1 X107.705 Y104.337 E11.01333
G1 X107.856 Y104.552 E11.01909
G1 X108.536 Y104.829 E11.03521
G1 X108.775 Y104.835 E11.04046
G1 X109.035 Y104.74 E11.04654
G1 X109.604 Y104.744 E11.05903
G0 F3600 X116.825 Y107.174
G1 F1500 X117.015 Y106.833 E11.0676
G1 X117.418 Y105.608 E11.09591
