;FLAVOR:Marlin
;TIME:4410
;Filament used:1.85864m
;Layer height: 0.15
;MINX:93.586
;MINY:89.824
;MINZ:0.15
;MAXX:126.485
;MAXY:132.468
;MAXZ:25.05
                            
;Creality Print GCode Generated by CXEngine:NO_MAGE_VERSION_GIT_HEAD_BRANCH
;CXEngine Release Time:2022-09-30 09:53:04
;Gcode Generated Time:2023-02-26 10:36:48
;----------Machine Config--------------
;Machine Name:Creality Ender-3
;Machine Height:250
;Machine Width:220
;Machine Depth:220
;Material name:PLA
;Number of Extruders:1
;ExtruderParams[0] Nozzle Diameter1000
;----------Profile Config---------------
;Engine Version:275f99b
;Engine Release Time:2022-09-30 09:42:18
;Layer Height:0.15
;Wall Thickness:0.8
;Top/Bottom Thickness:1
;Out Wall Line Width:0.4
;Inner Wall Line Width:0.4
;Inital Layer Height:150
;Wall Line Count:2
;Infill Line Distance:4
;Infill Pattern:grid
;Infill Sparse Density:20
;Infill Wipe Distance:0
;Print Temperature:200
;Bed Temperature:60
;Support Enable:true
;Support Density:30
;Support Angle:60
;Adhesion Type:none
;machine is belt:false
;machine belt offset:10
;machine belt offset Y:0
;Raft Base Line Spacing:1.6
;Wait Heatup Sync:true
;----------Shell Config----------------
;Outer Wall Wipe Distance:200
;Outer Inset First:false
;Infill Before Walls:false
;Infill Overlap:0.16
;Fill Gaps Between Walls:everywhere
;Minimum Infill Area:1
;Top Surface Skin Layer:0
;Top Layers:4
;Z Seam Alignment:sharpest_corner
;Seam Corner Preference:z_seam_corner_inner
;Z Seam X:110
;Z Seam Y:110
;Horizontal Expansion:0
;Top/Bottom Pattern:zigzag
;Ironing Pattern:zigzag
;Vase Model:false
;----------Support Config----------------
;Support Type:everywhere
;Support Pattern:zigzag
;Support Infill Layer Thickness:0.15
;Minimum Support Area:5
;Enable Support Roof:false
;Support Roof Thickness:0.8
;Support Roof Pattern:lines
;Connect Support Lines:0
;Connect Support ZigZags:1
;Minimum Support X/Y Distance:0.2
;Support Line Distance:1.33
; ---------PrintSpeed & Travel----------
;Enable Print Cool:true
;Avoid Printed Parts Traveling:true
;Enable Retraction:true
;Retraction Distance:8
;Retraction Speed:100
;Retraction Prime Speed:100
;Maximum Retraction Count:100
;Minimum Extrusion Distance Window:1
;Z Hop When Retracted:false
;Z Hop Height:0.2
;Retract Before Outer Wall:true
;Print Speed:50
;Infill Speed:50

;Prime Tower Speed:50
;Travel Speed:120
;Initial Layer Speed:25
;Skirt/Brim Speed:25
;Combing Mode:infill
; --------SpecialModel&Mesh Fixes--------
;Union Overlapping Volum:true
;Remove All Holes:false
;Maximum Travel Resolution:0.6
;Maximum Deviation:0.05
;Maximum Model Angle:0.872665
;IS Mold Print:false
;Make Overhang Printable:false
;Enable Coasting:false
;Coasting Volumes:0.06
;Coasting Speed:0.9
;Raft AirGap:0.25
;Layer0 ZOverLap:0.13
;---------------------End of Head--------------------------
M140 S60
M105
M104 S200
M105
M109 S200
M105
M190 S60
M82 ;absolute extrusion mode
M220 S100 ;Reset Feedrate
M221 S100 ;Reset Flowrate

G28 ;Home

G92 E0 ;Reset Extruder
G1 Z2.0 F3000 ;Move Z Axis up
G1 X10.1 Y20 Z0.28 F5000.0 ;Move to start position
G1 X10.1 Y145.0 Z0.28 F1500.0 E15 ;Draw the first line
G1 X10.4 Y145.0 Z0.28 F5000.0 ;Move to side a little
G1 X10.4 Y20 Z0.28 F1500.0 E30 ;Draw the second line
G92 E0  ;Reset Extruder
G1 E-1.0000 F1800 ;Retract a bit
G1 Z2.0 F3000 ;Move Z Axis up
G1 E0.0000 F1800 

G92 E0
G92 E0
G1 F6000 E-8

;LAYER_COUNT:167

;LAYER:0
M107
G0 F3600 X108.837 Y116.738 Z0.15
;TYPE:SUPPORT
G1 F6000 E0
G1 F1500 X108.101 Y116.216 E0.01981
G1 X108.128 Y116.079 E0.02287
G1 X110.447 Y115.224 E0.07713
G1 X108.837 Y116.738 E0.12564
G0 F3600 X108.873 Y117.253
G1 F1500 X107.658 Y116.392 E0.15833
G1 X107.849 Y115.435 E0.17975
G1 X108.049 Y115.682 E0.18673
G1 X111.678 Y114.344 E0.27164
G1 X111.329 Y114.943 E0.28685
G1 X108.873 Y117.253 E0.36087
G0 F3600 X108.909 Y117.768
G1 F1500 X107.215 Y116.568 E0.40644
G1 X107.623 Y114.524 E0.45219
G1 X108.179 Y115.208 E0.47154
G1 X112.584 Y113.584 E0.5746
G1 X111.646 Y115.193 E0.61549
G1 X108.909 Y117.768 E0.69798
G0 F3600 X109.134 Y118.105
G1 F1500 X109.087 Y118.384 E0.70419
G1 X106.772 Y116.744 E0.76647
G1 X107.291 Y114.146 E0.82462
G1 X106.152 Y112.67 E0.86555
G1 X106.289 Y112.247 E0.87531
G1 X108.309 Y114.734 E0.94564
G1 X113.49 Y112.824 E1.06686
G1 X111.963 Y115.443 E1.13341
G1 X109.134 Y118.105 E1.21868
G0 F3600 X109.506 Y118.304
G1 F1500 X109.376 Y119.078 E1.23591
G1 X106.397 Y116.968 E1.31604
G1 X106.345 Y116.84 E1.31908
G1 X106.863 Y114.246 E1.37714
G1 X105.706 Y112.747 E1.41871
G1 X106.137 Y111.426 E1.44921
G1 X108.439 Y114.26 E1.52936
G1 X114.059 Y112.188 E1.66085
G1 X113.854 Y113.018 E1.67961
G1 X112.28 Y115.693 E1.74775
G1 X109.506 Y118.304 E1.83137
G0 F3600 X109.878 Y118.503
G1 F1500 X109.665 Y119.772 E1.85962
G1 X106.069 Y117.226 E1.95634
G1 X105.956 Y116.944 E1.96301
G1 X105.921 Y116.925 E1.96388
G1 X106.435 Y114.346 E2.02161
G1 X105.26 Y112.824 E2.06382
G1 X105.938 Y110.749 E2.11174
G1 X105.687 Y110.409 E2.12101
G1 X105.933 Y110.54 E2.12713
G1 X108.569 Y113.786 E2.21892
G1 X114.628 Y111.552 E2.36068
G1 X114.228 Y113.172 E2.39731
G1 X112.597 Y115.943 E2.46789
G1 X109.878 Y118.503 E2.54987
G0 F3600 X110.25 Y118.702
G1 F1500 X109.954 Y120.469 E2.5892
G1 X109.898 Y120.526 E2.59096
G1 X109.879 Y120.414 E2.59345
G1 X105.742 Y117.484 E2.70473
G1 X105.638 Y117.225 E2.71086
G1 X105.472 Y117.133 E2.71503
G1 X106.007 Y114.446 E2.77517
G1 X104.814 Y112.901 E2.81802
G1 X105.494 Y110.821 E2.86606
G1 X102.599 Y106.9 E2.97305
G1 X102.415 Y105.619 E3.00146
G1 X101.674 Y103.851 E3.04354
G1 X101.977 Y102.541 E3.07305
G1 X102 Y102.196 E3.08064
G1 X102.461 Y101.815 E3.09377
G1 X102.652 Y101.753 E3.09818
G1 X102.402 Y103.439 E3.13559
G1 X103.371 Y106.91 E3.2147
G1 X105.488 Y109.85 E3.29423
G1 X106.193 Y110.225 E3.31176
G1 X108.699 Y113.312 E3.39904
G1 X115.197 Y110.916 E3.55107
G1 X114.602 Y113.326 E3.60556
G1 X113.019 Y115.994 E3.67366
G1 X113.038 Y116.077 E3.67553
G1 X110.25 Y118.702 E3.75959
G0 F3600 X110.622 Y118.901
G1 F1500 X110.327 Y120.661 E3.79877
G1 X109.633 Y121.366 E3.82048
G1 X109.512 Y120.644 E3.83655
G1 X105.415 Y117.742 E3.94677
G1 X105.32 Y117.506 E3.95235
G1 X105.129 Y117.4 E3.95715
G1 X105.046 Y117.227 E3.96136
G1 X105.579 Y114.546 E4.02136
G1 X104.368 Y112.978 E4.06485
G1 X105.05 Y110.893 E4.11301
G1 X102.217 Y107.057 E4.21769
G1 X102.026 Y105.726 E4.24721
G1 X101.255 Y103.887 E4.29098
G1 X101.58 Y102.482 E4.32264
G1 X101.612 Y101.998 E4.33328
G1 X102.266 Y101.457 E4.35192
G1 X103.142 Y101.175 E4.37212
G1 X102.81 Y103.413 E4.42178
G1 X103.737 Y106.734 E4.49747
G1 X105.758 Y109.541 E4.5734
G1 X106.451 Y109.91 E4.59063
G1 X108.829 Y112.838 E4.67344
G1 X115.712 Y110.3 E4.83447
G1 X115.952 Y109.96 E4.84361
G1 X116.121 Y109.895 E4.84758
G1 X115.858 Y110.788 E4.86802
G1 X115.588 Y111.004 E4.87561
G1 X114.976 Y113.48 E4.9316
G1 X113.444 Y116.061 E4.99748
G1 X113.478 Y116.211 E5.00086
G1 X110.622 Y118.901 E5.08699
G0 F3600 X110.994 Y119.1
G1 F1500 X110.7 Y120.853 E5.126
G1 X109.367 Y122.206 E5.1677
G1 X109.145 Y120.874 E5.19734
G1 X105.088 Y118 E5.30648
G1 X105.005 Y117.794 E5.31136
G1 X104.678 Y117.626 E5.31943
G1 X104.711 Y117.454 E5.32327
G1 X104.628 Y117.281 E5.32748
G1 X105.151 Y114.647 E5.38643
G1 X103.922 Y113.056 E5.43056
G1 X104.606 Y110.965 E5.47886
G1 X101.835 Y107.214 E5.58123
G1 X101.637 Y105.833 E5.61186
G1 X100.836 Y103.923 E5.65732
G1 X101.183 Y102.423 E5.69112
G1 X101.224 Y101.798 E5.70487
G1 X102.07 Y101.1 E5.72894
G1 X103.633 Y100.597 E5.76499
G1 X103.218 Y103.388 E5.82693
G1 X104.103 Y106.558 E5.89918
G1 X106.028 Y109.232 E5.9715
G1 X106.711 Y109.596 E5.98849
G1 X108.959 Y112.364 E6.06677
G1 X115.457 Y109.968 E6.2188
G1 X115.697 Y109.629 E6.22792
G1 X116.06 Y109.49 E6.23645
G1 X116.699 Y108.575 E6.26095
G1 X117.217 Y107.912 E6.27942
G1 X116.615 Y109.302 E6.31267
G1 X116.636 Y109.562 E6.3184
G1 X116.207 Y111.022 E6.3518
G1 X115.945 Y111.231 E6.35916
G1 X115.403 Y113.497 E6.4103
G1 X115.335 Y113.659 E6.41416
G1 X113.869 Y116.128 E6.47719
G1 X113.918 Y116.346 E6.4821
G1 X110.994 Y119.1 E6.57027
G0 F3600 X111.366 Y119.299
G1 F1500 X111.073 Y121.045 E6.60914
G1 X109.727 Y122.412 E6.65125
G1 X109.295 Y124.204 E6.69171
G1 X108.778 Y121.104 E6.7607
G1 X104.761 Y118.258 E6.86877
G1 X104.69 Y118.082 E6.87294
G1 X104.277 Y117.87 E6.88313
G1 X104.24 Y117.782 E6.88522
G1 X104.293 Y117.508 E6.89135
G1 X104.21 Y117.335 E6.89556
G1 X104.723 Y114.748 E6.95346
G1 X103.476 Y113.134 E6.99823
G1 X104.162 Y111.037 E7.04666
G1 X101.453 Y107.371 E7.14673
G1 X101.248 Y105.94 E7.17846
G1 X100.417 Y103.959 E7.22562
G1 X100.784 Y102.372 E7.26137
G1 X100.797 Y101.884 E7.27209
G1 X100.86 Y101.579 E7.27893
G1 X101.875 Y100.742 E7.30781
G1 X104.387 Y99.933 E7.36574
G1 X104.311 Y100.249 E7.37287
G1 X104.024 Y100.687 E7.38437
G1 X103.626 Y103.363 E7.44376
G1 X104.469 Y106.382 E7.51256
G1 X106.298 Y108.923 E7.58129
G1 X106.971 Y109.282 E7.59803
G1 X109.089 Y111.89 E7.67178
G1 X115.202 Y109.636 E7.81481
G1 X115.441 Y109.298 E7.82389
G1 X115.802 Y109.16 E7.83238
G1 X116.371 Y108.346 E7.85418
G1 X117.946 Y106.328 E7.91037
G1 X118.097 Y105.86 E7.92117
G1 X118.627 Y105.054 E7.94234
G1 X118.692 Y105.512 E7.9525
G1 X117.022 Y109.369 E8.04476
G1 X117.041 Y109.604 E8.04994
G1 X116.555 Y111.256 E8.08774
G1 X116.302 Y111.458 E8.09484
G1 X115.785 Y113.618 E8.1436
G1 X115.692 Y113.842 E8.14892
G1 X114.294 Y116.196 E8.20902
G1 X114.358 Y116.481 E8.21544
G1 X111.366 Y119.299 E8.30566
G0 F3600 X111.738 Y119.498
G1 F1500 X111.447 Y121.235 E8.34432
G1 X110.09 Y122.614 E8.38679
G1 X109.355 Y125.662 E8.45562
G1 X109.277 Y125.144 E8.46712
G1 X108.988 Y124.798 E8.47701
G1 X108.411 Y121.334 E8.5541
G1 X104.434 Y118.516 E8.6611
G1 X104.375 Y118.37 E8.66456
G1 X103.966 Y118.16 E8.67465
G1 X103.824 Y117.826 E8.68261
G1 X103.875 Y117.562 E8.68852
G1 X103.792 Y117.389 E8.69273
G1 X104.295 Y114.851 E8.74953
G1 X103.117 Y113.357 E8.79129
G1 X103.062 Y113.115 E8.79674
G1 X103.718 Y111.109 E8.84307
G1 X101.071 Y107.528 E8.94082
G1 X100.859 Y106.047 E8.97366
G1 X99.998 Y103.995 E9.02251
G1 X100.385 Y102.321 E9.06023
G1 X100.398 Y101.837 E9.07086
G1 X100.497 Y101.36 E9.08155
G1 X101.483 Y100.547 E9.1096
G1 X101.481 Y100.448 E9.11178
G1 X105.158 Y99.264 E9.19658
G1 X104.866 Y99.656 E9.20731
G1 X104.684 Y100.41 E9.22433
G1 X104.407 Y100.833 E9.23543
G1 X104.034 Y103.338 E9.29103
G1 X104.835 Y106.206 E9.35639
G1 X106.568 Y108.614 E9.42152
G1 X107.231 Y108.968 E9.43802
G1 X109.219 Y111.416 E9.50724
G1 X114.947 Y109.304 E9.64126
G1 X115.186 Y108.967 E9.65033
G1 X115.54 Y108.832 E9.65864
G1 X116.037 Y108.089 E9.67827
G1 X116.095 Y108.05 E9.6798
G1 X117.587 Y106.137 E9.73306
G1 X117.734 Y105.685 E9.74349
G1 X118.611 Y104.349 E9.77857
G1 X118.515 Y103.526 E9.79676
G1 X118.967 Y104.606 E9.82246
G1 X119.104 Y105.567 E9.84377
G1 X117.429 Y109.436 E9.93632
G1 X117.446 Y109.646 E9.94094
G1 X116.904 Y111.489 E9.98311
G1 X116.659 Y111.685 E9.99
G1 X116.167 Y113.741 E10.03641
G1 X116.05 Y114.022 E10.04309
G1 X114.719 Y116.263 E10.10031
G1 X114.799 Y116.615 E10.10823
G1 X111.738 Y119.498 E10.20054
G0 F3600 X112.11 Y119.697
G1 F1500 X111.82 Y121.427 E10.23904
G1 X110.453 Y122.816 E10.28182
G1 X109.644 Y126.171 E10.35758
G1 X109.613 Y126.532 E10.36554
G1 X109.081 Y126.529 E10.37721
G1 X108.898 Y125.314 E10.40419
G1 X108.611 Y124.97 E10.41402
G1 X108.044 Y121.564 E10.48982
G1 X104.168 Y118.818 E10.59409
G1 X104.128 Y118.825 E10.59498
G1 X104.06 Y118.658 E10.59894
G1 X103.655 Y118.45 E10.60893
G1 X103.408 Y117.869 E10.62279
G1 X103.457 Y117.616 E10.62845
G1 X103.374 Y117.443 E10.63266
G1 X103.867 Y114.954 E10.68836
G1 X102.747 Y113.532 E10.7281
G1 X102.648 Y113.096 E10.73791
G1 X103.274 Y111.181 E10.78214
G1 X100.689 Y107.685 E10.87758
G1 X100.47 Y106.154 E10.91153
G1 X99.579 Y104.031 E10.96207
G1 X99.986 Y102.27 E11.00175
G1 X99.999 Y101.79 E11.01229
G1 X100.133 Y101.142 E11.02681
G1 X101.078 Y100.362 E11.05371
G1 X101.073 Y100.159 E11.05817
G1 X106.227 Y98.499 E11.17703
G1 X105.236 Y99.829 E11.21344
G1 X105.057 Y100.571 E11.2302
G1 X104.79 Y100.979 E11.2409
G1 X104.442 Y103.313 E11.2927
G1 X105.201 Y106.03 E11.35463
G1 X106.838 Y108.305 E11.41615
G1 X107.49 Y108.653 E11.43238
G1 X109.349 Y110.942 E11.49711
G1 X114.692 Y108.972 E11.62211
G1 X114.929 Y108.637 E11.63112
G1 X115.278 Y108.504 E11.63932
G1 X115.749 Y107.799 E11.65793
G1 X115.82 Y107.752 E11.6598
G1 X117.228 Y105.947 E11.71005
G1 X117.369 Y105.512 E11.72009
G1 X118.197 Y104.251 E11.75321
G1 X117.675 Y99.766 E11.85233
G1 X117.218 Y99.327 E11.86624
G1 X116.972 Y98.608 E11.88292
G1 X115.943 Y97.548 E11.91535
G1 X116.938 Y97.55 E11.93719
G1 X117.717 Y97.707 E11.95463
G1 X118.946 Y98.66 E11.98877
G1 X118.232 Y101.903 E12.06167
G1 X118.565 Y102.505 E12.07677
G1 X118.546 Y102.564 E12.07813
G1 X119.356 Y104.498 E12.12416
G1 X119.516 Y105.622 E12.14908
G1 X117.836 Y109.503 E12.24191
G1 X117.851 Y109.688 E12.24599
G1 X117.253 Y111.723 E12.29255
G1 X117.016 Y111.912 E12.2992
G1 X116.549 Y113.865 E12.34328
G1 X116.408 Y114.203 E12.35132
G1 X115.147 Y116.326 E12.40553
G1 X115.236 Y116.682 E12.41358
G1 X115.105 Y116.876 E12.41872
G1 X112.11 Y119.697 E12.50904
G0 F3600 X112.482 Y119.896
G1 F1500 X112.194 Y121.616 E12.54732
G1 X110.816 Y123.017 E12.59046
G1 X110.04 Y126.236 E12.66315
G1 X109.979 Y126.933 E12.6785
G1 X108.736 Y126.928 E12.70579
G1 X108.519 Y125.484 E12.73784
G1 X108.234 Y125.142 E12.74762
G1 X107.677 Y121.794 E12.82212
G1 X104.072 Y119.24 E12.9191
G1 X103.878 Y119.273 E12.92342
G1 X103.745 Y118.946 E12.93117
G1 X103.344 Y118.74 E12.94107
G1 X102.992 Y117.912 E12.96082
G1 X103.039 Y117.67 E12.96623
G1 X102.956 Y117.497 E12.97044
G1 X103.439 Y115.057 E13.02505
G1 X102.377 Y113.709 E13.06272
G1 X102.233 Y113.078 E13.07692
G1 X102.83 Y111.253 E13.11907
G1 X100.307 Y107.842 E13.21221
G1 X100.081 Y106.261 E13.24727
G1 X99.16 Y104.067 E13.2995
G1 X99.587 Y102.219 E13.34114
G1 X99.6 Y101.743 E13.35159
G1 X99.77 Y100.924 E13.36995
G1 X100.673 Y100.178 E13.39566
G1 X100.66 Y99.668 E13.40686
G1 X100.923 Y99.787 E13.4132
G1 X106.77 Y97.904 E13.54804
G1 X107.322 Y97.397 E13.56449
G1 X107.525 Y97.427 E13.569
G1 X105.606 Y100.002 E13.6395
G1 X105.43 Y100.732 E13.65598
G1 X105.173 Y101.125 E13.66629
G1 X104.85 Y103.288 E13.7143
G1 X105.567 Y105.854 E13.77278
G1 X107.108 Y107.996 E13.83071
G1 X107.75 Y108.339 E13.84668
G1 X109.479 Y110.468 E13.90689
G1 X114.437 Y108.64 E14.02289
G1 X114.672 Y108.307 E14.03183
G1 X115.016 Y108.176 E14.03991
G1 X115.461 Y107.509 E14.05752
G1 X115.545 Y107.454 E14.05972
G1 X116.869 Y105.757 E14.10697
G1 X117.004 Y105.339 E14.11661
G1 X117.783 Y104.153 E14.14776
G1 X117.294 Y99.955 E14.24054
G1 X116.872 Y99.55 E14.25338
G1 X116.623 Y98.822 E14.27027
G1 X114.996 Y97.147 E14.32152
G1 X116.977 Y97.15 E14.36501
G1 X117.888 Y97.333 E14.38541
G1 X119.391 Y98.499 E14.42717
G1 X118.655 Y101.842 E14.50231
G1 X118.998 Y102.463 E14.51788
G1 X118.972 Y102.545 E14.51977
G1 X119.745 Y104.39 E14.56368
G1 X119.928 Y105.677 E14.59222
G1 X118.243 Y109.57 E14.68534
G1 X118.256 Y109.73 E14.68886
G1 X117.601 Y111.957 E14.73982
G1 X117.373 Y112.139 E14.74622
G1 X116.931 Y113.988 E14.78795
G1 X116.766 Y114.384 E14.79737
G1 X115.575 Y116.389 E14.84856
G1 X115.667 Y116.757 E14.85689
G1 X115.413 Y117.135 E14.86689
G1 X112.482 Y119.896 E14.95528
G0 F3600 X112.854 Y120.095
G1 F1500 X112.567 Y121.806 E14.99336
G1 X111.179 Y123.218 E15.03683
G1 X110.436 Y126.301 E15.10644
G1 X110.345 Y127.335 E15.12923
G1 X108.391 Y127.326 E15.17212
G1 X108.14 Y125.654 E15.20924
G1 X107.857 Y125.313 E15.21896
G1 X107.31 Y122.024 E15.29215
G1 X103.976 Y119.662 E15.38185
G1 X103.628 Y119.722 E15.3896
G1 X103.43 Y119.234 E15.40116
G1 X103.033 Y119.03 E15.41096
G1 X102.576 Y117.955 E15.4366
G1 X102.621 Y117.724 E15.44177
G1 X102.538 Y117.551 E15.44598
G1 X103.011 Y115.16 E15.49948
G1 X102.007 Y113.885 E15.53511
G1 X101.819 Y113.059 E15.5537
G1 X102.386 Y111.325 E15.59375
G1 X99.925 Y107.999 E15.68457
G1 X99.692 Y106.368 E15.72074
G1 X98.741 Y104.103 E15.77467
G1 X99.188 Y102.168 E15.81826
G1 X99.201 Y101.696 E15.82863
G1 X99.407 Y100.706 E15.85082
G1 X100.268 Y99.994 E15.87535
