;FLAVOR:Marlin
;TIME:20436
;Filament used:17.6748m
;Layer height: 0.15
;MINX:61.734
;MINY:60.87
;MINZ:0.15
;MAXX:159.13
;MAXY:159.131
;MAXZ:37.05
                             
;Creality Print GCode Generated by CXEngine:NO_MAGE_VERSION_GIT_HEAD_BRANCH
;CXEngine Release Time:2022-09-30 09:53:04
;Gcode Generated Time:2023-02-26 10:32:36
;----------Machine Config--------------
;Machine Name:Creality Ender-3
;Machine Height:250
;Machine Width:220
;Machine Depth:220
;Material name:PLA
;Number of Extruders:1
;ExtruderParams[0] Nozzle Diameter1000
;----------Profile Config---------------
;Engine Version:275f99b
;Engine Release Time:2022-09-30 09:42:18
;Layer Height:0.15
;Wall Thickness:0.8
;Top/Bottom Thickness:1
;Out Wall Line Width:0.4
;Inner Wall Line Width:0.4
;Inital Layer Height:150
;Wall Line Count:2
;Infill Line Distance:4
;Infill Pattern:grid
;Infill Sparse Density:20
;Infill Wipe Distance:0
;Print Temperature:200
;Bed Temperature:60
;Support Enable:true
;Support Density:30
;Support Angle:60
;Adhesion Type:none
;machine is belt:false
;machine belt offset:10
;machine belt offset Y:0
;Raft Base Line Spacing:1.6
;Wait Heatup Sync:true
;----------Shell Config----------------
;Outer Wall Wipe Distance:200
;Outer Inset First:false
;Infill Before Walls:false
;Infill Overlap:0.16
;Fill Gaps Between Walls:everywhere
;Minimum Infill Area:1
;Top Surface Skin Layer:0
;Top Layers:4
;Z Seam Alignment:sharpest_corner
;Seam Corner Preference:z_seam_corner_inner
;Z Seam X:110
;Z Seam Y:110
;Horizontal Expansion:0
;Top/Bottom Pattern:zigzag
;Ironing Pattern:zigzag
;Vase Model:false
;----------Support Config----------------
;Support Type:everywhere
;Support Pattern:zigzag
;Support Infill Layer Thickness:0.15
;Minimum Support Area:5
;Enable Support Roof:false
;Support Roof Thickness:0.8
;Support Roof Pattern:lines
;Connect Support Lines:0
;Connect Support ZigZags:1
;Minimum Support X/Y Distance:0.2
;Support Line Distance:1.33
; ---------PrintSpeed & Travel----------
;Enable Print Cool:true
;Avoid Printed Parts Traveling:true
;Enable Retraction:true
;Retraction Distance:8
;Retraction Speed:100
;Retraction Prime Speed:100
;Maximum Retraction Count:100
;Minimum Extrusion Distance Window:1
;Z Hop When Retracted:false
;Z Hop Height:0.2
;Retract Before Outer Wall:true
;Print Speed:50
;Infill Speed:50

;Prime Tower Speed:50
;Travel Speed:120
;Initial Layer Speed:25
;Skirt/Brim Speed:25
;Combing Mode:infill
; --------SpecialModel&Mesh Fixes--------
;Union Overlapping Volum:true
;Remove All Holes:false
;Maximum Travel Resolution:0.6
;Maximum Deviation:0.05
;Maximum Model Angle:0.872665
;IS Mold Print:false
;Make Overhang Printable:false
;Enable Coasting:false
;Coasting Volumes:0.06
;Coasting Speed:0.9
;Raft AirGap:0.25
;Layer0 ZOverLap:0.13
;---------------------End of Head--------------------------
M140 S60
M105
M104 S200
M105
M109 S200
M105
M190 S60
M82 ;absolute extrusion mode
M220 S100 ;Reset Feedrate
M221 S100 ;Reset Flowrate

G28 ;Home

G92 E0 ;Reset Extruder
G1 Z2.0 F3000 ;Move Z Axis up
G1 X10.1 Y20 Z0.28 F5000.0 ;Move to start position
G1 X10.1 Y145.0 Z0.28 F1500.0 E15 ;Draw the first line
G1 X10.4 Y145.0 Z0.28 F5000.0 ;Move to side a little
G1 X10.4 Y20 Z0.28 F1500.0 E30 ;Draw the second line
G92 E0  ;Reset Extruder
G1 E-1.0000 F1800 ;Retract a bit
G1 Z2.0 F3000 ;Move Z Axis up
G1 E0.0000 F1800 

G92 E0
G92 E0
G1 F6000 E-8

;LAYER_COUNT:247

;LAYER:0
M107
;MESH:
G0 F3600 X78.421 Y74.058 Z0.15
;TYPE:WALL-INNER
G1 F6000 E0
G1 F1500 X79.508 Y73.098 E0.03979
G1 X81.652 Y71.427 E0.11438
G1 X81.972 Y71.221 E0.12482
G1 X82.371 Y70.907 E0.13876
G1 X84.387 Y69.556 E0.20535
G1 X86.068 Y68.544 E0.25919
G1 X87.889 Y67.549 E0.31613
G1 X89.9 Y66.557 E0.37766
G1 X90.199 Y66.456 E0.38632
G1 X91.061 Y66.043 E0.41254
G1 X91.39 Y65.936 E0.42204
G1 X92.286 Y65.532 E0.44901
G1 X94.313 Y64.792 E0.50822
G1 X96.28 Y64.153 E0.56497
G1 X96.637 Y64.075 E0.575
G1 X97.679 Y63.761 E0.60486
G1 X100.526 Y63.092 E0.68511
G1 X102.996 Y62.661 E0.75391
G1 X104.179 Y62.499 E0.78667
G1 X106.917 Y62.245 E0.86212
G1 X108.162 Y62.212 E0.8963
G1 X108.425 Y62.175 E0.90358
G1 X110.276 Y62.149 E0.95438
G1 X112.077 Y62.21 E1.00383
G1 X114.417 Y62.34 E1.06813
G1 X114.998 Y62.424 E1.08424
G1 X115.966 Y62.507 E1.1109
G1 X116.316 Y62.579 E1.12071
G1 X117.163 Y62.678 E1.14411
G1 X118.476 Y62.901 E1.18065
G1 X120.703 Y63.348 E1.24298
G1 X121.528 Y63.583 E1.26652
G1 X121.924 Y63.658 E1.27757
G1 X122.218 Y63.758 E1.2861
G1 X122.724 Y63.856 E1.30024
G1 X123.416 Y64.091 E1.32029
G1 X123.896 Y64.191 E1.33375
G1 X126.902 Y65.213 E1.42087
G1 X130.757 Y66.87 E1.536
G1 X132.929 Y67.994 E1.60311
G1 X134.316 Y68.766 E1.64667
G1 X136.804 Y70.352 E1.72763
G1 X138.488 Y71.542 E1.78421
G1 X139.811 Y72.548 E1.82981
G1 X142.061 Y74.452 E1.91069
G1 X144.154 Y76.494 E1.99093
G1 X145.704 Y78.118 E2.05253
G1 X147.561 Y80.322 E2.13161
G1 X148.552 Y81.623 E2.17649
G1 X148.781 Y81.976 E2.18803
G1 X149.075 Y82.346 E2.201
G1 X150.438 Y84.375 E2.26807
G1 X152.021 Y87.101 E2.35457
G1 X152.781 Y88.529 E2.39896
G1 X154.018 Y91.236 E2.48062
G1 X154.788 Y93.103 E2.53604
G1 X155.902 Y96.476 E2.63351
G1 X156.476 Y98.614 E2.69425
G1 X156.756 Y99.835 E2.72863
G1 X157.094 Y101.534 E2.77616
G1 X157.42 Y103.554 E2.83231
G1 X157.756 Y106.918 E2.92507
G1 X157.842 Y108.889 E2.97921
G1 X157.831 Y111.756 E3.05788
G1 X157.661 Y114.425 E3.13126
G1 X157.577 Y115 E3.14721
G1 X157.494 Y115.964 E3.17376
G1 X157.421 Y116.317 E3.18365
G1 X157.325 Y117.167 E3.20712
G1 X156.755 Y120.196 E3.29169
G1 X156.411 Y121.668 E3.33317
G1 X156.242 Y122.227 E3.3492
G1 X156.146 Y122.719 E3.36295
G1 X155.91 Y123.417 E3.38317
G1 X155.81 Y123.891 E3.39646
G1 X154.64 Y127.252 E3.49412
G1 X153.64 Y129.637 E3.56508
G1 X153.13 Y130.757 E3.59885
G1 X152.004 Y132.932 E3.66605
G1 X150.853 Y134.924 E3.72918
G1 X149.638 Y136.819 E3.79095
G1 X148.964 Y137.798 E3.82356
G1 X147.378 Y139.902 E3.89586
G1 X145.423 Y142.196 E3.97856
G1 X143.365 Y144.29 E4.05913
G1 X141.865 Y145.72 E4.11599
G1 X139.656 Y147.578 E4.1952
G1 X139.003 Y148.084 E4.21787
G1 X138.713 Y148.27 E4.22732
G1 X138.342 Y148.578 E4.24055
G1 X138.029 Y148.779 E4.25076
G1 X137.627 Y149.096 E4.26481
G1 X135.607 Y150.448 E4.3315
G1 X133.291 Y151.806 E4.40517
G1 X131.419 Y152.808 E4.46343
G1 X128.755 Y154.022 E4.54377
G1 X126.848 Y154.805 E4.60033
G1 X125.227 Y155.367 E4.64741
G1 X122.33 Y156.237 E4.73041
G1 X119.918 Y156.811 E4.79844
G1 X118.211 Y157.147 E4.84618
G1 X115.824 Y157.5 E4.91239
G1 X113.708 Y157.71 E4.97074
G1 X111.617 Y157.827 E5.0282
G1 X108.249 Y157.833 E5.12062
G1 X106.12 Y157.695 E5.17916
G1 X104.048 Y157.495 E5.23628
G1 X103.683 Y157.421 E5.2465
G1 X102.831 Y157.325 E5.27003
G1 X99.299 Y156.653 E5.36868
G1 X96.401 Y155.881 E5.45098
G1 X95.12 Y155.485 E5.48777
G1 X92.383 Y154.493 E5.56765
G1 X89.25 Y153.134 E5.66136
G1 X87.046 Y151.991 E5.72948
G1 X85.032 Y150.825 E5.79334
G1 X83.196 Y149.648 E5.85318
G1 X82.19 Y148.955 E5.8867
G1 X80.134 Y147.408 E5.9573
G1 X79.123 Y146.578 E5.9932
G1 X78.419 Y145.939 E6.01929
G1 X78.122 Y145.708 E6.02961
G1 X76.071 Y143.746 E6.10749
G1 X74.124 Y141.691 E6.18517
G1 X72.419 Y139.652 E6.2581
G1 X71.43 Y138.352 E6.30292
G1 X71.221 Y138.027 E6.31353
G1 X70.904 Y137.626 E6.32755
G1 X69.556 Y135.613 E6.39403
G1 X68.544 Y133.934 E6.44782
G1 X67.547 Y132.107 E6.50493
G1 X66.551 Y130.086 E6.56676
G1 X65.205 Y126.875 E6.66229
G1 X64.113 Y123.579 E6.75757
G1 X63.811 Y122.521 E6.78776
G1 X63.194 Y119.935 E6.86071
G1 X62.855 Y118.207 E6.90903
G1 X62.497 Y115.81 E6.97553
G1 X62.244 Y113.074 E7.05093
G1 X62.174 Y111.604 E7.09131
G1 X62.171 Y108.241 E7.18359
G1 X62.339 Y105.588 E7.25653
G1 X62.424 Y105.003 E7.27275
G1 X62.506 Y104.04 E7.29927
G1 X62.579 Y103.682 E7.3093
G1 X62.675 Y102.834 E7.33272
G1 X63.348 Y99.294 E7.43159
G1 X63.581 Y98.481 E7.4548
G1 X63.854 Y97.279 E7.48862
G1 X64.088 Y96.592 E7.50854
G1 X64.19 Y96.11 E7.52205
G1 X65.304 Y92.892 E7.6155
G1 X66.36 Y90.363 E7.6907
G1 X66.872 Y89.238 E7.72461
G1 X68.004 Y87.056 E7.79206
G1 X69.147 Y85.076 E7.8548
G1 X70.354 Y83.193 E7.91617
G1 X71.035 Y82.205 E7.9491
G1 X72.089 Y80.786 E7.9976
G1 X73.421 Y79.126 E8.056
G1 X74.292 Y78.122 E8.09247
G1 X76.247 Y76.078 E8.17008
G1 X78.303 Y74.13 E8.2478
G1 X78.421 Y74.058 E8.25159
G0 F3600 X78.182 Y73.735
;TYPE:WALL-OUTER
G1 F1500 X79.243 Y72.798 E8.29043
G1 X80.109 Y72.098 E8.32099
G1 X81.429 Y71.094 E8.3665
G1 X81.74 Y70.895 E8.37663
G1 X82.14 Y70.58 E8.3906
G1 X84.175 Y69.216 E8.45782
G1 X85.868 Y68.197 E8.51204
G1 X87.712 Y67.19 E8.56969
G1 X89.745 Y66.187 E8.6319
G1 X90.048 Y66.085 E8.64067
G1 X90.912 Y65.67 E8.66697
G1 X91.246 Y65.562 E8.6766
G1 X92.135 Y65.161 E8.70336
G1 X94.176 Y64.416 E8.76298
G1 X96.179 Y63.765 E8.82077
G1 X96.537 Y63.687 E8.83083
G1 X97.569 Y63.376 E8.8604
G1 X100.452 Y62.699 E8.94166
G1 X101.725 Y62.461 E8.9772
G1 X102.932 Y62.266 E9.01075
G1 X104.135 Y62.102 E9.04406
G1 X106.899 Y61.845 E9.12023
G1 X108.128 Y61.813 E9.15397
G1 X108.394 Y61.775 E9.16134
G1 X110.283 Y61.749 E9.21318
G1 X112.09 Y61.81 E9.26279
G1 X114.462 Y61.942 E9.32798
G1 X115.044 Y62.026 E9.34411
G1 X116.022 Y62.11 E9.37105
G1 X116.38 Y62.184 E9.38108
G1 X117.22 Y62.282 E9.40429
G1 X118.555 Y62.509 E9.44144
G1 X120.804 Y62.96 E9.50438
G1 X121.62 Y63.193 E9.52767
G1 X122.026 Y63.27 E9.53901
G1 X122.321 Y63.37 E9.54755
G1 X122.827 Y63.468 E9.5617
G1 X123.522 Y63.704 E9.58184
G1 X124.001 Y63.804 E9.59526
G1 X127.036 Y64.836 E9.68323
G1 X130.11 Y66.136 E9.77481
G1 X130.928 Y66.508 E9.79947
G1 X133.124 Y67.644 E9.86731
G1 X134.511 Y68.416 E9.91087
G1 X137.035 Y70.025 E9.993
G1 X138.719 Y71.215 E10.04958
G1 X140.065 Y72.239 E10.09599
G1 X141.146 Y73.13 E10.13443
G1 X142.328 Y74.155 E10.17736
G1 X144.443 Y76.218 E10.25843
G1 X146.01 Y77.86 E10.32071
G1 X147.867 Y80.064 E10.39979
G1 X148.88 Y81.394 E10.44566
G1 X149.106 Y81.742 E10.45705
G1 X149.398 Y82.109 E10.46992
G1 X150.779 Y84.165 E10.53788
G1 X152.367 Y86.9 E10.62466
G1 X153.141 Y88.354 E10.66986
G1 X154.388 Y91.084 E10.75221
G1 X155.163 Y92.964 E10.80801
G1 X156.282 Y96.351 E10.90589
G1 X156.866 Y98.525 E10.96766
G1 X157.146 Y99.746 E11.00203
G1 X157.489 Y101.47 E11.05026
G1 X157.818 Y103.511 E11.10699
G1 X158.021 Y105.379 E11.15855
G1 X158.156 Y106.901 E11.20048
G1 X158.242 Y108.872 E11.25461
G1 X158.231 Y111.769 E11.33411
G1 X158.072 Y114.151 E11.39961
G1 X158.06 Y114.46 E11.4081
G1 X157.975 Y115.046 E11.42435
G1 X157.891 Y116.022 E11.45123
G1 X157.816 Y116.38 E11.46126
G1 X157.722 Y117.22 E11.48446
G1 X157.145 Y120.287 E11.57009
G1 X156.8 Y121.763 E11.61168
G1 X156.631 Y122.324 E11.62776
G1 X156.532 Y122.826 E11.6418
G1 X156.296 Y123.523 E11.66199
G1 X156.195 Y124.001 E11.6754
G1 X155.013 Y127.398 E11.77409
G1 X154.004 Y129.803 E11.84566
G1 X153.492 Y130.928 E11.87957
G1 X152.357 Y133.12 E11.9473
G1 X151.19 Y135.14 E12.01132
G1 X149.975 Y137.035 E12.07308
G1 X149.285 Y138.036 E12.10645
G1 X148.238 Y139.447 E12.15466
G1 X147.693 Y140.148 E12.17902
G1 X145.716 Y142.468 E12.26266
G1 X143.641 Y144.58 E12.3439
G1 X142.133 Y146.017 E12.40106
G1 X139.914 Y147.884 E12.48063
G1 X139.23 Y148.414 E12.50438
G1 X138.949 Y148.594 E12.51353
G1 X138.576 Y148.903 E12.52683
G1 X138.261 Y149.105 E12.53709
G1 X137.864 Y149.418 E12.55097
G1 X135.822 Y150.786 E12.61841
G1 X133.48 Y152.159 E12.6929
G1 X131.601 Y153.164 E12.75137
G1 X128.916 Y154.388 E12.83234
G1 X126.989 Y155.18 E12.88951
G1 X125.346 Y155.749 E12.93722
G1 X123.345 Y156.37 E12.99471
G1 X122.423 Y156.626 E13.02097
G1 X120.011 Y157.2 E13.089
G1 X118.274 Y157.542 E13.13758
G1 X117.07 Y157.735 E13.17104
G1 X115.864 Y157.898 E13.20443
G1 X113.748 Y158.108 E13.26278
G1 X111.621 Y158.227 E13.32123
G1 X108.239 Y158.233 E13.41403
G1 X106.089 Y158.094 E13.47315
G1 X103.984 Y157.891 E13.53118
G1 X103.62 Y157.816 E13.54138
G1 X102.778 Y157.722 E13.56462
G1 X99.713 Y157.145 E13.6502
G1 X99.198 Y157.041 E13.66462
G1 X96.298 Y156.268 E13.74697
G1 X94.992 Y155.864 E13.78449
G1 X92.232 Y154.864 E13.86504
G1 X89.89 Y153.863 E13.93492
G1 X89.072 Y153.492 E13.95957
G1 X86.862 Y152.346 E14.02788
G1 X84.816 Y151.162 E14.09274
G1 X82.98 Y149.985 E14.15259
G1 X81.963 Y149.284 E14.18648
G1 X80.552 Y148.238 E14.23468
G1 X79.889 Y147.724 E14.2577
G1 X78.862 Y146.881 E14.29415
G1 X78.161 Y146.245 E14.32013
G1 X77.861 Y146.011 E14.33057
G1 X75.787 Y144.028 E14.4093
G1 X73.817 Y141.948 E14.48791
G1 X72.112 Y139.909 E14.56084
G1 X71.097 Y138.575 E14.60684
G1 X70.895 Y138.26 E14.61711
G1 X70.582 Y137.864 E14.63096
G1 X69.216 Y135.825 E14.6983
G1 X68.201 Y134.14 E14.75228
G1 X67.19 Y132.288 E14.81018
G1 X66.187 Y130.252 E14.87245
G1 X64.829 Y127.014 E14.9688
G1 X63.733 Y123.705 E15.06445
G1 X63.422 Y122.617 E15.0955
G1 X63.36 Y122.293 E15.10455
G1 X63.133 Y121.475 E15.12785
G1 X62.801 Y120.012 E15.16901
G1 X62.462 Y118.284 E15.21733
G1 X62.265 Y117.067 E15.25116
G1 X62.101 Y115.864 E15.28447
G1 X61.844 Y113.093 E15.36084
G1 X61.774 Y111.623 E15.40122
G1 X61.771 Y108.232 E15.49427
G1 X61.941 Y105.543 E15.5682
G1 X62.026 Y104.957 E15.58445
G1 X62.109 Y103.984 E15.61124
G1 X62.184 Y103.619 E15.62147
G1 X62.28 Y102.773 E15.64483
G1 X62.785 Y100.042 E15.72104
G1 X62.959 Y99.197 E15.74471
G1 X63.193 Y98.381 E15.768
G1 X63.469 Y97.167 E15.80216
G1 X63.702 Y96.485 E15.82194
G1 X63.805 Y96 E15.83555
G1 X64.929 Y92.753 E15.92983
G1 X65.996 Y90.197 E16.00583
G1 X66.508 Y89.072 E16.03975
G1 X67.649 Y86.872 E16.10775
G1 X68.81 Y84.86 E16.17149
G1 X70.017 Y82.977 E16.23286
G1 X70.714 Y81.966 E16.26656
G1 X71.768 Y80.547 E16.31506
G1 X73.119 Y78.864 E16.37428
G1 X73.99 Y77.86 E16.41075
G1 X75.965 Y75.794 E16.48918
G1 X78.06 Y73.81 E16.56835
G1 X78.182 Y73.735 E16.57228
G0 F3600 X78.331 Y73.603
G0 X78.622 Y73.933
;;retract;;
G1 F6000 E8.57228
G0 F3600 X77.755 Y72.954
G0 X78.688 Y72.129
G0 X81.631 Y69.874
G0 X83.711 Y68.481
G0 X85.438 Y67.441
G0 X87.314 Y66.418
G0 X90.596 Y64.858
G0 X93.894 Y63.593
G0 X97.347 Y62.535
G0 X100.279 Y61.847
G0 X104.038 Y61.238
G0 X106.851 Y60.977
G0 X110.293 Y60.879
G0 X114.552 Y61.077
G0 X117.345 Y61.421
G0 X121.013 Y62.116
G0 X124.237 Y62.966
G0 X127.351 Y64.024
G0 X131.305 Y65.723
G0 X134.959 Y67.671
G0 X137.521 Y69.304
G0 X140.611 Y71.561
G0 X142.477 Y73.143
G0 X145.032 Y75.58
G0 X143.979 Y76.66
;TYPE:SKIN
G1 F6000 E16.57228
G1 F1500 X143.864 Y76.547 E16.5767
G1 X141.897 Y74.628 E16.65211
G1 X139.655 Y72.731 E16.7327
G1 X138.934 Y72.183 E16.75755
G1 X147.851 Y81.1 E17.10357
G1 X148.349 Y81.754 E17.12613
G1 X148.584 Y82.116 E17.13797
G1 X148.878 Y82.484 E17.1509
G1 X149.306 Y83.121 E17.17196
G1 X136.894 Y70.709 E17.65361
G1 X136.681 Y70.558 E17.66077
G1 X135.295 Y69.676 E17.70585
G1 X150.389 Y84.77 E18.29158
G1 X151.171 Y86.117 E18.33432
G1 X133.819 Y68.765 E19.00767
G1 X132.817 Y68.208 E19.03913
G1 X132.566 Y68.078 E19.04689
G1 X151.927 Y87.439 E19.7982
G1 X152.566 Y88.64 E19.83553
G1 X152.571 Y88.648 E19.83579
G1 X131.393 Y67.47 E20.65761
G1 X130.65 Y67.086 E20.68056
G1 X130.286 Y66.929 E20.69144
G1 X153.047 Y89.69 E21.57469
G1 X153.524 Y90.733 E21.60616
G1 X129.294 Y66.503 E22.54641
G1 X128.302 Y66.077 E22.57604
G1 X153.966 Y91.741 E23.57194
G1 X154.362 Y92.703 E23.60049
G1 X127.31 Y65.65 E24.65027
G1 X126.806 Y65.433 E24.66533
G1 X126.384 Y65.29 E24.67756
G1 X154.7 Y93.606 E25.77637
G1 X154.978 Y94.45 E25.80075
G1 X125.527 Y64.999 E26.94361
G1 X124.67 Y64.708 E26.96845
G1 X155.258 Y95.295 E28.15541
G1 X155.536 Y96.139 E28.17979
G1 X123.817 Y64.42 E29.41067
G1 X123.351 Y64.323 E29.42373
G1 X123.053 Y64.222 E29.43236
G1 X155.779 Y96.947 E30.70229
G1 X155.987 Y97.721 E30.72428
G1 X122.28 Y64.015 E32.03228
G1 X122.156 Y63.991 E32.03574
G1 X121.865 Y63.891 E32.04419
G1 X121.527 Y63.827 E32.05363
G1 X156.194 Y98.494 E33.39889
G1 X156.24 Y98.668 E33.40383
G1 X156.372 Y99.238 E33.41989
G1 X120.743 Y63.609 E34.80249
G1 X120.647 Y63.581 E34.80523
G1 X120.025 Y63.456 E34.82264
G1 X156.537 Y99.969 E36.23953
G1 X156.679 Y100.676 E36.25931
G1 X119.317 Y63.314 E37.70916
G1 X118.609 Y63.172 E37.72898
G1 X156.82 Y101.382 E39.21175
G1 X156.857 Y101.571 E39.21704
G1 X156.937 Y102.065 E39.23077
G1 X117.921 Y63.049 E40.7448
G1 X117.24 Y62.934 E40.76375
G1 X157.046 Y102.74 E42.30845
