;FLAVOR:Marlin
;TIME:229
;Filament used: 0.0456334m
;Layer height: 0.2
;MINX:135.712
;MINY:135.712
;MINZ:0.2
;MAXX:164.288
;MAXY:164.288
;MAXZ:4
;Generated with Creality Slicer 4.8.2-191
M140 S50
M105
M190 S50
M104 S200
M105
M109 S200
M82 ;absolute extrusion mode

G28 ;Home

G92 E0 ;Reset Extruder
G1 Z2.0 F3000 ;Move Z Axis up
G1 X10.1 Y20 Z0.28 F5000.0 ;Move to start position
G1 X10.1 Y200.0 Z0.28 F1500.0 E15 ;Draw the first line
G1 X10.4 Y200.0 Z0.28 F5000.0 ;Move to side a little
G1 X10.4 Y20 Z0.28 F1500.0 E30 ;Draw the second line
G92 E0 ;Reset Extruder
G1 Z2.0 F3000 ;Move Z Axis up

G92 E0
G92 E0
G1 F2700 E-5
;LAYER_COUNT:20
;LAYER:0
M107
G0 F6000 X139.835 Y139.957 Z0.2
;TYPE:SKIRT
G1 F2700 E0
G1 F1200 X140.237 Y139.569 E0.01858
G1 X140.443 Y139.38 E0.02788
G1 X140.849 Y139.026 E0.0458
G1 X140.926 Y138.962 E0.04913
G1 X141.454 Y138.549 E0.07142
G1 X141.66 Y138.398 E0.07992
G1 X142.238 Y138.002 E0.10322
G1 X142.674 Y137.734 E0.12024
G1 X142.917 Y137.592 E0.1296
G1 X143.653 Y137.198 E0.15737
G1 X143.766 Y137.143 E0.16155
G1 X144.108 Y136.984 E0.17409
G1 X144.326 Y136.887 E0.18203
G1 X144.968 Y136.625 E0.20509
G1 X145.038 Y136.599 E0.20758
G1 X145.503 Y136.438 E0.22394
G1 X145.752 Y136.358 E0.23264
G1 X146.308 Y136.196 E0.2519
G1 X146.414 Y136.168 E0.25555
G1 X147.005 Y136.029 E0.27574
G1 X147.243 Y135.98 E0.28383
G1 X148.27 Y135.819 E0.3184
G1 X148.619 Y135.781 E0.33008
G1 X149.301 Y135.728 E0.35283
G1 X149.409 Y135.723 E0.35642
G1 X150.093 Y135.712 E0.37918
G1 X150.345 Y135.716 E0.38756
G1 X150.961 Y135.743 E0.40807
G1 X151.072 Y135.751 E0.41177
G1 X151.583 Y135.8 E0.42884
G1 X151.843 Y135.831 E0.43755
G1 X152.698 Y135.968 E0.46635
G1 X152.828 Y135.994 E0.47076
G1 X153.254 Y136.088 E0.48527
G1 X153.461 Y136.138 E0.49235
G1 X153.927 Y136.261 E0.50838
G1 X154.031 Y136.291 E0.51198
G1 X154.659 Y136.493 E0.53393
G1 X154.893 Y136.576 E0.54218
G1 X155.467 Y136.798 E0.56265
G1 X155.572 Y136.842 E0.56644
G1 X156.102 Y137.08 E0.58576
G1 X156.332 Y137.191 E0.59426
G1 X157.225 Y137.674 E0.62803
G1 X157.514 Y137.848 E0.63925
G1 X158.243 Y138.327 E0.66826
G1 X158.338 Y138.395 E0.67214
G1 X158.713 Y138.676 E0.68773
G1 X158.906 Y138.827 E0.69588
G1 X159.315 Y139.163 E0.71348
G1 X159.388 Y139.226 E0.71669
G1 X159.915 Y139.712 E0.74054
G1 X160.098 Y139.892 E0.74907
G1 X160.479 Y140.286 E0.7673
G1 X160.548 Y140.361 E0.77069
G1 X160.9 Y140.763 E0.78846
G1 X161.066 Y140.962 E0.79708
G1 X161.525 Y141.551 E0.82192
G1 X161.583 Y141.631 E0.82521
G1 X161.836 Y141.996 E0.83998
G1 X161.975 Y142.205 E0.84833
G1 X162.388 Y142.877 E0.87456
G1 X162.435 Y142.96 E0.87773
G1 X162.643 Y143.344 E0.89226
G1 X162.764 Y143.579 E0.90105
G1 X163.052 Y144.185 E0.92336
G1 X163.096 Y144.285 E0.927
G1 X163.3 Y144.781 E0.94484
G1 X163.39 Y145.016 E0.95321
G1 X163.617 Y145.669 E0.9762
G1 X163.647 Y145.765 E0.97955
G1 X163.791 Y146.266 E0.99688
G1 X163.861 Y146.534 E1.0061
G1 X164.004 Y147.157 E1.02736
G1 X164.021 Y147.242 E1.03024
G1 X164.117 Y147.793 E1.04884
G1 X164.153 Y148.037 E1.05704
G1 X164.226 Y148.647 E1.07748
G1 X164.236 Y148.757 E1.08115
G1 X164.273 Y149.337 E1.10048
G1 X164.282 Y149.575 E1.1084
G1 X164.288 Y150.197 E1.12909
G1 X164.286 Y150.304 E1.13265
G1 X164.264 Y150.824 E1.14996
G1 X164.247 Y151.081 E1.15853
G1 X164.184 Y151.732 E1.18028
G1 X164.171 Y151.835 E1.18374
G1 X164.081 Y152.422 E1.20349
G1 X164.036 Y152.67 E1.21187
G1 X163.891 Y153.348 E1.23493
G1 X163.867 Y153.445 E1.23825
G1 X163.746 Y153.894 E1.25372
G1 X163.669 Y154.157 E1.26284
G1 X163.507 Y154.664 E1.28054
G1 X163.231 Y155.396 E1.30656
G1 X163.138 Y155.618 E1.31456
G1 X162.889 Y156.169 E1.33467
G1 X162.84 Y156.27 E1.33841
G1 X162.582 Y156.769 E1.35709
G1 X162.455 Y157 E1.36586
G1 X162.205 Y157.431 E1.38243
G1 X162.158 Y157.508 E1.38543
G1 X161.776 Y158.091 E1.40861
G1 X161.633 Y158.295 E1.4169
G1 X161.276 Y158.777 E1.43685
G1 X161.199 Y158.875 E1.441
G1 X160.859 Y159.287 E1.45876
G1 X160.702 Y159.468 E1.46673
G1 X160.228 Y159.979 E1.48991
G1 X160.162 Y160.046 E1.49304
G1 X159.768 Y160.427 E1.51127
G1 X159.571 Y160.608 E1.52017
G1 X159.132 Y160.991 E1.53955
G1 X159.046 Y161.062 E1.54326
G1 X158.546 Y161.451 E1.56433
G1 X158.34 Y161.602 E1.57282
G1 X157.762 Y161.998 E1.59612
G1 X157.326 Y162.266 E1.61315
G1 X157.083 Y162.408 E1.62251
G1 X156.413 Y162.769 E1.64782
G1 X156.312 Y162.819 E1.65157
G1 X155.891 Y163.017 E1.66704
G1 X155.661 Y163.119 E1.67541
G1 X155.032 Y163.375 E1.698
G1 X154.962 Y163.401 E1.70048
G1 X154.497 Y163.562 E1.71685
G1 X154.248 Y163.642 E1.72555
G1 X153.692 Y163.804 E1.74481
G1 X153.586 Y163.832 E1.74845
G1 X152.995 Y163.971 E1.76865
G1 X152.757 Y164.02 E1.77673
G1 X151.73 Y164.181 E1.81131
G1 X151.381 Y164.219 E1.82298
G1 X150.699 Y164.272 E1.84573
G1 X150.591 Y164.277 E1.84933
G1 X149.907 Y164.288 E1.87208
G1 X149.655 Y164.284 E1.88046
G1 X149.039 Y164.257 E1.90097
G1 X148.928 Y164.249 E1.90467
G1 X148.417 Y164.2 E1.92175
G1 X148.157 Y164.169 E1.93046
G1 X147.302 Y164.032 E1.95926
G1 X147.172 Y164.006 E1.96367
G1 X146.746 Y163.912 E1.97818
G1 X146.539 Y163.862 E1.98526
G1 X146.073 Y163.739 E2.00129
G1 X145.969 Y163.709 E2.00489
G1 X145.341 Y163.507 E2.02683
G1 X145.107 Y163.424 E2.03509
G1 X144.533 Y163.202 E2.05556
G1 X144.428 Y163.158 E2.05934
G1 X143.88 Y162.911 E2.07934
G1 X143.649 Y162.799 E2.08788
G1 X142.784 Y162.331 E2.12059
G1 X142.496 Y162.158 E2.13176
G1 X141.757 Y161.673 E2.16116
G1 X141.662 Y161.605 E2.16505
G1 X141.284 Y161.322 E2.18075
G1 X141.086 Y161.167 E2.18912
G1 X140.589 Y160.753 E2.21063
G1 X140.521 Y160.693 E2.21365
G1 X140.125 Y160.326 E2.2316
G1 X139.935 Y160.141 E2.24042
G1 X139.48 Y159.671 E2.26218
G1 X139.418 Y159.603 E2.26524
G1 X139.083 Y159.217 E2.28224
G1 X138.917 Y159.017 E2.29089
G1 X138.48 Y158.456 E2.31454
G1 X138.419 Y158.372 E2.31799
G1 X138.134 Y157.959 E2.33468
G1 X137.997 Y157.751 E2.34296
G1 X137.704 Y157.282 E2.36136
G1 X137.651 Y157.192 E2.36483
G1 X137.309 Y156.564 E2.38861
G1 X137.195 Y156.338 E2.39703
G1 X136.968 Y155.861 E2.4146
G1 X136.923 Y155.76 E2.41828
G1 X136.69 Y155.193 E2.43867
G1 X136.601 Y154.959 E2.447
G1 X136.393 Y154.361 E2.46805
G1 X136.363 Y154.266 E2.47137
G1 X136.209 Y153.732 E2.48985
G1 X136.138 Y153.46 E2.4992
G1 X135.99 Y152.814 E2.52125
G1 X135.974 Y152.733 E2.52399
G1 X135.879 Y152.18 E2.54265
G1 X135.841 Y151.918 E2.55146
G1 X135.763 Y151.225 E2.57465
G1 X135.755 Y151.126 E2.57796
G1 X135.727 Y150.647 E2.59392
G1 X135.718 Y150.404 E2.602
G1 X135.712 Y149.768 E2.62316
G1 X135.714 Y149.672 E2.62635
G1 X135.736 Y149.175 E2.6429
G1 X135.753 Y148.918 E2.65147
G1 X135.822 Y148.217 E2.67489
G1 X135.836 Y148.11 E2.67848
G1 X135.909 Y147.634 E2.6945
G1 X135.948 Y147.412 E2.702
G1 X136.084 Y146.755 E2.72431
G1 X136.112 Y146.638 E2.72831
G1 X136.264 Y146.072 E2.7478
G1 X136.347 Y145.792 E2.75752
G1 X136.512 Y145.278 E2.77547
G1 X136.79 Y144.556 E2.80121
G1 X136.894 Y144.311 E2.81006
G1 X137.13 Y143.791 E2.82905
G1 X137.168 Y143.713 E2.83194
G1 X137.42 Y143.227 E2.85015
G1 X137.551 Y142.989 E2.85918
G1 X137.789 Y142.578 E2.87498
G1 X137.834 Y142.504 E2.87786
G1 X138.243 Y141.881 E2.90265
G1 X138.384 Y141.681 E2.91078
G1 X138.73 Y141.216 E2.93006
G1 X138.815 Y141.108 E2.93463
G1 X139.195 Y140.651 E2.9544
G1 X139.347 Y140.478 E2.96206
G1 X139.772 Y140.021 E2.98282
G1 X139.835 Y139.957 E2.9858
G0 F6000 X140.12 Y140.238
G1 F1200 X140.508 Y139.863 E3.00375
G1 X140.714 Y139.674 E3.01305
G1 X141.104 Y139.333 E3.03028
G1 X141.181 Y139.269 E3.03361
G1 X141.69 Y138.872 E3.05508
G1 X141.896 Y138.721 E3.06358
G1 X142.453 Y138.339 E3.08604
G1 X142.876 Y138.079 E3.10255
G1 X143.119 Y137.937 E3.11192
G1 X143.828 Y137.558 E3.13865
G1 X143.941 Y137.503 E3.14283
G1 X144.271 Y137.349 E3.15495
G1 X144.489 Y137.252 E3.16288
G1 X145.107 Y137 E3.18508
G1 X145.177 Y136.974 E3.18756
G1 X145.626 Y136.819 E3.20336
G1 X145.875 Y136.739 E3.21206
G1 X146.41 Y136.583 E3.2306
G1 X146.516 Y136.555 E3.23424
G1 X147.085 Y136.421 E3.25369
G1 X147.323 Y136.372 E3.26177
G1 X148.314 Y136.216 E3.29513
G1 X148.663 Y136.178 E3.30681
G1 X149.32 Y136.127 E3.32873
G1 X149.428 Y136.122 E3.33232
G1 X150.086 Y136.112 E3.35421
G1 X150.338 Y136.116 E3.3626
G1 X150.932 Y136.142 E3.38237
G1 X151.043 Y136.15 E3.38607
G1 X151.536 Y136.198 E3.40255
G1 X151.796 Y136.229 E3.41126
G1 X152.62 Y136.36 E3.43901
G1 X152.75 Y136.386 E3.44342
G1 X153.16 Y136.476 E3.45738
G1 X153.367 Y136.526 E3.46446
G1 X153.816 Y136.645 E3.47991
G1 X153.92 Y136.675 E3.48351
G1 X154.526 Y136.87 E3.50468
G1 X154.76 Y136.953 E3.51294
G1 X155.313 Y137.167 E3.53266
G1 X155.418 Y137.211 E3.53645
G1 X155.928 Y137.441 E3.55506
G1 X156.158 Y137.552 E3.56355
G1 X157.019 Y138.017 E3.5961
G1 X157.308 Y138.191 E3.60732
G1 X158.01 Y138.653 E3.63527
G1 X158.105 Y138.721 E3.63915
G1 X158.467 Y138.992 E3.65419
G1 X158.66 Y139.143 E3.66235
G1 X159.054 Y139.466 E3.67929
G1 X159.127 Y139.529 E3.6825
G1 X159.634 Y139.997 E3.70545
G1 X159.817 Y140.177 E3.71398
G1 X160.185 Y140.557 E3.73158
G1 X160.254 Y140.632 E3.73497
G1 X160.593 Y141.019 E3.75208
G1 X160.759 Y141.218 E3.7607
G1 X161.201 Y141.786 E3.78464
G1 X161.259 Y141.866 E3.78792
G1 X161.503 Y142.218 E3.80217
G1 X161.642 Y142.427 E3.81052
G1 X162.04 Y143.074 E3.83578
G1 X162.087 Y143.157 E3.83895
G1 X162.287 Y143.528 E3.85297
G1 X162.408 Y143.763 E3.86176
G1 X162.686 Y144.346 E3.88325
G1 X162.73 Y144.446 E3.88688
G1 X162.927 Y144.924 E3.90408
G1 X163.017 Y145.159 E3.91245
G1 X163.235 Y145.788 E3.93459
G1 X163.265 Y145.884 E3.93793
G1 X163.404 Y146.367 E3.95465
G1 X163.474 Y146.635 E3.96386
G1 X163.612 Y147.235 E3.98434
G1 X163.629 Y147.32 E3.98722
G1 X163.721 Y147.852 E4.00518
G1 X163.757 Y148.096 E4.01338
G1 X163.827 Y148.683 E4.03304
G1 X163.837 Y148.793 E4.03672
G1 X163.873 Y149.352 E4.05535
G1 X163.882 Y149.59 E4.06327
G1 X163.888 Y150.189 E4.08319
G1 X163.886 Y150.296 E4.08675
G1 X163.865 Y150.798 E4.10346
G1 X163.848 Y151.055 E4.11203
G1 X163.788 Y151.682 E4.13298
G1 X163.775 Y151.785 E4.13643
G1 X163.688 Y152.35 E4.15545
G1 X163.643 Y152.598 E4.16383
G1 X163.503 Y153.252 E4.18607
G1 X163.479 Y153.349 E4.1894
G1 X163.362 Y153.781 E4.20428
G1 X163.285 Y154.044 E4.2134
G1 X163.128 Y154.536 E4.23058
G1 X162.862 Y155.242 E4.25567
G1 X162.769 Y155.464 E4.26367
G1 X162.529 Y155.995 E4.28306
G1 X162.48 Y156.096 E4.28679
G1 X162.232 Y156.576 E4.30476
G1 X162.105 Y156.807 E4.31353
G1 X161.864 Y157.223 E4.32952
G1 X161.817 Y157.3 E4.33252
G1 X161.449 Y157.861 E4.35483
G1 X161.306 Y158.065 E4.36312
G1 X160.961 Y158.53 E4.38238
G1 X160.884 Y158.628 E4.38652
G1 X160.556 Y159.025 E4.40365
G1 X160.399 Y159.206 E4.41162
G1 X159.943 Y159.699 E4.43396
G1 X159.877 Y159.766 E4.43708
G1 X159.498 Y160.133 E4.45463
G1 X159.301 Y160.314 E4.46353
G1 X158.877 Y160.682 E4.4822
G1 X158.791 Y160.753 E4.48591
G1 X158.31 Y161.128 E4.5062
G1 X158.104 Y161.279 E4.51469
G1 X157.547 Y161.661 E4.53716
G1 X157.124 Y161.921 E4.55367
G1 X156.881 Y162.063 E4.56303
G1 X156.236 Y162.411 E4.58741
G1 X156.135 Y162.461 E4.59116
G1 X155.729 Y162.651 E4.60606
G1 X155.499 Y162.753 E4.61443
G1 X154.893 Y163 E4.6362
G1 X154.823 Y163.026 E4.63868
G1 X154.374 Y163.181 E4.65448
G1 X154.125 Y163.261 E4.66318
G1 X153.59 Y163.417 E4.68171
G1 X153.484 Y163.445 E4.68536
G1 X152.915 Y163.579 E4.7048
G1 X152.677 Y163.628 E4.71289
G1 X151.686 Y163.784 E4.74625
G1 X151.337 Y163.822 E4.75793
G1 X150.68 Y163.873 E4.77985
G1 X150.572 Y163.878 E4.78344
G1 X149.914 Y163.888 E4.80533
G1 X149.662 Y163.884 E4.81371
G1 X149.068 Y163.858 E4.83349
G1 X148.957 Y163.85 E4.83719
G1 X148.464 Y163.802 E4.85366
G1 X148.204 Y163.771 E4.86237
G1 X147.38 Y163.64 E4.89012
G1 X147.25 Y163.614 E4.89453
G1 X146.84 Y163.524 E4.90849
G1 X146.633 Y163.474 E4.91558
G1 X146.184 Y163.355 E4.93103
G1 X146.08 Y163.325 E4.93463
G1 X145.474 Y163.13 E4.9558
G1 X145.24 Y163.047 E4.96406
G1 X144.687 Y162.833 E4.98378
G1 X144.582 Y162.789 E4.98757
G1 X144.055 Y162.551 E5.0068
G1 X143.824 Y162.439 E5.01534
G1 X142.99 Y161.988 E5.04687
G1 X142.702 Y161.815 E5.05805
G1 X141.99 Y161.347 E5.08639
G1 X141.895 Y161.279 E5.09027
G1 X141.531 Y161.007 E5.10539
G1 X141.333 Y160.852 E5.11375
G1 X140.854 Y160.453 E5.13448
G1 X140.786 Y160.393 E5.1375
G1 X140.404 Y160.04 E5.1548
G1 X140.214 Y159.855 E5.16362
G1 X139.776 Y159.402 E5.18458
G1 X139.714 Y159.334 E5.18764
G1 X139.39 Y158.962 E5.20405
G1 X139.224 Y158.762 E5.21269
G1 X138.804 Y158.221 E5.23547
G1 X138.743 Y158.137 E5.23892
G1 X138.468 Y157.739 E5.25501
G1 X138.331 Y157.531 E5.2633
G1 X138.049 Y157.079 E5.28102
G1 X137.996 Y156.989 E5.28449
G1 X137.666 Y156.384 E5.30741
G1 X137.552 Y156.158 E5.31583
G1 X137.334 Y155.698 E5.33276
G1 X137.289 Y155.597 E5.33644
G1 X137.063 Y155.051 E5.35609
G1 X136.974 Y154.817 E5.36442
G1 X136.774 Y154.241 E5.3847
G1 X136.744 Y154.146 E5.38801
G1 X136.596 Y153.631 E5.40584
G1 X136.525 Y153.359 E5.41519
G1 X136.382 Y152.736 E5.43645
G1 X136.366 Y152.655 E5.43919
G1 X136.275 Y152.122 E5.45718
G1 X136.237 Y151.86 E5.46598
G1 X136.161 Y151.193 E5.48831
G1 X136.153 Y151.094 E5.49161
G1 X136.126 Y150.632 E5.50701
G1 X136.117 Y150.389 E5.51509
G1 X136.112 Y149.776 E5.53548
G1 X136.114 Y149.68 E5.53868
G1 X136.135 Y149.201 E5.55462
G1 X136.152 Y148.944 E5.56319
G1 X136.219 Y148.269 E5.58575
G1 X136.233 Y148.162 E5.58934
G1 X136.303 Y147.703 E5.60478
G1 X136.342 Y147.481 E5.61228
G1 X136.473 Y146.848 E5.63378
G1 X136.501 Y146.731 E5.63778
G1 X136.647 Y146.185 E5.65658
G1 X136.73 Y145.905 E5.66629
G1 X136.891 Y145.408 E5.68367
G1 X137.158 Y144.712 E5.70846
G1 X137.262 Y144.467 E5.71731
G1 X137.49 Y143.967 E5.73559
G1 X137.528 Y143.889 E5.73848
G1 X137.771 Y143.42 E5.75605
G1 X137.902 Y143.182 E5.76508
G1 X138.131 Y142.785 E5.78033
G1 X138.176 Y142.711 E5.78321
G1 X138.57 Y142.111 E5.80708
G1 X138.711 Y141.911 E5.81522
G1 X139.044 Y141.463 E5.83378
G1 X139.129 Y141.355 E5.83836
G1 X139.496 Y140.915 E5.85741
G1 X139.648 Y140.742 E5.86507
G1 X140.057 Y140.302 E5.88505
G1 X140.12 Y140.238 E5.88804
G0 F6000 X140.405 Y140.519
G1 F1200 X140.778 Y140.158 E5.9053
G1 X140.984 Y139.969 E5.9146
G1 X141.36 Y139.641 E5.9312
G1 X141.437 Y139.577 E5.93453
G1 X141.927 Y139.194 E5.95521
G1 X142.133 Y139.043 E5.96371
G1 X142.669 Y138.676 E5.98531
G1 X143.078 Y138.424 E6.00129
G1 X143.321 Y138.282 E6.01065
G1 X144.003 Y137.918 E6.03637
G1 X144.116 Y137.863 E6.04055
G1 X144.433 Y137.715 E6.05218
G1 X144.651 Y137.618 E6.06012
G1 X145.246 Y137.375 E6.08149
G1 X145.316 Y137.349 E6.08398
G1 X145.748 Y137.2 E6.09918
G1 X145.997 Y137.12 E6.10788
G1 X146.512 Y136.969 E6.12573
G1 X146.618 Y136.941 E6.12937
G1 X147.166 Y136.813 E6.14809
G1 X147.404 Y136.764 E6.15617
G1 X148.357 Y136.614 E6.18826
G1 X148.706 Y136.576 E6.19994
G1 X149.338 Y136.527 E6.22102
G1 X149.446 Y136.522 E6.22461
G1 X150.08 Y136.512 E6.2457
G1 X150.332 Y136.516 E6.25409
G1 X150.903 Y136.541 E6.2731
G1 X151.014 Y136.549 E6.2768
G1 X151.489 Y136.595 E6.29267
G1 X151.749 Y136.626 E6.30138
G1 X152.541 Y136.752 E6.32805
G1 X152.671 Y136.778 E6.33246
G1 X153.066 Y136.865 E6.34591
G1 X153.273 Y136.915 E6.353
G1 X153.705 Y137.03 E6.36787
G1 X153.809 Y137.06 E6.37147
G1 X154.392 Y137.247 E6.39183
G1 X154.626 Y137.33 E6.40009
G1 X155.158 Y137.536 E6.41906
G1 X155.263 Y137.58 E6.42285
G1 X155.754 Y137.801 E6.44076
G1 X155.984 Y137.912 E6.44925
G1 X156.812 Y138.36 E6.48056
G1 X157.101 Y138.534 E6.49178
G1 X157.777 Y138.978 E6.51868
G1 X157.872 Y139.046 E6.52257
G1 X158.22 Y139.307 E6.53704
G1 X158.413 Y139.458 E6.54519
G1 X158.792 Y139.769 E6.56149
G1 X158.865 Y139.832 E6.5647
G1 X159.354 Y140.282 E6.5868
G1 X159.537 Y140.462 E6.59534
G1 X159.89 Y140.828 E6.61225
G1 X159.959 Y140.903 E6.61564
G1 X160.286 Y141.275 E6.63212
G1 X160.452 Y141.474 E6.64074
G1 X160.877 Y142.021 E6.66378
G1 X160.935 Y142.101 E6.66706
G1 X161.17 Y142.439 E6.68075
G1 X161.309 Y142.648 E6.6891
G1 X161.692 Y143.271 E6.71343
G1 X161.739 Y143.354 E6.7166
G1 X161.931 Y143.711 E6.73008
G1 X162.052 Y143.946 E6.73887
G1 X162.32 Y144.507 E6.75955
G1 X162.364 Y144.607 E6.76319
G1 X162.553 Y145.067 E6.77973
G1 X162.643 Y145.302 E6.7881
G1 X162.854 Y145.908 E6.80944
G1 X162.884 Y146.004 E6.81278
G1 X163.017 Y146.468 E6.82884
