;FLAVOR:Marlin
;TIME:1669
;Filament used: 1.01929m
;Layer height: 0.2
;MINX:129.012
;MINY:130.85
;MINZ:0.2
;MAXX:170.989
;MAXY:169.15
;MAXZ:19
;Generated with Creality Slicer 4.8.2-191
M140 S50
M105
M190 S50
M104 S200
M105
M109 S200
M82 ;absolute extrusion mode

G28 ;Home

G92 E0 ;Reset Extruder
G1 Z2.0 F3000 ;Move Z Axis up
G1 X10.1 Y20 Z0.28 F5000.0 ;Move to start position
G1 X10.1 Y200.0 Z0.28 F1500.0 E15 ;Draw the first line
G1 X10.4 Y200.0 Z0.28 F5000.0 ;Move to side a little
G1 X10.4 Y20 Z0.28 F1500.0 E30 ;Draw the second line
G92 E0 ;Reset Extruder
G1 Z2.0 F3000 ;Move Z Axis up

G92 E0
G92 E0
G1 F2700 E-5
;LAYER_COUNT:95
;LAYER:0
M107
G0 F6000 X135.113 Y135.209 Z0.2
;TYPE:SKIRT
G1 F2700 E0
G1 F1200 X135.313 Y135.013 E0.00931
G1 X135.775 Y134.571 E0.03058
G1 X136.269 Y134.125 E0.05272
G1 X136.626 Y133.827 E0.06818
G1 X136.959 Y133.561 E0.08236
G1 X137.472 Y133.164 E0.10393
G1 X138.237 Y132.622 E0.13512
G1 X139.046 Y132.147 E0.16632
G1 X139.893 Y131.743 E0.19753
G1 X140.77 Y131.413 E0.2287
G1 X141.673 Y131.158 E0.2599
G1 X142.594 Y130.981 E0.2911
G1 X143.691 Y130.875 E0.32775
G1 X143.905 Y130.865 E0.33488
G1 X144.294 Y130.854 E0.34782
G1 X144.684 Y130.85 E0.3608
G1 X155.088 Y130.85 E0.70683
G1 X155.947 Y130.861 E0.73541
G1 X156.883 Y130.914 E0.76659
G1 X157.811 Y131.047 E0.79777
G1 X158.725 Y131.259 E0.82898
G1 X159.618 Y131.547 E0.86018
G1 X160.482 Y131.911 E0.89137
G1 X161.313 Y132.347 E0.92258
G1 X162.228 Y132.94 E0.95884
G1 X162.343 Y133.023 E0.96356
G1 X162.68 Y133.277 E0.9776
G1 X162.932 Y133.474 E0.98824
G1 X163.121 Y133.625 E0.99628
G1 X163.582 Y134.002 E1.01609
G1 X164.011 Y134.372 E1.03493
G1 X164.141 Y134.49 E1.04077
G1 X164.379 Y134.712 E1.0516
G1 X164.542 Y134.869 E1.05912
G1 X164.739 Y135.064 E1.06834
G1 X165.204 Y135.535 E1.09036
G1 X165.622 Y135.983 E1.11074
G1 X165.884 Y136.283 E1.12398
G1 X166.056 Y136.487 E1.13286
G1 X166.242 Y136.715 E1.14264
G1 X166.638 Y137.211 E1.16375
G1 X167.014 Y137.709 E1.18451
G1 X167.267 Y138.071 E1.1992
G1 X167.412 Y138.286 E1.20782
G1 X167.56 Y138.512 E1.21681
G1 X167.888 Y139.025 E1.23706
G1 X168.231 Y139.599 E1.2593
G1 X168.427 Y139.955 E1.27282
G1 X168.533 Y140.154 E1.28032
G1 X168.666 Y140.413 E1.29
G1 X168.948 Y140.978 E1.311
G1 X169.22 Y141.564 E1.33249
G1 X169.381 Y141.948 E1.34634
G1 X169.477 Y142.186 E1.35487
G1 X169.587 Y142.47 E1.365
G1 X169.788 Y143.011 E1.3842
G1 X169.962 Y143.515 E1.40193
G1 X170.028 Y143.723 E1.40919
G1 X170.128 Y144.058 E1.42082
G1 X170.263 Y144.546 E1.43766
G1 X170.419 Y145.154 E1.45854
G1 X170.553 Y145.742 E1.4786
G1 X170.591 Y145.933 E1.48507
G1 X170.643 Y146.217 E1.49468
G1 X170.688 Y146.479 E1.50352
G1 X170.733 Y146.76 E1.51298
G1 X170.819 Y147.352 E1.53288
G1 X170.893 Y147.994 E1.55437
G1 X170.927 Y148.411 E1.56829
G1 X170.943 Y148.651 E1.57629
G1 X170.959 Y148.965 E1.58675
G1 X170.982 Y149.57 E1.60688
G1 X170.989 Y150.157 E1.62641
G1 X170.986 Y150.352 E1.6329
G1 X170.977 Y150.657 E1.64304
G1 X170.967 Y150.889 E1.65077
G1 X170.951 Y151.164 E1.65993
G1 X170.906 Y151.823 E1.6819
G1 X170.846 Y152.446 E1.70272
G1 X170.79 Y152.867 E1.71684
G1 X170.751 Y153.128 E1.72562
G1 X170.704 Y153.419 E1.73542
G1 X170.595 Y154.035 E1.75623
G1 X170.488 Y154.562 E1.77412
G1 X170.452 Y154.72 E1.77951
G1 X170.369 Y155.058 E1.79108
G1 X170.242 Y155.534 E1.80747
G1 X170.074 Y156.123 E1.82784
G1 X169.868 Y156.77 E1.85042
G1 X169.727 Y157.163 E1.86431
G1 X169.645 Y157.381 E1.87206
G1 X169.547 Y157.631 E1.88099
G1 X169.304 Y158.232 E1.90255
G1 X169.063 Y158.784 E1.92258
G1 X168.986 Y158.948 E1.92861
G1 X168.846 Y159.235 E1.93923
G1 X168.641 Y159.635 E1.95418
G1 X168.325 Y160.227 E1.9765
G1 X167.983 Y160.822 E1.99932
G1 X167.785 Y161.141 E2.01181
G1 X167.649 Y161.353 E2.02019
G1 X167.506 Y161.569 E2.0288
G1 X167.167 Y162.071 E2.04895
G1 X166.77 Y162.622 E2.07154
G1 X166.5 Y162.969 E2.08616
G1 X166.37 Y163.131 E2.09307
G1 X166.199 Y163.338 E2.102
G1 X165.784 Y163.83 E2.12341
G1 X165.337 Y164.329 E2.14569
G1 X165.036 Y164.641 E2.16011
G1 X164.887 Y164.791 E2.16714
G1 X164.685 Y164.989 E2.17655
G1 X164.228 Y165.426 E2.19758
G1 X163.753 Y165.855 E2.21887
G1 X163.579 Y166.003 E2.22647
G1 X163.247 Y166.276 E2.24076
G1 X163.056 Y166.427 E2.24886
G1 X162.528 Y166.836 E2.27108
G1 X161.763 Y167.378 E2.30226
G1 X160.954 Y167.853 E2.33346
G1 X160.108 Y168.258 E2.36466
G1 X159.231 Y168.589 E2.39583
G1 X158.328 Y168.844 E2.42704
G1 X157.407 Y169.021 E2.45824
G1 X156.158 Y169.134 E2.49995
G1 X155.706 Y169.146 E2.51499
G1 X155.316 Y169.15 E2.52796
G1 X144.755 Y169.149 E2.87922
G1 X144.053 Y169.139 E2.90257
G1 X143.117 Y169.086 E2.93375
G1 X142.189 Y168.953 E2.96493
G1 X141.275 Y168.741 E2.99614
G1 X140.382 Y168.453 E3.02735
G1 X139.518 Y168.089 E3.05853
G1 X138.687 Y167.653 E3.08974
G1 X137.772 Y167.06 E3.12601
G1 X137.657 Y166.977 E3.13072
G1 X137.324 Y166.726 E3.14459
G1 X137.059 Y166.519 E3.15578
G1 X136.854 Y166.355 E3.16451
G1 X136.398 Y165.981 E3.18413
G1 X135.935 Y165.579 E3.20452
G1 X135.621 Y165.287 E3.21878
G1 X135.458 Y165.13 E3.22631
G1 X135.278 Y164.952 E3.23473
G1 X134.811 Y164.481 E3.25679
G1 X134.334 Y163.969 E3.28006
G1 X134.116 Y163.717 E3.29115
G1 X133.944 Y163.513 E3.30002
G1 X133.759 Y163.287 E3.30973
G1 X133.362 Y162.79 E3.33089
G1 X132.977 Y162.278 E3.3522
G1 X132.733 Y161.929 E3.36636
G1 X132.588 Y161.714 E3.37499
G1 X132.438 Y161.485 E3.38409
G1 X132.109 Y160.97 E3.40442
G1 X131.748 Y160.362 E3.42793
G1 X131.574 Y160.045 E3.43996
G1 X131.468 Y159.846 E3.44746
G1 X131.338 Y159.594 E3.45689
G1 X131.053 Y159.024 E3.47809
G1 X130.781 Y158.438 E3.49958
G1 X130.709 Y158.27 E3.50566
G1 X130.515 Y157.793 E3.52278
G1 X130.404 Y157.506 E3.53302
G1 X130.182 Y156.904 E3.55436
G1 X129.999 Y156.363 E3.57335
G1 X129.868 Y155.93 E3.5884
G1 X129.803 Y155.699 E3.59638
G1 X129.737 Y155.451 E3.60492
G1 X129.576 Y154.823 E3.62648
G1 X129.433 Y154.187 E3.64816
G1 X129.357 Y153.783 E3.66183
G1 X129.312 Y153.521 E3.67068
G1 X129.265 Y153.225 E3.68064
G1 X129.178 Y152.62 E3.70097
G1 X129.107 Y152 E3.72173
G1 X129.073 Y151.589 E3.73545
G1 X129.057 Y151.349 E3.74345
G1 X129.04 Y151.017 E3.7545
G1 X129.017 Y150.385 E3.77554
G1 X129.012 Y149.79 E3.79533
G1 X129.023 Y149.34 E3.8103
G1 X129.033 Y149.109 E3.81799
G1 X129.047 Y148.856 E3.82642
G1 X129.088 Y148.239 E3.84698
G1 X129.142 Y147.662 E3.86626
G1 X129.167 Y147.453 E3.87326
G1 X129.211 Y147.127 E3.8842
G1 X129.25 Y146.867 E3.89295
G1 X129.296 Y146.585 E3.90245
G1 X129.405 Y145.968 E3.92329
G1 X129.527 Y145.374 E3.94346
G1 X129.621 Y144.983 E3.95683
G1 X129.683 Y144.742 E3.96511
G1 X129.762 Y144.452 E3.97511
G1 X129.932 Y143.859 E3.99562
G1 X130.124 Y143.256 E4.01667
G1 X130.278 Y142.823 E4.03196
G1 X130.366 Y142.59 E4.04024
G1 X130.463 Y142.345 E4.049
G1 X130.705 Y141.748 E4.07043
G1 X130.946 Y141.196 E4.09046
G1 X131.018 Y141.043 E4.09609
G1 X131.163 Y140.747 E4.10705
G1 X131.369 Y140.346 E4.12204
G1 X131.686 Y139.753 E4.14441
G1 X132.007 Y139.192 E4.16591
G1 X132.204 Y138.875 E4.17832
G1 X132.342 Y138.659 E4.18685
G1 X132.527 Y138.38 E4.19798
G1 X132.871 Y137.876 E4.21828
G1 X133.215 Y137.399 E4.23784
G1 X133.338 Y137.238 E4.24457
G1 X133.647 Y136.849 E4.2611
G1 X133.818 Y136.641 E4.27005
G1 X134.22 Y136.165 E4.29078
G1 X134.663 Y135.671 E4.31285
G1 X134.964 Y135.359 E4.32726
G1 X135.113 Y135.209 E4.3343
G0 F6000 X135.248 Y135.641
G1 F1200 X135.589 Y135.302 E4.35029
G1 X136.051 Y134.86 E4.37156
G1 X136.528 Y134.431 E4.39289
G1 X136.878 Y134.138 E4.40807
G1 X137.204 Y133.877 E4.42196
G1 X137.717 Y133.48 E4.44354
G1 X138.468 Y132.949 E4.47413
G1 X139.264 Y132.485 E4.50478
G1 X140.096 Y132.091 E4.53539
G1 X140.959 Y131.772 E4.566
G1 X141.847 Y131.528 E4.59663
G1 X142.753 Y131.363 E4.62725
G1 X143.709 Y131.275 E4.65919
G1 X143.923 Y131.265 E4.66631
G1 X144.298 Y131.254 E4.67879
G1 X144.684 Y131.25 E4.69163
G1 X155.088 Y131.25 E5.03767
G1 X155.941 Y131.261 E5.06604
G1 X156.86 Y131.314 E5.09666
G1 X157.771 Y131.447 E5.12728
G1 X158.667 Y131.658 E5.15789
G1 X159.542 Y131.946 E5.18853
G1 X160.388 Y132.309 E5.21915
G1 X161.199 Y132.744 E5.24976
G1 X161.993 Y133.265 E5.28135
G1 X162.108 Y133.348 E5.28606
G1 X162.433 Y133.592 E5.29958
G1 X162.867 Y133.934 E5.31796
G1 X163.328 Y134.311 E5.33777
G1 X163.742 Y134.668 E5.35595
G1 X164.102 Y135 E5.37224
G1 X164.265 Y135.157 E5.37976
G1 X164.454 Y135.345 E5.38863
G1 X164.919 Y135.816 E5.41064
G1 X165.322 Y136.247 E5.43027
G1 X165.578 Y136.541 E5.44324
G1 X165.75 Y136.745 E5.45211
G1 X165.93 Y136.964 E5.46154
G1 X166.326 Y137.46 E5.48265
G1 X166.687 Y137.941 E5.50265
G1 X166.935 Y138.295 E5.51703
G1 X167.223 Y138.727 E5.5343
G1 X167.551 Y139.24 E5.55455
G1 X167.881 Y139.793 E5.57597
G1 X168.074 Y140.143 E5.58926
G1 X168.18 Y140.342 E5.59676
G1 X168.308 Y140.591 E5.60607
G1 X168.59 Y141.156 E5.62707
G1 X168.852 Y141.721 E5.64779
G1 X169.01 Y142.098 E5.66138
G1 X169.106 Y142.336 E5.66992
G1 X169.212 Y142.609 E5.67966
G1 X169.413 Y143.15 E5.69886
G1 X169.581 Y143.636 E5.71596
G1 X169.647 Y143.844 E5.72322
G1 X169.743 Y144.167 E5.73442
G1 X169.808 Y144.397 E5.74237
G1 X169.875 Y144.646 E5.75095
G1 X170.031 Y145.254 E5.77183
G1 X170.16 Y145.82 E5.79114
G1 X170.198 Y146.011 E5.79761
G1 X170.249 Y146.285 E5.80688
G1 X170.294 Y146.547 E5.81572
G1 X170.337 Y146.817 E5.82482
G1 X170.423 Y147.409 E5.84471
G1 X170.494 Y148.028 E5.86544
G1 X170.528 Y148.438 E5.87912
G1 X170.544 Y148.678 E5.88712
G1 X170.559 Y148.98 E5.89718
G1 X170.582 Y149.585 E5.91731
G1 X170.589 Y150.151 E5.93614
G1 X170.586 Y150.346 E5.94263
G1 X170.577 Y150.639 E5.95238
G1 X170.567 Y150.871 E5.9601
G1 X170.552 Y151.137 E5.96896
G1 X170.507 Y151.796 E5.99093
G1 X170.449 Y152.397 E6.01101
G1 X170.395 Y152.808 E6.0248
G1 X170.356 Y153.069 E6.03358
G1 X170.31 Y153.349 E6.04302
G1 X170.201 Y153.965 E6.06382
G1 X170.098 Y154.473 E6.08106
G1 X170.062 Y154.631 E6.08645
G1 X169.982 Y154.957 E6.09762
G1 X169.857 Y155.424 E6.1137
G1 X169.689 Y156.013 E6.13407
G1 X169.491 Y156.637 E6.15584
G1 X169.352 Y157.022 E6.16946
G1 X169.27 Y157.24 E6.1772
G1 X169.176 Y157.481 E6.18581
G1 X168.933 Y158.082 E6.20737
G1 X168.701 Y158.614 E6.22667
G1 X168.624 Y158.778 E6.2327
G1 X168.489 Y159.055 E6.24295
G1 X168.288 Y159.447 E6.2576
G1 X167.972 Y160.039 E6.27992
G1 X167.643 Y160.612 E6.30189
G1 X167.448 Y160.925 E6.31416
G1 X167.312 Y161.137 E6.32254
G1 X167.175 Y161.345 E6.33082
G1 X166.836 Y161.847 E6.35097
G1 X166.453 Y162.378 E6.37274
G1 X166.188 Y162.718 E6.38708
G1 X165.894 Y163.08 E6.40259
G1 X165.479 Y163.572 E6.424
G1 X165.047 Y164.053 E6.4455
G1 X164.752 Y164.359 E6.45964
G1 X164.409 Y164.7 E6.47573
G1 X163.952 Y165.137 E6.49676
G1 X163.494 Y165.55 E6.51727
G1 X163.32 Y165.698 E6.52487
G1 X162.995 Y165.965 E6.53886
G1 X162.811 Y166.111 E6.54667
G1 X162.283 Y166.52 E6.56888
G1 X161.532 Y167.052 E6.59949
G1 X160.737 Y167.516 E6.63011
G1 X159.904 Y167.91 E6.66076
G1 X159.041 Y168.23 E6.69137
G1 X158.153 Y168.474 E6.722
G1 X157.248 Y168.64 E6.7526
G1 X156.145 Y168.734 E6.78942
G1 X155.702 Y168.746 E6.80416
G1 X155.316 Y168.75 E6.817
G1 X144.761 Y168.749 E7.16806
G1 X144.059 Y168.739 E7.19141
G1 X143.14 Y168.686 E7.22203
G1 X142.229 Y168.553 E7.25265
G1 X141.333 Y168.342 E7.28327
G1 X140.458 Y168.054 E7.31391
G1 X139.612 Y167.691 E7.34453
G1 X138.801 Y167.256 E7.37513
G1 X138.007 Y166.735 E7.40672
G1 X137.892 Y166.652 E7.41144
G1 X137.57 Y166.411 E7.42481
G1 X137.305 Y166.204 E7.436
G1 X137.108 Y166.046 E7.4444
G1 X136.652 Y165.672 E7.46401
G1 X136.206 Y165.285 E7.48365
G1 X135.898 Y164.999 E7.49763
G1 X135.562 Y164.67 E7.51327
G1 X135.095 Y164.199 E7.53533
G1 X134.636 Y163.706 E7.55774
G1 X134.422 Y163.459 E7.56861
G1 X134.25 Y163.255 E7.57748
G1 X134.072 Y163.038 E7.58682
G1 X133.675 Y162.541 E7.60797
G1 X133.304 Y162.047 E7.62852
G1 X133.065 Y161.705 E7.6424
G1 X132.775 Y161.27 E7.65979
G1 X132.446 Y160.755 E7.68011
G1 X132.098 Y160.169 E7.70278
G1 X131.927 Y159.857 E7.71462
G1 X131.821 Y159.658 E7.72212
G1 X131.696 Y159.415 E7.7312
G1 X131.411 Y158.845 E7.7524
G1 X131.149 Y158.281 E7.77308
G1 X130.981 Y157.881 E7.78751
G1 X130.886 Y157.644 E7.79601
G1 X130.78 Y157.368 E7.80584
G1 X130.558 Y156.766 E7.82718
G1 X130.381 Y156.244 E7.84551
G1 X130.253 Y155.821 E7.86021
G1 X130.124 Y155.351 E7.87642
G1 X129.963 Y154.723 E7.89799
G1 X129.825 Y154.111 E7.91885
G1 X129.751 Y153.715 E7.93225
G1 X129.706 Y153.453 E7.94109
G1 X129.661 Y153.168 E7.95069
G1 X129.574 Y152.563 E7.97102
G1 X129.505 Y151.965 E7.99104
G1 X129.472 Y151.562 E8.00449
G1 X129.456 Y151.322 E8.01249
G1 X129.44 Y151.003 E8.02311
G1 X129.417 Y150.371 E8.04415
G1 X129.412 Y149.797 E8.06324
G1 X129.423 Y149.358 E8.07784
G1 X129.446 Y148.882 E8.09369
G1 X129.487 Y148.265 E8.11426
G1 X129.539 Y147.709 E8.13283
G1 X129.564 Y147.5 E8.13984
G1 X129.606 Y147.187 E8.15034
G1 X129.645 Y146.927 E8.15908
G1 X129.69 Y146.655 E8.16825
G1 X129.799 Y146.038 E8.18909
G1 X129.916 Y145.465 E8.20854
G1 X130.008 Y145.083 E8.22161
G1 X130.07 Y144.842 E8.22989
G1 X130.146 Y144.562 E8.23954
G1 X130.316 Y143.969 E8.26006
G1 X130.501 Y143.388 E8.28034
G1 X130.564 Y143.208 E8.28668
G1 X130.741 Y142.732 E8.30357
G1 X130.833 Y142.495 E8.31203
G1 X131.075 Y141.898 E8.33345
G1 X131.308 Y141.367 E8.35274
G1 X131.519 Y140.928 E8.36894
G1 X131.722 Y140.535 E8.38365
G1 X132.039 Y139.942 E8.40602
G1 X132.349 Y139.401 E8.42675
G1 X132.541 Y139.09 E8.43891
G1 X132.679 Y138.874 E8.44744
G1 X132.857 Y138.605 E8.45816
G1 X133.201 Y138.101 E8.47846
G1 X133.533 Y137.642 E8.4973
G1 X133.815 Y137.277 E8.51264
G1 X133.958 Y137.099 E8.52024
G1 X134.124 Y136.899 E8.52888
G1 X134.526 Y136.423 E8.5496
G1 X134.953 Y135.947 E8.57087
G1 X135.248 Y135.641 E8.58501
G0 F6000 X135.68 Y135.773
G1 F1200 X135.866 Y135.591 E8.59366
G1 X136.328 Y135.149 E8.61493
G1 X136.786 Y134.736 E8.63544
G1 X137.13 Y134.448 E8.65036
G1 X137.448 Y134.193 E8.66392
G1 X137.961 Y133.796 E8.6855
G1 X138.699 Y133.276 E8.71552
G1 X139.481 Y132.823 E8.74558
G1 X140.299 Y132.44 E8.77562
G1 X141.147 Y132.132 E8.80563
G1 X142.02 Y131.9 E8.83567
G1 X142.91 Y131.745 E8.86572
G1 X143.728 Y131.674 E8.89303
G1 X143.942 Y131.664 E8.90016
G1 X144.303 Y131.654 E8.91217
G1 X144.684 Y131.65 E8.92484
G1 X155.088 Y131.65 E9.27088
G1 X155.935 Y131.661 E9.29905
G1 X156.837 Y131.714 E9.3291
G1 X157.73 Y131.846 E9.35913
G1 X158.608 Y132.057 E9.38916
G1 X159.464 Y132.345 E9.4192
G1 X160.292 Y132.707 E9.44926
G1 X161.084 Y133.141 E9.4793
G1 X161.759 Y133.589 E9.50624
G1 X161.874 Y133.672 E9.51096
G1 X162.187 Y133.907 E9.52398
G1 X162.439 Y134.104 E9.53461
G1 X162.614 Y134.244 E9.54207
G1 X163.075 Y134.621 E9.56188
G1 X163.473 Y134.964 E9.57935
G1 X163.603 Y135.082 E9.58519
G1 X163.824 Y135.289 E9.59526
G1 X164.17 Y135.626 E9.61133
G1 X164.635 Y136.097 E9.63334
G1 X165.022 Y136.512 E9.65221
G1 X165.272 Y136.799 E9.66487
G1 X165.444 Y137.003 E9.67375
G1 X165.617 Y137.214 E9.68282
G1 X166.013 Y137.71 E9.70393
G1 X166.361 Y138.172 E9.72317
G1 X166.604 Y138.519 E9.73726
G1 X166.886 Y138.942 E9.75417
G1 X167.214 Y139.455 E9.77442
G1 X167.532 Y139.988 E9.79506
G1 X167.721 Y140.331 E9.80809
G1 X167.827 Y140.53 E9.81559
G1 X167.95 Y140.77 E9.82456
G1 X168.232 Y141.335 E9.84556
G1 X168.484 Y141.879 E9.8655
G1 X168.639 Y142.247 E9.87878
G1 X168.735 Y142.485 E9.88732
G1 X168.837 Y142.749 E9.89673
G1 X169.038 Y143.29 E9.91593
G1 X169.199 Y143.757 E9.93236
G1 X169.265 Y143.965 E9.93961
G1 X169.359 Y144.276 E9.95042
G1 X169.488 Y144.745 E9.9666
G1 X169.644 Y145.353 E9.98748
G1 X169.768 Y145.898 E10.00607
G1 X169.855 Y146.352 E10.02144
G1 X169.9 Y146.614 E10.03028
G1 X169.941 Y146.875 E10.03907
G1 X170.027 Y147.467 E10.05897
G1 X170.096 Y148.062 E10.07889
G1 X170.128 Y148.465 E10.09234
G1 X170.144 Y148.705 E10.10034
G1 X170.16 Y148.996 E10.11003
G1 X170.183 Y149.601 E10.13017
G1 X170.189 Y150.145 E10.14826
G1 X170.186 Y150.34 E10.15475
G1 X170.178 Y150.622 E10.16413
G1 X170.168 Y150.854 E10.17185
G1 X170.153 Y151.11 E10.18038
G1 X170.108 Y151.769 E10.20235
G1 X170.052 Y152.347 E10.22167
G1 X169.999 Y152.748 E10.23512
G1 X169.96 Y153.009 E10.2439
G1 X169.916 Y153.279 E10.253
G1 X169.807 Y153.895 E10.2738
G1 X169.708 Y154.384 E10.2904
G1 X169.672 Y154.542 E10.29579
