; HEADER_BLOCK_START
; generated by OrcaSlicer 2.1.1 on 2025-01-10 at 23:48:08
; total layer number: 42
; filament_density: 1.27
; filament_diameter: 1.75
; max_z_height: 3.48
; HEADER_BLOCK_END

; THUMBNAIL_BLOCK_START

;
; THUMBNAIL_BLOCK_END







; external perimeters extrusion width = 0.40mm
; perimeters extrusion width = 0.45mm
; infill extrusion width = 0.45mm
; solid infill extrusion width = 0.45mm
; top infill extrusion width = 0.38mm
; first layer extrusion width = 0.42mm

; EXECUTABLE_BLOCK_START
EXCLUDE_OBJECT_DEFINE NAME=驾驶舱_-_前板.STL_id_0_copy_0 CENTER=117.5,115 POLYGON=[[100,91],[103,91],[135,136],[135,139],[100,139],[100,91]]
M73 P0 R8
;TYPE:Custom
;ELEGOO NEPTUNE 4 PRO
M220 S100 ;Set the feed speed to 100%
M221 S100 ;Set the flow rate to 100%
M104 S140
M190 S70
G90
G28 ;home
G1 Z10 F300
G1 X67.5 Y0 F6000
G1 Z0 F300
M109 S240
G92 E0 ;Reset Extruder
G1 X67.5 Y0 Z0.4 F300 ;Move to start position
G1 X167.5 E30 F400 ;Draw the first line
G1 Z0.6 F120.0 ;Move to side a little
M73 P4 R7
G1 X162.5 F3000
G92 E0 ;Reset Extruder
G90
G21
M83 ; use relative distances for extrusion
; filament start gcode
M106 S0
;LAYER_CHANGE
;Z:0.2
;HEIGHT:0.2
;BEFORE_LAYER_CHANGE
G92 E0
;0.2


G1 E-.8 F3600
;AFTER_LAYER_CHANGE
;0.2
;_SET_FAN_SPEED_CHANGING_LAYER
SET_VELOCITY_LIMIT ACCEL=1000 ACCEL_TO_DECEL=500
SET_VELOCITY_LIMIT SQUARE_CORNER_VELOCITY=7
; printing object 驾驶舱 - 前板.STL id:0 copy 0
EXCLUDE_OBJECT_START NAME=驾驶舱_-_前板.STL_id_0_copy_0
G1 X103.267 Y137.002 F21000
G1 Z.4
G1 Z.2
G1 E.8 F2700
;TYPE:Inner wall
;WIDTH:0.419999
G1 F3000
G1 X104.499 Y137.063 E.03674
G1 X110.252 Y137.064 E.17134
G1 X110.687 Y136.876 E.01413
G1 X110.992 Y136.484 E.01478
G1 X111.064 Y136.121 E.01102
G1 X111.064 Y134.064 E.06129
G1 X114.671 Y134.063 E.10744
G1 X114.612 Y134.319 E.00784
G1 X114.608 Y134.724 E.01205
G1 X114.73 Y135.176 E.01397
G1 X115.04 Y135.623 E.0162
G1 X115.41 Y135.922 E.01416
G1 X115.742 Y136.071 E.01084
G1 X116.129 Y136.154 E.0118
G1 X116.535 Y136.14 E.0121
G1 X117.094 Y135.92 E.01789
G1 X117.412 Y135.684 E.01181
G1 X117.733 Y135.246 E.01617
G1 X117.831 Y135 E.00788
G1 X117.906 Y134.442 E.01678
G1 X117.84 Y134.062 E.01148
G1 X127.171 Y134.063 E.27795
G1 X127.112 Y134.319 E.00783
G1 X127.108 Y134.724 E.01205
G1 X127.228 Y135.172 E.01383
G1 X127.54 Y135.623 E.01634
G1 X127.91 Y135.922 E.01416
G1 X128.242 Y136.071 E.01084
G1 X128.629 Y136.154 E.0118
G1 X129.035 Y136.14 E.0121
G1 X129.594 Y135.92 E.01789
G1 X129.912 Y135.684 E.01181
G1 X130.241 Y135.227 E.01676
G1 X130.378 Y134.814 E.01296
;WIDTH:0.40899
G1 X130.394 Y134.441 E.01078
;WIDTH:0.402946
G1 X130.326 Y134.054 E.01119
G1 X130.744 Y134.054 E.01191
G1 X130.745 Y134.692 E.01813
;WIDTH:0.419999
G1 X130.736 Y135.994 E.03879
G1 X130.788 Y136.432 E.01312
G1 X131.123 Y136.883 E.01672
G1 X131.679 Y137.064 E.01742
G1 X133.936 Y137.064 E.06724
G1 X133.936 Y137.936 E.02596
G1 X102.288 Y137.936 E.94268
G1 X102.702 Y137.709 E.01405
G1 X103.159 Y137.242 E.01947
G1 X103.251 Y137.038 E.00667
G1 X103.016 Y136.593 F21000
G1 F3000
G1 X103.581 Y136.649 E.01693
G1 X104.499 Y136.686 E.02737
G1 X110.121 Y136.687 E.16746
G1 X110.461 Y136.574 E.01066
G1 X110.644 Y136.339 E.00887
G1 X110.687 Y136.121 E.00661
G1 X110.687 Y133.687 E.07252
G1 X115.305 Y133.676 E.13756
G1 X115.112 Y133.913 E.00911
G1 X114.979 Y134.404 E.01515
G1 X114.977 Y134.647 E.00723
G1 X115.068 Y135.009 E.01114
G1 X115.343 Y135.399 E.0142
G1 X115.565 Y135.578 E.0085
G1 X115.896 Y135.727 E.01084
G1 X116.129 Y135.777 E.00708
G1 X116.47 Y135.769 E.01016
G1 X116.938 Y135.576 E.01508
G1 X117.129 Y135.435 E.00709
G1 X117.386 Y135.099 E.01259
G1 X117.52 Y134.672 E.01332
G1 X117.507 Y134.249 E.01263
G1 X117.338 Y133.851 E.01288
G1 X117.193 Y133.666 E.00697
G1 X117.927 Y133.687 E.02188
G1 X127.272 Y133.686 E.27836
G1 X127.809 Y133.672 E.016
G1 X127.579 Y133.988 E.01164
G1 X127.479 Y134.404 E.01275
G1 X127.477 Y134.647 E.00723
G1 X127.569 Y135.011 E.01119
G1 X127.843 Y135.399 E.01415
G1 X128.065 Y135.578 E.0085
G1 X128.396 Y135.727 E.01084
G1 X128.629 Y135.777 E.00708
G1 X128.872 Y135.777 E.00724
G1 X129.106 Y135.727 E.00712
G1 X129.594 Y135.471 E.01644
G1 X129.89 Y135.087 E.01443
G1 X130.012 Y134.75 E.0107
G1 X130.022 Y134.32 E.01281
G1 X129.838 Y133.851 E.01501
G1 X129.716 Y133.681 E.00623
G1 X131.113 Y133.686 E.04161
G1 X131.113 Y135.751 E.0615
G1 X131.144 Y136.308 E.0166
M73 P5 R7
G1 X131.345 Y136.578 E.01003
G1 X131.679 Y136.687 E.01045
G1 X134.313 Y136.687 E.07847
G1 X134.313 Y138.313 E.04843
G1 X102.406 Y138.313 E.9504
;WIDTH:0.458796
G1 X102.22 Y138.294 E.00614
;WIDTH:0.497592
G1 X102.034 Y138.274 E.00672
;WIDTH:0.536388
G1 X101.848 Y138.255 E.00729
G1 X101.287 Y138.256 E.02185
;WIDTH:0.558317
G1 X100.752 Y138.244 E.02178
G1 X100.729 Y137.589 E.02667
G1 X101.093 Y137.743 E.0161
G1 X101.686 Y137.771 E.02416
;WIDTH:0.52991
G1 X101.908 Y137.712 E.00882
;WIDTH:0.488588
G1 X102.178 Y137.571 E.01073
;WIDTH:0.454294
G1 X102.448 Y137.43 E.0099
;WIDTH:0.419999
G1 X102.838 Y137.045 E.01632
G1 X103.001 Y136.63 E.01329
G1 X102.768 Y136.047 F21000
;TYPE:Outer wall
;WIDTH:0.46803
G1 F3000
G1 X102.86 Y136.181 E.00546
;WIDTH:0.444308
G1 X102.957 Y136.206 E.00317
;WIDTH:0.419999
G1 X103.596 Y136.272 E.01915
G1 X104.5 Y136.309 E.02692
G1 X110.121 Y136.31 E.16746
G1 X110.235 Y136.272 E.00355
G1 X110.31 Y136.121 E.00502
G1 X110.31 Y133.31 E.08375
G1 X114.408 Y133.308 E.12205
G1 X115.746 Y133.287 E.03987
;WIDTH:0.432907
G1 X117.159 Y133.288 E.04352
;WIDTH:0.419999
G1 X117.927 Y133.31 E.02289
G1 X127.347 Y133.309 E.28059
G1 X128.723 Y133.266 E.041
;WIDTH:0.425095
G1 X129.817 Y133.307 E.03307
;WIDTH:0.419999
G1 X131.49 Y133.31 E.04982
G1 X131.49 Y136.121 E.08375
G1 X131.567 Y136.274 E.00509
G1 X131.679 Y136.31 E.00348
G1 X134.69 Y136.31 E.0897
G1 X134.69 Y138.69 E.07089
G1 X100.309 Y138.69 E1.0241
G1 X100.304 Y137.989 E.02088
G1 X100.275 Y137.473 E.01539
G1 X100.21 Y136.972 E.01504
;WIDTH:0.44531
G1 X100.223 Y136.641 E.01055
;WIDTH:0.47062
G1 X100.235 Y136.309 E.01121
G1 X100.339 Y136.496 E.00722
;WIDTH:0.44531
G1 X100.443 Y136.683 E.00679
;WIDTH:0.419999
G1 X100.798 Y137.111 E.01656
G1 X101.229 Y137.317 E.01424
G1 X101.694 Y137.339 E.01387
G1 X102.134 Y137.188 E.01384
G1 X102.517 Y136.848 E.01526
G1 X102.697 Y136.367 E.01531
;WIDTH:0.46803
G1 X102.759 Y136.086 E.00965
G1 E-.68 F3600
;WIPE_START
G1 F3000
G1 X102.86 Y136.181 E-.01663
G1 X102.957 Y136.206 E-.01201
G1 X103.596 Y136.272 E-.07715
G1 X103.715 Y136.277 E-.0142
;WIPE_END
G1 X111.324 Y135.682 Z.6 F21000
G1 X127.876 Y134.388 Z.6
G1 Z.2
G1 E.8 F2700
;WIDTH:0.419999
G1 F3000
G1 X127.974 Y134.048 E.01054
G1 X128.308 Y133.732 E.01371
G1 X128.711 Y133.641 E.01228
;WIDTH:0.431707
G1 X129.055 Y133.668 E.01061
G1 X129.434 Y133.927 E.01409
;WIDTH:0.419999
G1 X129.637 Y134.332 E.0135
G1 X129.641 Y134.684 E.01049
G1 X129.506 Y135.003 E.0103
G1 X129.282 Y135.233 E.00956
G1 X128.872 Y135.4 E.01319
G1 X128.551 Y135.384 E.00956
G1 X128.146 Y135.174 E.0136
G1 X127.895 Y134.808 E.01323
G1 X127.847 Y134.489 E.00961
G1 X127.865 Y134.427 E.00192
G1 E-.68 F3600
;WIPE_START
G1 F3000
G1 X127.974 Y134.048 E-.04727
G1 X128.308 Y133.732 E-.05523
G1 X128.451 Y133.7 E-.0175
;WIPE_END
G1 X120.85 Y134.395 Z.6 F21000
G1 X117.124 Y134.736 Z.6
G1 Z.2
G1 E.8 F2700
G1 F3000
G1 X117.006 Y135.003 E.00869
G1 X116.782 Y135.233 E.00956
G1 X116.372 Y135.4 E.01319
G1 X116.051 Y135.384 E.00956
G1 X115.646 Y135.174 E.0136
G1 X115.429 Y134.881 E.01087
G1 X115.346 Y134.57 E.0096
G1 X115.446 Y134.089 E.01463
G1 X115.717 Y133.787 E.0121
G1 X116.155 Y133.645 E.01372
;WIDTH:0.432907
G1 X116.555 Y133.667 E.01233
G1 X116.934 Y133.927 E.01414
;WIDTH:0.419999
G1 X117.145 Y134.355 E.01421
G1 X117.131 Y134.697 E.01022
G1 E-.68 F3600
;WIPE_START
G1 F3000
G1 X117.006 Y135.003 E-.03962
G1 X116.782 Y135.233 E-.03853
G1 X116.459 Y135.365 E-.04185
;WIPE_END
G1 X108.831 Y135.607 Z.6 F21000
G1 X102.766 Y135.8 Z.6
M73 P6 R7
G1 Z.2
G1 E.8 F2700
;WIDTH:0.468438
G1 F3000
G1 X102.768 Y136.047 E.0083
G1 E-.68 F3600
;WIPE_START
G1 F3000
G1 X102.766 Y135.8 E-.12
;WIPE_END
G1 X101.941 Y133.954 Z.6 F21000
G1 Z.2
G1 E.8 F2700
;TYPE:Inner wall
;WIDTH:0.419999
G1 F3000
G1 X101.532 Y133.904 E.01227
G1 X101.049 Y133.967 E.01452
G1 X101.064 Y133.5 E.01392
G1 X101.064 Y92.064 E1.23424
G1 X101.936 Y92.064 E.02596
G1 X101.941 Y133.914 E1.24657
G1 X102.348 Y134.547 F21000
G1 F3000
G1 X102.063 Y134.391 E.00969
G1 X101.722 Y134.292 E.01059
G1 X101.147 Y134.324 E.01714
G1 X100.675 Y134.534 E.01537
G1 X100.663 Y134.222 E.00929
G1 X100.687 Y133.5 E.02152
G1 X100.687 Y91.687 E1.24547
G1 X102.313 Y91.687 E.04843
G1 X102.313 Y133.088 E1.23319
G1 X102.319 Y134.032 E.02812
G1 X102.346 Y134.507 E.01417
G1 E-.68 F3600
;WIPE_START
G1 F3000
G1 X102.063 Y134.391 E-.03673
G1 X101.722 Y134.292 E-.04264
G1 X101.384 Y134.311 E-.04063
;WIPE_END
G1 X102.766 Y135.8 Z.6 F21000
G1 Z.2
G1 E.8 F2700
;TYPE:Outer wall
;WIDTH:0.468438
G1 F3000
G1 X102.602 Y135.396 E.01466
;WIDTH:0.419999
G1 X102.283 Y134.961 E.01607
G1 X101.882 Y134.721 E.01391
G1 X101.64 Y134.66 E.00744
G1 X101.118 Y134.721 E.01565
G1 X100.717 Y134.962 E.01395
G1 X100.386 Y135.418 E.01678
;WIDTH:0.467734
G1 X100.234 Y135.802 E.01387
G1 X100.21 Y135.361 E.01483
;WIDTH:0.419999
G1 X100.286 Y134.21 E.03436
G1 X100.31 Y133.503 E.02107
G1 X100.31 Y91.31 E1.25678
G1 X102.69 Y91.31 E.07089
M73 P7 R7
G1 X102.69 Y133.035 E1.24283
G1 X102.696 Y134.011 E.02909
G1 X102.725 Y134.527 E.01539
G1 X102.79 Y135.028 E.01504
;WIDTH:0.468438
G1 X102.767 Y135.76 E.02463
G1 E-.68 F3600
;WIPE_START
G1 F3000
G1 X102.602 Y135.396 E-.04797
G1 X102.283 Y134.961 E-.06476
G1 X102.231 Y134.93 E-.00727
;WIPE_END
G1 X100.239 Y136.263 Z.6 F21000
G1 Z.2
G1 E.8 F2700
;WIDTH:0.477254
G1 F3000
G1 X100.234 Y135.802 E.01582
G1 E-.68 F3600
;WIPE_START
G1 F3000
G1 X100.239 Y136.263 E-.12
;WIPE_END
G1 X107.868 Y136.054 Z.6 F21000
G1 X130.24 Y135.44 Z.6
G1 Z.2
G1 E.8 F2700
;TYPE:Bottom surface
;WIDTH:0.423337
G1 F4800
G1 X130.625 Y135.825 E.01638
G1 E-.68 F3600
;WIPE_START
G1 F4800
G1 X130.24 Y135.44 E-.12
;WIPE_END
G1 X133.053 Y137.177 Z.6 F21000
G1 Z.2
G1 E.8 F2700
G1 F4800
G1 X133.529 Y137.653 E.02022
G1 X132.991 Y137.653 E.01617
G1 X132.685 Y137.347 E.01301
G1 X132.147 Y137.347 E.01617
G1 X132.453 Y137.653 E.01301
G1 X131.915 Y137.653 E.01617
G1 X131.583 Y137.321 E.01413
G1 X130.956 Y137.116 E.01983
G1 X130.558 Y136.622 E.01904
G1 X130.474 Y136.349 E.00858
G1 X130.46 Y136.198 E.00458
G1 X130.126 Y135.864 E.01418
G1 X130.049 Y135.949 E.00345
G1 X129.833 Y136.109 E.00807
G1 X131.377 Y137.653 E.06563
G1 X130.839 Y137.653 E.01617
G1 X129.47 Y136.284 E.05819
G1 X129.374 Y136.33 E.0032
G1 X129.068 Y136.42 E.00957
G1 X130.301 Y137.653 E.05239
G1 X129.763 Y137.653 E.01617
G1 X128.307 Y136.197 E.0619
G1 E-.68 F3600
;WIPE_START
G1 F4800
G1 X129.014 Y136.904 E-.12
;WIPE_END
G1 X127.034 Y134.924 Z.6 F21000
G1 Z.2
G1 E.8 F2700
G1 F4800
G1 X126.456 Y134.346 E.02455
G1 X125.918 Y134.346 E.01617
G1 X129.225 Y137.653 E.14054
G1 X128.687 Y137.653 E.01617
G1 X125.38 Y134.346 E.14054
G1 X124.842 Y134.346 E.01617
G1 X128.149 Y137.653 E.14054
G1 X127.611 Y137.653 E.01617
G1 X124.304 Y134.346 E.14053
G1 X123.766 Y134.346 E.01617
G1 X127.073 Y137.653 E.14053
G1 X126.535 Y137.653 E.01617
G1 X123.229 Y134.346 E.14053
M73 P8 R7
G1 X122.691 Y134.346 E.01617
G1 X125.997 Y137.653 E.14053
G1 X125.459 Y137.653 E.01617
G1 X122.153 Y134.346 E.14052
G1 X121.615 Y134.346 E.01617
G1 X124.921 Y137.653 E.14052
G1 X124.383 Y137.653 E.01617
G1 X121.077 Y134.346 E.14052
G1 X120.539 Y134.347 E.01617
G1 X123.845 Y137.653 E.14052
G1 X123.307 Y137.653 E.01617
G1 X120.001 Y134.347 E.14052
G1 X119.463 Y134.347 E.01617
G1 X122.769 Y137.653 E.14051
G1 X122.231 Y137.653 E.01617
G1 X118.925 Y134.347 E.14051
G1 X118.387 Y134.347 E.01617
G1 X121.693 Y137.653 E.14051
G1 X121.155 Y137.653 E.01617
G1 X118.18 Y134.678 E.12643
G1 X118.087 Y135.122 E.01365
G1 X120.617 Y137.653 E.10755
G1 X120.079 Y137.653 E.01617
G1 X117.913 Y135.487 E.09207
G1 X117.79 Y135.682 E.00694
G1 X117.687 Y135.799 E.00468
G1 X119.541 Y137.653 E.07879
G1 X119.003 Y137.653 E.01617
G1 X117.394 Y136.044 E.06839
G1 X117.22 Y136.173 E.00653
G1 X117.058 Y136.246 E.00531
G1 X118.465 Y137.653 E.05979
G1 X117.927 Y137.653 E.01617
G1 X116.668 Y136.394 E.05352
G1 X116.584 Y136.42 E.00266
G1 X116.172 Y136.436 E.01237
G1 X117.559 Y137.823 E.05895
G1 E-.68 F3600
;WIPE_START
G1 F4800
G1 X116.852 Y137.116 E-.12
;WIPE_END
G1 X114.501 Y134.764 Z.6 F21000
G1 Z.2
G1 E.8 F2700
G1 F4800
G1 X114.082 Y134.346 E.01779
G1 X113.544 Y134.346 E.01616
G1 X116.851 Y137.653 E.14055
G1 X116.313 Y137.653 E.01617
G1 X113.006 Y134.346 E.14054
G1 X112.469 Y134.346 E.01616
G1 X115.775 Y137.653 E.14054
G1 X115.237 Y137.653 E.01617
G1 X111.931 Y134.346 E.14053
G1 X111.393 Y134.346 E.01616
G1 X114.699 Y137.653 E.14052
G1 X114.161 Y137.653 E.01617
G1 X111.347 Y134.839 E.11961
G1 X111.347 Y135.377 E.01617
G1 X113.623 Y137.653 E.09675
G1 X113.086 Y137.653 E.01617
G1 X111.347 Y135.915 E.07388
G1 X111.347 Y136.131 E.0065
G1 X111.293 Y136.399 E.00822
G1 X112.548 Y137.653 E.0533
G1 X112.01 Y137.653 E.01617
G1 X111.122 Y136.766 E.0377
G1 X110.887 Y137.068 E.01152
G1 X111.472 Y137.653 E.02484
G1 X110.934 Y137.653 E.01617
G1 X110.528 Y137.247 E.01725
G1 X110.34 Y137.328 E.00613
G1 X110.089 Y137.347 E.00756
G1 X110.396 Y137.653 E.01301
G1 X109.858 Y137.653 E.01617
G1 X109.551 Y137.347 E.01301
G1 X109.013 Y137.347 E.01617
G1 X109.32 Y137.653 E.01302
G1 X108.782 Y137.653 E.01617
G1 X108.475 Y137.347 E.01303
G1 X107.937 Y137.346 E.01617
G1 X108.244 Y137.653 E.01303
G1 X107.706 Y137.653 E.01617
G1 X107.399 Y137.346 E.01304
G1 X106.861 Y137.346 E.01617
G1 X107.168 Y137.653 E.01304
G1 X106.63 Y137.653 E.01617
G1 X106.323 Y137.346 E.01305
G1 X105.784 Y137.346 E.01617
G1 X106.092 Y137.653 E.01305
G1 X105.554 Y137.653 E.01617
G1 X105.246 Y137.346 E.01306
G1 X104.708 Y137.346 E.01617
G1 X105.016 Y137.653 E.01307
M73 P9 R7
G1 X104.478 Y137.653 E.01617
G1 X104.156 Y137.331 E.01367
G1 X103.594 Y137.308 E.01689
G1 X103.94 Y137.653 E.01467
G1 X103.402 Y137.653 E.01617
G1 X103.162 Y137.413 E.01018
G1 E-.68 F3600
;WIPE_START
G1 F4800
G1 X103.402 Y137.653 E-.04065
G1 X103.94 Y137.653 E-.06456
G1 X103.853 Y137.566 E-.01479
;WIPE_END
G1 X103.402 Y129.947 Z.6 F21000
G1 X101.177 Y92.299 Z.6
G1 Z.2
G1 E.8 F2700
;WIDTH:0.422269
G1 F4800
G1 X101.653 Y92.775 E.02016
G1 X101.653 Y93.311 E.01608
G1 X101.347 Y93.005 E.01298
G1 X101.347 Y93.541 E.01607
G1 X101.653 Y93.848 E.01298
G1 X101.653 Y94.384 E.01608
G1 X101.347 Y94.078 E.01299
G1 X101.347 Y94.614 E.01607
G1 X101.653 Y94.921 E.01299
G1 X101.653 Y95.457 E.01608
G1 X101.346 Y95.15 E.01299
G1 X101.346 Y95.687 E.01607
G1 X101.653 Y95.994 E.013
G1 X101.653 Y96.53 E.01608
G1 X101.346 Y96.223 E.013
G1 X101.346 Y96.76 E.01607
G1 X101.653 Y97.067 E.01301
G1 X101.653 Y97.603 E.01608
G1 X101.346 Y97.296 E.01301
G1 X101.346 Y97.832 E.01607
G1 X101.653 Y98.139 E.01302
G1 X101.653 Y98.676 E.01608
G1 X101.346 Y98.369 E.01302
G1 X101.346 Y98.905 E.01607
G1 X101.653 Y99.212 E.01302
G1 X101.653 Y99.749 E.01608
G1 X101.346 Y99.441 E.01303
G1 X101.346 Y99.978 E.01607
G1 X101.653 Y100.285 E.01303
G1 X101.653 Y100.822 E.01608
G1 X101.345 Y100.514 E.01304
G1 X101.345 Y101.051 E.01607
G1 X101.653 Y101.358 E.01304
G1 X101.653 Y101.895 E.01608
G1 X101.345 Y101.587 E.01305
G1 X101.345 Y102.123 E.01607
G1 X101.653 Y102.431 E.01305
G1 X101.653 Y102.968 E.01608
G1 X101.345 Y102.66 E.01305
G1 X101.345 Y103.196 E.01607
G1 X101.653 Y103.504 E.01306
G1 X101.653 Y104.041 E.01608
G1 X101.345 Y103.733 E.01306
G1 X101.345 Y104.269 E.01607
G1 X101.653 Y104.577 E.01307
G1 X101.653 Y105.114 E.01608
G1 X101.345 Y104.805 E.01307
G1 X101.345 Y105.342 E.01607
G1 X101.653 Y105.65 E.01308
G1 X101.653 Y106.187 E.01608
G1 X101.344 Y105.878 E.01308
G1 X101.344 Y106.414 E.01607
G1 X101.653 Y106.723 E.01308
G1 X101.653 Y107.26 E.01608
G1 X101.344 Y106.951 E.01309
G1 X101.344 Y107.487 E.01607
G1 X101.653 Y107.796 E.01309
G1 X101.653 Y108.333 E.01608
G1 X101.344 Y108.024 E.0131
G1 X101.344 Y108.56 E.01607
G1 X101.653 Y108.869 E.0131
G1 X101.653 Y109.406 E.01608
G1 X101.344 Y109.096 E.0131
