; HEADER_BLOCK_START
; generated by OrcaSlicer 2.1.1 on 2025-01-10 at 23:44:26
; total layer number: 36
; filament_density: 1.27
; filament_diameter: 1.75
; max_z_height: 3.00
; HEADER_BLOCK_END

; THUMBNAIL_BLOCK_START

;
; THUMBNAIL_BLOCK_END







; external perimeters extrusion width = 0.40mm
; perimeters extrusion width = 0.45mm
; infill extrusion width = 0.45mm
; solid infill extrusion width = 0.45mm
; top infill extrusion width = 0.38mm
; first layer extrusion width = 0.42mm

; EXECUTABLE_BLOCK_START
EXCLUDE_OBJECT_DEFINE NAME=驾驶舱_-_后侧板.STL_id_0_copy_0 CENTER=117.682,115.183 POLYGON=[[88.3825,96.1826],[146.982,96.1826],[146.982,134.183],[88.3825,134.183],[88.3825,96.1826]]
M73 P0 R19
;TYPE:Custom
;ELEGOO NEPTUNE 4 PRO
M220 S100 ;Set the feed speed to 100%
M221 S100 ;Set the flow rate to 100%
M104 S140
M190 S70
G90
G28 ;home
G1 Z10 F300
G1 X67.5 Y0 F6000
G1 Z0 F300
M109 S240
G92 E0 ;Reset Extruder
G1 X67.5 Y0 Z0.4 F300 ;Move to start position
G1 X167.5 E30 F400 ;Draw the first line
G1 Z0.6 F120.0 ;Move to side a little
M73 P1 R19
G1 X162.5 F3000
G92 E0 ;Reset Extruder
G90
G21
M83 ; use relative distances for extrusion
; filament start gcode
M106 S0
;LAYER_CHANGE
;Z:0.2
;HEIGHT:0.2
;BEFORE_LAYER_CHANGE
G92 E0
;0.2


G1 E-.8 F3600
;AFTER_LAYER_CHANGE
;0.2
;_SET_FAN_SPEED_CHANGING_LAYER
SET_VELOCITY_LIMIT ACCEL=1000 ACCEL_TO_DECEL=500
SET_VELOCITY_LIMIT SQUARE_CORNER_VELOCITY=7
; printing object 驾驶舱 - 后侧板.STL id:0 copy 0
EXCLUDE_OBJECT_START NAME=驾驶舱_-_后侧板.STL_id_0_copy_0
G1 X145.918 Y133.118 F21000
G1 Z.4
G1 Z.2
G1 E.8 F2700
;TYPE:Inner wall
;WIDTH:0.419999
G1 F3000
G1 X89.447 Y133.118 E1.6821
G1 X89.447 Y97.247 E1.06849
M73 P1 R18
G1 X145.918 Y97.247 E1.6821
G1 X145.918 Y133.078 E1.0673
M73 P2 R18
G1 X146.295 Y133.496 F21000
G1 F3000
G1 X89.07 Y133.496 E1.70456
G1 X89.07 Y96.87 E1.09096
G1 X146.295 Y96.87 E1.70456
G1 X146.295 Y133.456 E1.08977
G1 X146.672 Y133.873 F21000
;TYPE:Outer wall
G1 F3000
G1 X88.692 Y133.873 E1.72702
G1 X88.692 Y96.493 E1.11342
G1 X146.672 Y96.493 E1.72702
G1 X146.672 Y133.833 E1.11223
G1 E-.68 F3600
;WIPE_START
G1 F3000
G1 X145.672 Y133.833 E-.12
;WIPE_END
G1 X138.114 Y132.772 Z.6 F21000
G1 X117.508 Y129.878 Z.6
G1 Z.2
G1 E.8 F2700
;TYPE:Inner wall
G1 F3000
G1 X117.234 Y129.997 E.00891
G1 X112.711 Y129.997 E.13473
G1 X112.405 Y129.946 E.00923
G1 X112.145 Y129.808 E.00876
G1 X111.957 Y129.62 E.00794
G1 X111.768 Y129.189 E.01401
G1 X111.768 Y101.311 E.83038
G1 X111.841 Y100.949 E.01101
G1 X111.957 Y100.746 E.00697
G1 X112.145 Y100.557 E.00794
G1 X112.581 Y100.368 E.01413
G1 X117.104 Y100.368 E.13473
G1 X117.41 Y100.419 E.00923
G1 X117.67 Y100.557 E.00876
G1 X117.858 Y100.746 E.00794
G1 X118.047 Y101.176 E.01401
G1 X118.047 Y129.054 E.83038
G1 X117.974 Y129.417 E.01101
G1 X117.858 Y129.62 E.00697
G1 X117.67 Y129.808 E.00794
G1 X117.545 Y129.862 E.00404
G1 X117.504 Y129.428 F21000
M73 P3 R18
G1 F3000
G1 X117.443 Y129.507 E.00296
G1 X117.182 Y129.62 E.00848
G1 X112.711 Y129.62 E.13318
G1 X112.528 Y129.589 E.00554
G1 X112.259 Y129.393 E.00991
G1 X112.145 Y129.135 E.00841
G1 X112.145 Y101.311 E.82877
G1 X112.189 Y101.094 E.00661
G1 X112.372 Y100.859 E.00887
G1 X112.633 Y100.746 E.00848
G1 X117.104 Y100.746 E.13318
G1 X117.287 Y100.776 E.00554
G1 X117.556 Y100.972 E.00991
G1 X117.67 Y101.23 E.00841
G1 X117.67 Y129.054 E.82877
G1 X117.626 Y129.272 E.00661
G1 X117.529 Y129.397 E.00472
G1 X117.217 Y129.205 F21000
;TYPE:Outer wall
G1 F3000
G1 X117.104 Y129.243 E.00355
G1 X112.711 Y129.243 E.13085
G1 X112.56 Y129.167 E.00502
G1 X112.522 Y129.054 E.00355
G1 X112.522 Y101.311 E.82637
G1 X112.598 Y101.16 E.00502
G1 X112.711 Y101.123 E.00355
G1 X117.104 Y101.123 E.13085
G1 X117.255 Y101.198 E.00502
G1 X117.292 Y101.311 E.00355
G1 X117.292 Y129.054 E.82637
G1 X117.235 Y129.169 E.00383
G1 E-.68 F3600
;WIPE_START
G1 F3000
G1 X117.104 Y129.243 E-.01803
G1 X116.254 Y129.243 E-.10197
;WIPE_END
G1 X121.369 Y123.578 Z.6 F21000
G1 X145.041 Y97.36 Z.6
G1 Z.2
G1 E.8 F2700
;TYPE:Bottom surface
;WIDTH:0.421001
G1 F4800
G1 X145.636 Y97.955 E.02512
G1 X145.636 Y98.489 E.01597
G1 X144.676 Y97.53 E.04053
G1 X144.141 Y97.53 E.01597
G1 X145.636 Y99.024 E.06312
G1 X145.636 Y99.559 E.01597
G1 X143.606 Y97.53 E.0857
G1 X143.072 Y97.53 E.01597
G1 X145.636 Y100.093 E.10828
G1 X145.636 Y100.628 E.01597
G1 X142.537 Y97.53 E.13087
G1 X142.002 Y97.53 E.01597
G1 X145.636 Y101.163 E.15345
G1 X145.636 Y101.697 E.01597
G1 X141.468 Y97.53 E.17603
G1 X140.933 Y97.53 E.01597
G1 X145.636 Y102.232 E.19862
G1 X145.636 Y102.767 E.01597
G1 X140.398 Y97.53 E.2212
G1 X139.864 Y97.53 E.01597
G1 X145.636 Y103.301 E.24378
G1 X145.636 Y103.836 E.01597
G1 X139.329 Y97.53 E.26637
G1 X138.794 Y97.53 E.01597
G1 X145.636 Y104.371 E.28895
G1 X145.636 Y104.906 E.01597
G1 X138.26 Y97.53 E.31153
G1 X137.725 Y97.53 E.01597
G1 X145.636 Y105.44 E.33412
G1 X145.636 Y105.975 E.01597
G1 X137.19 Y97.53 E.3567
G1 X136.656 Y97.53 E.01597
G1 X145.636 Y106.51 E.37928
G1 X145.636 Y107.044 E.01597
G1 X136.121 Y97.53 E.40187
G1 X135.586 Y97.53 E.01597
G1 X145.636 Y107.579 E.42445
G1 X145.636 Y108.114 E.01597
G1 X135.051 Y97.53 E.44703
G1 X134.517 Y97.53 E.01597
G1 X145.636 Y108.648 E.46962
G1 X145.636 Y109.183 E.01597
G1 X133.982 Y97.53 E.4922
G1 X133.447 Y97.53 E.01597
G1 X145.636 Y109.718 E.51478
G1 X145.636 Y110.252 E.01597
G1 X132.913 Y97.53 E.53737
G1 X132.378 Y97.53 E.01597
G1 X145.636 Y110.787 E.55995
G1 X145.636 Y111.322 E.01597
G1 X131.843 Y97.53 E.58253
G1 X131.309 Y97.53 E.01597
G1 X145.636 Y111.856 E.60512
G1 X145.636 Y112.391 E.01597
G1 X130.774 Y97.53 E.6277
G1 X130.239 Y97.53 E.01597
G1 X145.636 Y112.926 E.65028
G1 X145.636 Y113.461 E.01597
G1 X129.705 Y97.53 E.67287
G1 X129.17 Y97.53 E.01597
G1 X145.636 Y113.995 E.69545
G1 X145.636 Y114.53 E.01597
G1 X128.635 Y97.53 E.71803
G1 X128.101 Y97.53 E.01597
M73 P4 R18
G1 X145.636 Y115.065 E.74062
G1 X145.636 Y115.599 E.01597
G1 X127.566 Y97.53 E.7632
G1 X127.031 Y97.53 E.01597
G1 X145.636 Y116.134 E.78578
G1 X145.636 Y116.669 E.01597
G1 X126.496 Y97.53 E.80837
G1 X125.962 Y97.53 E.01597
G1 X145.636 Y117.203 E.83095
G1 X145.636 Y117.738 E.01597
G1 X125.427 Y97.53 E.85353
G1 X124.892 Y97.53 E.01597
G1 X145.636 Y118.273 E.87612
G1 X145.636 Y118.807 E.01597
G1 X124.358 Y97.53 E.8987
G1 X123.823 Y97.53 E.01597
G1 X145.636 Y119.342 E.92128
G1 X145.636 Y119.877 E.01597
G1 X123.288 Y97.53 E.94387
G1 X122.754 Y97.53 E.01597
G1 X145.636 Y120.411 E.96645
G1 X145.636 Y120.946 E.01597
G1 X122.219 Y97.53 E.98903
G1 X121.684 Y97.53 E.01597
G1 X145.636 Y121.481 E1.01162
G1 X145.636 Y122.016 E.01597
G1 X121.15 Y97.53 E1.0342
G1 X120.615 Y97.53 E.01597
G1 X145.636 Y122.55 E1.05678
G1 X145.636 Y123.085 E.01597
G1 X120.08 Y97.53 E1.07937
G1 X119.546 Y97.53 E.01597
G1 X145.636 Y123.62 E1.10195
G1 X145.636 Y124.154 E.01597
G1 X119.011 Y97.53 E1.12453
G1 X118.476 Y97.53 E.01597
G1 X145.636 Y124.689 E1.14712
G1 X145.636 Y125.224 E.01597
G1 X117.941 Y97.53 E1.1697
G1 X117.407 Y97.53 E.01597
G1 X145.636 Y125.758 E1.19228
G1 X145.636 Y126.293 E.01597
G1 X116.872 Y97.53 E1.21487
G1 X116.337 Y97.53 E.01597
G1 X145.636 Y126.828 E1.23745
G1 X145.636 Y127.362 E.01597
M73 P5 R18
G1 X115.803 Y97.53 E1.26003
G1 X115.268 Y97.53 E.01597
G1 X145.636 Y127.897 E1.28262
G1 X145.636 Y128.432 E.01597
G1 X118.311 Y101.108 E1.15408
G1 X118.235 Y100.839 E.00834
G1 X118.085 Y100.575 E.00908
G1 X117.839 Y100.329 E.01036
G1 X117.501 Y100.151 E.01142
G1 X117.325 Y100.121 E.00534
G1 X114.733 Y97.53 E.10946
G1 X114.199 Y97.53 E.01597
G1 X116.755 Y100.086 E.10796
G1 X116.22 Y100.086 E.01597
G1 X113.664 Y97.53 E.10796
G1 X113.129 Y97.53 E.01597
G1 X115.685 Y100.086 E.10796
G1 X115.151 Y100.086 E.01597
G1 X112.595 Y97.53 E.10796
G1 X112.06 Y97.53 E.01597
G1 X114.616 Y100.086 E.10796
G1 X114.081 Y100.086 E.01597
G1 X111.525 Y97.53 E.10796
G1 X110.991 Y97.53 E.01597
G1 X113.547 Y100.086 E.10796
G1 X113.012 Y100.086 E.01597
G1 X110.456 Y97.53 E.10796
G1 X109.921 Y97.53 E.01597
G1 X112.496 Y100.105 E.10876
G1 X112.31 Y100.153 E.00574
G1 X112.113 Y100.257 E.00664
G1 X109.386 Y97.53 E.11518
G1 X108.852 Y97.53 E.01597
G1 X111.814 Y100.491 E.1251
G1 X111.73 Y100.575 E.00351
G1 X111.597 Y100.809 E.00806
G1 X108.317 Y97.53 E.13851
G1 X107.782 Y97.53 E.01597
G1 X111.492 Y101.239 E.15667
G1 X111.486 Y101.767 E.01579
G1 X107.248 Y97.53 E.17899
G1 X106.713 Y97.53 E.01597
G1 X111.486 Y102.302 E.20157
G1 X111.486 Y102.837 E.01597
G1 X106.178 Y97.53 E.22416
G1 X105.644 Y97.53 E.01597
G1 X111.486 Y103.371 E.24674
G1 X111.486 Y103.906 E.01597
G1 X105.109 Y97.53 E.26932
G1 X104.574 Y97.53 E.01597
G1 X111.486 Y104.441 E.29191
G1 X111.486 Y104.976 E.01597
G1 X104.04 Y97.53 E.31449
G1 X103.505 Y97.53 E.01597
G1 X111.486 Y105.51 E.33707
G1 X111.486 Y106.045 E.01597
G1 X102.97 Y97.53 E.35966
G1 X102.436 Y97.53 E.01597
G1 X111.486 Y106.58 E.38224
G1 X111.486 Y107.114 E.01597
G1 X101.901 Y97.53 E.40482
G1 X101.366 Y97.53 E.01597
G1 X111.486 Y107.649 E.42741
G1 X111.486 Y108.184 E.01597
G1 X100.831 Y97.53 E.44999
G1 X100.297 Y97.53 E.01597
G1 X111.486 Y108.718 E.47257
G1 X111.486 Y109.253 E.01597
G1 X99.762 Y97.53 E.49516
G1 X99.227 Y97.53 E.01597
G1 X111.486 Y109.788 E.51774
G1 X111.486 Y110.322 E.01597
G1 X98.693 Y97.53 E.54032
G1 X98.158 Y97.53 E.01597
G1 X111.486 Y110.857 E.56291
G1 X111.486 Y111.392 E.01597
G1 X97.623 Y97.53 E.58549
G1 X97.089 Y97.53 E.01597
G1 X111.486 Y111.926 E.60807
G1 X111.486 Y112.461 E.01597
G1 X96.554 Y97.53 E.63066
G1 X96.019 Y97.53 E.01597
G1 X111.486 Y112.996 E.65324
G1 X111.486 Y113.531 E.01597
G1 X95.485 Y97.53 E.67582
G1 X94.95 Y97.53 E.01597
G1 X111.486 Y114.065 E.69841
G1 X111.486 Y114.6 E.01597
G1 X94.415 Y97.53 E.72099
G1 X93.881 Y97.53 E.01597
G1 X111.486 Y115.135 E.74357
G1 X111.486 Y115.669 E.01597
G1 X93.346 Y97.53 E.76616
G1 X92.811 Y97.53 E.01597
M73 P6 R18
G1 X111.486 Y116.204 E.78874
G1 X111.486 Y116.739 E.01597
G1 X92.276 Y97.53 E.81132
G1 X91.742 Y97.53 E.01597
G1 X111.486 Y117.273 E.83391
G1 X111.486 Y117.808 E.01597
G1 X91.207 Y97.53 E.85649
G1 X90.672 Y97.53 E.01597
G1 X111.486 Y118.343 E.87907
G1 X111.486 Y118.877 E.01597
G1 X90.138 Y97.53 E.90166
G1 X89.729 Y97.53 E.01219
G1 X89.729 Y97.656 E.00378
G1 X111.486 Y119.412 E.9189
G1 X111.486 Y119.947 E.01597
G1 X89.729 Y98.191 E.9189
G1 X89.729 Y98.725 E.01597
G1 X111.486 Y120.481 E.9189
G1 X111.486 Y121.016 E.01597
G1 X89.729 Y99.26 E.9189
G1 X89.729 Y99.795 E.01597
G1 X111.486 Y121.551 E.9189
G1 X111.486 Y122.085 E.01597
G1 X89.729 Y100.329 E.9189
G1 X89.729 Y100.864 E.01597
G1 X111.486 Y122.62 E.9189
G1 X111.486 Y123.155 E.01597
G1 X89.729 Y101.399 E.9189
G1 X89.729 Y101.933 E.01597
G1 X111.486 Y123.69 E.9189
G1 X111.486 Y124.224 E.01597
G1 X89.729 Y102.468 E.9189
G1 X89.729 Y103.003 E.01597
G1 X111.486 Y124.759 E.9189
G1 X111.486 Y125.294 E.01597
G1 X89.729 Y103.538 E.9189
G1 X89.729 Y104.072 E.01597
G1 X111.486 Y125.828 E.9189
G1 X111.486 Y126.363 E.01597
G1 X89.729 Y104.607 E.9189
G1 X89.729 Y105.142 E.01597
G1 X111.486 Y126.898 E.9189
G1 X111.486 Y127.432 E.01597
G1 X89.729 Y105.676 E.9189
G1 X89.729 Y106.211 E.01597
G1 X111.486 Y127.967 E.9189
G1 X111.486 Y128.502 E.01597
G1 X89.56 Y106.576 E.92607
G1 E-.68 F3600
;WIPE_START
M73 P7 R18
G1 F4800
G1 X90.267 Y107.283 E-.12
;WIPE_END
G1 X97.74 Y105.731 Z.6 F21000
G1 X118.16 Y101.491 Z.6
G1 Z.2
G1 E.8 F2700
G1 F4800
G1 X145.636 Y128.966 E1.16048
G1 X145.636 Y129.501 E.01597
M73 P7 R17
G1 X118.329 Y102.195 E1.15331
G1 X118.329 Y102.73 E.01597
G1 X145.636 Y130.036 E1.15331
G1 X145.636 Y130.571 E.01597
G1 X118.329 Y103.264 E1.15331
G1 X118.329 Y103.799 E.01597
G1 X145.636 Y131.105 E1.15331
G1 X145.636 Y131.64 E.01597
G1 X118.329 Y104.334 E1.15331
G1 X118.329 Y104.869 E.01597
G1 X145.636 Y132.175 E1.15331
G1 X145.636 Y132.709 E.01597
G1 X118.329 Y105.403 E1.15331
G1 X118.329 Y105.938 E.01597
G1 X145.227 Y132.836 E1.13607
G1 X144.693 Y132.836 E.01597
G1 X118.329 Y106.473 E1.11348
G1 X118.329 Y107.007 E.01597
G1 X144.158 Y132.836 E1.0909
G1 X143.623 Y132.836 E.01597
G1 X118.329 Y107.542 E1.06832
G1 X118.329 Y108.077 E.01597
G1 X143.088 Y132.836 E1.04573
G1 X142.554 Y132.836 E.01597
G1 X118.329 Y108.611 E1.02315
G1 X118.329 Y109.146 E.01597
G1 X142.019 Y132.836 E1.00057
G1 X141.484 Y132.836 E.01597
G1 X118.329 Y109.681 E.97798
G1 X118.329 Y110.215 E.01597
G1 X140.95 Y132.836 E.9554
G1 X140.415 Y132.836 E.01597
G1 X118.329 Y110.75 E.93282
G1 X118.329 Y111.285 E.01597
G1 X139.88 Y132.836 E.91023
G1 X139.346 Y132.836 E.01597
G1 X118.329 Y111.819 E.88765
G1 X118.329 Y112.354 E.01597
G1 X138.811 Y132.836 E.86507
G1 X138.276 Y132.836 E.01597
M73 P8 R17
G1 X118.329 Y112.889 E.84248
G1 X118.329 Y113.423 E.01597
G1 X137.742 Y132.836 E.8199
G1 X137.207 Y132.836 E.01597
G1 X118.329 Y113.958 E.79732
G1 X118.329 Y114.493 E.01597
G1 X136.672 Y132.836 E.77473
G1 X136.138 Y132.836 E.01597
G1 X118.329 Y115.028 E.75215
G1 X118.329 Y115.562 E.01597
G1 X135.603 Y132.836 E.72957
G1 X135.068 Y132.836 E.01597
G1 X118.329 Y116.097 E.70698
G1 X118.329 Y116.632 E.01597
G1 X134.533 Y132.836 E.6844
G1 X133.999 Y132.836 E.01597
G1 X118.329 Y117.166 E.66182
G1 X118.329 Y117.701 E.01597
G1 X133.464 Y132.836 E.63923
G1 X132.929 Y132.836 E.01597
G1 X118.329 Y118.236 E.61665
G1 X118.329 Y118.77 E.01597
G1 X132.395 Y132.836 E.59407
G1 X131.86 Y132.836 E.01597
G1 X118.329 Y119.305 E.57148
G1 X118.329 Y119.84 E.01597
G1 X131.325 Y132.836 E.5489
G1 X130.791 Y132.836 E.01597
G1 X118.329 Y120.374 E.52632
G1 X118.329 Y120.909 E.01597
G1 X130.256 Y132.836 E.50373
G1 X129.721 Y132.836 E.01597
G1 X118.329 Y121.444 E.48115
G1 X118.329 Y121.978 E.01597
G1 X129.187 Y132.836 E.45857
G1 X128.652 Y132.836 E.01597
G1 X118.329 Y122.513 E.43598
G1 X118.329 Y123.048 E.01597
G1 X128.117 Y132.836 E.4134
G1 X127.583 Y132.836 E.01597
G1 X118.329 Y123.583 E.39082
G1 X118.329 Y124.117 E.01597
G1 X127.048 Y132.836 E.36823
G1 X126.513 Y132.836 E.01597
G1 X118.329 Y124.652 E.34565
G1 X118.329 Y125.187 E.01597
G1 X125.978 Y132.836 E.32307
G1 X125.444 Y132.836 E.01597
G1 X118.329 Y125.721 E.30048
G1 X118.329 Y126.256 E.01597
G1 X124.909 Y132.836 E.2779
G1 X124.374 Y132.836 E.01597
G1 X118.329 Y126.791 E.25532
G1 X118.329 Y127.325 E.01597
G1 X123.84 Y132.836 E.23273
G1 X123.305 Y132.836 E.01597
G1 X118.329 Y127.86 E.21015
G1 X118.329 Y128.395 E.01597
G1 X122.77 Y132.836 E.18757
G1 X122.236 Y132.836 E.01597
G1 X118.329 Y128.929 E.16498
G1 X118.31 Y129.276 E.01036
G1 X118.271 Y129.406 E.00405
G1 X121.701 Y132.836 E.14486
G1 X121.166 Y132.836 E.01597
G1 X118.098 Y129.767 E.1296
G1 X117.834 Y130.038 E.01129
G1 X120.632 Y132.836 E.11815
G1 X120.097 Y132.836 E.01597
G1 X117.48 Y130.219 E.11052
G1 X117.315 Y130.262 E.00509
G1 X117.006 Y130.28 E.00925
G1 X119.562 Y132.836 E.10796
G1 X119.028 Y132.836 E.01597
G1 X116.471 Y130.28 E.10796
G1 X115.937 Y130.28 E.01597
G1 X118.493 Y132.836 E.10796
G1 X117.958 Y132.836 E.01597
G1 X115.402 Y130.28 E.10796
G1 X114.867 Y130.28 E.01597
G1 X117.423 Y132.836 E.10796
G1 X116.889 Y132.836 E.01597
G1 X114.333 Y130.28 E.10796
G1 X113.798 Y130.28 E.01597
G1 X116.354 Y132.836 E.10796
G1 X115.819 Y132.836 E.01597
G1 X113.094 Y130.11 E.11513
G1 E-.68 F3600
;WIPE_START
G1 F4800
G1 X113.801 Y130.817 E-.12
;WIPE_END
G1 X115.454 Y133.005 Z.6 F21000
M73 P9 R17
G1 Z.2
G1 E.8 F2700
G1 F4800
G1 X112.729 Y130.28 E.11513
G1 X112.314 Y130.215 E.01255
G1 X111.976 Y130.036 E.01142
G1 X111.73 Y129.791 E.01036
G1 X111.58 Y129.526 E.00908
G1 X111.505 Y129.276 E.0078
G1 X111.486 Y129.036 E.00718
G1 X89.729 Y107.28 E.9189
G1 X89.729 Y107.815 E.01597
G1 X114.75 Y132.836 E1.05678
G1 X114.215 Y132.836 E.01597
G1 X89.729 Y108.35 E1.0342
G1 X89.729 Y108.884 E.01597
G1 X113.681 Y132.836 E1.01161
G1 X113.146 Y132.836 E.01597
G1 X89.729 Y109.419 E.98903
G1 X89.729 Y109.954 E.01597
G1 X112.611 Y132.836 E.96645
G1 X112.077 Y132.836 E.01597
G1 X89.729 Y110.488 E.94386
G1 X89.729 Y111.023 E.01597
G1 X111.542 Y132.836 E.92128
G1 X111.007 Y132.836 E.01597
G1 X89.729 Y111.558 E.8987
G1 X89.729 Y112.093 E.01597
G1 X110.473 Y132.836 E.87611
G1 X109.938 Y132.836 E.01597
G1 X89.729 Y112.627 E.85353
G1 X89.729 Y113.162 E.01597
G1 X109.403 Y132.836 E.83095
G1 X108.868 Y132.836 E.01597
