; HEADER_BLOCK_START
; generated by OrcaSlicer 2.1.1 on 2025-01-10 at 23:42:42
; total layer number: 36
; filament_density: 1.27
; filament_diameter: 1.75
; max_z_height: 3.00
; HEADER_BLOCK_END

; THUMBNAIL_BLOCK_START

;
; THUMBNAIL_BLOCK_END







; external perimeters extrusion width = 0.40mm
; perimeters extrusion width = 0.45mm
; infill extrusion width = 0.45mm
; solid infill extrusion width = 0.45mm
; top infill extrusion width = 0.38mm
; first layer extrusion width = 0.42mm

; EXECUTABLE_BLOCK_START
EXCLUDE_OBJECT_DEFINE NAME=驾驶舱_-_侧板.STL_id_0_copy_0 CENTER=117.5,107.386 POLYGON=[[55.85,115.386],[70.85,65.3858],[103.85,65.3858],[141.85,82.5858],[179.15,112.586],[179.15,149.386],[58.85,149.386],[55.85,137.886],[55.85,115.386]]
M73 P0 R40
;TYPE:Custom
;ELEGOO NEPTUNE 4 PRO
M220 S100 ;Set the feed speed to 100%
M221 S100 ;Set the flow rate to 100%
M104 S140
M190 S70
G90
G28 ;home
G1 Z10 F300
G1 X67.5 Y0 F6000
G1 Z0 F300
M109 S240
G92 E0 ;Reset Extruder
G1 X67.5 Y0 Z0.4 F300 ;Move to start position
G1 X167.5 E30 F400 ;Draw the first line
G1 Z0.6 F120.0 ;Move to side a little
G1 X162.5 F3000
G92 E0 ;Reset Extruder
G90
G21
M83 ; use relative distances for extrusion
; filament start gcode
M106 S0
;LAYER_CHANGE
;Z:0.2
;HEIGHT:0.2
;BEFORE_LAYER_CHANGE
G92 E0
;0.2


G1 E-.8 F3600
;AFTER_LAYER_CHANGE
;0.2
;_SET_FAN_SPEED_CHANGING_LAYER
SET_VELOCITY_LIMIT ACCEL=1000 ACCEL_TO_DECEL=500
SET_VELOCITY_LIMIT SQUARE_CORNER_VELOCITY=7
; printing object 驾驶舱 - 侧板.STL id:0 copy 0
EXCLUDE_OBJECT_START NAME=驾驶舱_-_侧板.STL_id_0_copy_0
G1 X143.506 Y144.593 F21000
G1 Z.4
G1 Z.2
G1 E.8 F2700
;TYPE:Inner wall
;WIDTH:0.419999
G1 F3000
G1 X143.103 Y144.661 E.01217
G1 X142.836 Y144.746 E.00835
G1 X142.386 Y144.995 E.01534
G1 X142.138 Y145.196 E.00949
G1 X141.72 Y145.699 E.01948
G1 X141.491 Y146.246 E.01764
G1 X141.424 Y146.557 E.00948
G1 X141.405 Y147.02 E.01381
G1 X141.445 Y147.336 E.00949
G1 X141.581 Y147.78 E.01381
G1 X141.729 Y148.07 E.00971
G1 X141.918 Y148.322 E.00938
G1 X92.793 Y148.322 E1.46326
G1 X92.938 Y148.126 E.00725
G1 X93.146 Y147.712 E.01381
G1 X93.24 Y147.407 E.00949
G1 X93.306 Y146.851 E.0167
G1 X93.187 Y146.176 E.02041
G1 X93.069 Y145.88 E.00949
G1 X92.794 Y145.45 E.01519
G1 X101.302 Y145.45 E.2534
G1 X101.737 Y145.261 E.01414
G1 X101.926 Y145.073 E.00794
G1 X102.042 Y144.87 E.00697
G1 X102.114 Y144.507 E.01101
G1 X102.102 Y116.213 E.8428
G1 X102.032 Y115.98 E.00724
G1 X101.817 Y115.677 E.01106
G1 X101.592 Y115.521 E.00815
G1 X101.171 Y115.422 E.01288
G1 X99.884 Y115.422 E.03834
G1 X99.884 Y97.55 E.53234
G1 X101.171 Y97.55 E.03834
G1 X101.592 Y97.451 E.01288
G1 X101.836 Y97.276 E.00895
G1 X102.036 Y96.983 E.01055
G1 X102.114 Y96.607 E.01143
G1 X102.114 Y83.56 E.38865
;WIDTH:0.469101
G1 X102.139 Y83.276 E.0096
;WIDTH:0.518203
G1 X102.163 Y82.991 E.01071
;WIDTH:0.567304
G1 X102.188 Y82.707 E.01181
G1 X102.188 Y66.524 E.67037
G1 X102.712 Y66.524 E.02172
G1 X102.712 Y82.867 E.677
G1 X102.8 Y83.003 E.00667
;WIDTH:0.518203
M73 P1 R40
G1 X102.887 Y83.138 E.00604
;WIDTH:0.469101
G1 X102.974 Y83.273 E.00542
;WIDTH:0.419999
G1 X103.366 Y83.577 E.01478
G1 X103.729 Y83.65 E.01101
G1 X109.429 Y83.649 E.16978
;WIDTH:0.417302
G1 X137.671 Y83.649 E.83524
;WIDTH:0.419999
G1 X140.786 Y83.65 E.09277
G1 X140.786 Y112.707 E.86552
G1 X140.856 Y113.065 E.01086
G1 X141.004 Y113.31 E.00852
G1 X141.16 Y113.46 E.00644
G1 X141.39 Y113.587 E.00784
G1 X141.729 Y113.65 E.01024
G1 X178.086 Y113.65 E1.08296
G1 X178.086 Y148.322 E1.03275
G1 X145.507 Y148.322 E.9704
G1 X145.652 Y148.126 E.00725
G1 X145.861 Y147.712 E.01381
G1 X145.954 Y147.407 E.00949
G1 X146.013 Y146.947 E.01381
G1 X145.999 Y146.629 E.00949
G1 X145.847 Y146.004 E.01916
G1 X145.54 Y145.485 E.01797
G1 X145.374 Y145.285 E.00775
G1 X144.968 Y144.955 E.01558
G1 X144.69 Y144.799 E.00949
G1 X144.101 Y144.605 E.01847
G1 X143.6 Y144.577 E.01497
G1 X143.545 Y144.586 E.00164
G1 E-.68 F3600
;WIPE_START
G1 F3000
G1 X143.103 Y144.661 E-.05381
G1 X142.836 Y144.746 E-.03363
G1 X142.599 Y144.877 E-.03256
;WIPE_END
G1 X137.596 Y139.113 Z.6 F21000
G1 X101.2 Y97.173 Z.6
G1 Z.2
G1 E.8 F2700
G1 F3000
G1 X101.286 Y97.173 E.00255
G1 X101.57 Y97.008 E.0098
G1 X101.69 Y96.833 E.00633
G1 X101.737 Y96.607 E.00686
G1 X101.737 Y66.073 E.90952
G1 X103.163 Y66.073 E.04247
G1 X103.163 Y82.707 E.49548
G1 X103.276 Y83.047 E.01066
G1 X103.511 Y83.229 E.00887
G1 X103.729 Y83.273 E.00661
G1 X141.163 Y83.273 E1.11504
G1 X141.163 Y112.787 E.87911
G1 X141.294 Y113.069 E.00927
G1 X141.466 Y113.208 E.00659
G1 X141.729 Y113.273 E.00806
G1 X178.463 Y113.273 E1.09419
G1 X178.463 Y148.699 E1.05521
G1 X144.352 Y148.699 E1.01603
G1 X144.708 Y148.538 E.01163
G1 X145.202 Y148.11 E.01945
G1 X145.524 Y147.542 E.01945
G1 X145.639 Y146.899 E.01945
G1 X145.533 Y146.255 E.01945
G1 X145.462 Y146.078 E.00569
G1 X145.149 Y145.592 E.01719
G1 X144.732 Y145.248 E.01613
G1 X144.565 Y145.155 E.0057
G1 X144.079 Y144.986 E.0153
G1 X143.595 Y144.958 E.01444
G1 X143.03 Y145.071 E.01718
G1 X142.569 Y145.325 E.01565
G1 X142.421 Y145.445 E.0057
G1 X142.047 Y145.886 E.01722
G1 X141.841 Y146.386 E.0161
G1 X141.781 Y147.036 E.01944
G1 X141.941 Y147.669 E.01945
G1 X142.317 Y148.225 E.02
G1 X142.827 Y148.605 E.01893
G1 X143.059 Y148.699 E.00745
G1 X91.638 Y148.699 E1.53164
G1 X92.152 Y148.431 E.01727
G1 X92.601 Y147.956 E.01945
G1 X92.866 Y147.359 E.01945
G1 X92.929 Y146.841 E.01554
G1 X92.819 Y146.255 E.01777
G1 X92.504 Y145.683 E.01945
G1 X92.017 Y145.248 E.01945
G1 X91.618 Y145.073 E.01298
G1 X101.25 Y145.073 E.28688
G1 X101.511 Y144.96 E.00848
G1 X101.694 Y144.725 E.00887
G1 X101.737 Y144.507 E.00661
G1 X101.73 Y116.273 E.84099
G1 X101.616 Y116.015 E.00841
G1 X101.424 Y115.858 E.00738
G1 X101.171 Y115.799 E.00773
G1 X99.507 Y115.799 E.04957
G1 X99.507 Y97.173 E.5548
G1 X101.16 Y97.173 E.04922
G1 E-.68 F3600
;WIPE_START
G1 F3000
G1 X101.286 Y97.173 E-.01508
G1 X101.57 Y97.008 E-.03948
G1 X101.69 Y96.833 E-.02551
G1 X101.737 Y96.607 E-.02763
G1 X101.737 Y96.505 E-.01231
;WIPE_END
G1 X106.707 Y102.298 Z.6 F21000
G1 X143.629 Y145.335 Z.6
G1 Z.2
G1 E.8 F2700
;TYPE:Outer wall
G1 F3000
G1 X143.66 Y145.329 E.00093
G1 X144.001 Y145.356 E.01019
G1 X144.475 Y145.528 E.01503
G1 X144.874 Y145.85 E.01529
G1 X145.141 Y146.275 E.01494
G1 X145.262 Y146.788 E.01569
G1 X145.206 Y147.312 E.01569
G1 X144.978 Y147.786 E.01569
G1 X144.606 Y148.159 E.01569
;WIDTH:0.453448
G1 X144.454 Y148.249 E.00573
;WIDTH:0.486896
G1 X144.303 Y148.34 E.0062
;WIDTH:0.520344
G1 X144.151 Y148.431 E.00666
;WIDTH:0.56932
G1 X144.075 Y148.476 E.00367
G1 X143.526 Y148.502 E.02286
;WIDTH:0.557005
G1 X143.363 Y148.432 E.0072
;WIDTH:0.511337
G1 X143.2 Y148.362 E.00656
;WIDTH:0.465668
G1 X143.037 Y148.292 E.00592
;WIDTH:0.419999
G1 X142.619 Y147.999 E.01522
G1 X142.302 Y147.559 E.01615
G1 X142.166 Y147.115 E.01381
G1 X142.178 Y146.589 E.01569
G1 X142.364 Y146.097 E.01567
G1 X142.704 Y145.694 E.01571
G1 X143.158 Y145.428 E.01569
G1 X143.59 Y145.343 E.01311
G1 E-.68 F3600
;WIPE_START
G1 F3000
G1 X143.66 Y145.329 E-.00857
G1 X144.001 Y145.356 E-.04106
G1 X144.475 Y145.528 E-.06053
G1 X144.539 Y145.579 E-.00984
;WIPE_END
G1 X136.907 Y145.562 Z.6 F21000
G1 X89.199 Y145.45 Z.6
G1 Z.2
G1 E.8 F2700
;TYPE:Inner wall
G1 F3000
G1 X88.95 Y145.815 E.01317
G1 X88.777 Y146.245 E.01381
G1 X88.71 Y146.557 E.00949
G1 X88.693 Y146.947 E.01163
G1 X88.731 Y147.336 E.01165
G1 X88.866 Y147.78 E.01381
G1 X89.01 Y148.064 E.00949
G1 X89.2 Y148.322 E.00955
G1 X59.914 Y148.322 E.87234
G1 X59.914 Y145.45 E.08554
G1 X89.159 Y145.45 E.87112
G1 E-.68 F3600
;WIPE_START
G1 F3000
G1 X88.95 Y145.815 E-.05051
G1 X88.777 Y146.245 E-.05564
G1 X88.753 Y146.358 E-.01385
;WIPE_END
G1 X90.332 Y145.073 Z.6 F21000
G1 Z.2
G1 E.8 F2700
G1 F3000
G1 X89.855 Y145.325 E.01606
G1 X89.4 Y145.793 E.01945
G1 X89.127 Y146.386 E.01945
G1 X89.067 Y147.036 E.01945
G1 X89.227 Y147.669 E.01945
G1 X89.589 Y148.213 E.01945
G1 X90.111 Y148.605 E.01945
G1 X90.345 Y148.699 E.0075
G1 X59.537 Y148.699 E.91765
G1 X59.537 Y145.073 E.108
G1 X90.292 Y145.073 E.91608
G1 X90.966 Y145.267 F21000
;TYPE:Outer wall
;WIDTH:0.589484
G1 F3000
G1 X90.997 Y145.264 E.00134
;WIDTH:0.556733
G1 X91.243 Y145.277 E.01001
G1 X91.404 Y145.355 E.00724
;WIDTH:0.511155
G1 X91.564 Y145.433 E.0066
;WIDTH:0.465577
G1 X91.725 Y145.51 E.00595
;WIDTH:0.419999
G1 X92.141 Y145.833 E.01569
G1 X92.426 Y146.275 E.01569
G1 X92.548 Y146.788 E.01569
G1 X92.492 Y147.312 E.01569
G1 X92.226 Y147.838 E.01755
G1 X91.839 Y148.194 E.01569
;WIDTH:0.458088
G1 X91.725 Y148.264 E.00438
;WIDTH:0.496177
G1 X91.612 Y148.334 E.00478
;WIDTH:0.534266
G1 X91.498 Y148.404 E.00518
;WIDTH:0.572354
G1 X91.384 Y148.474 E.00558
G1 X90.877 Y148.506 E.02128
;WIDTH:0.548712
G1 X90.711 Y148.443 E.00706
;WIDTH:0.505808
G1 X90.546 Y148.381 E.00646
;WIDTH:0.462904
G1 X90.38 Y148.318 E.00587
;WIDTH:0.419999
G1 X89.938 Y148.032 E.01569
G1 X89.616 Y147.616 E.01569
G1 X89.452 Y147.115 E.01569
G1 X89.463 Y146.589 E.01569
G1 X89.65 Y146.096 E.01569
G1 X89.989 Y145.694 E.01569
G1 X90.444 Y145.428 E.01569
;WIDTH:0.462371
G1 X90.455 Y145.402 E.00094
;WIDTH:0.504742
G1 X90.466 Y145.375 E.00104
;WIDTH:0.547113
G1 X90.478 Y145.349 E.00113
;WIDTH:0.589484
G1 X90.489 Y145.323 E.00123
G1 X90.926 Y145.272 E.01901
G1 E-.68 F3600
;WIPE_START
G1 F3000
G1 X90.997 Y145.264 E-.00853
G1 X91.243 Y145.277 E-.0296
G1 X91.404 Y145.355 E-.0214
G1 X91.564 Y145.433 E-.0214
G1 X91.725 Y145.51 E-.0214
G1 X91.841 Y145.6 E-.01767
;WIPE_END
G1 X95.572 Y138.942 Z.6 F21000
G1 X109.309 Y114.43 Z.6
G1 Z.2
G1 E.8 F2700
;TYPE:Inner wall
;WIDTH:0.419999
G1 F3000
G1 X109.129 Y114.401 E.00542
G1 X108.791 Y114.202 E.0117
G1 X108.568 Y113.892 E.01137
G1 X108.498 Y113.659 E.00724
G1 X108.486 Y112.79 E.02588
G1 X108.486 Y84.964 E.82884
G1 X108.558 Y84.602 E.01101
G1 X108.863 Y84.21 E.01478
G1 X109.288 Y84.023 E.01383
;WIDTH:0.417302
G1 X137.671 Y84.023 E.83941
;WIDTH:0.419999
G1 X138.188 Y84.176 E.01606
G1 X138.502 Y84.518 E.0138
G1 X138.614 Y84.964 E.01373
G1 X138.614 Y113.507 E.85019
G1 X138.571 Y113.79 E.00852
G1 X138.394 Y114.113 E.01098
G1 X138.112 Y114.341 E.01078
G1 X137.751 Y114.447 E.0112
G1 X109.429 Y114.45 E.84364
G1 X109.348 Y114.437 E.00242
G1 X109.346 Y114.054 F21000
G1 F3000
G1 X109.182 Y114.016 E.00503
G1 X108.984 Y113.857 E.00756
G1 X108.87 Y113.598 E.00841
G1 X108.863 Y112.79 E.02407
G1 X108.863 Y84.964 E.82884
G1 X108.906 Y84.747 E.00661
G1 X109.089 Y84.512 E.00887
G1 X109.429 Y84.399 E.01066
G1 X137.671 Y84.399 E.84126
G1 X137.982 Y84.491 E.00964
G1 X138.169 Y84.696 E.00828
G1 X138.237 Y84.964 E.00824
G1 X138.237 Y113.507 E.85019
G1 X138.158 Y113.795 E.0089
G1 X137.952 Y113.999 E.00863
G1 X137.695 Y114.072 E.00794
G1 X109.429 Y114.073 E.84197
G1 X109.385 Y114.063 E.00132
G1 X109.429 Y113.696 F21000
;TYPE:Outer wall
G1 F3000
G1 X109.28 Y113.624 E.00491
G1 X109.24 Y113.507 E.00367
G1 X109.24 Y84.964 E.85019
G1 X109.315 Y84.814 E.00502
M73 P2 R40
G1 X109.429 Y84.776 E.00355
G1 X137.671 Y84.776 E.84126
G1 X137.775 Y84.807 E.00321
G1 X137.86 Y84.964 E.00534
G1 X137.86 Y113.507 E.85019
G1 X137.789 Y113.655 E.00488
G1 X137.671 Y113.696 E.0037
G1 X109.469 Y113.696 E.84007
G1 E-.68 F3600
;WIPE_START
G1 F3000
G1 X109.28 Y113.624 E-.02418
G1 X109.24 Y113.507 E-.0148
G1 X109.24 Y112.832 E-.08102
;WIPE_END
G1 X105.81 Y106.014 Z.6 F21000
G1 X101.171 Y96.796 Z.6
G1 Z.2
G1 E.8 F2700
G1 F3000
G1 X101.304 Y96.741 E.00428
G1 X101.36 Y96.607 E.00431
G1 X101.36 Y65.696 E.92075
G1 X103.54 Y65.696 E.06493
G1 X103.54 Y82.707 E.50671
G1 X103.578 Y82.82 E.00355
G1 X103.729 Y82.896 E.00502
G1 X141.54 Y82.896 E1.12627
G1 X141.54 Y112.707 E.88798
G1 X141.584 Y112.828 E.00382
G1 X141.726 Y112.896 E.0047
G1 X178.84 Y112.896 E1.1055
G1 X178.84 Y149.076 E1.07768
G1 X144.743 Y149.076 E1.01563
;WIDTH:0.469773
G1 X144.528 Y149.051 E.0073
;WIDTH:0.519547
G1 X144.313 Y149.026 E.00816
;WIDTH:0.56932
G1 X144.097 Y149.001 E.00901
G1 X143.591 Y149.011 E.02107
;WIDTH:0.548712
G1 X143.393 Y149.033 E.00795
;WIDTH:0.505808
G1 X143.195 Y149.054 E.00727
;WIDTH:0.462904
G1 X142.998 Y149.076 E.0066
;WIDTH:0.419999
G1 X92.029 Y149.076 E1.51818
;WIDTH:0.469773
G1 X91.814 Y149.051 E.0073
;WIDTH:0.519547
G1 X91.598 Y149.026 E.00816
;WIDTH:0.569321
G1 X91.383 Y149.001 E.00901
G1 X90.877 Y149.011 E.02107
;WIDTH:0.548712
G1 X90.679 Y149.033 E.00795
;WIDTH:0.505808
G1 X90.481 Y149.054 E.00727
;WIDTH:0.462904
G1 X90.283 Y149.076 E.0066
;WIDTH:0.419999
G1 X59.16 Y149.076 E.92705
G1 X59.16 Y144.696 E.13047
G1 X90.253 Y144.696 E.92616
;WIDTH:0.462371
G1 X90.3 Y144.717 E.00171
;WIDTH:0.504742
G1 X90.348 Y144.738 E.00189
;WIDTH:0.547113
G1 X90.395 Y144.759 E.00206
;WIDTH:0.589484
G1 X90.442 Y144.781 E.00223
G1 X91.262 Y144.764 E.03542
;WIDTH:0.556733
G1 X91.463 Y144.741 E.0082
;WIDTH:0.511155
G1 X91.664 Y144.719 E.00747
;WIDTH:0.465577
G1 X91.864 Y144.696 E.00674
;WIDTH:0.419999
G1 X101.171 Y144.696 E.27723
G1 X101.285 Y144.658 E.00355
G1 X101.36 Y144.507 E.00502
G1 X101.36 Y116.364 E.83828
G1 X101.32 Y116.248 E.00367
M73 P2 R39
G1 X101.171 Y116.176 E.00491
G1 X99.13 Y116.176 E.0608
G1 X99.13 Y96.796 E.57726
G1 X101.131 Y96.796 E.05961
G1 E-.68 F3600
;WIPE_START
G1 F3000
G1 X101.304 Y96.741 E-.02178
G1 X101.36 Y96.607 E-.01737
G1 X101.36 Y95.934 E-.08085
;WIPE_END
G1 X99.4 Y103.31 Z.6 F21000
G1 X88.172 Y145.563 Z.6
G1 Z.2
G1 E.8 F2700
;TYPE:Bottom surface
;WIDTH:0.422023
G1 F4800
G1 X88.582 Y145.973 E.01736
G1 X88.512 Y146.147 E.00562
G1 X88.46 Y146.387 E.00735
G1 X87.805 Y145.733 E.02772
G1 X87.269 Y145.733 E.01606
G1 X88.413 Y146.877 E.04845
G1 X88.407 Y147.016 E.00417
G1 X88.478 Y147.478 E.014
G1 X86.733 Y145.733 E.07392
G1 X86.197 Y145.733 E.01606
G1 X88.503 Y148.039 E.09766
G1 X87.967 Y148.039 E.01606
G1 X85.661 Y145.733 E.09766
G1 X85.125 Y145.733 E.01606
G1 X87.431 Y148.039 E.09766
G1 X86.895 Y148.039 E.01606
G1 X84.588 Y145.733 E.09766
G1 X84.052 Y145.733 E.01606
G1 X86.358 Y148.039 E.09766
G1 X85.822 Y148.039 E.01606
G1 X83.516 Y145.733 E.09766
G1 X82.98 Y145.733 E.01606
G1 X85.286 Y148.039 E.09766
G1 X84.75 Y148.039 E.01606
G1 X82.444 Y145.733 E.09766
G1 X81.908 Y145.733 E.01606
G1 X84.214 Y148.039 E.09766
G1 X83.678 Y148.039 E.01606
G1 X81.372 Y145.733 E.09766
G1 X80.836 Y145.733 E.01606
G1 X83.142 Y148.039 E.09766
G1 X82.606 Y148.039 E.01606
G1 X80.299 Y145.733 E.09766
G1 X79.763 Y145.733 E.01606
G1 X82.069 Y148.039 E.09766
G1 X81.533 Y148.039 E.01606
G1 X79.227 Y145.733 E.09766
G1 X78.691 Y145.733 E.01606
G1 X80.997 Y148.039 E.09766
G1 X80.461 Y148.039 E.01606
G1 X78.155 Y145.733 E.09766
G1 X77.619 Y145.733 E.01606
G1 X79.925 Y148.039 E.09766
G1 X79.389 Y148.039 E.01606
G1 X77.083 Y145.733 E.09766
G1 X76.547 Y145.733 E.01606
G1 X78.853 Y148.039 E.09766
G1 X78.316 Y148.039 E.01606
G1 X76.01 Y145.733 E.09766
G1 X75.474 Y145.733 E.01606
G1 X77.78 Y148.039 E.09766
G1 X77.244 Y148.039 E.01606
G1 X74.938 Y145.733 E.09766
G1 X74.402 Y145.733 E.01606
G1 X76.708 Y148.039 E.09766
G1 X76.172 Y148.039 E.01606
G1 X73.866 Y145.733 E.09766
G1 X73.33 Y145.733 E.01606
G1 X75.636 Y148.039 E.09766
G1 X75.1 Y148.039 E.01606
G1 X72.794 Y145.733 E.09766
G1 X72.257 Y145.733 E.01606
G1 X74.564 Y148.039 E.09766
G1 X74.027 Y148.039 E.01606
G1 X71.721 Y145.733 E.09766
G1 X71.185 Y145.733 E.01606
G1 X73.491 Y148.039 E.09766
G1 X72.955 Y148.039 E.01606
G1 X70.649 Y145.733 E.09766
G1 X70.113 Y145.733 E.01606
G1 X72.419 Y148.039 E.09766
G1 X71.883 Y148.039 E.01606
G1 X69.577 Y145.733 E.09766
G1 X69.041 Y145.733 E.01606
G1 X71.347 Y148.039 E.09766
G1 X70.811 Y148.039 E.01606
G1 X68.505 Y145.733 E.09766
G1 X67.968 Y145.733 E.01606
G1 X70.274 Y148.039 E.09766
G1 X69.738 Y148.039 E.01606
G1 X67.432 Y145.733 E.09766
G1 X66.896 Y145.733 E.01606
G1 X69.202 Y148.039 E.09766
G1 X68.666 Y148.039 E.01606
G1 X66.36 Y145.733 E.09766
G1 X65.824 Y145.733 E.01606
G1 X68.13 Y148.039 E.09766
G1 X67.594 Y148.039 E.01606
G1 X65.288 Y145.733 E.09766
G1 X64.752 Y145.733 E.01606
G1 X67.058 Y148.039 E.09766
G1 X66.522 Y148.039 E.01606
G1 X64.215 Y145.733 E.09766
G1 X63.679 Y145.733 E.01606
G1 X65.985 Y148.039 E.09766
G1 X65.449 Y148.039 E.01606
G1 X63.143 Y145.733 E.09766
G1 X62.607 Y145.733 E.01606
G1 X64.913 Y148.039 E.09766
