; HEADER_BLOCK_START
; generated by OrcaSlicer 2.1.1 on 2025-01-10 at 23:44:06
; total layer number: 436
; filament_density: 1.27
; filament_diameter: 1.75
; max_z_height: 35.00
; HEADER_BLOCK_END

; THUMBNAIL_BLOCK_START

;
; THUMBNAIL_BLOCK_END







; external perimeters extrusion width = 0.40mm
; perimeters extrusion width = 0.45mm
; infill extrusion width = 0.45mm
; solid infill extrusion width = 0.45mm
; top infill extrusion width = 0.38mm
; first layer extrusion width = 0.42mm

; EXECUTABLE_BLOCK_START
EXCLUDE_OBJECT_DEFINE NAME=驾驶舱_-_顶盖.STL_id_0_copy_0 CENTER=117.5,115 POLYGON=[[93.4925,77.25],[96.6925,77.25],[141.508,80.25],[141.508,102.749],[126.492,152.75],[93.4925,152.75],[93.4925,77.25]]
M73 P0 R76
;TYPE:Custom
;ELEGOO NEPTUNE 4 PRO
M220 S100 ;Set the feed speed to 100%
M221 S100 ;Set the flow rate to 100%
M104 S140
M190 S70
G90
G28 ;home
G1 Z10 F300
G1 X67.5 Y0 F6000
G1 Z0 F300
M109 S240
G92 E0 ;Reset Extruder
G1 X67.5 Y0 Z0.4 F300 ;Move to start position
G1 X167.5 E30 F400 ;Draw the first line
G1 Z0.6 F120.0 ;Move to side a little
G1 X162.5 F3000
G92 E0 ;Reset Extruder
G90
G21
M83 ; use relative distances for extrusion
; filament start gcode
M106 S0
;LAYER_CHANGE
;Z:0.2
;HEIGHT:0.2
;BEFORE_LAYER_CHANGE
G92 E0
;0.2


G1 E-.8 F3600
;AFTER_LAYER_CHANGE
;0.2
;_SET_FAN_SPEED_CHANGING_LAYER
SET_VELOCITY_LIMIT ACCEL=1000 ACCEL_TO_DECEL=500
SET_VELOCITY_LIMIT SQUARE_CORNER_VELOCITY=7
; printing object 驾驶舱 - 顶盖.STL id:0 copy 0
EXCLUDE_OBJECT_START NAME=驾驶舱_-_顶盖.STL_id_0_copy_0
G1 X96.408 Y150.776 F21000
G1 Z.4
G1 Z.2
G1 E.8 F2700
;TYPE:Inner wall
;WIDTH:0.419999
G1 F3000
G1 X96.571 Y150.814 E.00498
G1 X121.34 Y150.814 E.73777
G1 X121.658 Y150.705 E.01004
G1 X121.968 Y150.442 E.01211
G1 X122.121 Y150.143 E.01001
G1 X136.532 Y102.157 E1.4924
G1 X136.572 Y101.886 E.00816
G1 X136.572 Y81.314 E.61275
G1 X140.443 Y81.314 E.11532
G1 X140.443 Y102.593 E.63382
G1 X125.701 Y151.686 E1.52682
G1 X94.557 Y151.686 E.92768
G1 X94.557 Y81.314 E2.09613
G1 X95.628 Y81.314 E.03192
G1 X95.628 Y150.004 E2.04603
G1 X95.851 Y150.479 E.01563
G1 X96.155 Y150.718 E.01152
G1 X96.369 Y150.767 E.00653
G1 X96.49 Y150.418 F21000
G1 F3000
G1 X96.571 Y150.437 E.00249
G1 X121.218 Y150.437 E.73415
G1 X121.482 Y150.372 E.00811
G1 X121.668 Y150.214 E.00726
G1 X121.76 Y150.034 E.00601
G1 X136.195 Y101.969 E1.49487
G1 X136.195 Y80.937 E.62646
M73 P0 R75
G1 X140.82 Y80.937 E.13779
G1 X140.82 Y102.648 E.6467
G1 X125.981 Y152.063 E1.53682
G1 X94.18 Y152.063 E.94727
G1 X94.18 Y80.937 E2.11859
G1 X96.005 Y80.937 E.05439
G1 X96.005 Y149.951 E2.05569
G1 X96.139 Y150.236 E.00938
G1 X96.322 Y150.379 E.00691
G1 X96.451 Y150.409 E.00394
G1 X96.571 Y150.06 F21000
;TYPE:Outer wall
G1 F3000
G1 X121.288 Y150.06 E.73624
G1 X121.399 Y149.926 E.00518
G1 X135.818 Y101.913 E1.49322
G1 X135.818 Y80.56 E.63604
G1 X141.198 Y80.56 E.16025
G1 X141.198 Y102.704 E.65958
G1 X126.262 Y152.44 E1.54683
G1 X93.802 Y152.44 E.96685
G1 X93.802 Y80.56 E2.14106
G1 X96.382 Y80.56 E.07685
G1 X96.382 Y149.871 E2.06455
G1 X96.427 Y149.993 E.00386
G1 X96.535 Y150.043 E.00354
G1 E-.68 F3600
;WIPE_START
G1 F3000
G1 X97.535 Y150.044 E-.12
;WIPE_END
G1 X101.606 Y143.588 Z.6 F21000
G1 X140.33 Y82.191 Z.6
G1 Z.2
G1 E.8 F2700
;TYPE:Bottom surface
;WIDTH:0.420526
G1 F4800
G1 X139.737 Y81.597 E.02504
G1 X139.203 Y81.597 E.01593
G1 X140.161 Y82.555 E.04041
G1 X140.161 Y83.089 E.01593
G1 X138.669 Y81.597 E.06294
G1 X138.135 Y81.597 E.01593
G1 X140.161 Y83.623 E.08547
G1 X140.161 Y84.157 E.01593
G1 X137.6 Y81.597 E.10799
G1 X137.066 Y81.597 E.01593
G1 X140.161 Y84.691 E.13052
G1 X140.161 Y85.225 E.01593
G1 X136.854 Y81.919 E.13947
G1 X136.854 Y82.452 E.01592
G1 X140.161 Y85.759 E.13948
G1 X140.161 Y86.293 E.01593
G1 X136.854 Y82.986 E.1395
G1 X136.853 Y83.52 E.01592
G1 X140.161 Y86.827 E.13951
G1 X140.161 Y87.361 E.01593
G1 X136.853 Y84.054 E.13952
G1 X136.853 Y84.587 E.01592
G1 X140.161 Y87.895 E.13954
G1 X140.161 Y88.429 E.01593
G1 X136.852 Y85.121 E.13955
G1 X136.852 Y85.655 E.01592
G1 X140.161 Y88.963 E.13956
G1 X140.161 Y89.497 E.01593
G1 X136.852 Y86.188 E.13958
G1 X136.851 Y86.722 E.01592
G1 X140.161 Y90.031 E.13959
G1 X140.161 Y90.565 E.01593
M73 P1 R75
G1 X136.851 Y87.256 E.1396
G1 X136.851 Y87.789 E.01592
G1 X140.161 Y91.099 E.13962
G1 X140.161 Y91.633 E.01593
G1 X136.851 Y88.323 E.13963
G1 X136.85 Y88.857 E.01592
G1 X140.161 Y92.167 E.13964
G1 X140.161 Y92.701 E.01593
G1 X136.85 Y89.391 E.13966
G1 X136.85 Y89.924 E.01592
G1 X140.161 Y93.235 E.13967
G1 X140.161 Y93.769 E.01593
G1 X136.849 Y90.458 E.13968
G1 X136.849 Y90.992 E.01592
G1 X140.161 Y94.303 E.1397
G1 X140.161 Y94.837 E.01593
G1 X136.849 Y91.525 E.13971
G1 X136.848 Y92.059 E.01592
G1 X140.161 Y95.371 E.13972
G1 X140.161 Y95.905 E.01593
G1 X136.848 Y92.593 E.13973
G1 X136.848 Y93.127 E.01592
G1 X140.161 Y96.439 E.13975
G1 X140.161 Y96.973 E.01593
G1 X136.847 Y93.66 E.13976
G1 X136.847 Y94.194 E.01592
G1 X140.161 Y97.507 E.13977
G1 X140.161 Y98.041 E.01593
G1 X136.847 Y94.728 E.13979
G1 X136.846 Y95.261 E.01592
G1 X140.161 Y98.575 E.1398
G1 X140.161 Y99.109 E.01593
G1 X136.846 Y95.795 E.13981
G1 X136.846 Y96.329 E.01592
G1 X140.161 Y99.643 E.13983
G1 X140.161 Y100.178 E.01593
G1 X136.846 Y96.862 E.13984
G1 X136.845 Y97.396 E.01592
G1 X140.161 Y100.712 E.13985
G1 X140.161 Y101.246 E.01593
G1 X136.845 Y97.93 E.13987
G1 X136.845 Y98.464 E.01592
G1 X140.161 Y101.78 E.13988
G1 X140.161 Y102.314 E.01593
G1 X136.844 Y98.997 E.13989
G1 X136.844 Y99.531 E.01592
G1 X140.092 Y102.779 E.13702
G1 X139.969 Y103.19 E.01279
G1 X136.844 Y100.065 E.13183
G1 X136.843 Y100.598 E.01592
G1 X139.846 Y103.601 E.12664
G1 X139.722 Y104.011 E.01279
G1 X136.843 Y101.132 E.12145
G1 X136.843 Y101.666 E.01592
G1 X139.599 Y104.422 E.11626
G1 X139.476 Y104.833 E.01279
G1 X136.811 Y102.168 E.11239
G1 X136.688 Y102.579 E.01279
G1 X139.352 Y105.243 E.11239
G1 X139.229 Y105.654 E.01279
G1 X136.565 Y102.99 E.11238
G1 X136.441 Y103.401 E.01279
G1 X139.106 Y106.065 E.11238
G1 X138.982 Y106.475 E.01279
G1 X136.318 Y103.811 E.11238
G1 X136.195 Y104.222 E.01279
G1 X138.859 Y106.886 E.11238
G1 X138.736 Y107.297 E.01279
G1 X136.072 Y104.633 E.11237
G1 X135.948 Y105.044 E.01279
G1 X138.612 Y107.707 E.11237
G1 X138.489 Y108.118 E.01279
G1 X135.825 Y105.454 E.11237
G1 X135.702 Y105.865 E.01279
G1 X138.366 Y108.529 E.11236
G1 X138.242 Y108.939 E.01279
G1 X135.579 Y106.276 E.11236
G1 X135.455 Y106.687 E.01279
G1 X138.119 Y109.35 E.11236
G1 X137.996 Y109.761 E.01279
G1 X135.332 Y107.097 E.11235
G1 X135.209 Y107.508 E.01279
G1 X137.872 Y110.172 E.11235
G1 X137.749 Y110.582 E.01279
G1 X135.086 Y107.919 E.11235
G1 X134.962 Y108.33 E.01279
G1 X137.626 Y110.993 E.11234
G1 X137.502 Y111.404 E.01279
G1 X134.839 Y108.74 E.11234
G1 X134.716 Y109.151 E.01279
G1 X137.379 Y111.814 E.11234
G1 X137.256 Y112.225 E.01279
G1 X134.593 Y109.562 E.11233
G1 X134.469 Y109.973 E.01279
G1 X137.132 Y112.636 E.11233
G1 X137.009 Y113.046 E.01279
G1 X134.346 Y110.384 E.11233
G1 X134.223 Y110.794 E.01279
G1 X136.886 Y113.457 E.11232
G1 X136.762 Y113.868 E.01279
G1 X134.1 Y111.205 E.11232
G1 X133.976 Y111.616 E.01279
G1 X136.639 Y114.278 E.11232
G1 X136.516 Y114.689 E.01279
G1 X133.853 Y112.027 E.11231
G1 X133.73 Y112.437 E.01279
G1 X136.392 Y115.1 E.11231
G1 X136.269 Y115.51 E.01279
G1 X133.607 Y112.848 E.11231
G1 X133.483 Y113.259 E.01279
G1 X136.146 Y115.921 E.1123
G1 X136.022 Y116.332 E.01279
G1 X133.36 Y113.67 E.1123
G1 X133.237 Y114.08 E.01279
G1 X135.899 Y116.743 E.1123
G1 X135.776 Y117.153 E.01279
G1 X133.114 Y114.491 E.11229
G1 X132.99 Y114.902 E.01279
G1 X135.652 Y117.564 E.11229
G1 X135.529 Y117.975 E.01279
G1 X132.867 Y115.313 E.11229
G1 X132.744 Y115.723 E.01279
G1 X135.406 Y118.385 E.11229
G1 X135.282 Y118.796 E.01279
G1 X132.621 Y116.134 E.11228
G1 X132.497 Y116.545 E.01279
G1 X135.159 Y119.207 E.11228
G1 X135.036 Y119.617 E.01279
G1 X132.374 Y116.956 E.11228
G1 X132.251 Y117.367 E.01279
G1 X134.912 Y120.028 E.11227
G1 X134.789 Y120.439 E.01279
G1 X132.128 Y117.777 E.11227
G1 X132.004 Y118.188 E.01279
G1 X134.666 Y120.849 E.11227
G1 X134.542 Y121.26 E.01279
G1 X131.881 Y118.599 E.11226
G1 X131.758 Y119.01 E.01279
G1 X134.419 Y121.671 E.11226
G1 X134.296 Y122.081 E.01279
G1 X131.635 Y119.42 E.11226
G1 X131.511 Y119.831 E.01279
G1 X134.172 Y122.492 E.11225
G1 X134.049 Y122.903 E.01279
G1 X131.388 Y120.242 E.11225
G1 X131.265 Y120.653 E.01279
G1 X133.926 Y123.314 E.11225
G1 X133.802 Y123.724 E.01279
G1 X131.142 Y121.063 E.11224
G1 X131.018 Y121.474 E.01279
G1 X133.679 Y124.135 E.11224
G1 X133.556 Y124.546 E.01279
G1 X130.895 Y121.885 E.11224
G1 X130.772 Y122.296 E.01279
G1 X133.432 Y124.956 E.11223
G1 X133.309 Y125.367 E.01279
G1 X130.649 Y122.706 E.11223
G1 X130.525 Y123.117 E.01279
G1 X133.186 Y125.778 E.11223
G1 X133.062 Y126.188 E.01279
G1 X130.402 Y123.528 E.11222
G1 X130.279 Y123.939 E.01279
G1 X132.939 Y126.599 E.11222
G1 X132.816 Y127.01 E.01279
G1 X130.156 Y124.349 E.11222
G1 X130.032 Y124.76 E.01279
G1 X132.692 Y127.42 E.11221
G1 X132.569 Y127.831 E.01279
G1 X129.909 Y125.171 E.11221
G1 X129.786 Y125.582 E.01279
G1 X132.446 Y128.242 E.11221
G1 X132.322 Y128.652 E.01279
G1 X129.663 Y125.993 E.1122
G1 X129.539 Y126.403 E.01279
G1 X132.199 Y129.063 E.1122
G1 X132.076 Y129.474 E.01279
G1 X129.416 Y126.814 E.1122
G1 X129.293 Y127.225 E.01279
G1 X131.953 Y129.885 E.1122
G1 X131.829 Y130.295 E.01279
G1 X129.17 Y127.636 E.11219
G1 X129.046 Y128.046 E.01279
G1 X131.706 Y130.706 E.11219
G1 X131.583 Y131.117 E.01279
G1 X128.923 Y128.457 E.11219
G1 X128.8 Y128.868 E.01279
G1 X131.459 Y131.527 E.11218
G1 X131.336 Y131.938 E.01279
G1 X128.677 Y129.279 E.11218
G1 X128.553 Y129.689 E.01279
G1 X131.213 Y132.349 E.11218
G1 X131.089 Y132.759 E.01279
G1 X128.43 Y130.1 E.11217
G1 X128.307 Y130.511 E.01279
G1 X130.966 Y133.17 E.11217
G1 X130.843 Y133.581 E.01279
G1 X128.184 Y130.922 E.11217
G1 X128.06 Y131.332 E.01279
G1 X130.719 Y133.991 E.11216
G1 X130.596 Y134.402 E.01279
G1 X127.937 Y131.743 E.11216
G1 X127.814 Y132.154 E.01279
G1 X130.473 Y134.813 E.11216
G1 X130.349 Y135.223 E.01279
G1 X127.691 Y132.565 E.11215
G1 X127.567 Y132.976 E.01279
G1 X130.226 Y135.634 E.11215
G1 X130.103 Y136.045 E.01279
G1 X127.444 Y133.386 E.11215
G1 X127.321 Y133.797 E.01279
G1 X129.979 Y136.456 E.11214
G1 X129.856 Y136.866 E.01279
G1 X127.198 Y134.208 E.11214
G1 X127.074 Y134.619 E.01279
G1 X129.733 Y137.277 E.11214
G1 X129.609 Y137.688 E.01279
G1 X126.951 Y135.029 E.11213
G1 X126.828 Y135.44 E.01279
G1 X129.486 Y138.098 E.11213
G1 X129.363 Y138.509 E.01279
G1 X126.705 Y135.851 E.11213
G1 X126.581 Y136.262 E.01279
G1 X129.239 Y138.92 E.11212
G1 X129.116 Y139.33 E.01279
G1 X126.458 Y136.672 E.11212
G1 X126.335 Y137.083 E.01279
G1 X128.993 Y139.741 E.11212
G1 X128.869 Y140.152 E.01279
G1 X126.212 Y137.494 E.11211
G1 X126.088 Y137.905 E.01279
G1 X128.746 Y140.562 E.11211
G1 X128.623 Y140.973 E.01279
G1 X125.965 Y138.315 E.11211
G1 X125.842 Y138.726 E.01279
G1 X128.499 Y141.384 E.1121
G1 X128.376 Y141.794 E.01279
G1 X125.718 Y139.137 E.1121
G1 X125.595 Y139.548 E.01279
G1 X128.253 Y142.205 E.1121
G1 X128.129 Y142.616 E.01279
G1 X125.472 Y139.959 E.1121
G1 X125.349 Y140.369 E.01279
G1 X128.006 Y143.027 E.11209
G1 X127.883 Y143.437 E.01279
G1 X125.225 Y140.78 E.11209
G1 X125.102 Y141.191 E.01279
G1 X127.759 Y143.848 E.11209
G1 X127.636 Y144.259 E.01279
G1 X124.979 Y141.602 E.11208
G1 X124.856 Y142.012 E.01279
G1 X127.513 Y144.669 E.11208
G1 X127.389 Y145.08 E.01279
G1 X124.732 Y142.423 E.11208
G1 X124.609 Y142.834 E.01279
G1 X127.266 Y145.491 E.11207
G1 X127.143 Y145.901 E.01279
G1 X124.486 Y143.245 E.11207
G1 X124.363 Y143.655 E.01279
G1 X127.019 Y146.312 E.11207
G1 X126.896 Y146.723 E.01279
G1 X124.239 Y144.066 E.11206
G1 X124.116 Y144.477 E.01279
G1 X126.773 Y147.133 E.11206
G1 X126.649 Y147.544 E.01279
G1 X123.993 Y144.888 E.11206
G1 X123.87 Y145.298 E.01279
G1 X126.526 Y147.955 E.11205
G1 X126.403 Y148.365 E.01279
G1 X123.746 Y145.709 E.11205
G1 X123.623 Y146.12 E.01279
G1 X126.279 Y148.776 E.11205
G1 X126.156 Y149.187 E.01279
G1 X123.5 Y146.531 E.11204
G1 X123.377 Y146.941 E.01279
G1 X126.033 Y149.598 E.11204
G1 X125.909 Y150.008 E.01279
G1 X123.253 Y147.352 E.11204
G1 X123.13 Y147.763 E.01279
G1 X125.786 Y150.419 E.11203
G1 X125.663 Y150.83 E.01279
G1 X123.007 Y148.174 E.11203
G1 X122.884 Y148.585 E.01279
G1 X125.539 Y151.24 E.11203
G1 X125.491 Y151.403 E.00507
G1 X125.168 Y151.403 E.00962
G1 X122.76 Y148.995 E.10157
G1 X122.637 Y149.406 E.01279
G1 X124.634 Y151.403 E.08424
G1 X124.1 Y151.403 E.01593
G1 X122.514 Y149.817 E.06691
G1 X122.391 Y150.228 E.01279
G1 X123.566 Y151.403 E.04958
G1 X123.032 Y151.403 E.01593
G1 X122.211 Y150.582 E.03463
G1 X122.194 Y150.616 E.00113
G1 X121.933 Y150.838 E.01022
G1 X122.498 Y151.403 E.02386
G1 X121.964 Y151.403 E.01593
G1 X121.587 Y151.026 E.01591
G1 X121.433 Y151.079 E.00485
G1 X121.124 Y151.097 E.00924
G1 X121.43 Y151.403 E.01291
G1 X120.896 Y151.403 E.01593
G1 X120.59 Y151.097 E.01291
G1 X120.056 Y151.097 E.01593
G1 X120.362 Y151.403 E.01291
G1 X119.828 Y151.403 E.01593
G1 X119.522 Y151.097 E.01291
G1 X118.988 Y151.097 E.01593
G1 X119.294 Y151.403 E.01291
G1 X118.76 Y151.403 E.01593
G1 X118.454 Y151.097 E.01291
G1 X117.92 Y151.097 E.01593
G1 X118.226 Y151.403 E.01291
G1 X117.692 Y151.403 E.01593
G1 X117.386 Y151.097 E.01291
G1 X116.852 Y151.097 E.01593
G1 X117.158 Y151.403 E.01291
G1 X116.624 Y151.403 E.01593
G1 X116.318 Y151.097 E.01291
G1 X115.784 Y151.097 E.01593
G1 X116.09 Y151.403 E.01291
G1 X115.556 Y151.403 E.01593
G1 X115.25 Y151.097 E.01291
G1 X114.716 Y151.097 E.01593
G1 X115.022 Y151.403 E.01291
G1 X114.488 Y151.403 E.01593
G1 X114.182 Y151.097 E.01291
G1 X113.648 Y151.097 E.01593
G1 X113.954 Y151.403 E.01291
G1 X113.42 Y151.403 E.01593
G1 X113.114 Y151.097 E.01291
G1 X112.58 Y151.097 E.01593
G1 X112.886 Y151.403 E.01291
G1 X112.352 Y151.403 E.01593
G1 X112.046 Y151.097 E.01291
G1 X111.512 Y151.097 E.01593
G1 X111.818 Y151.403 E.01291
G1 X111.284 Y151.403 E.01593
G1 X110.978 Y151.097 E.01291
G1 X110.444 Y151.097 E.01593
G1 X110.75 Y151.403 E.01291
G1 X110.216 Y151.403 E.01593
G1 X109.91 Y151.097 E.01291
G1 X109.376 Y151.097 E.01593
G1 X109.682 Y151.403 E.01291
G1 X109.148 Y151.403 E.01593
G1 X108.842 Y151.097 E.01291
G1 X108.308 Y151.097 E.01593
G1 X108.614 Y151.403 E.01291
G1 X108.08 Y151.403 E.01593
G1 X107.774 Y151.097 E.01291
G1 X107.24 Y151.097 E.01593
G1 X107.546 Y151.403 E.01291
G1 X107.012 Y151.403 E.01593
G1 X106.706 Y151.097 E.01291
G1 X106.172 Y151.097 E.01593
G1 X106.478 Y151.403 E.01291
G1 X105.944 Y151.403 E.01593
G1 X105.638 Y151.097 E.01291
G1 X105.104 Y151.097 E.01593
G1 X105.41 Y151.403 E.01291
G1 X104.876 Y151.403 E.01593
G1 X104.57 Y151.097 E.01291
G1 X104.036 Y151.097 E.01593
G1 X104.342 Y151.403 E.01291
G1 X103.808 Y151.403 E.01593
G1 X103.501 Y151.097 E.01291
G1 X102.967 Y151.097 E.01593
G1 X103.274 Y151.403 E.01291
G1 X102.74 Y151.403 E.01593
G1 X102.433 Y151.097 E.01291
G1 X101.899 Y151.097 E.01593
G1 X102.206 Y151.403 E.01291
G1 X101.671 Y151.403 E.01593
G1 X101.365 Y151.097 E.01291
G1 X100.831 Y151.097 E.01593
G1 X101.137 Y151.403 E.01291
G1 X100.603 Y151.403 E.01593
G1 X100.297 Y151.097 E.01291
G1 X99.763 Y151.097 E.01593
G1 X100.069 Y151.403 E.01291
G1 X99.535 Y151.403 E.01593
G1 X99.229 Y151.097 E.01291
G1 X98.695 Y151.097 E.01593
G1 X99.001 Y151.403 E.01291
G1 X98.467 Y151.403 E.01593
G1 X98.161 Y151.097 E.01291
G1 X97.627 Y151.097 E.01593
G1 X97.933 Y151.403 E.01291
G1 X97.399 Y151.403 E.01593
G1 X96.924 Y150.927 E.02007
G1 E-.68 F3600
;WIPE_START
G1 F4800
G1 X97.399 Y151.403 E-.08074
G1 X97.727 Y151.403 E-.03926
;WIPE_END
G1 X97.483 Y143.774 Z.6 F21000
G1 X95.515 Y82.233 Z.6
G1 Z.2
G1 E.8 F2700
G1 F4800
G1 X94.879 Y81.597 E.02683
G1 X94.839 Y81.597 E.00119
G1 X94.839 Y82.091 E.01474
G1 X95.345 Y82.597 E.02135
G1 X95.345 Y83.131 E.01593
G1 X94.839 Y82.625 E.02135
G1 X94.839 Y83.159 E.01593
G1 X95.345 Y83.665 E.02135
G1 X95.345 Y84.199 E.01593
G1 X94.839 Y83.693 E.02135
G1 X94.839 Y84.227 E.01593
G1 X95.345 Y84.733 E.02135
G1 X95.345 Y85.267 E.01593
G1 X94.839 Y84.761 E.02135
G1 X94.839 Y85.295 E.01593
