; HEADER_BLOCK_START
; generated by OrcaSlicer 2.1.1 on 2025-01-10 at 23:44:52
; total layer number: 36
; filament_density: 1.27
; filament_diameter: 1.75
; max_z_height: 3.00
; HEADER_BLOCK_END

; THUMBNAIL_BLOCK_START

;
; THUMBNAIL_BLOCK_END







; external perimeters extrusion width = 0.40mm
; perimeters extrusion width = 0.45mm
; infill extrusion width = 0.45mm
; solid infill extrusion width = 0.45mm
; top infill extrusion width = 0.38mm
; first layer extrusion width = 0.42mm

; EXECUTABLE_BLOCK_START
EXCLUDE_OBJECT_DEFINE NAME=驾驶舱_-_后顶板.STL_id_0_copy_0 CENTER=117.5,115 POLYGON=[[100,96],[135,96],[135,134],[100,134],[100,96]]
M73 P0 R14
;TYPE:Custom
;ELEGOO NEPTUNE 4 PRO
M220 S100 ;Set the feed speed to 100%
M221 S100 ;Set the flow rate to 100%
M104 S140
M190 S70
G90
G28 ;home
G1 Z10 F300
G1 X67.5 Y0 F6000
G1 Z0 F300
M109 S240
G92 E0 ;Reset Extruder
G1 X67.5 Y0 Z0.4 F300 ;Move to start position
G1 X167.5 E30 F400 ;Draw the first line
G1 Z0.6 F120.0 ;Move to side a little
M73 P2 R14
G1 X162.5 F3000
G92 E0 ;Reset Extruder
G90
G21
M83 ; use relative distances for extrusion
; filament start gcode
M106 S0
;LAYER_CHANGE
;Z:0.2
;HEIGHT:0.2
;BEFORE_LAYER_CHANGE
G92 E0
;0.2


G1 E-.8 F3600
;AFTER_LAYER_CHANGE
;0.2
;_SET_FAN_SPEED_CHANGING_LAYER
SET_VELOCITY_LIMIT ACCEL=1000 ACCEL_TO_DECEL=500
SET_VELOCITY_LIMIT SQUARE_CORNER_VELOCITY=7
; printing object 驾驶舱 - 后顶板.STL id:0 copy 0
EXCLUDE_OBJECT_START NAME=驾驶舱_-_后顶板.STL_id_0_copy_0
G1 X133.208 Y101.986 F21000
G1 Z.4
G1 Z.2
G1 E.8 F2700
;TYPE:Inner wall
;WIDTH:0.419999
G1 F3000
G1 X133.068 Y101.999 E.00417
G1 X132.645 Y102.172 E.01361
G1 X132.246 Y102.505 E.01547
G1 X132.027 Y102.836 E.01184
G1 X131.917 Y103.094 E.00834
G1 X131.841 Y103.675 E.01745
G1 X131.91 Y104.046 E.01123
G1 X132.123 Y104.533 E.01583
G1 X132.444 Y104.879 E.01409
G1 X132.71 Y105.058 E.00954
G1 X133.245 Y105.238 E.0168
G1 X133.663 Y105.254 E.01246
G1 X133.938 Y105.182 E.00849
G1 X133.938 Y124.806 E.58452
G1 X133.679 Y124.75 E.00789
G1 X133.383 Y124.747 E.00884
G1 X132.838 Y124.879 E.01669
G1 X132.365 Y125.19 E.01684
G1 X132.162 Y125.417 E.00907
G1 X131.93 Y125.873 E.01525
G1 X131.852 Y126.209 E.01027
G1 X131.865 Y126.701 E.01467
G1 X132.046 Y127.183 E.01532
G1 X132.268 Y127.511 E.01181
G1 X132.606 Y127.804 E.01333
G1 X132.932 Y127.958 E.01074
G1 X133.488 Y128.057 E.01679
G1 X133.938 Y127.982 E.0136
G1 X133.936 Y132.936 E.14755
G1 X101.064 Y132.936 E.97916
G1 X101.062 Y127.991 E.14729
G1 X101.513 Y128.057 E.01357
G1 X102.069 Y127.958 E.01682
G1 X102.394 Y127.804 E.01071
G1 X102.853 Y127.347 E.01931
G1 X103.003 Y127.114 E.00824
G1 X103.145 Y126.654 E.01436
G1 X103.141 Y126.125 E.01576
G1 X103.047 Y125.822 E.00942
G1 X102.794 Y125.355 E.01585
G1 X102.444 Y125.036 E.01409
G1 X101.931 Y124.799 E.01684
G1 X101.535 Y124.751 E.01189
G1 X101.062 Y124.826 E.01427
G1 X101.062 Y105.191 E.58486
G1 X101.188 Y105.226 E.00391
G1 X101.512 Y105.257 E.0097
G1 X102.068 Y105.158 E.01679
G1 X102.452 Y104.965 E.01282
G1 X102.798 Y104.641 E.01413
G1 X102.956 Y104.38 E.00906
G1 X103.148 Y103.835 E.01723
G1 X103.135 Y103.289 E.01625
G1 X103.047 Y103.022 E.00837
G1 X102.781 Y102.537 E.01648
G1 X102.355 Y102.172 E.01672
G1 X101.931 Y101.999 E.01364
G1 X101.535 Y101.951 E.01189
G1 X101.062 Y102.026 E.01426
G1 X101.064 Y97.064 E.1478
G1 X133.936 Y97.064 E.97916
G1 X133.938 Y102.006 E.14721
G1 X133.625 Y101.948 E.0095
G1 X133.248 Y101.983 E.01128
G1 X133.249 Y102.351 F21000
G1 F3000
G1 X133.192 Y102.355 E.00168
G1 X132.846 Y102.491 E.01107
G1 X132.531 Y102.752 E.01219
G1 X132.282 Y103.189 E.01497
G1 X132.22 Y103.737 E.01643
G1 X132.396 Y104.242 E.01594
G1 X132.529 Y104.439 E.00709
G1 X132.864 Y104.714 E.0129
G1 X133.274 Y104.862 E.01298
G1 X133.626 Y104.879 E.0105
G1 X134.101 Y104.716 E.01497
G1 X134.32 Y104.56 E.008
G1 X134.32 Y125.449 E.62223
G1 X134.051 Y125.25 E.00997
G1 X133.822 Y125.162 E.0073
G1 X133.381 Y125.124 E.01319
G1 X132.962 Y125.235 E.01291
G1 X132.602 Y125.483 E.01301
G1 X132.452 Y125.669 E.00712
G1 X132.241 Y126.131 E.01511
G1 X132.232 Y126.617 E.0145
G1 X132.448 Y127.142 E.01688
G1 X132.705 Y127.407 E.01099
G1 X133.087 Y127.614 E.01295
G1 X133.517 Y127.681 E.01297
G1 X133.763 Y127.645 E.00742
G1 X134.101 Y127.516 E.01078
G1 X134.321 Y127.362 E.00798
G1 X134.313 Y133.313 E.17725
G1 X100.687 Y133.313 E1.00161
G1 X100.678 Y127.347 E.17771
M73 P3 R14
G1 X101.054 Y127.598 E.01346
G1 X101.288 Y127.662 E.00724
G1 X101.727 Y127.662 E.01305
G1 X102.198 Y127.482 E.01503
G1 X102.622 Y127.028 E.01849
G1 X102.774 Y126.589 E.01385
G1 X102.749 Y126.089 E.01491
G1 X102.518 Y125.619 E.0156
G1 X102.207 Y125.329 E.01265
G1 X101.807 Y125.155 E.013
G1 X101.569 Y125.126 E.00713
G1 X101.208 Y125.159 E.0108
G1 X100.928 Y125.265 E.00893
G1 X100.68 Y125.445 E.00912
G1 X100.68 Y104.548 E.62244
G1 X101.055 Y104.798 E.01342
G1 X101.288 Y104.862 E.00722
G1 X101.726 Y104.862 E.01303
G1 X102.136 Y104.714 E.01298
G1 X102.472 Y104.438 E.01296
G1 X102.59 Y104.275 E.00601
G1 X102.775 Y103.777 E.01581
G1 X102.745 Y103.275 E.01498
G1 X102.485 Y102.771 E.01688
G1 X102.207 Y102.529 E.01097
G1 X101.807 Y102.355 E.013
G1 X101.569 Y102.326 E.00713
G1 X101.208 Y102.359 E.0108
G1 X100.928 Y102.465 E.00893
G1 X100.679 Y102.646 E.00917
G1 X100.687 Y96.687 E.17749
G1 X134.313 Y96.687 E1.00161
G1 X134.322 Y102.651 E.17764
G1 X134.051 Y102.449 E.01005
G1 X133.623 Y102.325 E.01327
G1 X133.288 Y102.349 E.00999
G1 X133.287 Y102.73 F21000
;TYPE:Outer wall
G1 F3000
G1 X133.379 Y102.701 E.00289
G1 X133.687 Y102.714 E.00919
G1 X133.978 Y102.84 E.00942
;WIDTH:0.422747
G1 X134.284 Y103.18 E.01372
;WIDTH:0.42391
G1 X134.354 Y103.485 E.00944
;WIDTH:0.436524
G1 X134.319 Y103.956 E.01467
G1 X134.044 Y104.308 E.01391
;WIDTH:0.419999
G1 X133.583 Y104.504 E.01493
G1 X133.241 Y104.47 E.01023
G1 X132.965 Y104.334 E.00915
G1 X132.746 Y104.101 E.00955
G1 X132.597 Y103.669 E.01361
G1 X132.669 Y103.232 E.01319
G1 X132.84 Y102.976 E.00915
G1 X133.086 Y102.792 E.00917
G1 X133.248 Y102.741 E.00506
G1 E-.68 F3600
;WIPE_START
G1 F3000
G1 X133.379 Y102.701 E-.01643
G1 X133.687 Y102.714 E-.03702
G1 X133.978 Y102.84 E-.03794
G1 X134.137 Y103.017 E-.02861
;WIPE_END
G1 X134.275 Y110.648 Z.6 F21000
G1 X134.69 Y133.69 Z.6
G1 Z.2
G1 E.8 F2700
G1 F3000
G1 X100.31 Y133.69 E1.02407
G1 X100.295 Y127.213 E.19293
;WIDTH:0.424152
M73 P3 R13
G1 X100.272 Y126.623 E.01779
;WIDTH:0.425226
G1 X100.303 Y125.502 E.03386
;WIDTH:0.419999
G1 X100.299 Y104.412 E.62819
;WIDTH:0.421267
G1 X100.276 Y103.795 E.01844
;WIDTH:0.424851
G1 X100.307 Y102.501 E.03908
;WIDTH:0.419999
G1 X100.31 Y96.31 E.18439
G1 X134.69 Y96.31 E1.02407
G1 X134.692 Y102.267 E.17743
G1 X134.71 Y102.89 E.01858
;WIDTH:0.42391
G1 X134.712 Y103.954 E.03202
;WIDTH:0.433755
G1 X134.698 Y104.498 E.01679
;WIDTH:0.419999
G1 X134.69 Y124.5 E.59579
G1 X134.728 Y126.284 E.05314
;WIDTH:0.43957
G1 X134.692 Y127.499 E.0381
;WIDTH:0.419999
G1 X134.69 Y133.65 E.1832
G1 E-.68 F3600
;WIPE_START
G1 F3000
G1 X133.69 Y133.651 E-.12
;WIPE_END
G1 X133.432 Y126.023 Z.6 F21000
G1 X133.414 Y125.503 Z.6
G1 Z.2
G1 E.8 F2700
G1 F3000
G1 X133.688 Y125.515 E.00815
G1 X133.983 Y125.645 E.00963
;WIDTH:0.421194
G1 X134.283 Y125.98 E.01343
G1 X134.353 Y126.275 E.00907
;WIDTH:0.43957
G1 X134.321 Y126.757 E.01512
G1 X134.007 Y127.142 E.01557
;WIDTH:0.419999
G1 X133.547 Y127.305 E.01456
G1 X133.241 Y127.27 E.00916
G1 X132.965 Y127.134 E.00916
G1 X132.745 Y126.901 E.00956
G1 X132.595 Y126.484 E.01319
G1 X132.626 Y126.164 E.00956
G1 X132.839 Y125.777 E.01318
G1 X133.086 Y125.592 E.00919
G1 X133.375 Y125.502 E.009
G1 E-.68 F3600
;WIPE_START
G1 F3000
G1 X133.688 Y125.515 E-.03759
G1 X133.983 Y125.645 E-.03879
G1 X134.226 Y125.916 E-.04362
;WIPE_END
G1 X126.6 Y126.237 Z.6 F21000
G1 X101.579 Y127.291 Z.6
G1 Z.2
G1 E.8 F2700
G1 F3000
G1 X101.389 Y127.299 E.00568
G1 X101.082 Y127.196 E.00964
;WIDTH:0.42163
G1 X100.757 Y126.89 E.01335
;WIDTH:0.424152
G1 X100.652 Y126.606 E.00911
G1 X100.688 Y126.051 E.01674
;WIDTH:0.422838
G1 X100.86 Y125.781 E.00961
;WIDTH:0.419999
G1 X101.243 Y125.535 E.01356
G1 X101.683 Y125.511 E.01313
G1 X101.97 Y125.623 E.00918
G1 X102.21 Y125.837 E.00956
G1 X102.394 Y126.24 E.01319
G1 X102.397 Y126.547 E.00915
G1 X102.287 Y126.849 E.00957
G1 X101.982 Y127.17 E.0132
G1 X101.697 Y127.286 E.00915
G1 X101.619 Y127.289 E.00232
G1 E-.68 F3600
;WIPE_START
G1 F3000
G1 X101.389 Y127.299 E-.02769
G1 X101.082 Y127.196 E-.03886
G1 X100.757 Y126.891 E-.05345
;WIPE_END
G1 X101.035 Y119.263 Z.6 F21000
G1 X101.573 Y104.491 Z.6
G1 Z.2
G1 E.8 F2700
G1 F3000
G1 X101.389 Y104.499 E.00548
G1 X101.083 Y104.396 E.00961
;WIDTH:0.420839
G1 X100.758 Y104.091 E.01331
;WIDTH:0.421267
G1 X100.654 Y103.793 E.00944
;WIDTH:0.424851
G1 X100.687 Y103.251 E.01638
G1 X100.86 Y102.981 E.00967
;WIDTH:0.419999
G1 X101.243 Y102.735 E.01356
G1 X101.683 Y102.711 E.01313
G1 X101.97 Y102.823 E.00918
G1 X102.21 Y103.037 E.00956
M73 P4 R13
G1 X102.394 Y103.44 E.01319
G1 X102.391 Y103.761 E.00956
G1 X102.245 Y104.121 E.01158
G1 X101.981 Y104.37 E.0108
G1 X101.696 Y104.486 E.00917
G1 X101.613 Y104.49 E.0025
G1 E-.68 F3600
;WIPE_START
G1 F3000
G1 X101.389 Y104.499 E-.02689
G1 X101.083 Y104.396 E-.03871
G1 X100.758 Y104.091 E-.05351
G1 X100.755 Y104.084 E-.00089
;WIPE_END
G1 X106.858 Y108.668 Z.6 F21000
G1 X133.825 Y128.921 Z.6
G1 Z.2
G1 E.8 F2700
;TYPE:Bottom surface
;WIDTH:0.420598
G1 F4800
G1 X132.99 Y128.087 E.0352
G1 E-.68 F3600
;WIPE_START
G1 F4800
G1 X133.697 Y128.794 E-.12
;WIPE_END
G1 X133.74 Y121.162 Z.6 F21000
G1 X133.823 Y105.953 Z.6
G1 Z.2
G1 E.8 F2700
G1 F4800
G1 X133.215 Y105.344 E.02568
G1 E-.68 F3600
;WIPE_START
G1 F4800
G1 X133.823 Y105.953 E-.12
;WIPE_END
G1 X133.823 Y98.32 Z.6 F21000
G1 X133.823 Y97.941 Z.6
G1 Z.2
G1 E.8 F2700
G1 F4800
G1 X133.229 Y97.347 E.02507
G1 X132.695 Y97.347 E.01593
G1 X133.654 Y98.306 E.04045
G1 X133.654 Y98.84 E.01594
G1 X132.161 Y97.347 E.06299
G1 X131.627 Y97.347 E.01593
G1 X133.654 Y99.374 E.08554
G1 X133.655 Y99.909 E.01594
G1 X131.093 Y97.347 E.10808
G1 X130.559 Y97.347 E.01593
G1 X133.655 Y100.443 E.13063
G1 X133.655 Y100.977 E.01594
G1 X130.025 Y97.347 E.15317
G1 X129.49 Y97.347 E.01593
G1 X133.655 Y101.512 E.17572
G1 X133.655 Y101.665 E.00458
G1 X133.288 Y101.679 E.01096
G1 X128.956 Y97.347 E.18276
G1 X128.422 Y97.347 E.01593
G1 X132.851 Y101.776 E.18685
G1 X132.483 Y101.942 E.01205
G1 X127.888 Y97.347 E.19385
G1 X127.354 Y97.347 E.01593
G1 X132.182 Y102.175 E.2037
G1 X132.033 Y102.319 E.00617
G1 X131.931 Y102.458 E.00515
G1 X126.82 Y97.347 E.21563
G1 X126.286 Y97.347 E.01593
G1 X131.734 Y102.795 E.22988
G1 X131.698 Y102.858 E.00217
G1 X131.611 Y103.206 E.01069
G1 X125.752 Y97.347 E.24721
G1 X125.218 Y97.347 E.01593
G1 X131.745 Y103.874 E.27539
G1 E-.68 F3600
;WIPE_START
G1 F4800
G1 X131.038 Y103.167 E-.12
;WIPE_END
G1 X133.823 Y106.487 Z.6 F21000
G1 Z.2
G1 E.8 F2700
G1 F4800
G1 X124.683 Y97.347 E.38563
G1 X124.149 Y97.347 E.01593
G1 X133.654 Y106.851 E.401
G1 X133.654 Y107.385 E.01593
G1 X123.615 Y97.347 E.42354
G1 X123.081 Y97.347 E.01593
G1 X133.654 Y107.92 E.44607
G1 X133.654 Y108.454 E.01593
G1 X122.547 Y97.347 E.46861
G1 X122.013 Y97.347 E.01593
G1 X133.654 Y108.988 E.49114
G1 X133.654 Y109.522 E.01593
G1 X121.479 Y97.347 E.51368
G1 X120.945 Y97.347 E.01593
G1 X133.654 Y110.056 E.53621
G1 X133.654 Y110.59 E.01593
G1 X120.41 Y97.347 E.55875
G1 X119.876 Y97.347 E.01593
G1 X133.654 Y111.124 E.58128
G1 X133.654 Y111.658 E.01593
G1 X119.342 Y97.347 E.60382
G1 X118.808 Y97.347 E.01593
G1 X133.654 Y112.192 E.62635
G1 X133.654 Y112.727 E.01593
G1 X118.274 Y97.347 E.64889
G1 X117.74 Y97.347 E.01593
G1 X133.654 Y113.261 E.67142
G1 X133.654 Y113.795 E.01593
M73 P5 R13
G1 X117.206 Y97.347 E.69396
G1 X116.672 Y97.347 E.01593
G1 X133.654 Y114.329 E.71649
G1 X133.654 Y114.863 E.01593
G1 X116.138 Y97.347 E.73903
G1 X115.603 Y97.347 E.01593
G1 X133.654 Y115.397 E.76156
G1 X133.654 Y115.931 E.01593
G1 X115.069 Y97.347 E.7841
G1 X114.535 Y97.347 E.01593
G1 X133.654 Y116.465 E.80663
G1 X133.654 Y117 E.01593
G1 X114.001 Y97.347 E.82917
G1 X113.467 Y97.347 E.01593
G1 X133.654 Y117.534 E.85171
G1 X133.654 Y118.068 E.01593
G1 X112.933 Y97.347 E.87424
G1 X112.399 Y97.347 E.01593
G1 X133.654 Y118.602 E.89678
G1 X133.654 Y119.136 E.01593
G1 X111.865 Y97.347 E.91931
G1 X111.33 Y97.347 E.01593
G1 X133.654 Y119.67 E.94185
G1 X133.654 Y120.204 E.01593
G1 X110.796 Y97.347 E.96438
G1 X110.262 Y97.347 E.01593
G1 X133.654 Y120.738 E.98692
G1 X133.654 Y121.272 E.01593
G1 X109.728 Y97.347 E1.00945
G1 X109.194 Y97.347 E.01593
G1 X133.654 Y121.807 E1.03199
G1 X133.654 Y122.341 E.01593
G1 X108.66 Y97.347 E1.05452
G1 X108.126 Y97.347 E.01593
G1 X133.654 Y122.875 E1.07706
G1 X133.654 Y123.409 E.01593
G1 X107.592 Y97.347 E1.09959
M73 P6 R13
G1 X107.058 Y97.347 E.01593
G1 X133.654 Y123.943 E1.12213
G1 X133.654 Y124.476 E.01589
G1 X106.523 Y97.347 E1.14463
G1 X105.989 Y97.347 E.01593
G1 X133.145 Y124.503 E1.14573
G1 X132.983 Y124.529 E.00489
G1 X132.728 Y124.62 E.00807
G1 X105.455 Y97.347 E1.15069
G1 X104.921 Y97.347 E.01593
G1 X132.385 Y124.811 E1.15874
G1 X132.095 Y125.055 E.01131
G1 X104.387 Y97.347 E1.16906
G1 X103.853 Y97.347 E.01593
G1 X131.872 Y125.366 E1.18216
G1 X131.691 Y125.719 E.01184
G1 X103.319 Y97.347 E1.19706
G1 X102.785 Y97.347 E.01593
G1 X131.576 Y126.138 E1.21475
G1 X131.559 Y126.445 E.00917
G1 X131.58 Y126.677 E.00692
G1 X102.25 Y97.347 E1.23746
G1 X101.716 Y97.347 E.01593
G1 X133.655 Y129.285 E1.34753
G1 X133.655 Y129.819 E.01593
G1 X101.346 Y97.511 E1.36313
G1 X101.346 Y98.045 E.01593
G1 X133.654 Y130.353 E1.36313
G1 X133.654 Y130.887 E.01593
G1 X101.346 Y98.579 E1.36313
G1 X101.346 Y99.113 E.01593
M73 P7 R13
G1 X133.654 Y131.421 E1.36313
G1 X133.654 Y131.955 E.01593
G1 X101.346 Y99.647 E1.36313
G1 X101.345 Y100.181 E.01593
G1 X133.654 Y132.489 E1.36313
G1 X133.654 Y132.653 E.0049
G1 X133.284 Y132.653 E.01104
G1 X101.345 Y100.715 E1.34753
G1 X101.345 Y101.248 E.01593
G1 X102 Y101.903 E.02762
G1 E-.68 F3600
;WIPE_START
G1 F4800
G1 X101.345 Y101.248 E-.1111
G1 X101.345 Y101.174 E-.0089
;WIPE_END
G1 X103.204 Y103.107 Z.6 F21000
G1 Z.2
G1 E.8 F2700
G1 F4800
G1 X132.749 Y132.653 E1.24659
G1 X132.215 Y132.653 E.01593
G1 X103.42 Y103.858 E1.21491
G1 X103.408 Y103.978 E.00361
G1 X103.297 Y104.269 E.00929
G1 X131.681 Y132.653 E1.19757
G1 X131.147 Y132.653 E.01593
G1 X103.134 Y104.64 E1.18191
G1 X103.015 Y104.823 E.0065
G1 X102.898 Y104.938 E.00491
G1 X130.613 Y132.653 E1.16932
G1 X130.079 Y132.653 E.01593
G1 X102.619 Y105.193 E1.15856
G1 X102.266 Y105.374 E.01184
G1 X129.545 Y132.653 E1.15093
G1 X129.011 Y132.653 E.01593
G1 X101.858 Y105.501 E1.1456
G1 X101.528 Y105.539 E.00991
G1 X101.353 Y105.53 E.00523
G1 X128.477 Y132.653 E1.14437
G1 X127.942 Y132.653 E.01593
G1 X101.346 Y106.057 E1.12212
M73 P8 R13
G1 X101.346 Y106.591 E.01593
G1 X127.408 Y132.653 E1.09959
G1 X126.874 Y132.653 E.01593
G1 X101.346 Y107.125 E1.07705
G1 X101.346 Y107.659 E.01593
G1 X126.34 Y132.653 E1.05452
G1 X125.806 Y132.653 E.01593
G1 X101.346 Y108.193 E1.03198
G1 X101.346 Y108.728 E.01593
G1 X125.272 Y132.653 E1.00945
G1 X124.738 Y132.653 E.01593
G1 X101.346 Y109.262 E.98691
G1 X101.346 Y109.796 E.01593
G1 X124.204 Y132.653 E.96438
G1 X123.669 Y132.653 E.01593
G1 X101.346 Y110.33 E.94184
G1 X101.346 Y110.864 E.01593
G1 X123.135 Y132.653 E.91931
G1 X122.601 Y132.653 E.01593
G1 X101.346 Y111.398 E.89677
G1 X101.346 Y111.932 E.01593
G1 X122.067 Y132.653 E.87424
G1 X121.533 Y132.653 E.01593
G1 X101.346 Y112.466 E.8517
G1 X101.346 Y113 E.01593
G1 X120.999 Y132.653 E.82917
G1 X120.465 Y132.653 E.01593
G1 X101.346 Y113.535 E.80663
G1 X101.346 Y114.069 E.01593
G1 X119.931 Y132.653 E.7841
G1 X119.397 Y132.653 E.01593
G1 X101.346 Y114.603 E.76156
G1 X101.346 Y115.137 E.01593
G1 X118.862 Y132.653 E.73903
G1 X118.328 Y132.653 E.01593
M73 P9 R13
G1 X101.346 Y115.671 E.71649
G1 X101.346 Y116.205 E.01593
G1 X117.794 Y132.653 E.69396
G1 X117.26 Y132.653 E.01593
G1 X101.346 Y116.739 E.67142
G1 X101.346 Y117.273 E.01593
G1 X116.726 Y132.653 E.64889
G1 X116.192 Y132.653 E.01593
G1 X101.346 Y117.808 E.62635
G1 X101.346 Y118.342 E.01593
G1 X115.658 Y132.653 E.60382
G1 X115.124 Y132.653 E.01593
