;FLAVOR:Marlin
;TIME:14460
;Filament used:9.65345m
;Layer height: 0.2
;MINX:57.199
;MINY:61.699
;MINZ:0.24
;MAXX:162.8
;MAXY:158.3
;MAXZ:16.06
                               
;Creality Print GCode Generated by CXEngine:NO_MAGE_VERSION_GIT_HEAD_BRANCH
;CXEngine Release Time:2022-09-30 09:53:04
;Gcode Generated Time:2023-07-02 15:04:04
;----------Machine Config--------------
;Machine Name:Ender-3 V2
;Machine Height:250
;Machine Width:220
;Machine Depth:220
;Material name:PLA
;Number of Extruders:1
;ExtruderParams[0] Nozzle Diameter1000
;----------Profile Config---------------
;Engine Version:275f99b
;Engine Release Time:2022-09-30 09:42:18
;Layer Height:0.2
;Wall Thickness:0.8
;Top/Bottom Thickness:1
;Out Wall Line Width:0.4
;Inner Wall Line Width:0.4
;Inital Layer Height:200
;Wall Line Count:2
;Infill Line Distance:4
;Infill Pattern:grid
;Infill Sparse Density:20
;Infill Wipe Distance:0
;Print Temperature:230
;Bed Temperature:60
;Support Enable:true
;Support Density:0
;Support Angle:60
;Adhesion Type:simpleraft
;machine is belt:false
;machine belt offset:10
;machine belt offset Y:0
;Raft Base Line Spacing:1.6
;Wait Heatup Sync:true
;----------Shell Config----------------
;Outer Wall Wipe Distance:200
;Outer Inset First:false
;Infill Before Walls:false
;Infill Overlap:0.16
;Fill Gaps Between Walls:everywhere
;Minimum Infill Area:1
;Top Surface Skin Layer:0
;Top Layers:3
;Z Seam Alignment:sharpest_corner
;Seam Corner Preference:z_seam_corner_inner
;Z Seam X:110
;Z Seam Y:110
;Horizontal Expansion:0
;Top/Bottom Pattern:zigzag
;Ironing Pattern:zigzag
;Vase Model:false
;----------Support Config----------------
;Support Type:everywhere
;Support Pattern:zigzag
;Support Infill Layer Thickness:0.2
;Minimum Support Area:5
;Enable Support Roof:false
;Support Roof Thickness:0.8
;Support Roof Pattern:lines
;Connect Support Lines:0
;Connect Support ZigZags:1
;Minimum Support X/Y Distance:0.2
;Support Line Distance:0
; ---------PrintSpeed & Travel----------
;Enable Print Cool:true
;Avoid Printed Parts Traveling:true
;Enable Retraction:false
;Retraction Distance:8
;Retraction Speed:100
;Retraction Prime Speed:100
;Maximum Retraction Count:100
;Minimum Extrusion Distance Window:8
;Z Hop When Retracted:false
;Z Hop Height:0.2
;Retract Before Outer Wall:true
;Print Speed:50
;Infill Speed:50

;Prime Tower Speed:50
;Travel Speed:120
;Initial Layer Speed:25
;Skirt/Brim Speed:25
;Combing Mode:infill
; --------SpecialModel&Mesh Fixes--------
;Union Overlapping Volum:true
;Remove All Holes:false
;Maximum Travel Resolution:0.6
;Maximum Deviation:0.05
;Maximum Model Angle:0.872665
;IS Mold Print:false
;Make Overhang Printable:false
;Enable Coasting:false
;Coasting Volumes:0.06
;Coasting Speed:0.9
;Raft AirGap:0.25
;Layer0 ZOverLap:0.13
;---------------------End of Head--------------------------
M140 S60
M105
M104 S230
M105
M109 S230
M105
M190 S60
M82 ;absolute extrusion mode
M220 S100 ;Reset Feedrate
M221 S100 ;Reset Flowrate

G28 ;Home

G92 E0 ;Reset Extruder
G1 Z2.0 F3000 ;Move Z Axis up
G1 X10.1 Y20 Z0.28 F5000.0 ;Move to start position
G1 X10.1 Y145.0 Z0.28 F1500.0 E15 ;Draw the first line
G1 X10.4 Y145.0 Z0.28 F5000.0 ;Move to side a little
G1 X10.4 Y20 Z0.28 F1500.0 E30 ;Draw the second line
G92 E0  ;Reset Extruder
G1 E-1.0000 F1800 ;Retract a bit
G1 Z2.0 F3000 ;Move Z Axis up
G1 E0.0000 F1800 

G92 E0

;LAYER_COUNT:75

;LAYER:-4
M107
G0 F7200 X60.8 Y64.828 Z0.24
;TYPE:SUPPORT-INTERFACE
G1 F1200 X60.8 Y155.175 E7.93308
G1 X60.503 Y154.895 E7.96892
G1 X59.872 Y154.19 E8.052
G1 X59.386 Y153.538 E8.1234
G1 X59.2 Y153.234 E8.15469
G1 X59.2 Y66.754 E15.74822
G1 X59.619 Y66.135 E15.81386
G1 X60.119 Y65.517 E15.88366
G1 X60.611 Y64.997 E15.94651
G1 X61.31 Y64.372 E16.02885
G1 X61.962 Y63.886 E16.10025
G1 X62.4 Y63.616 E16.14543
G1 X62.4 Y156.388 E24.29144
G1 X63.063 Y156.752 E24.35785
G1 X63.808 Y157.079 E24.42929
G1 X64 Y157.143 E24.44707
G1 X64 Y62.857 E32.72601
G1 X64.178 Y62.788 E32.74278
G1 X64.96 Y62.562 E32.81425
G1 X65.6 Y62.437 E32.87151
G1 X65.6 Y157.561 E41.22404
G1 X66.201 Y157.65 E41.27739
G1 X67.2 Y157.699 E41.36521
G1 X67.2 Y62.3 E49.74189
G1 X68.8 Y62.3 E49.88238
G1 X68.8 Y157.7 E58.25914
G1 X70.4 Y157.7 E58.39964
G1 X70.4 Y62.3 E66.7764
G1 X72 Y62.3 E66.91689
G1 X72 Y157.7 E75.29366
G1 X73.6 Y157.7 E75.43415
G1 X73.6 Y62.3 E83.81091
G1 X75.2 Y62.3 E83.9514
G1 X75.2 Y157.7 E92.32817
G1 X76.8 Y157.7 E92.46866
G1 X76.8 Y62.3 E100.84542
G1 X78.4 Y62.3 E100.98591
G1 X78.4 Y157.7 E109.36268
G1 X80 Y157.7 E109.50317
G1 X80 Y62.3 E117.87993
G1 X81.6 Y62.3 E118.02043
G1 X81.6 Y157.7 E126.39719
G1 X83.2 Y157.7 E126.53768
G1 X83.2 Y62.3 E134.91445
G1 X84.8 Y62.3 E135.05494
G1 X84.8 Y157.7 E143.4317
G1 X86.4 Y157.7 E143.57219
G1 X86.4 Y62.3 E151.94896
G1 X88 Y62.3 E152.08945
G1 X88 Y157.7 E160.46621
G1 X89.6 Y157.7 E160.6067
G1 X89.6 Y62.3 E168.98347
G1 X91.2 Y62.3 E169.12396
G1 X91.2 Y157.7 E177.50073
G1 X92.8 Y157.7 E177.64122
G1 X92.8 Y62.3 E186.01798
G1 X94.4 Y62.3 E186.15847
G1 X94.4 Y97.027 E189.20774
G1 X94.468 Y96.753 E189.23253
G1 X94.732 Y96.07 E189.29682
G1 X95.08 Y95.426 E189.3611
G1 X95.509 Y94.828 E189.42572
G1 X96 Y94.299 E189.4891
G1 X96 Y62.3 E192.29882
G1 X97.6 Y62.3 E192.43931
G1 X97.6 Y93.231 E195.15527
G1 X97.851 Y93.112 E195.17966
G1 X98.547 Y92.883 E195.24399
G1 X99.2 Y92.758 E195.30237
G1 X99.2 Y62.3 E197.97679
G1 X100.8 Y62.3 E198.11728
G1 X100.8 Y92.7 E200.78661
G1 X102.4 Y92.7 E200.9271
G1 X102.4 Y62.3 E203.59642
G1 X104 Y62.3 E203.73691
G1 X104 Y92.7 E206.40624
G1 X105.6 Y92.7 E206.54673
G1 X105.6 Y62.3 E209.21606
G1 X107.2 Y62.3 E209.35655
G1 X107.2 Y92.7 E212.02587
G1 X108.8 Y92.7 E212.16636
G1 X108.8 Y62.3 E214.83569
G1 X110.4 Y62.3 E214.97618
G1 X110.4 Y92.7 E217.6455
G1 X112 Y92.7 E217.78599
G1 X112 Y62.3 E220.45532
G1 X113.6 Y62.3 E220.59581
G1 X113.6 Y92.7 E223.26514
G1 X115.2 Y92.7 E223.40563
G1 X115.2 Y62.3 E226.07495
G1 X116.8 Y62.3 E226.21544
G1 X116.8 Y92.7 E228.88477
G1 X120 Y92.7 E229.16575
G1 X120 Y62.3 E231.83508
G1 X118.4 Y62.3 E231.97557
G1 X118.4 Y92.7 E234.64489
G0 F7200 X120.036 Y92.7
G1 F1200 X121.023 Y92.788 E234.7319
G1 X121.747 Y92.968 E234.79741
G1 X122.43 Y93.232 E234.8617
G1 X123.074 Y93.58 E234.92598
G1 X123.2 Y93.67 E234.93958
G1 X123.2 Y62.3 E237.69407
G1 X121.6 Y62.3 E237.83457
G1 X121.6 Y92.931 E240.52417
G0 F7200 X99.374 Y93.601
G0 X98.764 Y93.718
G0 X98.17 Y93.912
G0 X97.606 Y94.18
G0 X97.082 Y94.515
G0 X96.599 Y94.919
G0 X96.176 Y95.375
G0 X95.812 Y95.881
G0 X95.515 Y96.432
G0 X95.29 Y97.012
G0 X95.141 Y97.617
G0 X95.061 Y98.508
G0 X95.061 Y123.501
G0 X95.101 Y124.126
G0 X96 Y127.687
G1 F1200 X96 Y157.7 E243.15952
G1 X94.4 Y157.7 E243.30001
G1 X94.4 Y125.005 E246.17085
G1 X94.612 Y125.649 E246.23038
G1 X94.925 Y126.312 E246.29476
G1 X95.321 Y126.93 E246.35921
G1 X95.791 Y127.493 E246.42361
G1 X96.328 Y127.991 E246.48792
G1 X96.926 Y128.42 E246.55254
G1 X97.57 Y128.768 E246.61681
G1 X97.6 Y128.78 E246.61965
G1 X97.6 Y157.7 E249.15902
G1 X99.2 Y157.7 E249.29951
G1 X99.2 Y129.232 E251.7992
G1 X99.964 Y129.3 E251.86655
G1 X100.8 Y129.3 E251.93995
G1 X100.8 Y157.7 E254.43366
G1 X102.4 Y157.7 E254.57415
G1 X102.4 Y129.3 E257.06787
G1 X104 Y129.3 E257.20836
G1 X104 Y157.7 E259.70207
G1 X105.6 Y157.7 E259.84256
G1 X105.6 Y129.3 E262.33627
G1 X107.2 Y129.3 E262.47676
G1 X107.2 Y157.7 E264.97047
G1 X108.8 Y157.7 E265.11097
G1 X108.8 Y129.3 E267.60468
G1 X110.4 Y129.3 E267.74517
G1 X110.4 Y157.7 E270.23888
G1 X112 Y157.7 E270.37937
G1 X112 Y129.3 E272.87308
G1 X113.6 Y129.3 E273.01357
G1 X113.6 Y157.7 E275.50729
G1 X115.2 Y157.7 E275.64778
G1 X115.2 Y129.3 E278.14149
G1 X116.8 Y129.3 E278.28198
G1 X116.8 Y157.7 E280.77569
G1 X118.4 Y157.7 E280.91618
G1 X118.4 Y129.3 E283.40989
G1 X120 Y129.3 E283.55038
G1 X120 Y157.7 E286.0441
G1 X121.6 Y157.7 E286.18459
G1 X121.6 Y129.068 E288.69867
G1 X122.149 Y128.888 E288.7494
G1 X122.812 Y128.575 E288.81378
G1 X123.2 Y128.326 E288.85426
G1 X123.2 Y157.7 E291.4335
G1 X124.8 Y157.7 E291.57399
G1 X124.8 Y126.741 E294.2924
G1 X124.92 Y126.574 E294.31045
G1 X125.268 Y125.93 E294.37473
G1 X125.532 Y125.247 E294.43902
G1 X125.712 Y124.523 E294.50453
G1 X125.8 Y123.536 E294.59154
G1 X125.8 Y98.474 E296.79215
G1 X125.756 Y97.768 E296.85427
G1 X125.617 Y97.047 E296.91874
G1 X125.388 Y96.351 E296.98308
G1 X125.075 Y95.688 E297.04745
G1 X124.8 Y95.258 E297.09227
G1 X124.8 Y62.3 E299.98621
G1 X126.4 Y62.3 E300.1267
G1 X126.4 Y157.7 E308.50346
G1 X128 Y157.7 E308.64395
G1 X128 Y62.3 E317.02072
G1 X129.6 Y62.3 E317.16121
G1 X129.6 Y157.7 E325.53797
G1 X131.2 Y157.7 E325.67847
G1 X131.2 Y62.3 E334.05523
G1 X132.8 Y62.3 E334.19572
G1 X132.8 Y157.7 E342.57249
G1 X134.4 Y157.7 E342.71298
G1 X134.4 Y62.3 E351.08974
G1 X136 Y62.3 E351.23023
G1 X136 Y157.7 E359.607
G1 X137.6 Y157.7 E359.74749
G1 X137.6 Y62.3 E368.12425
G1 X139.2 Y62.3 E368.26474
G1 X139.2 Y157.7 E376.64151
G1 X140.8 Y157.7 E376.782
G1 X140.8 Y62.3 E385.15876
G1 X142.4 Y62.3 E385.29926
G1 X142.4 Y157.7 E393.67602
G1 X144 Y157.7 E393.81651
G1 X144 Y62.3 E402.19328
G1 X145.6 Y62.3 E402.33377
G1 X145.6 Y157.7 E410.71053
G1 X147.2 Y157.7 E410.85102
G1 X147.2 Y62.3 E419.22779
G1 X148.8 Y62.3 E419.36828
G1 X148.8 Y157.7 E427.74504
G1 X150.4 Y157.7 E427.88553
G1 X150.4 Y62.3 E436.2623
G1 X152 Y62.3 E436.40279
G1 X152 Y157.7 E444.77956
G1 X152.832 Y157.7 E444.85261
G1 X153.439 Y157.679 E444.90594
G1 X153.6 Y157.663 E444.92015
G1 X153.6 Y62.341 E453.29006
G1 X153.799 Y62.35 E453.30755
G1 X154.624 Y62.472 E453.38078
G1 X155.2 Y62.61 E453.43279
G1 X155.2 Y157.392 E461.75529
G1 X155.822 Y157.212 E461.81215
G1 X156.615 Y156.904 E461.88685
G1 X156.8 Y156.812 E461.90499
G1 X156.8 Y63.188 E470.12581
G1 X156.933 Y63.246 E470.13855
G1 X157.682 Y63.657 E470.21357
G1 X158.365 Y64.119 E470.28597
G1 X158.4 Y64.148 E470.28996
G1 X158.4 Y155.844 E478.34149
G1 X158.694 Y155.624 E478.37373
G1 X159.39 Y155.002 E478.45569
G1 X159.881 Y154.483 E478.51843
G1 X160.381 Y153.865 E478.58823
G1 X160.843 Y153.182 E478.66063
G1 X161.254 Y152.433 E478.73565
G1 X161.583 Y151.684 E478.80748
G1 X161.6 Y151.633 E478.8122
G1 X161.6 Y68.391 E486.12141
G1 X161.404 Y67.885 E486.16906
G1 X161.043 Y67.161 E486.2401
G1 X160.614 Y66.462 E486.31211
G1 X160.128 Y65.81 E486.38352
G1 X160 Y65.667 E486.40037
G1 X160 Y154.336 E494.18611
G0 F600 X160 Y154.336 Z0.54
G0 F7200 X99.124 Y128.822
;TIME_ELAPSED:286.864533

;LAYER:-3
;TYPE:SUPPORT
G1 F1800 X128.4 Y158.099 E498.31734
G1 X126.986 Y158.099 E498.45843
G1 X96.382 Y127.494 E502.77705
G1 X96.582 Y127.681 E502.80437
G1 X97.138 Y128.08 E502.87266
G1 X97.738 Y128.404 E502.9407
G1 X98.374 Y128.65 E503.00874
G1 X99.043 Y128.816 E503.07752
G1 X99.982 Y128.9 E503.17158
G1 X100.615 Y128.899 E503.23474
G1 X129.814 Y158.099 E507.35511
G1 X131.229 Y158.099 E507.4963
G1 X102.029 Y128.899 E511.61673
G1 X103.444 Y128.899 E511.75792
G1 X132.643 Y158.099 E515.87829
G1 X134.057 Y158.099 E516.01938
G1 X104.858 Y128.899 E520.13974
G1 X106.272 Y128.899 E520.28083
G1 X135.471 Y158.099 E524.4012
G1 X136.885 Y158.099 E524.54229
G1 X107.686 Y128.899 E528.66265
G1 X109.1 Y128.899 E528.80374
G1 X138.3 Y158.099 E532.92418
G1 X139.714 Y158.099 E533.06527
G1 X110.515 Y128.899 E537.18563
G1 X111.929 Y128.899 E537.32672
G1 X141.128 Y158.099 E541.44709
G1 X142.542 Y158.099 E541.58818
G1 X113.343 Y128.899 E545.70854
G1 X114.757 Y128.899 E545.84963
G1 X143.957 Y158.099 E549.97007
G1 X145.371 Y158.099 E550.11116
G1 X116.171 Y128.899 E554.23159
G1 X117.586 Y128.899 E554.37278
G1 X146.785 Y158.099 E558.49315
G1 X148.199 Y158.099 E558.63424
G1 X119 Y128.899 E562.7546
G1 X120.013 Y128.9 E562.85568
G1 X120.391 Y128.876 E562.89347
G1 X149.613 Y158.099 E567.01708
G1 X151.028 Y158.099 E567.15827
G1 X121.582 Y128.653 E571.31342
G1 X122.001 Y128.516 E571.35741
G1 X122.584 Y128.24 E571.42177
G1 X152.442 Y158.099 E575.63512
G1 X152.846 Y158.1 E575.67544
G1 X153.466 Y158.079 E575.73734
G1 X153.799 Y158.041 E575.77078
G1 X123.421 Y127.664 E580.05737
G1 X123.717 Y127.418 E580.09577
G1 X124.136 Y126.964 E580.15742
G1 X155.02 Y157.848 E584.51549
G1 X155.128 Y157.829 E584.52643
G1 X155.955 Y157.59 E584.61232
G1 X156.112 Y157.527 E584.6292
G1 X124.708 Y126.122 E589.06072
G1 X124.904 Y125.762 E589.10162
G1 X125.142 Y125.142 E589.16788
G1 X157.105 Y157.105 E593.67821
G1 X157.546 Y156.887 E593.72729
G1 X158.012 Y156.598 E593.78201
G1 X125.36 Y123.946 E598.38956
G1 X125.4 Y123.518 E598.43245
G1 X125.399 Y122.57 E598.52704
G1 X158.841 Y156.013 E603.24614
G1 X158.947 Y155.935 E603.25927
G1 X159.596 Y155.353 E603.34625
G1 X125.399 Y121.156 E608.17182
G1 X125.399 Y119.742 E608.31291
G1 X160.282 Y154.625 E613.23528
G1 X160.699 Y154.109 E613.30147
G1 X160.892 Y153.821 E613.33607
G1 X125.399 Y118.327 E618.34458
G1 X125.399 Y116.913 E618.48567
G1 X161.43 Y152.945 E623.57011
G1 X161.61 Y152.617 E623.60744
G1 X161.886 Y151.986 E623.67616
G1 X125.399 Y115.499 E628.82487
G1 X125.399 Y114.085 E628.96596
G1 X162.246 Y150.932 E634.16547
G1 X162.422 Y150.195 E634.24107
G1 X162.486 Y149.758 E634.28514
G1 X125.399 Y112.671 E639.51852
G1 X125.399 Y111.256 E639.65971
G1 X162.592 Y148.449 E644.90804
G1 X162.6 Y148.288 E644.92413
G1 X162.599 Y147.043 E645.04836
G1 X125.399 Y109.842 E650.29775
G1 X125.399 Y108.428 E650.43884
G1 X162.599 Y145.629 E655.68823
G1 X162.599 Y144.215 E655.82932
G1 X125.399 Y107.014 E661.07871
G1 X125.399 Y105.6 E661.2198
G1 X162.599 Y142.8 E666.46912
G1 X162.599 Y141.386 E666.61021
G1 X125.399 Y104.185 E671.85961
G1 X125.399 Y102.771 E672.0007
G1 X162.599 Y139.972 E677.25009
G1 X162.599 Y138.558 E677.39118
G1 X125.399 Y101.357 E682.64057
G1 X125.399 Y99.943 E682.78166
G1 X162.599 Y137.144 E688.03105
G1 X162.599 Y135.729 E688.17224
G1 X125.399 Y98.528 E693.42164
G1 X125.4 Y98.487 E693.42573
G1 X125.358 Y97.819 E693.49251
G1 X125.229 Y97.148 E693.56069
G1 X125.128 Y96.843 E693.59275
G1 X162.599 Y134.315 E698.88038
G1 X162.599 Y132.901 E699.02147
G1 X91.598 Y61.9 E709.04048
G1 X93.012 Y61.9 E709.18157
G1 X162.599 Y131.487 E719.00105
G1 X162.599 Y130.072 E719.14224
G1 X94.427 Y61.9 E728.76204
G1 X95.841 Y61.9 E728.90313
G1 X162.599 Y128.658 E738.32341
G1 X162.599 Y127.244 E738.4645
G1 X97.255 Y61.9 E747.68524
G1 X98.669 Y61.9 E747.82633
G1 X162.599 Y125.83 E756.84755
G1 X162.599 Y124.416 E756.98864
G1 X100.083 Y61.9 E765.81032
G1 X101.498 Y61.9 E765.95151
G1 X162.599 Y123.001 E774.57352
G1 X162.599 Y121.587 E774.71461
G1 X102.912 Y61.9 E783.13709
G1 X104.326 Y61.9 E783.27818
G1 X162.599 Y120.173 E791.50113
G1 X162.599 Y118.759 E791.64222
G1 X105.74 Y61.9 E799.66564
G1 X107.154 Y61.9 E799.80673
G1 X162.599 Y117.345 E807.63062
G1 X162.599 Y115.93 E807.77181
G1 X108.569 Y61.9 E815.39602
G1 X109.983 Y61.9 E815.53711
G1 X162.599 Y114.516 E822.9618
G1 X162.599 Y113.102 E823.10289
G1 X111.397 Y61.9 E830.32804
G1 X112.811 Y61.9 E830.46913
G1 X162.599 Y111.688 E837.49476
G1 X162.599 Y110.274 E837.63585
G1 X114.226 Y61.9 E844.46187
G1 X115.64 Y61.9 E844.60296
G1 X162.599 Y108.859 E851.22938
G1 X162.599 Y107.445 E851.37047
G1 X117.054 Y61.9 E857.79736
G1 X118.468 Y61.9 E857.93845
G1 X162.599 Y106.031 E864.16581
G1 X162.599 Y104.617 E864.3069
G1 X119.882 Y61.9 E870.33473
G1 X121.297 Y61.9 E870.47592
G1 X162.599 Y103.202 E876.30408
G1 X162.599 Y101.788 E876.44517
G1 X122.711 Y61.9 E882.0738
G1 X124.125 Y61.9 E882.21489
G1 X162.599 Y100.374 E887.64399
G1 X162.599 Y98.96 E887.78508
G1 X125.539 Y61.9 E893.01464
G1 X126.953 Y61.9 E893.15573
G1 X162.599 Y97.546 E898.18577
G1 X162.599 Y96.131 E898.32696
G1 X128.368 Y61.9 E903.15732
G1 X129.782 Y61.9 E903.29841
G1 X162.599 Y94.717 E907.92924
G1 X162.599 Y93.303 E908.07033
G1 X131.196 Y61.9 E912.50164
G1 X132.61 Y61.9 E912.64273
G1 X162.599 Y91.889 E916.8745
G1 X162.599 Y90.475 E917.01559
G1 X134.025 Y61.9 E921.04776
G1 X135.439 Y61.9 E921.18885
G1 X162.599 Y89.06 E925.02142
G1 X162.599 Y87.646 E925.16251
G1 X136.853 Y61.9 E928.79555
G1 X138.267 Y61.9 E928.93663
G1 X162.599 Y86.232 E932.37014
G1 X162.599 Y84.818 E932.51123
G1 X139.681 Y61.9 E935.74521
G1 X141.096 Y61.9 E935.8864
G1 X162.599 Y83.403 E938.9207
G1 X162.599 Y81.989 E939.06179
G1 X142.51 Y61.9 E941.89657
G1 X143.924 Y61.9 E942.03766
