;FLAVOR:Marlin
;TIME:10275
;Filament used:6.54096m
;Layer height: 0.2
;MINX:57.2
;MINY:79.699
;MINZ:0.24
;MAXX:162.8
;MAXY:140.3
;MAXZ:16.06
                                 
;Creality Print GCode Generated by CXEngine:NO_MAGE_VERSION_GIT_HEAD_BRANCH
;CXEngine Release Time:2022-09-30 09:53:04
;Gcode Generated Time:2023-07-02 18:32:44
;----------Machine Config--------------
;Machine Name:Ender-3 V2
;Machine Height:250
;Machine Width:220
;Machine Depth:220
;Material name:PLA
;Number of Extruders:1
;ExtruderParams[0] Nozzle Diameter1000
;----------Profile Config---------------
;Engine Version:275f99b
;Engine Release Time:2022-09-30 09:42:18
;Layer Height:0.2
;Wall Thickness:0.8
;Top/Bottom Thickness:1
;Out Wall Line Width:0.4
;Inner Wall Line Width:0.4
;Inital Layer Height:200
;Wall Line Count:2
;Infill Line Distance:4
;Infill Pattern:grid
;Infill Sparse Density:20
;Infill Wipe Distance:0
;Print Temperature:230
;Bed Temperature:60
;Support Enable:true
;Support Density:0
;Support Angle:60
;Adhesion Type:simpleraft
;machine is belt:false
;machine belt offset:10
;machine belt offset Y:0
;Raft Base Line Spacing:1.6
;Wait Heatup Sync:true
;----------Shell Config----------------
;Outer Wall Wipe Distance:200
;Outer Inset First:false
;Infill Before Walls:false
;Infill Overlap:0.16
;Fill Gaps Between Walls:everywhere
;Minimum Infill Area:1
;Top Surface Skin Layer:0
;Top Layers:3
;Z Seam Alignment:sharpest_corner
;Seam Corner Preference:z_seam_corner_inner
;Z Seam X:110
;Z Seam Y:110
;Horizontal Expansion:0
;Top/Bottom Pattern:zigzag
;Ironing Pattern:zigzag
;Vase Model:false
;----------Support Config----------------
;Support Type:everywhere
;Support Pattern:zigzag
;Support Infill Layer Thickness:0.2
;Minimum Support Area:5
;Enable Support Roof:false
;Support Roof Thickness:0.8
;Support Roof Pattern:lines
;Connect Support Lines:0
;Connect Support ZigZags:1
;Minimum Support X/Y Distance:0.2
;Support Line Distance:0
; ---------PrintSpeed & Travel----------
;Enable Print Cool:true
;Avoid Printed Parts Traveling:true
;Enable Retraction:false
;Retraction Distance:8
;Retraction Speed:100
;Retraction Prime Speed:100
;Maximum Retraction Count:100
;Minimum Extrusion Distance Window:8
;Z Hop When Retracted:false
;Z Hop Height:0.2
;Retract Before Outer Wall:true
;Print Speed:50
;Infill Speed:50

;Prime Tower Speed:50
;Travel Speed:120
;Initial Layer Speed:25
;Skirt/Brim Speed:25
;Combing Mode:infill
; --------SpecialModel&Mesh Fixes--------
;Union Overlapping Volum:true
;Remove All Holes:false
;Maximum Travel Resolution:0.6
;Maximum Deviation:0.05
;Maximum Model Angle:0.872665
;IS Mold Print:false
;Make Overhang Printable:false
;Enable Coasting:false
;Coasting Volumes:0.06
;Coasting Speed:0.9
;Raft AirGap:0.25
;Layer0 ZOverLap:0.13
;---------------------End of Head--------------------------
M140 S60
M105
M104 S230
M105
M109 S230
M105
M190 S60
M82 ;absolute extrusion mode
M220 S100 ;Reset Feedrate
M221 S100 ;Reset Flowrate

G28 ;Home

G92 E0 ;Reset Extruder
G1 Z2.0 F3000 ;Move Z Axis up
G1 X10.1 Y20 Z0.28 F5000.0 ;Move to start position
G1 X10.1 Y145.0 Z0.28 F1500.0 E15 ;Draw the first line
G1 X10.4 Y145.0 Z0.28 F5000.0 ;Move to side a little
G1 X10.4 Y20 Z0.28 F1500.0 E30 ;Draw the second line
G92 E0  ;Reset Extruder
G1 E-1.0000 F1800 ;Retract a bit
G1 Z2.0 F3000 ;Move Z Axis up
G1 E0.0000 F1800 

G92 E0

;LAYER_COUNT:75

;LAYER:-4
M107
G0 F7200 X60.8 Y82.828 Z0.24
;TYPE:SUPPORT-INTERFACE
G1 F1200 X60.8 Y137.175 E4.77203
G1 X60.503 Y136.895 E4.80787
G1 X59.872 Y136.19 E4.89095
G1 X59.386 Y135.538 E4.96236
G1 X59.2 Y135.234 E4.99365
G1 X59.2 Y84.754 E9.42614
G1 X59.619 Y84.135 E9.49177
G1 X60.119 Y83.517 E9.56157
G1 X60.611 Y82.997 E9.62443
G1 X61.31 Y82.372 E9.70676
G1 X61.962 Y81.886 E9.77817
G1 X62.4 Y81.616 E9.82335
G1 X62.4 Y138.388 E14.80831
G1 X63.063 Y138.752 E14.87472
G1 X63.808 Y139.079 E14.94616
G1 X64 Y139.143 E14.96393
G1 X64 Y80.857 E20.08184
G1 X64.178 Y80.788 E20.0986
G1 X64.96 Y80.562 E20.17008
G1 X65.6 Y80.437 E20.22734
G1 X65.6 Y139.561 E25.41882
G1 X66.201 Y139.65 E25.47217
G1 X67.2 Y139.699 E25.55999
G1 X67.2 Y80.3 E30.77563
G1 X68.8 Y80.3 E30.91612
G1 X68.8 Y139.7 E36.13184
G1 X70.4 Y139.7 E36.27233
G1 X70.4 Y80.3 E41.48805
G1 X72 Y80.3 E41.62854
G1 X72 Y139.7 E46.84426
G1 X73.6 Y139.7 E46.98476
G1 X73.6 Y80.3 E52.20048
G1 X75.2 Y80.3 E52.34097
G1 X75.2 Y139.7 E57.55669
G1 X76.8 Y139.7 E57.69718
G1 X76.8 Y80.3 E62.9129
G1 X78.4 Y80.3 E63.05339
G1 X78.4 Y139.7 E68.26911
G1 X80 Y139.7 E68.40961
G1 X80 Y80.3 E73.62533
G1 X81.6 Y80.3 E73.76582
G1 X81.6 Y139.7 E78.98154
G1 X83.2 Y139.7 E79.12203
G1 X83.2 Y80.3 E84.33775
G1 X84.8 Y80.3 E84.47824
G1 X84.8 Y139.7 E89.69396
G1 X86.4 Y139.7 E89.83446
G1 X86.4 Y80.3 E95.05018
G1 X88 Y80.3 E95.19067
G1 X88 Y139.7 E100.40639
G1 X89.6 Y139.7 E100.54688
G1 X89.6 Y80.3 E105.7626
G1 X91.2 Y80.3 E105.90309
G1 X91.2 Y139.7 E111.11881
G1 X92.8 Y139.7 E111.2593
G1 X92.8 Y80.3 E116.47503
G1 X94.4 Y80.3 E116.61552
G1 X94.4 Y139.7 E121.83124
G1 X96 Y139.7 E121.97173
G1 X96 Y80.3 E127.18745
G1 X97.6 Y80.3 E127.32794
G1 X97.6 Y139.7 E132.54366
G1 X99.2 Y139.7 E132.68415
G1 X99.2 Y80.3 E137.89988
G1 X100.8 Y80.3 E138.04037
G1 X100.8 Y139.7 E143.25609
G1 X102.4 Y139.7 E143.39658
G1 X102.4 Y80.3 E148.6123
G1 X104 Y80.3 E148.75279
G1 X104 Y139.7 E153.96851
G1 X105.6 Y139.7 E154.109
G1 X105.6 Y80.3 E159.32473
G1 X107.2 Y80.3 E159.46522
G1 X107.2 Y139.7 E164.68094
G1 X108.8 Y139.7 E164.82143
G1 X108.8 Y80.3 E170.03715
G1 X110.4 Y80.3 E170.17764
G1 X110.4 Y139.7 E175.39336
G1 X112 Y139.7 E175.53385
G1 X112 Y80.3 E180.74958
G1 X113.6 Y80.3 E180.89007
G1 X113.6 Y139.7 E186.10579
G1 X115.2 Y139.7 E186.24628
G1 X115.2 Y80.3 E191.462
G1 X116.8 Y80.3 E191.60249
G1 X116.8 Y139.7 E196.81821
G1 X118.4 Y139.7 E196.9587
G1 X118.4 Y80.3 E202.17443
G1 X120 Y80.3 E202.31492
G1 X120 Y139.7 E207.53064
G1 X121.6 Y139.7 E207.67113
G1 X121.6 Y80.3 E212.88685
G1 X123.2 Y80.3 E213.02734
G1 X123.2 Y139.7 E218.24306
G1 X124.8 Y139.7 E218.38355
G1 X124.8 Y80.3 E223.59928
G1 X126.4 Y80.3 E223.73977
G1 X126.4 Y139.7 E228.95549
G1 X128 Y139.7 E229.09598
G1 X128 Y80.3 E234.3117
G1 X129.6 Y80.3 E234.45219
G1 X129.6 Y139.7 E239.66791
G1 X131.2 Y139.7 E239.8084
G1 X131.2 Y80.3 E245.02413
G1 X132.8 Y80.3 E245.16462
G1 X132.8 Y139.7 E250.38034
G1 X134.4 Y139.7 E250.52083
G1 X134.4 Y80.3 E255.73655
G1 X136 Y80.3 E255.87704
G1 X136 Y139.7 E261.09276
G1 X137.6 Y139.7 E261.23325
G1 X137.6 Y80.3 E266.44898
G1 X139.2 Y80.3 E266.58947
G1 X139.2 Y139.7 E271.80519
G1 X140.8 Y139.7 E271.94568
G1 X140.8 Y80.3 E277.1614
G1 X142.4 Y80.3 E277.30189
G1 X142.4 Y139.7 E282.51761
G1 X144 Y139.7 E282.6581
G1 X144 Y80.3 E287.87382
G1 X145.6 Y80.3 E288.01432
G1 X145.6 Y139.7 E293.23004
G1 X147.2 Y139.7 E293.37053
G1 X147.2 Y80.3 E298.58625
G1 X148.8 Y80.3 E298.72674
G1 X148.8 Y139.7 E303.94246
G1 X150.4 Y139.7 E304.08295
G1 X150.4 Y80.3 E309.29867
G1 X152 Y80.3 E309.43917
G1 X152 Y139.7 E314.65489
G1 X152.832 Y139.7 E314.72794
G1 X153.439 Y139.679 E314.78127
G1 X153.6 Y139.663 E314.79548
G1 X153.6 Y80.341 E320.00435
G1 X153.799 Y80.35 E320.02184
G1 X154.624 Y80.472 E320.09507
G1 X155.2 Y80.61 E320.14708
G1 X155.2 Y139.392 E325.30854
G1 X155.822 Y139.212 E325.36539
G1 X156.615 Y138.904 E325.44009
G1 X156.8 Y138.812 E325.45823
G1 X156.8 Y81.188 E330.51801
G1 X156.933 Y81.246 E330.53075
G1 X157.682 Y81.657 E330.60577
G1 X158.365 Y82.119 E330.67817
G1 X158.4 Y82.148 E330.68216
G1 X158.4 Y137.844 E335.57265
G1 X158.694 Y137.624 E335.60489
G1 X159.39 Y137.002 E335.68685
G1 X159.881 Y136.483 E335.74959
G1 X160.381 Y135.865 E335.81939
G1 X160.843 Y135.182 E335.89179
G1 X161.254 Y134.433 E335.96681
G1 X161.583 Y133.684 E336.03864
G1 X161.6 Y133.633 E336.04336
G1 X161.6 Y86.391 E340.19153
G1 X161.404 Y85.885 E340.23918
G1 X161.043 Y85.161 E340.31021
G1 X160.614 Y84.462 E340.38223
G1 X160.128 Y83.81 E340.45363
G1 X160 Y83.667 E340.47048
G1 X160 Y136.336 E345.09518
G0 F600 X160 Y136.336 Z0.54
G0 F7200 X161.451 Y85.084
;TIME_ELAPSED:200.440242

;LAYER:-3
;TYPE:SUPPORT
G1 F1800 X157.43 Y81.062 E345.66266
G1 X157.882 Y81.31 E345.7141
G1 X158.609 Y81.801 E345.80163
G1 X159.248 Y82.318 E345.88365
G1 X159.788 Y82.829 E345.95783
G1 X160.439 Y83.557 E346.05528
G1 X160.947 Y84.24 E346.14021
G1 X161.39 Y84.96 E346.22456
G1 X161.772 Y85.727 E346.31006
G1 X162.091 Y86.549 E346.39804
G1 X162.329 Y87.376 E346.48391
G1 X155.137 Y80.183 E347.49885
G1 X154.697 Y80.078 E347.54398
G1 X153.835 Y79.951 E347.63092
G1 X153.472 Y79.933 E347.66719
G1 X162.578 Y89.039 E348.95214
G1 X162.6 Y89.647 E349.01285
G1 X162.599 Y90.474 E349.09537
G1 X152.024 Y79.899 E350.58761
G1 X150.61 Y79.899 E350.7287
G1 X162.599 Y91.888 E352.42048
G1 X162.599 Y93.302 E352.56157
G1 X149.195 Y79.899 E354.45295
G1 X147.781 Y79.899 E354.59404
G1 X162.599 Y94.716 E356.68495
G1 X162.599 Y96.131 E356.82614
G1 X146.367 Y79.899 E359.11665
G1 X144.953 Y79.899 E359.25774
G1 X162.599 Y97.545 E361.74778
G1 X162.599 Y98.959 E361.88887
G1 X143.539 Y79.899 E364.57844
G1 X142.124 Y79.899 E364.71963
G1 X162.598 Y100.373 E367.60873
G1 X162.598 Y101.787 E367.74982
G1 X140.71 Y79.899 E370.83846
G1 X139.296 Y79.899 E370.97954
G1 X162.598 Y103.201 E374.26771
G1 X162.598 Y104.615 E374.4088
G1 X137.882 Y79.899 E377.89649
G1 X136.468 Y79.899 E378.03758
G1 X162.598 Y106.029 E381.72481
G1 X162.598 Y107.444 E381.866
G1 X135.053 Y79.899 E385.75289
G1 X133.639 Y79.899 E385.89398
G1 X162.598 Y108.858 E389.98041
G1 X162.597 Y110.271 E390.1214
G1 X132.225 Y79.899 E394.40722
G1 X130.811 Y79.899 E394.54831
G1 X162.597 Y111.686 E399.03373
G1 X162.597 Y113.1 E399.17482
G1 X129.397 Y79.899 E403.85977
G1 X127.982 Y79.899 E404.00096
G1 X162.597 Y114.514 E408.88551
G1 X162.597 Y115.928 E409.0266
G1 X126.568 Y79.899 E414.11068
G1 X125.154 Y79.899 E414.25177
G1 X162.597 Y117.342 E419.53538
G1 X162.597 Y118.757 E419.67657
G1 X123.74 Y79.899 E425.15978
G1 X122.325 Y79.899 E425.30097
G1 X162.597 Y120.171 E430.98378
G1 X162.597 Y121.584 E431.12477
G1 X120.911 Y79.899 E437.00705
G1 X119.497 Y79.899 E437.14814
G1 X162.597 Y122.999 E443.23001
G1 X162.597 Y124.413 E443.3711
G1 X118.083 Y79.899 E449.65251
G1 X116.669 Y79.899 E449.7936
G1 X162.597 Y125.827 E456.27454
G1 X162.597 Y127.241 E456.41563
G1 X115.254 Y79.899 E463.09616
G1 X113.84 Y79.899 E463.23725
G1 X162.597 Y128.655 E470.11732
G1 X162.597 Y130.07 E470.25851
G1 X112.426 Y79.899 E477.33818
G1 X111.012 Y79.899 E477.47927
G1 X162.536 Y131.423 E484.74987
G1 X162.422 Y132.195 E484.82773
G1 X162.319 Y132.621 E484.87146
G1 X109.598 Y79.899 E492.31104
G1 X108.183 Y79.899 E492.45223
G1 X161.994 Y133.71 E500.04554
G1 X161.955 Y133.832 E500.05832
G1 X161.61 Y134.617 E500.14388
G1 X161.566 Y134.696 E500.1529
G1 X106.769 Y79.899 E507.88535
G1 X105.355 Y79.899 E508.02644
G1 X161.047 Y135.591 E515.88518
G1 X160.699 Y136.109 E515.94745
G1 X160.453 Y136.412 E515.98639
G1 X103.941 Y79.899 E523.96092
G1 X102.526 Y79.899 E524.10211
G1 X159.789 Y137.162 E532.18253
G1 X159.672 Y137.287 E532.19962
G1 X159.052 Y137.839 E532.28245
G1 X101.112 Y79.899 E540.45841
G1 X99.698 Y79.899 E540.5995
G1 X158.25 Y138.451 E548.86182
G1 X157.546 Y138.887 E548.94444
G1 X157.362 Y138.977 E548.96488
G1 X98.284 Y79.899 E557.30143
G1 X96.87 Y79.899 E557.44252
G1 X156.39 Y139.419 E565.84143
G1 X155.955 Y139.59 E565.88807
G1 X155.327 Y139.77 E565.95325
G1 X95.455 Y79.899 E574.40177
G1 X94.041 Y79.899 E574.54286
G1 X154.147 Y140.005 E583.02447
G1 X153.466 Y140.079 E583.09282
G1 X152.846 Y140.1 E583.15472
G1 X152.827 Y140.099 E583.15661
G1 X92.627 Y79.899 E591.65148
G1 X91.213 Y79.899 E591.79257
G1 X151.413 Y140.099 E600.28744
G1 X149.999 Y140.099 E600.42853
G1 X89.799 Y79.899 E608.9234
G1 X88.384 Y79.899 E609.06459
G1 X148.585 Y140.099 E617.55954
G1 X147.17 Y140.099 E617.70072
G1 X86.97 Y79.899 E626.1956
G1 X85.556 Y79.899 E626.33668
G1 X145.756 Y140.099 E634.83156
G1 X144.342 Y140.099 E634.97265
G1 X84.142 Y79.899 E643.46752
G1 X82.727 Y79.899 E643.60871
G1 X142.928 Y140.099 E652.10365
G1 X141.513 Y140.099 E652.24484
G1 X81.313 Y79.899 E660.73971
G1 X79.899 Y79.899 E660.8808
G1 X140.099 Y140.099 E669.37567
G1 X138.685 Y140.099 E669.51676
G1 X78.485 Y79.899 E678.01163
G1 X77.071 Y79.899 E678.15272
G1 X137.271 Y140.099 E686.64759
G1 X135.857 Y140.099 E686.78868
G1 X75.656 Y79.899 E695.28362
G1 X74.242 Y79.899 E695.42471
G1 X134.442 Y140.099 E703.91958
G1 X133.028 Y140.099 E704.06067
G1 X72.828 Y79.899 E712.55554
G1 X71.414 Y79.899 E712.69663
G1 X131.614 Y140.099 E721.1915
G1 X130.2 Y140.099 E721.33259
G1 X70 Y79.899 E729.82746
G1 X68.585 Y79.899 E729.96865
G1 X128.786 Y140.099 E738.46359
G1 X127.371 Y140.099 E738.60478
G1 X67.171 Y79.899 E747.09965
G1 X67.154 Y79.9 E747.10135
G1 X66.534 Y79.921 E747.16325
G1 X65.851 Y79.993 E747.23178
G1 X125.957 Y140.099 E755.71338
G1 X124.543 Y140.099 E755.85447
G1 X64.671 Y80.228 E764.30299
G1 X64.045 Y80.41 E764.36804
G1 X63.609 Y80.579 E764.41469
G1 X123.129 Y140.099 E772.81361
G1 X121.714 Y140.099 E772.9548
G1 X62.636 Y81.021 E781.29134
G1 X62.454 Y81.113 E781.31169
G1 X61.748 Y81.547 E781.39438
G1 X120.3 Y140.099 E789.6567
G1 X118.886 Y140.099 E789.79779
G1 X60.946 Y82.159 E797.97375
G1 X60.329 Y82.712 E798.05642
G1 X60.209 Y82.836 E798.07364
G1 X117.472 Y140.099 E806.15407
G1 X116.058 Y140.099 E806.29516
G1 X59.545 Y83.587 E814.26968
G1 X59.301 Y83.891 E814.30858
G1 X58.951 Y84.407 E814.37079
G1 X114.643 Y140.099 E822.22954
G1 X113.229 Y140.099 E822.37063
G1 X58.432 Y85.302 E830.10308
G1 X58.39 Y85.383 E830.11218
G1 X58.045 Y86.168 E830.19774
G1 X58.003 Y86.288 E830.21042
G1 X111.815 Y140.099 E837.80381
G1 X110.401 Y140.099 E837.9449
G1 X57.678 Y87.377 E845.38461
G1 X57.578 Y87.803 E845.42827
G1 X57.463 Y88.575 E845.50615
G1 X108.987 Y140.099 E852.77675
G1 X107.572 Y140.099 E852.91794
G1 X57.4 Y89.927 E859.99775
G1 X57.4 Y91.341 E860.13884
G1 X106.158 Y140.099 E867.01912
G1 X104.744 Y140.099 E867.16021
G1 X57.401 Y92.756 E873.84082
G1 X57.402 Y94.171 E873.98201
G1 X103.33 Y140.099 E880.46294
G1 X101.916 Y140.099 E880.60403
G1 X57.402 Y95.585 E886.88544
G1 X57.402 Y97 E887.02663
G1 X100.501 Y140.099 E893.10836
G1 X99.087 Y140.099 E893.24945
G1 X57.403 Y98.415 E899.13152
G1 X57.404 Y99.83 E899.2727
G1 X97.673 Y140.099 E904.9551
G1 X96.259 Y140.099 E905.09619
G1 X57.405 Y101.245 E910.5789
G1 X57.405 Y102.66 E910.72009
G1 X94.844 Y140.099 E916.00314
G1 X93.43 Y140.099 E916.14423
G1 X57.406 Y104.075 E921.22761
G1 X57.407 Y105.49 E921.3688
G1 X92.016 Y140.099 E926.2525
G1 X90.602 Y140.099 E926.39359
G1 X57.407 Y106.905 E931.07769
G1 X57.408 Y108.32 E931.21888
G1 X89.188 Y140.099 E935.70331
G1 X87.773 Y140.099 E935.8445
G1 X57.409 Y109.735 E940.12919
G1 X57.409 Y111.15 E940.27038
G1 X86.359 Y140.099 E944.35547
G1 X84.945 Y140.099 E944.49656
G1 X57.41 Y112.565 E948.38197
G1 X57.411 Y113.979 E948.52306
G1 X83.531 Y140.099 E952.20888
G1 X82.117 Y140.099 E952.34997
G1 X57.412 Y115.394 E955.83611
G1 X57.412 Y116.809 E955.9773
G1 X80.702 Y140.099 E959.26377
G1 X79.288 Y140.099 E959.40486
G1 X57.413 Y118.224 E962.49166
G1 X57.414 Y119.639 E962.63285
G1 X77.874 Y140.099 E965.51997
G1 X76.46 Y140.099 E965.66106
G1 X57.414 Y121.054 E968.34859
G1 X57.415 Y122.469 E968.48978
G1 X75.045 Y140.099 E970.97756
G1 X73.631 Y140.099 E971.11865
G1 X57.416 Y123.884 E973.40676
G1 X57.417 Y125.299 E973.54795
G1 X72.217 Y140.099 E975.63639
G1 X70.803 Y140.099 E975.77748
G1 X57.417 Y126.714 E977.66632
G1 X57.418 Y128.129 E977.80751
G1 X69.389 Y140.099 E979.49668
G1 X67.974 Y140.099 E979.63787
G1 X57.419 Y129.544 E981.12729
G1 X57.42 Y130.955 E981.26808
G0 F7200 X57.419 Y130.959
G1 F1800 X66.526 Y140.065 E982.55311
G1 X66.165 Y140.049 E982.58916
G1 X65.303 Y139.922 E982.6761
G1 X64.862 Y139.815 E982.72138
G1 X57.669 Y132.622 E983.73639
G1 X57.909 Y133.451 E983.82251
G1 X58.228 Y134.273 E983.91048
G1 X58.61 Y135.04 E983.99598
G1 X59.053 Y135.76 E984.08033
G1 X59.561 Y136.443 E984.16527
G1 X60.218 Y137.177 E984.26356
G1 X60.752 Y137.682 E984.3369
G1 X61.391 Y138.199 E984.41891
G1 X62.118 Y138.69 E984.50645
G1 X62.57 Y138.937 E984.55784
G1 X58.547 Y134.915 E985.12546
G0 F600 X58.547 Y134.915 Z0.74
G0 F7200 X64.769 Y140
