;FLAVOR:Marlin
;TIME:3137
;Filament used:1.64747m
;Layer height: 0.2
;MINX:57.203
;MINY:90.177
;MINZ:0.24
;MAXX:162.797
;MAXY:128.8
;MAXZ:8.89
                               
;Creality Print GCode Generated by CXEngine:NO_MAGE_VERSION_GIT_HEAD_BRANCH
;CXEngine Release Time:2022-09-30 09:53:04
;Gcode Generated Time:2023-06-25 17:23:44
;----------Machine Config--------------
;Machine Name:Ender-3 V2
;Machine Height:250
;Machine Width:220
;Machine Depth:220
;Material name:PLA
;Number of Extruders:1
;ExtruderParams[0] Nozzle Diameter1000
;----------Profile Config---------------
;Engine Version:275f99b
;Engine Release Time:2022-09-30 09:42:18
;Layer Height:0.2
;Wall Thickness:0.8
;Top/Bottom Thickness:1
;Out Wall Line Width:0.4
;Inner Wall Line Width:0.4
;Inital Layer Height:200
;Wall Line Count:2
;Infill Line Distance:4
;Infill Pattern:grid
;Infill Sparse Density:20
;Infill Wipe Distance:0
;Print Temperature:200
;Bed Temperature:60
;Support Enable:true
;Support Density:0
;Support Angle:60
;Adhesion Type:simpleraft
;machine is belt:false
;machine belt offset:10
;machine belt offset Y:0
;Raft Base Line Spacing:1.6
;Wait Heatup Sync:true
;----------Shell Config----------------
;Outer Wall Wipe Distance:200
;Outer Inset First:false
;Infill Before Walls:false
;Infill Overlap:0.16
;Fill Gaps Between Walls:everywhere
;Minimum Infill Area:1
;Top Surface Skin Layer:0
;Top Layers:3
;Z Seam Alignment:sharpest_corner
;Seam Corner Preference:z_seam_corner_inner
;Z Seam X:110
;Z Seam Y:110
;Horizontal Expansion:0
;Top/Bottom Pattern:zigzag
;Ironing Pattern:zigzag
;Vase Model:false
;----------Support Config----------------
;Support Type:everywhere
;Support Pattern:zigzag
;Support Infill Layer Thickness:0.2
;Minimum Support Area:5
;Enable Support Roof:false
;Support Roof Thickness:0.8
;Support Roof Pattern:lines
;Connect Support Lines:0
;Connect Support ZigZags:1
;Minimum Support X/Y Distance:0.2
;Support Line Distance:0
; ---------PrintSpeed & Travel----------
;Enable Print Cool:true
;Avoid Printed Parts Traveling:true
;Enable Retraction:true
;Retraction Distance:8
;Retraction Speed:100
;Retraction Prime Speed:100
;Maximum Retraction Count:100
;Minimum Extrusion Distance Window:1
;Z Hop When Retracted:false
;Z Hop Height:0.2
;Retract Before Outer Wall:true
;Print Speed:50
;Infill Speed:50

;Prime Tower Speed:50
;Travel Speed:120
;Initial Layer Speed:25
;Skirt/Brim Speed:25
;Combing Mode:infill
; --------SpecialModel&Mesh Fixes--------
;Union Overlapping Volum:true
;Remove All Holes:false
;Maximum Travel Resolution:0.6
;Maximum Deviation:0.05
;Maximum Model Angle:0.872665
;IS Mold Print:false
;Make Overhang Printable:false
;Enable Coasting:false
;Coasting Volumes:0.06
;Coasting Speed:0.9
;Raft AirGap:0.25
;Layer0 ZOverLap:0.13
;---------------------End of Head--------------------------
M140 S60
M105
M104 S200
M105
M109 S200
M105
M190 S60
M82 ;absolute extrusion mode
M220 S100 ;Reset Feedrate
M221 S100 ;Reset Flowrate

G28 ;Home

G92 E0 ;Reset Extruder
G1 Z2.0 F3000 ;Move Z Axis up
G1 X10.1 Y20 Z0.28 F5000.0 ;Move to start position
G1 X10.1 Y145.0 Z0.28 F1500.0 E15 ;Draw the first line
G1 X10.4 Y145.0 Z0.28 F5000.0 ;Move to side a little
G1 X10.4 Y20 Z0.28 F1500.0 E30 ;Draw the second line
G92 E0  ;Reset Extruder
G1 E-1.0000 F1800 ;Retract a bit
G1 Z2.0 F3000 ;Move Z Axis up
G1 E0.0000 F1800 

G92 E0
G92 E0
G1 F6000 E-8

;LAYER_COUNT:40

;LAYER:-4
M107
G0 F7200 X60.8 Y94.328 Z0.24
;TYPE:SUPPORT-INTERFACE
G1 F6000 E0
G1 F1200 X60.8 Y109.676 E1.34766
G1 X60.503 Y109.395 E1.38356
G1 X59.872 Y108.69 E1.46664
G1 X59.386 Y108.038 E1.53804
G1 X59.2 Y107.734 E1.56933
G1 X59.2 Y96.254 E2.57736
G1 X59.619 Y95.635 E2.64299
G1 X60.119 Y95.017 E2.71279
G1 X60.611 Y94.497 E2.77565
G1 X61.31 Y93.872 E2.85798
G1 X61.962 Y93.386 E2.92939
G1 X62.4 Y93.116 E2.97457
G1 X62.4 Y111.007 E4.54552
G1 X62.701 Y111.27 E4.58061
G1 X63.179 Y111.843 E4.64614
G1 X63.575 Y112.461 E4.71059
G1 X63.888 Y113.124 E4.77496
G1 X64 Y113.464 E4.8064
G1 X64 Y92.357 E6.65973
G1 X64.178 Y92.288 E6.6765
G1 X64.96 Y92.062 E6.74797
G1 X65.6 Y91.937 E6.80523
G1 X65.6 Y123.572 E9.583
G1 X65.886 Y124.038 E9.631
G1 X66.372 Y124.69 E9.70241
G1 X67.003 Y125.395 E9.78549
G1 X67.2 Y125.581 E9.80928
G1 X67.2 Y91.819 E12.77381
G1 X68.8 Y91.815 E12.9143
G1 X68.8 Y126.83 E15.98885
G1 X68.818 Y126.843 E15.9908
G1 X69.563 Y127.252 E16.06543
G1 X70.308 Y127.579 E16.13687
G1 X70.4 Y127.609 E16.14537
G1 X70.4 Y91.811 E19.28867
G1 X72 Y91.808 E19.42916
G1 X72 Y128.046 E22.6111
G1 X72.701 Y128.15 E22.67333
G1 X73.6 Y128.194 E22.75236
G1 X73.6 Y91.804 E25.94765
G1 X75.2 Y91.8 E26.08814
G1 X75.2 Y128.2 E29.28431
G1 X76.8 Y128.2 E29.4248
G1 X76.8 Y91.902 E32.61201
G1 X77.274 Y91.972 E32.65408
G1 X78.069 Y92.162 E32.72585
G1 X78.4 Y92.273 E32.75651
G1 X78.4 Y128.2 E35.91114
G1 X80 Y128.2 E36.05163
G1 X80 Y92.975 E39.14463
G1 X80.332 Y93.157 E39.17787
G1 X81.015 Y93.619 E39.25027
G1 X81.6 Y94.093 E39.31639
G1 X81.6 Y128.2 E42.31121
G1 X83.2 Y128.2 E42.4517
G1 X83.2 Y95.877 E45.28988
G1 X83.264 Y95.962 E45.29922
G1 X83.693 Y96.661 E45.37124
G1 X84.054 Y97.385 E45.44227
G1 X84.363 Y98.182 E45.51733
G1 X84.589 Y98.966 E45.58898
G1 X84.746 Y99.773 E45.66116
G1 X84.8 Y100.282 E45.70611
G1 X84.8 Y128.2 E48.1575
G1 X86.4 Y128.2 E48.29799
G1 X86.4 Y105.944 E50.25222
G1 X86.441 Y105.993 E50.25783
G1 X86.978 Y106.491 E50.32213
G1 X87.576 Y106.92 E50.38676
G1 X88 Y107.15 E50.42911
G1 X88 Y128.2 E52.27744
G1 X89.6 Y128.2 E52.41793
G1 X89.6 Y107.706 E54.21745
G1 X89.627 Y107.712 E54.21987
G1 X90.614 Y107.8 E54.30688
G1 X91.2 Y107.8 E54.35834
G1 X91.2 Y128.2 E56.1496
G1 X92.8 Y128.2 E56.29009
G1 X92.8 Y107.8 E58.08134
G1 X94.4 Y107.8 E58.22183
G1 X94.4 Y128.2 E60.01309
G1 X96 Y128.2 E60.15358
G1 X96 Y107.8 E61.94484
G1 X97.6 Y107.8 E62.08533
G1 X97.6 Y128.2 E63.87659
G1 X99.2 Y128.2 E64.01708
G1 X99.2 Y107.8 E65.80834
G1 X100.8 Y107.8 E65.94883
G1 X100.8 Y128.2 E67.74009
G1 X102.4 Y128.2 E67.88058
G1 X102.4 Y107.8 E69.67184
G1 X104 Y107.8 E69.81233
G1 X104 Y128.2 E71.60358
G1 X105.6 Y128.2 E71.74408
G1 X105.6 Y107.8 E73.53533
G1 X107.2 Y107.8 E73.67582
G1 X107.2 Y128.2 E75.46708
G1 X108.8 Y128.2 E75.60757
G1 X108.8 Y107.8 E77.39883
G1 X110.4 Y107.8 E77.53932
G1 X110.4 Y128.2 E79.33058
G1 X112 Y128.2 E79.47107
G1 X112 Y107.8 E81.26233
G1 X113.6 Y107.8 E81.40282
G1 X113.6 Y128.2 E83.19408
G1 X115.2 Y128.2 E83.33457
G1 X115.2 Y107.8 E85.12583
G1 X116.8 Y107.8 E85.26632
G1 X116.8 Y128.2 E87.05757
G1 X118.4 Y128.2 E87.19806
G1 X118.4 Y107.8 E88.98932
G1 X120 Y107.8 E89.12981
G1 X120 Y128.2 E90.92107
G1 X121.6 Y128.2 E91.06156
G1 X121.6 Y107.8 E92.85282
G1 X123.2 Y107.8 E92.99331
G1 X123.2 Y128.2 E94.78457
G1 X124.8 Y128.2 E94.92506
G1 X124.8 Y107.8 E96.71632
G1 X126.4 Y107.8 E96.85681
G1 X126.4 Y128.2 E98.64807
G1 X128 Y128.2 E98.78856
G1 X128 Y107.8 E100.57981
G1 X129.376 Y107.8 E100.70064
G1 X129.6 Y107.786 E100.72034
G1 X129.6 Y128.2 E102.51283
G1 X131.2 Y128.2 E102.65332
G1 X131.2 Y107.486 E104.47215
G1 X131.499 Y107.388 E104.49978
G1 X132.162 Y107.075 E104.56416
G1 X132.78 Y106.679 E104.62861
G1 X132.8 Y106.662 E104.63091
G1 X132.8 Y128.2 E106.52209
G1 X134.4 Y128.2 E106.66258
G1 X134.4 Y104.833 E108.71436
G1 X134.618 Y104.43 E108.7546
G1 X134.882 Y103.747 E108.81889
G1 X135.062 Y103.023 E108.8844
G1 X135.15 Y102.04 E108.97106
G1 X135.185 Y100.379 E109.11694
G1 X135.321 Y99.38 E109.20547
G1 X135.51 Y98.585 E109.27722
G1 X135.767 Y97.816 E109.34841
G1 X136 Y97.285 E109.39933
G1 X136 Y128.2 E112.11388
G1 X137.6 Y128.2 E112.25437
G1 X137.6 Y94.885 E115.17965
G1 X138.371 Y93.972 E115.28458
G1 X139.114 Y93.252 E115.37542
G1 X139.2 Y93.183 E115.38511
G1 X139.2 Y128.2 E118.45983
G1 X140.8 Y128.2 E118.60033
G1 X140.8 Y92.101 E121.77006
G1 X141.167 Y91.906 E121.80655
G1 X141.927 Y91.582 E121.8791
G1 X142.4 Y91.428 E121.92278
G1 X142.4 Y128.2 E125.15161
G1 X144 Y128.2 E125.2921
G1 X144 Y91.053 E128.55385
G1 X144.41 Y90.965 E128.59067
G1 X145.405 Y90.82 E128.67897
G1 X145.6 Y90.809 E128.69611
G1 X145.6 Y128.2 E131.9793
G1 X146.332 Y128.2 E132.04357
G1 X146.939 Y128.179 E132.0969
G1 X147.2 Y128.152 E132.11994
G1 X147.2 Y90.83 E135.39707
G1 X147.863 Y90.916 E135.45577
G1 X148.652 Y91.089 E135.5267
G1 X148.8 Y91.138 E135.54038
G1 X148.8 Y127.863 E138.76509
G1 X149.322 Y127.712 E138.8128
G1 X150.115 Y127.404 E138.8875
G1 X150.4 Y127.262 E138.91546
G1 X150.4 Y91.642 E142.04314
G1 X150.941 Y91.75 E142.09158
G1 X151.684 Y91.8 E142.15696
G1 X152 Y91.801 E142.18471
G1 X152 Y126.269 E145.21123
G1 X152.194 Y126.124 E145.2325
G1 X152.89 Y125.502 E145.31446
G1 X153.381 Y124.983 E145.3772
G1 X153.6 Y124.713 E145.40772
G1 X153.6 Y91.839 E148.29428
G1 X153.788 Y91.849 E148.31081
G1 X154.624 Y91.972 E148.38501
G1 X155.2 Y92.11 E148.43702
G1 X155.2 Y121.833 E151.0469
G1 X155.339 Y121.416 E151.08549
G1 X155.528 Y120.622 E151.15716
G1 X155.652 Y119.781 E151.23181
G1 X155.697 Y118.93 E151.30663
G1 X155.717 Y114.81 E151.6684
G1 X155.821 Y114.086 E151.73263
G1 X156.015 Y113.378 E151.79708
G1 X156.299 Y112.701 E151.86155
G1 X156.664 Y112.067 E151.92578
G1 X156.8 Y111.888 E151.94552
G1 X156.8 Y92.688 E153.63141
G1 X156.933 Y92.746 E153.64415
G1 X157.682 Y93.157 E153.71917
G1 X158.365 Y93.619 E153.79158
G1 X158.4 Y93.648 E153.79557
G1 X158.4 Y110.354 E155.26247
G1 X158.684 Y110.134 E155.29401
G1 X159.39 Y109.502 E155.37721
G1 X159.881 Y108.983 E155.43995
G1 X160.381 Y108.365 E155.50975
G1 X160.843 Y107.682 E155.58215
G1 X161.254 Y106.933 E155.65717
G1 X161.583 Y106.184 E155.729
G1 X161.6 Y106.133 E155.73372
G1 X161.6 Y97.891 E156.45742
G1 X161.404 Y97.385 E156.50507
G1 X161.043 Y96.661 E156.57611
G1 X160.614 Y95.962 E156.64812
G1 X160.128 Y95.31 E156.71953
G1 X160 Y95.167 E156.73638
G1 X160 Y108.836 E157.93661
G0 F600 X160 Y108.836 Z0.47
G0 F7200 X161.19 Y96.136
;TIME_ELAPSED:96.754776

;LAYER:-3
;TYPE:SUPPORT
G1 F1800 X157.843 Y92.79 E158.29865
G1 X157.882 Y92.81 E158.302
G1 X158.609 Y93.301 E158.36911
G1 X159.248 Y93.818 E158.43199
G1 X159.788 Y94.329 E158.48886
G1 X160.439 Y95.057 E158.56357
G1 X160.947 Y95.74 E158.62869
G1 X161.39 Y96.46 E158.69336
G1 X161.772 Y97.227 E158.75891
G1 X162.091 Y98.049 E158.82636
G1 X162.253 Y98.613 E158.87125
G1 X155.381 Y91.741 E159.6147
G1 X154.697 Y91.578 E159.66849
G1 X153.835 Y91.451 E159.73514
G1 X153.667 Y91.442 E159.74801
G1 X162.557 Y100.332 E160.70977
G1 X162.579 Y100.529 E160.72494
G1 X162.587 Y101.776 E160.82033
G1 X152.212 Y91.401 E161.94275
G1 X151.698 Y91.4 E161.98207
G1 X150.994 Y91.353 E162.03605
G1 X150.689 Y91.292 E162.05984
G1 X162.583 Y103.186 E163.34659
G1 X162.55 Y103.828 E163.39577
G1 X162.454 Y104.472 E163.44558
G1 X148.665 Y90.682 E164.93739
G1 X147.933 Y90.521 E164.99473
G1 X147.082 Y90.411 E165.06037
G1 X146.975 Y90.407 E165.06856
G1 X162.191 Y105.622 E166.71465
G1 X161.955 Y106.332 E166.77189
G1 X161.811 Y106.657 E166.79908
G1 X145.565 Y90.411 E168.55665
G1 X145.358 Y90.422 E168.57251
G1 X144.343 Y90.57 E168.65098
G1 X144.316 Y90.576 E168.65309
G1 X161.342 Y107.602 E170.49505
G1 X161.19 Y107.882 E170.51942
G1 X160.793 Y108.468 E170.57357
G1 X143.151 Y90.825 E172.48222
G1 X142.589 Y90.947 E172.52621
G1 X142.037 Y91.126 E172.57061
G1 X160.17 Y109.259 E174.53232
G1 X159.672 Y109.787 E174.58785
G1 X159.466 Y109.969 E174.60887
G1 X141.028 Y91.53 E176.60364
G1 X140.996 Y91.544 E176.60631
G1 X140.24 Y91.947 E176.67185
G1 X140.113 Y92.029 E176.68342
G1 X158.705 Y110.621 E178.69479
G1 X157.908 Y111.239 E178.77194
G1 X139.278 Y92.609 E180.78743
G1 X138.847 Y92.953 E180.82961
G1 X138.522 Y93.268 E180.86423
G1 X157.232 Y111.978 E182.88837
G1 X156.998 Y112.288 E182.91809
G1 X156.68 Y112.84 E182.96682
G1 X137.831 Y93.99 E185.00605
G1 X137.183 Y94.757 E185.08286
G1 X156.295 Y113.868 E187.15044
G1 X156.213 Y114.168 E187.17423
G1 X156.117 Y114.839 E187.22608
G1 X156.115 Y115.102 E187.2462
G1 X136.549 Y95.537 E189.3629
G1 X136.16 Y96.118 E189.41638
G1 X136.002 Y96.404 E189.44138
G1 X156.107 Y116.509 E191.61644
G1 X156.1 Y117.917 E191.72415
G1 X135.533 Y97.35 E193.94919
G1 X135.395 Y97.668 E193.97571
G1 X135.154 Y98.385 E194.03357
G1 X156.076 Y119.307 E196.29702
G1 X156.05 Y119.828 E196.33692
G1 X155.938 Y120.582 E196.39523
G1 X134.894 Y99.539 E198.67182
G1 X134.785 Y100.351 E198.7345
G1 X134.773 Y100.832 E198.77131
G1 X155.659 Y121.718 E201.03086
G1 X155.455 Y122.332 E201.08035
G1 X155.272 Y122.745 E201.11491
G1 X134.732 Y102.205 E203.33703
G1 X134.666 Y102.957 E203.39477
G1 X134.546 Y103.434 E203.4324
G1 X154.798 Y123.685 E205.62331
G1 X154.69 Y123.882 E205.64049
G1 X154.243 Y124.544 E205.7016
G1 X134.15 Y104.451 E207.87536
G1 X133.93 Y104.862 E207.91102
G1 X133.601 Y105.317 E207.95397
G1 X153.609 Y125.324 E210.11849
G1 X153.172 Y125.787 E210.16719
G1 X152.899 Y126.029 E210.1951
G1 X132.914 Y106.044 E212.35717
G1 X132.543 Y106.356 E212.39426
G1 X132.097 Y106.641 E212.43475
G1 X152.127 Y126.671 E214.60169
G1 X151.76 Y126.947 E214.63682
G1 X151.281 Y127.24 E214.67977
G1 X131.13 Y107.088 E216.85986
G1 X130.702 Y107.229 E216.89433
G1 X130.031 Y107.358 E216.9466
G1 X129.988 Y107.36 E216.9499
G1 X150.357 Y127.729 E219.15352
G1 X150.273 Y127.772 E219.16073
G1 X149.455 Y128.09 E219.22787
G1 X149.336 Y128.123 E219.23732
G1 X128.612 Y107.399 E221.47934
G1 X127.198 Y107.399 E221.58751
G1 X148.208 Y128.409 E223.86048
G1 X147.787 Y128.492 E223.8933
G1 X146.966 Y128.579 E223.95646
G0 F7200 X146.963 Y128.578
G1 F1800 X125.784 Y107.399 E226.24771
G1 X124.37 Y107.399 E226.35588
G1 X145.569 Y128.599 E228.64935
G1 X144.155 Y128.599 E228.75751
G1 X122.955 Y107.399 E231.05104
G1 X121.541 Y107.399 E231.1592
G1 X142.741 Y128.599 E233.45272
G1 X141.327 Y128.599 E233.56089
G1 X120.127 Y107.399 E235.85441
G1 X118.713 Y107.399 E235.96258
G1 X139.913 Y128.599 E238.2561
G1 X138.498 Y128.599 E238.36435
G1 X117.299 Y107.399 E240.65782
G1 X115.884 Y107.399 E240.76606
G1 X137.084 Y128.599 E243.05958
G1 X135.67 Y128.599 E243.16775
G1 X114.47 Y107.399 E245.46127
G1 X113.056 Y107.399 E245.56944
G1 X134.256 Y128.599 E247.86296
G1 X132.842 Y128.599 E247.97113
G1 X111.642 Y107.399 E250.26465
G1 X110.228 Y107.399 E250.37282
G1 X131.427 Y128.599 E252.66629
G1 X130.013 Y128.599 E252.77445
G1 X108.813 Y107.399 E255.06798
G1 X107.399 Y107.399 E255.17614
G1 X128.599 Y128.599 E257.46967
G1 X127.185 Y128.599 E257.57783
G1 X105.985 Y107.399 E259.87136
G1 X104.571 Y107.399 E259.97952
G1 X125.77 Y128.599 E262.27299
G1 X124.356 Y128.599 E262.38116
G1 X103.156 Y107.399 E264.67468
G1 X101.742 Y107.399 E264.78285
G1 X122.942 Y128.599 E267.07637
G1 X121.528 Y128.599 E267.18454
G1 X100.328 Y107.399 E269.47806
G1 X98.914 Y107.399 E269.58623
G1 X120.114 Y128.599 E271.87975
G1 X118.699 Y128.599 E271.98799
G1 X97.5 Y107.399 E274.28146
G1 X96.085 Y107.399 E274.38971
G1 X117.285 Y128.599 E276.68323
G1 X115.871 Y128.599 E276.7914
G1 X94.671 Y107.399 E279.08492
G1 X93.257 Y107.399 E279.19309
G1 X114.457 Y128.599 E281.48661
G1 X113.043 Y128.599 E281.59477
G1 X91.843 Y107.399 E283.8883
G1 X90.632 Y107.4 E283.98094
G1 X89.693 Y107.316 E284.05305
G1 X89.024 Y107.15 E284.10578
G1 X88.601 Y106.985 E284.14052
G1 X110.214 Y128.599 E286.47877
G1 X111.628 Y128.599 E286.58694
G1 X90.408 Y107.379 E288.88263
G0 F7200 X88.031 Y106.188
G0 X87.069 Y105.401
G0 X86.665 Y104.918
G0 X86.33 Y104.394
G0 X86.062 Y103.83
G0 X85.039 Y99.181
G1 F1800 X77.462 Y91.604 E289.70234
G1 X78.176 Y91.776 E289.75853
G1 X78.982 Y92.046 E289.82355
G1 X79.579 Y92.307 E289.87339
G1 X84.346 Y97.074 E290.38911
G1 X84.422 Y97.227 E290.40218
G1 X84.741 Y98.049 E290.46963
G1 X84.98 Y98.878 E290.53563
G1 X85.142 Y99.713 E290.6007
G1 X85.229 Y100.529 E290.66347
G1 X85.233 Y100.789 E290.68337
G1 X75.863 Y91.419 E291.69706
G1 X75.457 Y91.4 E291.72815
G1 X74.431 Y91.402 E291.80664
G1 X85.263 Y102.234 E292.9785
G1 X85.292 Y102.681 E293.01276
G1 X85.421 Y103.352 E293.06504
G1 X85.634 Y104.001 E293.11729
G1 X85.651 Y104.035 E293.1202
G1 X73.02 Y91.405 E294.48663
G1 X71.609 Y91.408 E294.59457
G1 X108.8 Y128.599 E298.61807
G1 X107.386 Y128.599 E298.72624
G1 X70.198 Y91.411 E302.74942
G1 X68.788 Y91.415 E302.85729
G1 X105.971 Y128.599 E306.87998
G1 X104.557 Y128.599 E306.98815
