;FLAVOR:Marlin
;TIME:6763
;Filament used:5.77077m
;Layer height: 0.2
;MINX:24.699
;MINY:85.699
;MINZ:0.24
;MAXX:195.3
;MAXY:134.3
;MAXZ:5.06
                                 
;Creality Print GCode Generated by CXEngine:NO_MAGE_VERSION_GIT_HEAD_BRANCH
;CXEngine Release Time:2022-09-30 09:53:04
;Gcode Generated Time:2023-07-02 18:38:47
;----------Machine Config--------------
;Machine Name:Ender-3 V2
;Machine Height:250
;Machine Width:220
;Machine Depth:220
;Material name:PLA
;Number of Extruders:1
;ExtruderParams[0] Nozzle Diameter1000
;----------Profile Config---------------
;Engine Version:275f99b
;Engine Release Time:2022-09-30 09:42:18
;Layer Height:0.2
;Wall Thickness:0.8
;Top/Bottom Thickness:1
;Out Wall Line Width:0.4
;Inner Wall Line Width:0.4
;Inital Layer Height:200
;Wall Line Count:2
;Infill Line Distance:4
;Infill Pattern:grid
;Infill Sparse Density:20
;Infill Wipe Distance:0
;Print Temperature:230
;Bed Temperature:60
;Support Enable:true
;Support Density:0
;Support Angle:60
;Adhesion Type:simpleraft
;machine is belt:false
;machine belt offset:10
;machine belt offset Y:0
;Raft Base Line Spacing:1.6
;Wait Heatup Sync:true
;----------Shell Config----------------
;Outer Wall Wipe Distance:200
;Outer Inset First:false
;Infill Before Walls:false
;Infill Overlap:0.16
;Fill Gaps Between Walls:everywhere
;Minimum Infill Area:1
;Top Surface Skin Layer:0
;Top Layers:3
;Z Seam Alignment:sharpest_corner
;Seam Corner Preference:z_seam_corner_inner
;Z Seam X:110
;Z Seam Y:110
;Horizontal Expansion:0
;Top/Bottom Pattern:zigzag
;Ironing Pattern:zigzag
;Vase Model:false
;----------Support Config----------------
;Support Type:everywhere
;Support Pattern:zigzag
;Support Infill Layer Thickness:0.2
;Minimum Support Area:5
;Enable Support Roof:false
;Support Roof Thickness:0.8
;Support Roof Pattern:lines
;Connect Support Lines:0
;Connect Support ZigZags:1
;Minimum Support X/Y Distance:0.2
;Support Line Distance:0
; ---------PrintSpeed & Travel----------
;Enable Print Cool:true
;Avoid Printed Parts Traveling:true
;Enable Retraction:false
;Retraction Distance:8
;Retraction Speed:100
;Retraction Prime Speed:100
;Maximum Retraction Count:100
;Minimum Extrusion Distance Window:8
;Z Hop When Retracted:false
;Z Hop Height:0.2
;Retract Before Outer Wall:true
;Print Speed:50
;Infill Speed:50

;Prime Tower Speed:50
;Travel Speed:120
;Initial Layer Speed:25
;Skirt/Brim Speed:25
;Combing Mode:infill
; --------SpecialModel&Mesh Fixes--------
;Union Overlapping Volum:true
;Remove All Holes:false
;Maximum Travel Resolution:0.6
;Maximum Deviation:0.05
;Maximum Model Angle:0.872665
;IS Mold Print:false
;Make Overhang Printable:false
;Enable Coasting:false
;Coasting Volumes:0.06
;Coasting Speed:0.9
;Raft AirGap:0.25
;Layer0 ZOverLap:0.13
;---------------------End of Head--------------------------
M140 S60
M105
M104 S230
M105
M109 S230
M105
M190 S60
M82 ;absolute extrusion mode
M220 S100 ;Reset Feedrate
M221 S100 ;Reset Flowrate

G28 ;Home

G92 E0 ;Reset Extruder
G1 Z2.0 F3000 ;Move Z Axis up
G1 X10.1 Y20 Z0.28 F5000.0 ;Move to start position
G1 X10.1 Y145.0 Z0.28 F1500.0 E15 ;Draw the first line
G1 X10.4 Y145.0 Z0.28 F5000.0 ;Move to side a little
G1 X10.4 Y20 Z0.28 F1500.0 E30 ;Draw the second line
G92 E0  ;Reset Extruder
G1 E-1.0000 F1800 ;Retract a bit
G1 Z2.0 F3000 ;Move Z Axis up
G1 E0.0000 F1800 

G92 E0

;LAYER_COUNT:20

;LAYER:-4
M107
G0 F7200 X27.2 Y90.034 Z0.24
;TYPE:SUPPORT-INTERFACE
G1 F1200 X27.2 Y129.959 E3.50568
G1 X26.886 Y129.538 E3.5518
G1 X26.457 Y128.839 E3.62382
G1 X26.096 Y128.115 E3.69485
G1 X25.787 Y127.318 E3.76991
G1 X25.6 Y126.669 E3.82921
G1 X25.6 Y93.34 E6.75573
G1 X25.66 Y93.089 E6.77839
G1 X25.926 Y92.296 E6.85183
G1 X26.246 Y91.567 E6.92174
G1 X26.657 Y90.818 E6.99675
G1 X27.119 Y90.135 E7.06916
G1 X27.619 Y89.517 E7.13896
G1 X28.111 Y88.997 E7.20182
G1 X28.8 Y88.38 E7.28303
G1 X28.8 Y131.609 E11.07883
G1 X29.135 Y131.881 E11.11672
G1 X29.818 Y132.343 E11.18912
G1 X30.4 Y132.662 E11.2474
G1 X30.4 Y87.337 E15.22724
G1 X30.885 Y87.096 E15.27479
G1 X31.678 Y86.788 E15.34949
G1 X32 Y86.694 E15.37895
G1 X32 Y133.31 E19.47215
G1 X32.081 Y133.338 E19.47967
G1 X32.876 Y133.528 E19.55144
G1 X33.6 Y133.635 E19.61571
G1 X33.6 Y86.369 E23.76598
G1 X34.061 Y86.321 E23.80668
G1 X34.668 Y86.3 E23.86001
G1 X35.2 Y86.3 E23.90672
G1 X35.2 Y133.7 E28.06876
G1 X36.8 Y133.7 E28.20925
G1 X36.8 Y86.3 E32.37129
G1 X38.4 Y86.3 E32.51178
G1 X38.4 Y133.7 E36.67382
G1 X40 Y133.7 E36.81432
G1 X40 Y86.3 E40.97636
G1 X41.6 Y86.3 E41.11685
G1 X41.6 Y133.7 E45.27889
G1 X43.2 Y133.7 E45.41938
G1 X43.2 Y86.3 E49.58142
G1 X44.8 Y86.3 E49.72191
G1 X44.8 Y133.7 E53.88395
G1 X46.4 Y133.7 E54.02444
G1 X46.4 Y86.3 E58.18648
G1 X48 Y86.3 E58.32697
G1 X48 Y133.7 E62.48901
G1 X49.6 Y133.7 E62.6295
G1 X49.6 Y86.3 E66.79154
G1 X51.2 Y86.3 E66.93203
G1 X51.2 Y133.7 E71.09407
G1 X52.8 Y133.7 E71.23457
G1 X52.8 Y86.3 E75.39661
G1 X54.4 Y86.3 E75.5371
G1 X54.4 Y133.7 E79.69914
G1 X56 Y133.7 E79.83963
G1 X56 Y86.3 E84.00167
G1 X57.6 Y86.3 E84.14216
G1 X57.6 Y133.7 E88.3042
G1 X59.2 Y133.7 E88.44469
G1 X59.2 Y86.3 E92.60673
G1 X60.8 Y86.3 E92.74722
G1 X60.8 Y133.7 E96.90926
G1 X62.4 Y133.7 E97.04975
G1 X62.4 Y86.3 E101.21179
G1 X64 Y86.3 E101.35229
G1 X64 Y133.7 E105.51433
G1 X65.6 Y133.7 E105.65482
G1 X65.6 Y86.3 E109.81686
G1 X67.2 Y86.3 E109.95735
G1 X67.2 Y133.7 E114.11939
G1 X68.8 Y133.7 E114.25988
G1 X68.8 Y86.3 E118.42192
G1 X70.4 Y86.3 E118.56241
G1 X70.4 Y133.7 E122.72445
G1 X72 Y133.7 E122.86494
G1 X72 Y86.3 E127.02698
G1 X73.6 Y86.3 E127.16747
G1 X73.6 Y133.7 E131.32951
G1 X75.2 Y133.7 E131.47
G1 X75.2 Y86.3 E135.63204
G1 X76.8 Y86.3 E135.77254
G1 X76.8 Y133.7 E139.93458
G1 X78.4 Y133.7 E140.07507
G1 X78.4 Y86.3 E144.23711
G1 X80 Y86.3 E144.3776
G1 X80 Y133.7 E148.53964
G1 X81.6 Y133.7 E148.68013
G1 X81.6 Y86.3 E152.84217
G1 X83.2 Y86.3 E152.98266
G1 X83.2 Y133.7 E157.1447
G1 X84.8 Y133.7 E157.28519
G1 X84.8 Y86.3 E161.44723
G1 X86.4 Y86.3 E161.58772
G1 X86.4 Y133.7 E165.74976
G1 X88 Y133.7 E165.89026
G1 X88 Y86.3 E170.0523
G1 X89.6 Y86.3 E170.19279
G1 X89.6 Y133.7 E174.35483
G1 X91.2 Y133.7 E174.49532
G1 X91.2 Y86.3 E178.65736
G1 X92.8 Y86.3 E178.79785
G1 X92.8 Y133.7 E182.95989
G1 X94.4 Y133.7 E183.10038
G1 X94.4 Y86.3 E187.26242
G1 X96 Y86.3 E187.40291
G1 X96 Y133.7 E191.56495
G1 X97.6 Y133.7 E191.70544
G1 X97.6 Y86.3 E195.86748
G1 X99.2 Y86.3 E196.00797
G1 X99.2 Y133.7 E200.17001
G1 X100.8 Y133.7 E200.31051
G1 X100.8 Y86.333 E204.46965
G1 X101.67 Y86.3 E204.5461
G1 X102.4 Y86.3 E204.61019
G1 X102.4 Y133.7 E208.77223
G1 X104 Y133.7 E208.91273
G1 X104 Y86.3 E213.07477
G1 X105.6 Y86.3 E213.21526
G1 X105.6 Y133.7 E217.3773
G1 X107.2 Y133.7 E217.51779
G1 X107.2 Y86.3 E221.67983
G1 X108.8 Y86.3 E221.82032
G1 X108.8 Y133.7 E225.98236
G1 X110.4 Y133.7 E226.12285
G1 X110.4 Y86.3 E230.28489
G1 X112 Y86.3 E230.42538
G1 X112 Y133.7 E234.58742
G1 X113.6 Y133.7 E234.72791
G1 X113.6 Y86.3 E238.88995
G1 X115.2 Y86.3 E239.03045
G1 X115.2 Y133.7 E243.19249
G1 X116.8 Y133.7 E243.33298
G1 X116.8 Y86.3 E247.49502
G1 X118.4 Y86.3 E247.63551
G1 X118.4 Y133.7 E251.79755
G1 X120 Y133.7 E251.93804
G1 X120 Y86.3 E256.10008
G1 X121.6 Y86.3 E256.24057
G1 X121.6 Y133.7 E260.40261
G1 X123.2 Y133.7 E260.5431
G1 X123.2 Y86.3 E264.70514
G1 X124.8 Y86.3 E264.84563
G1 X124.8 Y133.7 E269.00767
G1 X126.4 Y133.7 E269.14816
G1 X126.4 Y86.3 E273.3102
G1 X128 Y86.3 E273.4507
G1 X128 Y133.7 E277.61274
G1 X129.6 Y133.7 E277.75323
G1 X129.6 Y86.3 E281.91527
G1 X131.2 Y86.3 E282.05576
G1 X131.2 Y133.7 E286.2178
G1 X132.8 Y133.7 E286.35829
G1 X132.8 Y86.3 E290.52033
G1 X134.4 Y86.3 E290.66082
G1 X134.4 Y133.7 E294.82286
G1 X136 Y133.7 E294.96335
G1 X136 Y86.3 E299.12539
G1 X137.6 Y86.3 E299.26588
G1 X137.6 Y133.7 E303.42792
G1 X139.2 Y133.7 E303.56842
G1 X139.2 Y86.3 E307.73046
G1 X140.8 Y86.3 E307.87095
G1 X140.8 Y133.7 E312.03299
G1 X142.4 Y133.7 E312.17348
G1 X142.4 Y86.3 E316.33552
G1 X144 Y86.3 E316.47601
G1 X144 Y133.7 E320.63805
G1 X145.6 Y133.7 E320.77854
G1 X145.6 Y86.3 E324.94058
G1 X147.2 Y86.3 E325.08107
G1 X147.2 Y133.7 E329.24311
G1 X148.8 Y133.7 E329.3836
G1 X148.8 Y86.3 E333.54564
G1 X150.4 Y86.3 E333.68613
G1 X150.4 Y133.7 E337.84817
G1 X152 Y133.7 E337.98867
G1 X152 Y86.3 E342.15071
G1 X153.6 Y86.3 E342.2912
G1 X153.6 Y133.7 E346.45324
G1 X155.2 Y133.7 E346.59373
G1 X155.2 Y86.3 E350.75577
G1 X156.8 Y86.3 E350.89626
G1 X156.8 Y133.7 E355.0583
G1 X158.4 Y133.7 E355.19879
G1 X158.4 Y86.3 E359.36083
G1 X160 Y86.3 E359.50132
G1 X160 Y133.7 E363.66336
G1 X161.6 Y133.7 E363.80385
G1 X161.6 Y86.3 E367.96589
G1 X163.2 Y86.3 E368.10639
G1 X163.2 Y133.7 E372.26843
G1 X164.8 Y133.7 E372.40892
G1 X164.8 Y86.3 E376.57096
G1 X166.287 Y86.3 E376.70153
G1 X166.4 Y86.306 E376.71146
G1 X166.4 Y133.7 E380.87298
G1 X168 Y133.7 E381.01347
G1 X168 Y86.454 E385.16198
G1 X168.124 Y86.472 E385.17299
G1 X168.919 Y86.662 E385.24476
G1 X169.6 Y86.89 E385.30782
G1 X169.6 Y133.7 E389.41805
G1 X171.2 Y133.7 E389.55854
G1 X171.2 Y87.67 E393.60029
G1 X171.865 Y88.119 E393.67074
G1 X172.483 Y88.619 E393.74054
G1 X172.8 Y88.919 E393.77887
G1 X172.8 Y133.7 E397.71094
G1 X174.4 Y133.7 E397.85143
G1 X174.4 Y90.877 E401.61158
G1 X174.626 Y91.189 E401.64541
G1 X175.126 Y91.725 E401.70977
G1 X175.691 Y92.192 E401.77414
G1 X176 Y92.389 E401.80631
G1 X176 Y133.7 E405.4337
G1 X177.6 Y133.7 E405.57419
G1 X177.6 Y93.099 E409.13923
G1 X177.672 Y93.122 E409.14587
G1 X178.393 Y93.258 E409.21029
G1 X179.079 Y93.3 E409.27064
G1 X179.2 Y93.301 E409.28127
G1 X179.2 Y133.7 E412.82857
G1 X180.8 Y133.7 E412.96906
G1 X180.8 Y93.301 E416.51637
G1 X182.4 Y93.302 E416.65686
G1 X182.4 Y133.7 E420.20408
G1 X184 Y133.7 E420.34457
G1 X184 Y93.303 E423.8917
G1 X185.43 Y93.303 E424.01726
G1 X185.6 Y93.313 E424.03221
G1 X185.6 Y133.691 E427.57767
G1 X185.939 Y133.679 E427.60746
G1 X186.727 Y133.596 E427.67703
G1 X187.2 Y133.505 E427.71933
G1 X187.2 Y93.491 E431.23283
G1 X187.919 Y93.662 E431.29772
G1 X188.687 Y93.919 E431.36883
G1 X188.8 Y93.969 E431.37968
G1 X188.8 Y133.027 E434.80924
G1 X189.115 Y132.904 E434.83893
G1 X189.845 Y132.54 E434.91056
G1 X190.4 Y132.199 E434.96775
G1 X190.4 Y94.805 E438.2512
G1 X190.865 Y95.119 E438.30047
G1 X191.483 Y95.619 E438.37027
G1 X192 Y96.109 E438.43281
G1 X192 Y130.886 E441.48647
G1 X192.381 Y130.483 E441.53517
G1 X192.881 Y129.865 E441.60497
G1 X193.343 Y129.182 E441.67737
G1 X193.754 Y128.433 E441.75239
G1 X194.083 Y127.684 E441.82422
G1 X194.339 Y126.916 E441.8953
G1 X194.528 Y126.122 E441.96697
G1 X194.652 Y125.281 E442.04161
G1 X194.697 Y124.432 E442.11627
G1 X194.7 Y114.663 E442.97405
G1 X194.655 Y113.514 E443.07502
G1 X194.7 Y112.273 E443.18406
G1 X194.679 Y102.053 E444.08145
G1 X194.596 Y101.273 E444.15032
G1 X194.439 Y100.466 E444.22251
G1 X194.213 Y99.682 E444.29415
G1 X193.906 Y98.89 E444.36874
G1 X193.6 Y98.277 E444.4289
G1 X193.6 Y128.714 E447.10147
G0 F600 X193.6 Y128.714 Z0.54
G0 F7200 X193.51 Y97.343
;TIME_ELAPSED:259.672516

;LAYER:-3
;TYPE:SUPPORT
G1 F1800 X190.673 Y94.506 E447.5018
G1 X191.109 Y94.801 E447.55433
G1 X191.748 Y95.318 E447.63635
G1 X192.288 Y95.829 E447.71053
G1 X192.939 Y96.557 E447.80797
G1 X193.447 Y97.24 E447.89291
G1 X193.882 Y97.945 E447.97557
G1 X194.272 Y98.727 E448.06276
G1 X194.591 Y99.549 E448.15074
G1 X194.707 Y99.955 E448.19287
G1 X188.03 Y93.277 E449.13514
G0 F7200 X188.026 Y93.276
G1 F1800 X187.197 Y93.078 E449.22018
G1 X186.335 Y92.951 E449.30712
G1 X186.287 Y92.949 E449.31192
G1 X195.044 Y101.705 E450.54755
G1 X195.079 Y102.029 E450.58007
G1 X195.081 Y103.157 E450.69262
G1 X184.827 Y92.903 E452.13957
G1 X183.412 Y92.902 E452.28076
G1 X195.084 Y104.574 E453.92781
G1 X195.087 Y105.991 E454.0692
G1 X181.997 Y92.901 E455.91634
G1 X180.582 Y92.901 E456.05753
G1 X195.09 Y107.408 E458.10469
G1 X195.092 Y108.825 E458.24608
G1 X179.167 Y92.9 E460.49327
G1 X179.091 Y92.9 E460.50085
G1 X178.442 Y92.86 E460.56573
G1 X177.771 Y92.734 E460.63386
G1 X177.498 Y92.645 E460.66251
G1 X195.095 Y110.242 E463.14563
G1 X195.098 Y111.659 E463.28702
G1 X170.104 Y86.665 E466.81395
G1 X169.832 Y86.546 E466.84357
G1 X169.026 Y86.276 E466.92839
G1 X168.197 Y86.078 E467.01343
G1 X168.087 Y86.062 E467.02452
G1 X195.071 Y113.047 E470.83233
G1 X195.055 Y113.513 E470.87885
G1 X195.092 Y114.482 E470.97561
G1 X166.521 Y85.911 E475.00729
G1 X166.307 Y85.9 E475.02867
G1 X165.095 Y85.9 E475.1496
G1 X195.099 Y115.903 E479.38342
G1 X195.098 Y117.316 E479.52441
G1 X163.681 Y85.9 E483.95762
G1 X162.267 Y85.9 E484.09871
G1 X195.098 Y118.731 E488.73152
G1 X195.097 Y120.144 E488.87251
G1 X160.853 Y85.9 E493.7047
G1 X159.439 Y85.9 E493.84579
G1 X195.097 Y121.558 E498.87752
G1 X195.097 Y122.972 E499.01861
G1 X158.024 Y85.9 E504.24994
G1 X156.61 Y85.9 E504.39103
G1 X195.097 Y124.386 E509.82189
G1 X195.097 Y124.432 E509.82648
G1 X195.05 Y125.328 E509.91601
G1 X194.995 Y125.698 E509.95333
G1 X155.196 Y85.9 E515.56933
G1 X153.782 Y85.9 E515.71042
G1 X194.759 Y126.877 E521.49272
G1 X194.726 Y127.019 E521.50727
G1 X194.455 Y127.832 E521.59278
G1 X194.407 Y127.939 E521.60448
G1 X152.368 Y85.9 E527.53663
G1 X150.953 Y85.9 E527.67782
G1 X193.954 Y128.9 E533.74566
G1 X193.69 Y129.382 E533.80049
G1 X193.42 Y129.78 E533.84848
G1 X149.539 Y85.9 E540.0405
G1 X148.125 Y85.9 E540.18159
G1 X192.812 Y130.587 E546.4874
G1 X192.682 Y130.748 E546.50805
G1 X192.172 Y131.287 E546.58209
G1 X192.132 Y131.321 E546.58733
G1 X146.711 Y85.9 E552.99673
G1 X145.297 Y85.9 E553.13781
G1 X191.38 Y131.983 E559.64062
G1 X190.76 Y132.447 E559.71789
G1 X190.554 Y132.571 E559.74189
G1 X143.882 Y85.9 E566.32774
G1 X142.468 Y85.9 E566.46883
G1 X189.65 Y133.082 E573.12672
G1 X189.273 Y133.272 E573.16884
G1 X188.663 Y133.508 E573.23411
G1 X141.054 Y85.9 E579.95218
G1 X139.64 Y85.9 E580.09327
G1 X187.578 Y133.838 E586.85784
G1 X186.787 Y133.992 E586.93825
G1 X186.362 Y134.036 E586.98088
G1 X138.225 Y85.9 E593.77346
G1 X136.811 Y85.9 E593.91455
G1 X185.01 Y134.099 E600.71595
G1 X183.596 Y134.099 E600.85704
G1 X135.397 Y85.9 E607.65844
G1 X133.983 Y85.9 E607.79953
G1 X182.182 Y134.099 E614.60093
G1 X180.768 Y134.099 E614.74202
G1 X132.569 Y85.9 E621.54342
G1 X131.154 Y85.9 E621.68461
G1 X179.354 Y134.099 E628.48608
G1 X177.939 Y134.099 E628.62727
G1 X129.74 Y85.9 E635.42867
G1 X128.326 Y85.9 E635.56976
G1 X176.525 Y134.099 E642.37116
G1 X175.111 Y134.099 E642.51225
G1 X126.912 Y85.9 E649.31365
G1 X125.498 Y85.9 E649.45474
G1 X173.697 Y134.099 E656.25614
G1 X172.283 Y134.099 E656.39723
G1 X124.083 Y85.9 E663.1987
G1 X122.669 Y85.9 E663.33979
G1 X170.868 Y134.099 E670.14119
G1 X169.454 Y134.099 E670.28228
G1 X121.255 Y85.9 E677.08368
G1 X119.841 Y85.9 E677.22477
G1 X168.04 Y134.099 E684.02617
G1 X166.626 Y134.099 E684.16725
G1 X118.426 Y85.9 E690.96873
G1 X117.012 Y85.9 E691.10981
G1 X165.211 Y134.099 E697.91121
G1 X163.797 Y134.099 E698.0523
G1 X115.598 Y85.9 E704.8537
G1 X114.184 Y85.9 E704.99479
G1 X162.383 Y134.099 E711.79619
G1 X160.969 Y134.099 E711.93728
G1 X112.77 Y85.9 E718.73868
G1 X111.355 Y85.9 E718.87987
G1 X159.555 Y134.099 E725.68134
G1 X158.14 Y134.099 E725.82253
G1 X109.941 Y85.9 E732.62393
G1 X108.527 Y85.9 E732.76502
G1 X156.726 Y134.099 E739.56642
G1 X155.312 Y134.099 E739.70751
G1 X107.113 Y85.9 E746.50891
G1 X105.699 Y85.9 E746.65
G1 X153.898 Y134.099 E753.4514
G1 X152.484 Y134.099 E753.59249
G1 X104.284 Y85.9 E760.39396
G1 X102.87 Y85.9 E760.53505
G1 X151.069 Y134.099 E767.33645
G1 X149.655 Y134.099 E767.47754
G1 X101.464 Y85.907 E774.27788
G1 X100.513 Y85.945 E774.37285
G1 X100.07 Y85.928 E774.41708
G1 X148.241 Y134.099 E781.21453
G1 X146.827 Y134.099 E781.35562
G1 X98.627 Y85.9 E788.15709
G1 X97.213 Y85.9 E788.29818
G1 X145.412 Y134.099 E795.09958
G1 X143.998 Y134.099 E795.24067
G1 X95.799 Y85.9 E802.04207
G1 X94.385 Y85.9 E802.18316
G1 X142.584 Y134.099 E808.98456
G1 X141.17 Y134.099 E809.12565
G1 X92.971 Y85.9 E815.92705
G1 X91.556 Y85.9 E816.06824
G1 X139.756 Y134.099 E822.86971
G1 X138.341 Y134.099 E823.0109
G1 X90.142 Y85.9 E829.8123
G1 X88.728 Y85.9 E829.95339
G1 X136.927 Y134.099 E836.75479
G1 X135.513 Y134.099 E836.89588
G1 X87.314 Y85.9 E843.69728
G1 X85.9 Y85.9 E843.83837
