;FLAVOR:Marlin
;TIME:4862
;Filament used:4.00638m
;Layer height: 0.2
;MINX:57.199
;MINY:72.199
;MINZ:0.24
;MAXX:162.8
;MAXY:147.8
;MAXZ:6.06
                                 
;Creality Print GCode Generated by CXEngine:NO_MAGE_VERSION_GIT_HEAD_BRANCH
;CXEngine Release Time:2022-09-30 09:53:04
;Gcode Generated Time:2023-07-02 18:40:04
;----------Machine Config--------------
;Machine Name:Ender-3 V2
;Machine Height:250
;Machine Width:220
;Machine Depth:220
;Material name:PLA
;Number of Extruders:1
;ExtruderParams[0] Nozzle Diameter1000
;----------Profile Config---------------
;Engine Version:275f99b
;Engine Release Time:2022-09-30 09:42:18
;Layer Height:0.2
;Wall Thickness:0.8
;Top/Bottom Thickness:1
;Out Wall Line Width:0.4
;Inner Wall Line Width:0.4
;Inital Layer Height:200
;Wall Line Count:2
;Infill Line Distance:4
;Infill Pattern:grid
;Infill Sparse Density:20
;Infill Wipe Distance:0
;Print Temperature:230
;Bed Temperature:60
;Support Enable:true
;Support Density:0
;Support Angle:60
;Adhesion Type:simpleraft
;machine is belt:false
;machine belt offset:10
;machine belt offset Y:0
;Raft Base Line Spacing:1.6
;Wait Heatup Sync:true
;----------Shell Config----------------
;Outer Wall Wipe Distance:200
;Outer Inset First:false
;Infill Before Walls:false
;Infill Overlap:0.16
;Fill Gaps Between Walls:everywhere
;Minimum Infill Area:1
;Top Surface Skin Layer:0
;Top Layers:3
;Z Seam Alignment:sharpest_corner
;Seam Corner Preference:z_seam_corner_inner
;Z Seam X:110
;Z Seam Y:110
;Horizontal Expansion:0
;Top/Bottom Pattern:zigzag
;Ironing Pattern:zigzag
;Vase Model:false
;----------Support Config----------------
;Support Type:everywhere
;Support Pattern:zigzag
;Support Infill Layer Thickness:0.2
;Minimum Support Area:5
;Enable Support Roof:false
;Support Roof Thickness:0.8
;Support Roof Pattern:lines
;Connect Support Lines:0
;Connect Support ZigZags:1
;Minimum Support X/Y Distance:0.2
;Support Line Distance:0
; ---------PrintSpeed & Travel----------
;Enable Print Cool:true
;Avoid Printed Parts Traveling:true
;Enable Retraction:false
;Retraction Distance:8
;Retraction Speed:100
;Retraction Prime Speed:100
;Maximum Retraction Count:100
;Minimum Extrusion Distance Window:8
;Z Hop When Retracted:false
;Z Hop Height:0.2
;Retract Before Outer Wall:true
;Print Speed:50
;Infill Speed:50

;Prime Tower Speed:50
;Travel Speed:120
;Initial Layer Speed:25
;Skirt/Brim Speed:25
;Combing Mode:infill
; --------SpecialModel&Mesh Fixes--------
;Union Overlapping Volum:true
;Remove All Holes:false
;Maximum Travel Resolution:0.6
;Maximum Deviation:0.05
;Maximum Model Angle:0.872665
;IS Mold Print:false
;Make Overhang Printable:false
;Enable Coasting:false
;Coasting Volumes:0.06
;Coasting Speed:0.9
;Raft AirGap:0.25
;Layer0 ZOverLap:0.13
;---------------------End of Head--------------------------
M140 S60
M105
M104 S230
M105
M109 S230
M105
M190 S60
M82 ;absolute extrusion mode
M220 S100 ;Reset Feedrate
M221 S100 ;Reset Flowrate

G28 ;Home

G92 E0 ;Reset Extruder
G1 Z2.0 F3000 ;Move Z Axis up
G1 X10.1 Y20 Z0.28 F5000.0 ;Move to start position
G1 X10.1 Y145.0 Z0.28 F1500.0 E15 ;Draw the first line
G1 X10.4 Y145.0 Z0.28 F5000.0 ;Move to side a little
G1 X10.4 Y20 Z0.28 F1500.0 E30 ;Draw the second line
G92 E0  ;Reset Extruder
G1 E-1.0000 F1800 ;Retract a bit
G1 Z2.0 F3000 ;Move Z Axis up
G1 E0.0000 F1800 

G92 E0

;LAYER_COUNT:25

;LAYER:-4
M107
G0 F7200 X60.8 Y75.328 Z0.24
;TYPE:SUPPORT-INTERFACE
G1 F1200 X60.8 Y144.675 E6.08914
G1 X60.503 Y144.395 E6.12498
G1 X59.872 Y143.69 E6.20805
G1 X59.386 Y143.038 E6.27946
G1 X59.2 Y142.734 E6.31075
G1 X59.2 Y77.254 E12.06034
G1 X59.619 Y76.635 E12.12597
G1 X60.119 Y76.017 E12.19577
G1 X60.611 Y75.497 E12.25863
G1 X61.31 Y74.872 E12.34096
G1 X61.962 Y74.386 E12.41237
G1 X62.4 Y74.116 E12.45755
G1 X62.4 Y145.888 E18.75962
G1 X63.063 Y146.252 E18.82603
G1 X63.808 Y146.579 E18.89747
G1 X64 Y146.643 E18.91524
G1 X64 Y73.357 E25.35025
G1 X64.178 Y73.288 E25.36701
G1 X64.96 Y73.062 E25.43848
G1 X65.6 Y72.937 E25.49574
G1 X65.6 Y147.061 E32.00433
G1 X66.201 Y147.15 E32.05768
G1 X67.2 Y147.199 E32.1455
G1 X67.2 Y72.8 E38.67824
G1 X68.8 Y72.8 E38.81873
G1 X68.8 Y147.2 E45.35155
G1 X70.4 Y147.2 E45.49204
G1 X70.4 Y72.8 E52.02486
G1 X72 Y72.8 E52.16536
G1 X72 Y147.2 E58.69818
G1 X73.6 Y147.2 E58.83867
G1 X73.6 Y72.8 E65.37149
G1 X75.2 Y72.8 E65.51198
G1 X75.2 Y147.2 E72.04481
G1 X76.8 Y147.2 E72.1853
G1 X76.8 Y72.8 E78.71812
G1 X78.4 Y72.8 E78.85861
G1 X78.4 Y147.2 E85.39143
G1 X80 Y147.2 E85.53192
G1 X80 Y72.8 E92.06475
G1 X81.6 Y72.8 E92.20524
G1 X81.6 Y99.912 E94.58586
G1 X81.732 Y99.57 E94.61804
G1 X82.08 Y98.926 E94.68232
G1 X82.509 Y98.328 E94.74694
G1 X83.007 Y97.791 E94.81125
G1 X83.2 Y97.63 E94.83332
G1 X83.2 Y72.8 E97.01356
G1 X84.8 Y72.8 E97.15405
G1 X84.8 Y96.637 E99.2471
G1 X84.851 Y96.612 E99.25209
G1 X85.547 Y96.383 E99.31643
G1 X86.268 Y96.244 E99.3809
G1 X86.4 Y96.236 E99.39251
G1 X86.4 Y72.8 E101.45035
G1 X88 Y72.8 E101.59084
G1 X88 Y96.2 E103.64552
G1 X89.6 Y96.2 E103.78601
G1 X89.6 Y72.8 E105.84069
G1 X91.2 Y72.8 E105.98118
G1 X91.2 Y96.2 E108.03586
G1 X92.8 Y96.2 E108.17635
G1 X92.8 Y72.8 E110.23103
G1 X94.4 Y72.8 E110.37152
G1 X94.4 Y96.2 E112.4262
G1 X96 Y96.2 E112.56669
G1 X96 Y72.8 E114.62136
G1 X97.6 Y72.8 E114.76186
G1 X97.6 Y96.2 E116.81653
G1 X99.2 Y96.2 E116.95702
G1 X99.2 Y72.8 E119.0117
G1 X100.8 Y72.8 E119.15219
G1 X100.8 Y96.2 E121.20687
G1 X102.4 Y96.2 E121.34736
G1 X102.4 Y72.8 E123.40204
G1 X104 Y72.8 E123.54253
G1 X104 Y96.2 E125.59721
G1 X105.6 Y96.2 E125.7377
G1 X105.6 Y72.8 E127.79238
G1 X107.2 Y72.8 E127.93287
G1 X107.2 Y96.2 E129.98755
G1 X108.8 Y96.2 E130.12804
G1 X108.8 Y72.8 E132.18272
G1 X110.4 Y72.8 E132.32321
G1 X110.4 Y96.2 E134.37788
G1 X112 Y96.2 E134.51838
G1 X112 Y72.8 E136.57305
G1 X113.6 Y72.8 E136.71354
G1 X113.6 Y96.2 E138.76822
G1 X115.2 Y96.2 E138.90871
G1 X115.2 Y72.8 E140.96339
G1 X116.8 Y72.8 E141.10388
G1 X116.8 Y96.2 E143.15856
G1 X118.4 Y96.2 E143.29905
G1 X118.4 Y72.8 E145.35373
G1 X120 Y72.8 E145.49422
G1 X120 Y96.2 E147.5489
G1 X121.6 Y96.2 E147.68939
G1 X121.6 Y72.8 E149.74407
G1 X123.2 Y72.8 E149.88456
G1 X123.2 Y96.2 E151.93924
G1 X124.8 Y96.2 E152.07973
G1 X124.8 Y72.8 E154.13441
G1 X126.4 Y72.8 E154.2749
G1 X126.4 Y96.2 E156.32957
G1 X128 Y96.2 E156.47007
G1 X128 Y72.8 E158.52474
G1 X129.6 Y72.8 E158.66523
G1 X129.6 Y96.2 E160.71991
G1 X132.8 Y96.2 E161.00089
G1 X132.8 Y72.8 E163.05557
G1 X131.2 Y72.8 E163.19606
G1 X131.2 Y96.2 E165.25074
G0 F7200 X133.036 Y96.2
G1 F1200 X134.023 Y96.288 E165.33775
G1 X134.747 Y96.468 E165.40326
G1 X135.43 Y96.732 E165.46755
G1 X136 Y97.04 E165.52444
G1 X136 Y72.8 E167.65288
G1 X134.4 Y72.8 E167.79337
G1 X134.4 Y96.381 E169.86394
G0 F7200 X136.581 Y98.599
G0 X136.985 Y99.082
G0 X160 Y143.836
G1 F1200 X160 Y76.167 E175.80574
G1 X160.128 Y76.31 E175.82259
G1 X160.614 Y76.962 E175.89399
G1 X161.043 Y77.661 E175.96601
G1 X161.404 Y78.385 E176.03704
G1 X161.6 Y78.891 E176.08469
G1 X161.6 Y141.133 E181.54996
G1 X161.583 Y141.184 E181.55468
G1 X161.254 Y141.933 E181.62651
G1 X160.843 Y142.682 E181.70153
G1 X160.381 Y143.365 E181.77393
G1 X159.881 Y143.983 E181.84373
G1 X159.39 Y144.502 E181.90647
G1 X158.694 Y145.124 E181.98843
G1 X158.4 Y145.344 E182.02067
G1 X158.4 Y74.648 E188.22826
G1 X158.365 Y74.619 E188.23225
G1 X157.682 Y74.157 E188.30465
G1 X156.933 Y73.746 E188.37967
G1 X156.8 Y73.688 E188.39241
G1 X156.8 Y146.312 E194.76929
G1 X156.615 Y146.404 E194.78743
G1 X155.822 Y146.712 E194.86213
G1 X155.2 Y146.892 E194.91899
G1 X155.2 Y73.11 E201.39755
G1 X154.624 Y72.972 E201.44955
G1 X153.799 Y72.85 E201.52278
G1 X153.6 Y72.841 E201.54027
G1 X153.6 Y147.163 E208.06625
G1 X153.439 Y147.179 E208.08045
G1 X152.832 Y147.2 E208.13378
G1 X152 Y147.2 E208.20684
G1 X152 Y72.8 E214.73966
G1 X150.4 Y72.8 E214.88015
G1 X150.4 Y147.2 E221.41298
G1 X148.8 Y147.2 E221.55347
G1 X148.8 Y72.8 E228.08629
G1 X147.2 Y72.8 E228.22678
G1 X147.2 Y147.2 E234.7596
G1 X145.6 Y147.2 E234.9001
G1 X145.6 Y72.8 E241.43292
G1 X144 Y72.8 E241.57341
G1 X144 Y147.2 E248.10623
G1 X142.4 Y147.2 E248.24672
G1 X142.4 Y72.8 E254.77955
G1 X140.8 Y72.8 E254.92004
G1 X140.8 Y147.2 E261.45286
G1 X139.2 Y147.2 E261.59335
G1 X139.2 Y72.8 E268.12617
G1 X137.6 Y72.8 E268.26666
G1 X137.6 Y98.475 E270.5211
G1 X137.679 Y98.57 E270.53195
G1 X138.075 Y99.188 E270.5964
G1 X138.388 Y99.851 E270.66078
G1 X138.617 Y100.547 E270.72511
G1 X138.756 Y101.268 E270.78959
G1 X138.8 Y101.974 E270.8517
G1 X138.8 Y115.036 E271.99863
G1 X138.712 Y116.023 E272.08564
G1 X138.532 Y116.747 E272.15115
G1 X138.268 Y117.43 E272.21545
G1 X137.92 Y118.074 E272.27972
G1 X137.6 Y118.52 E272.32792
G1 X137.6 Y147.2 E274.84622
G1 X136 Y147.2 E274.98671
G1 X136 Y119.954 E277.37909
G1 X135.812 Y120.075 E277.39872
G1 X135.149 Y120.388 E277.4631
G1 X134.453 Y120.617 E277.52744
G1 X134.4 Y120.627 E277.53217
G1 X134.4 Y147.2 E279.86546
G1 X132.8 Y147.2 E280.00595
G1 X132.8 Y120.8 E282.32405
G1 X131.2 Y120.8 E282.46454
G1 X131.2 Y147.2 E284.78264
G1 X129.6 Y147.2 E284.92313
G1 X129.6 Y120.8 E287.24123
G1 X128 Y120.8 E287.38172
G1 X128 Y147.2 E289.69982
G1 X126.4 Y147.2 E289.84031
G1 X126.4 Y120.8 E292.15841
G1 X124.8 Y120.8 E292.2989
G1 X124.8 Y147.2 E294.617
G1 X123.2 Y147.2 E294.75749
G1 X123.2 Y120.8 E297.07559
G1 X121.6 Y120.8 E297.21608
G1 X121.6 Y147.2 E299.53418
G1 X120 Y147.2 E299.67467
G1 X120 Y120.8 E301.99276
G1 X118.4 Y120.8 E302.13326
G1 X118.4 Y147.2 E304.45135
G1 X116.8 Y147.2 E304.59185
G1 X116.8 Y120.8 E306.90994
G1 X115.2 Y120.8 E307.05043
G1 X115.2 Y147.2 E309.36853
G1 X113.6 Y147.2 E309.50902
G1 X113.6 Y120.8 E311.82712
G1 X112 Y120.8 E311.96761
G1 X112 Y147.2 E314.28571
G1 X110.4 Y147.2 E314.4262
G1 X110.4 Y120.8 E316.7443
G1 X108.8 Y120.8 E316.88479
G1 X108.8 Y147.2 E319.20289
G1 X107.2 Y147.2 E319.34338
G1 X107.2 Y120.8 E321.66148
G1 X105.6 Y120.8 E321.80197
G1 X105.6 Y147.2 E324.12007
G1 X104 Y147.2 E324.26056
G1 X104 Y120.8 E326.57866
G1 X102.4 Y120.8 E326.71915
G1 X102.4 Y147.2 E329.03725
G1 X100.8 Y147.2 E329.17774
G1 X100.8 Y120.8 E331.49584
G1 X99.2 Y120.8 E331.63633
G1 X99.2 Y147.2 E333.95442
G1 X97.6 Y147.2 E334.09492
G1 X97.6 Y120.8 E336.41301
G1 X96 Y120.8 E336.5535
G1 X96 Y147.2 E338.8716
G1 X94.4 Y147.2 E339.01209
G1 X94.4 Y120.8 E341.33019
G1 X92.8 Y120.8 E341.47068
G1 X92.8 Y147.2 E343.78878
G1 X91.2 Y147.2 E343.92927
G1 X91.2 Y120.8 E346.24737
G1 X89.6 Y120.8 E346.38786
G1 X89.6 Y147.2 E348.70596
G1 X88 Y147.2 E348.84645
G1 X88 Y120.8 E351.16455
G1 X86.964 Y120.8 E351.25552
G1 X86.4 Y120.75 E351.30523
G1 X86.4 Y147.2 E353.62772
G1 X84.8 Y147.2 E353.76821
G1 X84.8 Y120.357 E356.12521
G1 X84.57 Y120.268 E356.14687
G1 X83.926 Y119.92 E356.21114
G1 X83.328 Y119.491 E356.27576
G1 X82.791 Y118.993 E356.34007
G1 X82.321 Y118.43 E356.40447
G1 X81.925 Y117.812 E356.46892
G1 X81.612 Y117.149 E356.5333
G1 X81.6 Y117.113 E356.53663
G1 X81.6 Y147.2 E359.17847
G1 X83.2 Y147.2 E359.31896
G1 X83.2 Y119.373 E361.76236
G0 F600 X83.2 Y119.373 Z0.54
G0 F7200 X87.873 Y120.4
;TIME_ELAPSED:211.370553

;LAYER:-3
;TYPE:SUPPORT
G1 F1800 X115.072 Y147.599 E365.60043
G1 X113.658 Y147.599 E365.74152
G1 X86.407 Y120.348 E369.58693
G1 X86.982 Y120.4 E369.64454
G1 X89.287 Y120.4 E369.87453
G1 X116.486 Y147.599 E373.71261
G1 X117.9 Y147.599 E373.8537
G1 X90.702 Y120.4 E377.6917
G1 X92.116 Y120.4 E377.83279
G1 X119.315 Y147.599 E381.67086
G1 X120.729 Y147.599 E381.81195
G1 X93.53 Y120.4 E385.65002
G1 X94.944 Y120.4 E385.79111
G1 X122.143 Y147.599 E389.62918
G1 X123.557 Y147.599 E389.77027
G1 X96.358 Y120.4 E393.60835
G1 X97.773 Y120.4 E393.74954
G1 X124.971 Y147.599 E397.58754
G1 X126.386 Y147.599 E397.72873
G1 X99.187 Y120.4 E401.5668
G1 X100.601 Y120.4 E401.70789
G1 X127.8 Y147.599 E405.54596
G1 X129.214 Y147.599 E405.68705
G1 X102.015 Y120.4 E409.52512
G1 X103.429 Y120.4 E409.66621
G1 X130.628 Y147.599 E413.50429
G1 X132.042 Y147.599 E413.64538
G1 X104.844 Y120.4 E417.48338
G1 X106.258 Y120.4 E417.62447
G1 X133.457 Y147.599 E421.46254
G1 X134.871 Y147.599 E421.60363
G1 X107.672 Y120.4 E425.4417
G1 X109.086 Y120.4 E425.58279
G1 X136.285 Y147.599 E429.42087
G1 X137.699 Y147.599 E429.56196
G1 X110.5 Y120.4 E433.40003
G1 X111.915 Y120.4 E433.54122
G1 X139.114 Y147.599 E437.37929
G1 X140.528 Y147.599 E437.52038
G1 X113.329 Y120.4 E441.35845
G1 X114.743 Y120.4 E441.49954
G1 X141.942 Y147.599 E445.33761
G1 X143.356 Y147.599 E445.4787
G1 X116.157 Y120.4 E449.31678
G1 X117.572 Y120.4 E449.45797
G1 X144.77 Y147.599 E453.29597
G1 X146.185 Y147.599 E453.43716
G1 X118.986 Y120.4 E457.27523
G1 X120.4 Y120.4 E457.41632
G1 X147.599 Y147.599 E461.25439
G1 X149.013 Y147.599 E461.39548
G1 X121.814 Y120.4 E465.23356
G1 X123.228 Y120.4 E465.37464
G1 X150.427 Y147.599 E469.21272
G1 X151.841 Y147.599 E469.35381
G1 X124.643 Y120.4 E473.19181
G1 X126.057 Y120.4 E473.3329
G1 X153.242 Y147.585 E477.169
G1 X153.466 Y147.579 E477.19135
G1 X154.287 Y147.492 E477.27373
G1 X154.517 Y147.446 E477.29714
G1 X127.471 Y120.4 E481.11362
G1 X128.885 Y120.4 E481.25471
G1 X155.66 Y147.175 E485.03295
G1 X155.955 Y147.09 E485.06358
G1 X156.699 Y146.799 E485.1433
G1 X130.299 Y120.4 E488.86855
G1 X131.714 Y120.4 E489.00974
G1 X157.641 Y146.327 E492.66832
G1 X158.26 Y145.947 E492.74079
G1 X158.496 Y145.768 E492.77035
G1 X133.122 Y120.394 E496.3509
G1 X133.681 Y120.358 E496.40679
G1 X134.352 Y120.229 E496.47497
G1 X134.366 Y120.224 E496.47645
G1 X159.279 Y145.137 E499.99194
G1 X159.672 Y144.787 E500.04445
G1 X159.998 Y144.442 E500.09182
G1 X135.389 Y119.832 E503.56448
G1 X135.618 Y119.724 E503.58975
G1 X136.193 Y119.356 E503.65786
G1 X136.265 Y119.295 E503.66728
G1 X160.645 Y143.674 E507.10749
G1 X160.699 Y143.609 E507.11592
G1 X161.19 Y142.882 E507.20346
G1 X161.216 Y142.832 E507.20908
G1 X136.998 Y118.613 E510.62657
G1 X137.181 Y118.418 E510.65326
G1 X137.58 Y117.862 E510.72154
G1 X137.607 Y117.808 E510.72757
G1 X161.703 Y141.904 E514.12777
G1 X161.955 Y141.332 E514.19014
G1 X162.102 Y140.889 E514.23671
G1 X138.062 Y116.849 E517.62902
G1 X138.15 Y116.626 E517.65294
G1 X138.316 Y115.957 E517.72171
G1 X138.337 Y115.71 E517.74645
G1 X162.402 Y139.775 E521.14228
G1 X162.422 Y139.695 E521.15051
G1 X162.55 Y138.828 E521.23796
G1 X162.563 Y138.522 E521.26852
G1 X138.399 Y114.357 E524.67839
G1 X138.399 Y112.943 E524.81948
G1 X162.599 Y137.143 E528.23436
G1 X162.599 Y135.729 E528.37545
G1 X138.399 Y111.529 E531.79033
G1 X138.399 Y110.114 E531.93152
G1 X162.599 Y134.314 E535.3464
G1 X162.599 Y132.9 E535.48749
G1 X138.399 Y108.7 E538.90237
G1 X138.399 Y107.286 E539.04346
G1 X162.599 Y131.486 E542.45834
G1 X162.599 Y130.072 E542.59943
G1 X138.399 Y105.872 E546.01432
G1 X138.399 Y104.458 E546.1554
G1 X162.599 Y128.658 E549.57029
G1 X162.599 Y127.243 E549.71148
G1 X138.399 Y103.043 E553.12636
G1 X138.4 Y101.987 E553.23173
G1 X138.375 Y101.605 E553.26992
G1 X162.599 Y125.829 E556.68819
G1 X162.599 Y124.415 E556.82928
G1 X137.864 Y99.68 E560.31966
G1 X137.724 Y99.382 E560.35251
G1 X137.356 Y98.807 E560.42063
G1 X136.918 Y98.283 E560.48877
G1 X136.418 Y97.819 E560.55683
G1 X135.862 Y97.42 E560.62512
G1 X135.3 Y97.116 E560.68887
G1 X110.583 Y72.399 E564.17671
G1 X111.997 Y72.399 E564.3178
G1 X162.599 Y123.001 E571.45829
G1 X162.599 Y121.587 E571.59938
G1 X113.412 Y72.399 E578.54027
G1 X114.826 Y72.399 E578.68136
G1 X162.599 Y120.172 E585.42264
G1 X162.599 Y118.758 E585.56373
G1 X116.24 Y72.399 E592.10549
G1 X117.654 Y72.399 E592.24658
G1 X162.599 Y117.344 E598.5888
G1 X162.599 Y115.93 E598.72989
G1 X119.069 Y72.399 E604.87252
G1 X120.483 Y72.399 E605.01361
G1 X162.599 Y114.515 E610.95663
G1 X162.599 Y113.101 E611.09772
G1 X121.897 Y72.399 E616.84121
G1 X123.311 Y72.399 E616.9823
G1 X162.599 Y111.687 E622.52626
G1 X162.599 Y110.273 E622.66735
G1 X124.725 Y72.399 E628.01178
G1 X126.14 Y72.399 E628.15297
G1 X162.599 Y108.859 E633.2978
G1 X162.599 Y107.444 E633.43899
G1 X127.554 Y72.399 E638.38422
G1 X128.968 Y72.399 E638.52531
G1 X162.599 Y106.03 E643.271
G1 X162.599 Y104.616 E643.41209
G1 X130.382 Y72.399 E647.95826
G1 X131.796 Y72.399 E648.09935
G1 X162.599 Y103.202 E652.44599
G1 X162.599 Y101.788 E652.58708
