;FLAVOR:Marlin
;TIME:3218
;Filament used:1.75306m
;Layer height: 0.2
;MINX:57.203
;MINY:88.177
;MINZ:0.24
;MAXX:162.797
;MAXY:130.8
;MAXZ:8.89
                               
;Creality Print GCode Generated by CXEngine:NO_MAGE_VERSION_GIT_HEAD_BRANCH
;CXEngine Release Time:2022-09-30 09:53:04
;Gcode Generated Time:2023-06-25 17:23:23
;----------Machine Config--------------
;Machine Name:Ender-3 V2
;Machine Height:250
;Machine Width:220
;Machine Depth:220
;Material name:PLA
;Number of Extruders:1
;ExtruderParams[0] Nozzle Diameter1000
;----------Profile Config---------------
;Engine Version:275f99b
;Engine Release Time:2022-09-30 09:42:18
;Layer Height:0.2
;Wall Thickness:0.8
;Top/Bottom Thickness:1
;Out Wall Line Width:0.4
;Inner Wall Line Width:0.4
;Inital Layer Height:200
;Wall Line Count:2
;Infill Line Distance:4
;Infill Pattern:grid
;Infill Sparse Density:20
;Infill Wipe Distance:0
;Print Temperature:200
;Bed Temperature:60
;Support Enable:true
;Support Density:0
;Support Angle:60
;Adhesion Type:simpleraft
;machine is belt:false
;machine belt offset:10
;machine belt offset Y:0
;Raft Base Line Spacing:1.6
;Wait Heatup Sync:true
;----------Shell Config----------------
;Outer Wall Wipe Distance:200
;Outer Inset First:false
;Infill Before Walls:false
;Infill Overlap:0.16
;Fill Gaps Between Walls:everywhere
;Minimum Infill Area:1
;Top Surface Skin Layer:0
;Top Layers:3
;Z Seam Alignment:sharpest_corner
;Seam Corner Preference:z_seam_corner_inner
;Z Seam X:110
;Z Seam Y:110
;Horizontal Expansion:0
;Top/Bottom Pattern:zigzag
;Ironing Pattern:zigzag
;Vase Model:false
;----------Support Config----------------
;Support Type:everywhere
;Support Pattern:zigzag
;Support Infill Layer Thickness:0.2
;Minimum Support Area:5
;Enable Support Roof:false
;Support Roof Thickness:0.8
;Support Roof Pattern:lines
;Connect Support Lines:0
;Connect Support ZigZags:1
;Minimum Support X/Y Distance:0.2
;Support Line Distance:0
; ---------PrintSpeed & Travel----------
;Enable Print Cool:true
;Avoid Printed Parts Traveling:true
;Enable Retraction:true
;Retraction Distance:8
;Retraction Speed:100
;Retraction Prime Speed:100
;Maximum Retraction Count:100
;Minimum Extrusion Distance Window:1
;Z Hop When Retracted:false
;Z Hop Height:0.2
;Retract Before Outer Wall:true
;Print Speed:50
;Infill Speed:50

;Prime Tower Speed:50
;Travel Speed:120
;Initial Layer Speed:25
;Skirt/Brim Speed:25
;Combing Mode:infill
; --------SpecialModel&Mesh Fixes--------
;Union Overlapping Volum:true
;Remove All Holes:false
;Maximum Travel Resolution:0.6
;Maximum Deviation:0.05
;Maximum Model Angle:0.872665
;IS Mold Print:false
;Make Overhang Printable:false
;Enable Coasting:false
;Coasting Volumes:0.06
;Coasting Speed:0.9
;Raft AirGap:0.25
;Layer0 ZOverLap:0.13
;---------------------End of Head--------------------------
M140 S60
M105
M104 S200
M105
M109 S200
M105
M190 S60
M82 ;absolute extrusion mode
M220 S100 ;Reset Feedrate
M221 S100 ;Reset Flowrate

G28 ;Home

G92 E0 ;Reset Extruder
G1 Z2.0 F3000 ;Move Z Axis up
G1 X10.1 Y20 Z0.28 F5000.0 ;Move to start position
G1 X10.1 Y145.0 Z0.28 F1500.0 E15 ;Draw the first line
G1 X10.4 Y145.0 Z0.28 F5000.0 ;Move to side a little
G1 X10.4 Y20 Z0.28 F1500.0 E30 ;Draw the second line
G92 E0  ;Reset Extruder
G1 E-1.0000 F1800 ;Retract a bit
G1 Z2.0 F3000 ;Move Z Axis up
G1 E0.0000 F1800 

G92 E0
G92 E0
G1 F6000 E-8

;LAYER_COUNT:40

;LAYER:-4
M107
G0 F7200 X60.8 Y92.328 Z0.24
;TYPE:SUPPORT-INTERFACE
G1 F6000 E0
G1 F1200 X60.8 Y107.676 E1.34766
G1 X60.503 Y107.395 E1.38356
G1 X59.872 Y106.69 E1.46664
G1 X59.386 Y106.038 E1.53804
G1 X59.2 Y105.734 E1.56933
G1 X59.2 Y94.254 E2.57736
G1 X59.619 Y93.635 E2.64299
G1 X60.119 Y93.017 E2.71279
G1 X60.611 Y92.497 E2.77565
G1 X61.31 Y91.872 E2.85798
G1 X61.962 Y91.386 E2.92939
G1 X62.4 Y91.116 E2.97457
G1 X62.4 Y109.007 E4.54552
G1 X62.701 Y109.27 E4.58061
G1 X63.179 Y109.843 E4.64614
G1 X63.575 Y110.461 E4.71059
G1 X63.888 Y111.124 E4.77496
G1 X64 Y111.464 E4.8064
G1 X64 Y90.357 E6.65973
G1 X64.178 Y90.288 E6.6765
G1 X64.96 Y90.062 E6.74797
G1 X65.6 Y89.937 E6.80523
G1 X65.6 Y125.572 E9.93422
G1 X65.886 Y126.038 E9.98223
G1 X66.372 Y126.69 E10.05364
G1 X67.003 Y127.395 E10.13671
G1 X67.2 Y127.581 E10.1605
G1 X67.2 Y89.819 E13.47626
G1 X68.8 Y89.815 E13.61675
G1 X68.8 Y128.83 E17.04253
G1 X68.818 Y128.843 E17.04448
G1 X69.563 Y129.252 E17.11911
G1 X70.308 Y129.579 E17.19055
G1 X70.4 Y129.609 E17.19905
G1 X70.4 Y89.811 E20.69358
G1 X72 Y89.808 E20.83407
G1 X72 Y130.046 E24.36724
G1 X72.701 Y130.15 E24.42947
G1 X73.6 Y130.194 E24.5085
G1 X73.6 Y89.804 E28.05501
G1 X75.2 Y89.8 E28.19551
G1 X75.2 Y130.2 E31.7429
G1 X76.8 Y130.2 E31.88339
G1 X76.8 Y89.902 E35.42183
G1 X77.274 Y89.972 E35.4639
G1 X78.069 Y90.162 E35.53567
G1 X78.4 Y90.273 E35.56632
G1 X78.4 Y130.2 E39.07219
G1 X80 Y130.2 E39.21268
G1 X80 Y90.975 E42.6569
G1 X80.332 Y91.157 E42.69014
G1 X81.015 Y91.619 E42.76254
G1 X81.6 Y92.093 E42.82866
G1 X81.6 Y130.2 E46.17471
G1 X83.2 Y130.2 E46.3152
G1 X83.2 Y93.877 E49.5046
G1 X83.264 Y93.962 E49.51395
G1 X83.693 Y94.661 E49.58596
G1 X84.054 Y95.385 E49.657
G1 X84.363 Y96.182 E49.73206
G1 X84.589 Y96.966 E49.8037
G1 X84.746 Y97.773 E49.87589
G1 X84.8 Y98.281 E49.92075
G1 X84.8 Y130.2 E52.72345
G1 X86.4 Y130.2 E52.86394
G1 X86.4 Y107.944 E54.81817
G1 X86.441 Y107.993 E54.82378
G1 X86.978 Y108.491 E54.88808
G1 X87.576 Y108.92 E54.95271
G1 X88 Y109.15 E54.99506
G1 X88 Y130.2 E56.84339
G1 X89.6 Y130.2 E56.98389
G1 X89.6 Y109.706 E58.7834
G1 X89.627 Y109.712 E58.78583
G1 X90.614 Y109.8 E58.87283
G1 X91.2 Y109.8 E58.92429
G1 X91.2 Y130.2 E60.71555
G1 X92.8 Y130.2 E60.85604
G1 X92.8 Y109.8 E62.6473
G1 X94.4 Y109.8 E62.78779
G1 X94.4 Y130.2 E64.57904
G1 X96 Y130.2 E64.71954
G1 X96 Y109.8 E66.51079
G1 X97.6 Y109.8 E66.65128
G1 X97.6 Y130.2 E68.44254
G1 X99.2 Y130.2 E68.58303
G1 X99.2 Y109.8 E70.37429
G1 X100.8 Y109.8 E70.51478
G1 X100.8 Y130.2 E72.30604
G1 X102.4 Y130.2 E72.44653
G1 X102.4 Y109.8 E74.23779
G1 X104 Y109.8 E74.37828
G1 X104 Y130.2 E76.16954
G1 X105.6 Y130.2 E76.31003
G1 X105.6 Y109.8 E78.10129
G1 X107.2 Y109.8 E78.24178
G1 X107.2 Y130.2 E80.03303
G1 X108.8 Y130.2 E80.17352
G1 X108.8 Y109.8 E81.96478
G1 X110.4 Y109.8 E82.10527
G1 X110.4 Y130.2 E83.89653
G1 X112 Y130.2 E84.03702
G1 X112 Y109.8 E85.82828
G1 X113.6 Y109.8 E85.96877
G1 X113.6 Y130.2 E87.76003
G1 X115.2 Y130.2 E87.90052
G1 X115.2 Y109.8 E89.69178
G1 X116.8 Y109.8 E89.83227
G1 X116.8 Y130.2 E91.62353
G1 X118.4 Y130.2 E91.76402
G1 X118.4 Y109.8 E93.55527
G1 X120 Y109.8 E93.69577
G1 X120 Y130.2 E95.48702
G1 X121.6 Y130.2 E95.62751
G1 X121.6 Y109.8 E97.41877
G1 X123.2 Y109.8 E97.55926
G1 X123.2 Y130.2 E99.35052
G1 X124.8 Y130.2 E99.49101
G1 X124.8 Y109.8 E101.28227
G1 X126.4 Y109.8 E101.42276
G1 X126.4 Y130.2 E103.21402
G1 X128 Y130.2 E103.35451
G1 X128 Y109.8 E105.14577
G1 X129.376 Y109.8 E105.26659
G1 X129.6 Y109.786 E105.2863
G1 X129.6 Y130.2 E107.07878
G1 X131.2 Y130.2 E107.21927
G1 X131.2 Y109.486 E109.0381
G1 X131.499 Y109.388 E109.06573
G1 X132.162 Y109.075 E109.13011
G1 X132.78 Y108.679 E109.19456
G1 X132.8 Y108.662 E109.19686
G1 X132.8 Y130.2 E111.08804
G1 X134.4 Y130.2 E111.22854
G1 X134.4 Y106.833 E113.28032
G1 X134.618 Y106.43 E113.32055
G1 X134.882 Y105.747 E113.38484
G1 X135.062 Y105.023 E113.45035
G1 X135.15 Y104.036 E113.53736
G1 X135.153 Y99.068 E113.97358
G1 X135.198 Y98.219 E114.04824
G1 X135.322 Y97.376 E114.12305
G1 X135.51 Y96.585 E114.19444
G1 X135.767 Y95.816 E114.26564
G1 X136 Y95.285 E114.31656
G1 X136 Y130.2 E117.38233
G1 X137.6 Y130.2 E117.52282
G1 X137.6 Y92.885 E120.79933
G1 X138.371 Y91.972 E120.90426
G1 X139.114 Y91.252 E120.9951
G1 X139.2 Y91.183 E121.00479
G1 X139.2 Y130.2 E124.43074
G1 X140.8 Y130.2 E124.57123
G1 X140.8 Y90.101 E128.0922
G1 X141.167 Y89.906 E128.12869
G1 X141.927 Y89.582 E128.20123
G1 X142.4 Y89.428 E128.24491
G1 X142.4 Y130.2 E131.82497
G1 X144 Y130.2 E131.96546
G1 X144 Y89.053 E135.57844
G1 X144.41 Y88.965 E135.61526
G1 X145.405 Y88.82 E135.70355
G1 X145.6 Y88.809 E135.7207
G1 X145.6 Y130.2 E139.35511
G1 X146.332 Y130.2 E139.41939
G1 X146.939 Y130.179 E139.47272
G1 X147.2 Y130.152 E139.49576
G1 X147.2 Y88.83 E143.12411
G1 X147.863 Y88.916 E143.18281
G1 X148.652 Y89.089 E143.25374
G1 X148.8 Y89.138 E143.26743
G1 X148.8 Y129.863 E146.84336
G1 X149.322 Y129.712 E146.89107
G1 X150.115 Y129.404 E146.96577
G1 X150.4 Y129.262 E146.99373
G1 X150.4 Y89.642 E150.47263
G1 X150.941 Y89.75 E150.52107
G1 X151.684 Y89.8 E150.58646
G1 X152 Y89.801 E150.61421
G1 X152 Y128.269 E153.99196
G1 X152.194 Y128.124 E154.01323
G1 X152.89 Y127.502 E154.09519
G1 X153.381 Y126.983 E154.15792
G1 X153.6 Y126.713 E154.18845
G1 X153.6 Y89.839 E157.42623
G1 X153.788 Y89.849 E157.44276
G1 X154.624 Y89.972 E157.51696
G1 X155.2 Y90.11 E157.56897
G1 X155.2 Y123.833 E160.53008
G1 X155.339 Y123.416 E160.56867
G1 X155.528 Y122.622 E160.64034
G1 X155.652 Y121.781 E160.71498
G1 X155.697 Y120.93 E160.78981
G1 X155.717 Y112.81 E161.5028
G1 X155.821 Y112.086 E161.56703
G1 X156.015 Y111.378 E161.63149
G1 X156.299 Y110.701 E161.69595
G1 X156.664 Y110.067 E161.76019
G1 X156.8 Y109.888 E161.77993
G1 X156.8 Y90.688 E163.46582
G1 X156.933 Y90.746 E163.47856
G1 X157.682 Y91.157 E163.55358
G1 X158.365 Y91.619 E163.62598
G1 X158.4 Y91.648 E163.62997
G1 X158.4 Y108.354 E165.09687
G1 X158.684 Y108.134 E165.12841
G1 X159.39 Y107.502 E165.21162
G1 X159.881 Y106.983 E165.27435
G1 X160.381 Y106.365 E165.34415
G1 X160.843 Y105.682 E165.41655
G1 X161.254 Y104.933 E165.49157
G1 X161.583 Y104.184 E165.5634
G1 X161.6 Y104.133 E165.56812
G1 X161.6 Y95.891 E166.29183
G1 X161.404 Y95.385 E166.33947
G1 X161.043 Y94.661 E166.41051
G1 X160.614 Y93.962 E166.48253
G1 X160.128 Y93.31 E166.55393
G1 X160 Y93.167 E166.57078
G1 X160 Y106.836 E167.77101
G0 F600 X160 Y106.836 Z0.47
G0 F7200 X161.819 Y95.351
;TIME_ELAPSED:102.338883

;LAYER:-3
;TYPE:SUPPORT
G1 F1800 X156.655 Y90.187 E168.32968
G1 X157.117 Y90.39 E168.36828
G1 X157.882 Y90.81 E168.43504
G1 X158.609 Y91.301 E168.50215
G1 X159.248 Y91.818 E168.56503
G1 X159.788 Y92.329 E168.62191
G1 X160.439 Y93.057 E168.69662
G1 X160.947 Y93.74 E168.76173
G1 X161.39 Y94.46 E168.8264
G1 X161.772 Y95.227 E168.89195
G1 X162.091 Y96.049 E168.9594
G1 X162.33 Y96.878 E169.0254
G1 X162.425 Y97.371 E169.06381
G1 X154.62 Y89.567 E169.90814
G1 X153.835 Y89.451 E169.96884
G1 X153.049 Y89.409 E170.02905
G1 X162.582 Y98.942 E171.06038
G1 X162.592 Y100.367 E171.16939
G1 X151.62 Y89.395 E172.3564
G1 X150.994 Y89.353 E172.40439
G1 X150.324 Y89.219 E172.45666
G1 X149.886 Y89.075 E172.49193
G1 X162.553 Y101.742 E173.86231
G1 X162.55 Y101.828 E173.86889
G1 X162.422 Y102.695 E173.93594
G1 X162.358 Y102.961 E173.95687
G1 X147.916 Y88.519 E175.51927
G1 X147.082 Y88.411 E175.58361
G1 X146.366 Y88.383 E175.63842
G1 X162.044 Y104.062 E177.3346
G1 X161.955 Y104.332 E177.35635
G1 X161.632 Y105.064 E177.41755
G1 X145.037 Y88.468 E179.21294
G1 X144.343 Y88.57 E179.2666
G1 X143.834 Y88.679 E179.30642
G1 X161.127 Y105.973 E181.17731
G1 X160.699 Y106.609 E181.23596
G1 X160.542 Y106.802 E181.25499
G1 X142.67 Y88.929 E183.18852
G1 X142.589 Y88.947 E183.19487
G1 X141.783 Y89.209 E183.25971
G1 X141.609 Y89.283 E183.27417
G1 X159.886 Y107.56 E185.25147
G1 X159.672 Y107.787 E185.27533
G1 X159.157 Y108.246 E185.3281
G1 X140.643 Y89.731 E187.33109
G1 X140.24 Y89.947 E187.36607
G1 X139.758 Y90.261 E187.41008
G1 X158.374 Y108.877 E189.42405
G1 X157.888 Y109.256 E189.4712
G1 X157.616 Y109.532 E189.50084
G1 X138.952 Y90.869 E191.51995
G1 X138.847 Y90.953 E191.53024
G1 X138.225 Y91.556 E191.59651
G1 X156.982 Y110.313 E193.62573
G1 X156.658 Y110.879 E193.67562
G1 X156.503 Y111.248 E193.70624
G1 X137.562 Y92.307 E195.75537
G1 X136.915 Y93.075 E195.83219
G1 X156.187 Y112.346 E197.91708
G1 X156.117 Y112.839 E197.95517
G1 X156.115 Y113.688 E198.02012
G1 X136.313 Y93.887 E200.16234
G1 X136.16 Y94.118 E200.18354
G1 X135.794 Y94.782 E200.24154
G1 X156.111 Y115.099 E202.43953
G1 X156.107 Y116.509 E202.54739
G1 X135.362 Y95.764 E204.79169
G1 X135.124 Y96.481 E204.84948
G1 X135.034 Y96.851 E204.87861
G1 X156.104 Y117.92 E207.15801
G1 X156.1 Y119.331 E207.26595
G1 X134.816 Y98.047 E209.56856
G1 X134.8 Y98.172 E209.5782
G1 X134.753 Y99.068 E209.64684
G1 X134.751 Y99.396 E209.67193
G1 X156.097 Y120.742 E211.98125
G1 X156.097 Y120.932 E211.99578
G1 X156.05 Y121.828 E212.06442
G1 X156.013 Y122.072 E212.0833
G1 X134.751 Y100.81 E214.38353
G1 X134.749 Y102.222 E214.49154
G1 X155.787 Y123.26 E216.76754
G1 X155.726 Y123.519 E216.78789
G1 X155.455 Y124.332 E216.85345
G1 X155.451 Y124.339 E216.85407
G1 X134.749 Y103.636 E219.09376
G1 X134.75 Y104.018 E219.12299
G1 X134.666 Y104.957 E219.19511
G1 X134.663 Y104.965 E219.19576
G1 X155.005 Y125.307 E221.39646
G1 X154.69 Y125.882 E221.44661
G1 X154.478 Y126.194 E221.47547
G1 X134.334 Y106.05 E223.65475
G1 X134.254 Y106.262 E223.67208
G1 X133.93 Y106.862 E223.72424
G1 X133.846 Y106.976 E223.73508
G1 X153.877 Y127.006 E225.90207
G1 X153.682 Y127.248 E225.92585
G1 X153.206 Y127.75 E225.97877
G1 X133.213 Y107.758 E228.14166
G1 X133.067 Y107.918 E228.15823
G1 X132.543 Y108.356 E228.21047
G1 X132.454 Y108.412 E228.21852
G1 X152.462 Y128.42 E230.38308
G1 X152.447 Y128.435 E230.3847
G1 X151.76 Y128.947 E230.45025
G1 X151.644 Y129.017 E230.46061
G1 X131.549 Y108.922 E232.63459
G1 X131.351 Y109.016 E232.65135
G1 X130.702 Y109.229 E232.70361
G1 X130.483 Y109.27 E232.72065
G1 X150.748 Y129.534 E234.91297
G1 X150.273 Y129.772 E234.95361
G1 X149.766 Y129.967 E234.99516
G1 X129.199 Y109.4 E237.2202
G1 X127.784 Y109.4 E237.32845
G1 X148.693 Y130.309 E239.59049
G1 X148.628 Y130.329 E239.59569
G1 X147.787 Y130.492 E239.66122
G1 X147.492 Y130.522 E239.68391
G1 X126.37 Y109.4 E241.96899
G1 X124.956 Y109.4 E242.07716
G1 X146.155 Y130.599 E244.37057
G1 X144.741 Y130.599 E244.47874
G1 X123.542 Y109.4 E246.77215
G1 X122.127 Y109.4 E246.8804
G1 X143.327 Y130.599 E249.17386
G1 X141.912 Y130.599 E249.28211
G1 X120.713 Y109.4 E251.57552
G1 X119.299 Y109.4 E251.68369
G1 X140.498 Y130.599 E253.9771
G1 X139.084 Y130.599 E254.08527
G1 X117.885 Y109.4 E256.37868
G1 X116.471 Y109.4 E256.48685
G1 X137.67 Y130.599 E258.78026
G1 X136.255 Y130.599 E258.88851
G1 X115.056 Y109.4 E261.18192
G1 X113.642 Y109.4 E261.29009
G1 X134.841 Y130.599 E263.5835
G1 X133.427 Y130.599 E263.69167
G1 X112.228 Y109.4 E265.98508
G1 X110.814 Y109.4 E266.09325
G1 X132.013 Y130.599 E268.38667
G1 X130.599 Y130.599 E268.49483
G1 X109.399 Y109.399 E270.78835
G1 X107.985 Y109.399 E270.89652
G1 X129.184 Y130.599 E273.18999
G1 X127.77 Y130.599 E273.29816
G1 X106.57 Y109.399 E275.59168
G1 X105.156 Y109.399 E275.69985
G1 X126.356 Y130.599 E277.99337
G1 X124.942 Y130.599 E278.10154
G1 X103.742 Y109.399 E280.39506
G1 X102.328 Y109.399 E280.50323
G1 X123.528 Y130.599 E282.79675
G1 X122.113 Y130.599 E282.90499
G1 X100.914 Y109.399 E285.19846
G1 X99.499 Y109.399 E285.30671
G1 X120.699 Y130.599 E287.60023
G1 X119.285 Y130.599 E287.7084
G1 X98.085 Y109.399 E290.00192
G1 X96.671 Y109.399 E290.11008
G1 X117.871 Y130.599 E292.40361
G1 X116.456 Y130.599 E292.51185
G1 X95.257 Y109.399 E294.80532
G1 X93.842 Y109.399 E294.91356
G1 X115.042 Y130.599 E297.20708
G1 X113.628 Y130.599 E297.31525
G1 X92.428 Y109.399 E299.60877
G1 X90.632 Y109.4 E299.74616
G1 X89.693 Y109.316 E299.81828
G1 X89.458 Y109.257 E299.83682
G1 X110.8 Y130.599 E302.1457
G1 X112.214 Y130.599 E302.25387
G1 X91.014 Y109.399 E304.54739
G0 F7200 X88.582 Y108.485
G0 X88.031 Y108.188
G0 X87.069 Y107.401
G0 X86.665 Y106.918
G0 X86.33 Y106.394
G0 X86.062 Y105.83
G0 X82.521 Y92.42
G1 F1800 X82.258 Y92.157 E304.57584
G1 X82.438 Y92.329 E304.59489
G1 X83.089 Y93.057 E304.6696
G1 X83.597 Y93.74 E304.73471
G1 X84.04 Y94.46 E304.79938
G1 X84.422 Y95.227 E304.86493
G1 X84.741 Y96.049 E304.93238
G1 X84.744 Y96.058 E304.93311
G1 X78.605 Y89.919 E305.59726
G1 X78.176 Y89.776 E305.63185
G1 X77.347 Y89.578 E305.69705
G1 X76.763 Y89.491 E305.74222
G1 X85.161 Y97.889 E306.65076
G1 X85.229 Y98.529 E306.69999
G1 X85.232 Y99.374 E306.76463
G1 X75.258 Y89.4 E307.84367
G1 X73.847 Y89.403 E307.95161
G1 X85.238 Y100.794 E309.18394
