;FLAVOR:Marlin
;TIME:6053
;Filament used:3.51234m
;Layer height: 0.2
;MINX:50.378
;MINY:85.699
;MINZ:0.24
;MAXX:169.622
;MAXY:134.3
;MAXZ:9.06
                               
;Creality Print GCode Generated by CXEngine:NO_MAGE_VERSION_GIT_HEAD_BRANCH
;CXEngine Release Time:2022-09-30 09:53:04
;Gcode Generated Time:2023-07-03 21:59:33
;----------Machine Config--------------
;Machine Name:Ender-3 V2
;Machine Height:250
;Machine Width:220
;Machine Depth:220
;Material name:PLA
;Number of Extruders:1
;ExtruderParams[0] Nozzle Diameter1000
;----------Profile Config---------------
;Engine Version:275f99b
;Engine Release Time:2022-09-30 09:42:18
;Layer Height:0.2
;Wall Thickness:0.8
;Top/Bottom Thickness:1
;Out Wall Line Width:0.4
;Inner Wall Line Width:0.4
;Inital Layer Height:200
;Wall Line Count:2
;Infill Line Distance:4
;Infill Pattern:grid
;Infill Sparse Density:20
;Infill Wipe Distance:0
;Print Temperature:200
;Bed Temperature:60
;Support Enable:true
;Support Density:0
;Support Angle:60
;Adhesion Type:simpleraft
;machine is belt:false
;machine belt offset:10
;machine belt offset Y:0
;Raft Base Line Spacing:1.6
;Wait Heatup Sync:true
;----------Shell Config----------------
;Outer Wall Wipe Distance:200
;Outer Inset First:false
;Infill Before Walls:false
;Infill Overlap:0.16
;Fill Gaps Between Walls:everywhere
;Minimum Infill Area:1
;Top Surface Skin Layer:0
;Top Layers:3
;Z Seam Alignment:sharpest_corner
;Seam Corner Preference:z_seam_corner_inner
;Z Seam X:110
;Z Seam Y:110
;Horizontal Expansion:0
;Top/Bottom Pattern:zigzag
;Ironing Pattern:zigzag
;Vase Model:false
;----------Support Config----------------
;Support Type:everywhere
;Support Pattern:zigzag
;Support Infill Layer Thickness:0.2
;Minimum Support Area:5
;Enable Support Roof:false
;Support Roof Thickness:0.8
;Support Roof Pattern:lines
;Connect Support Lines:0
;Connect Support ZigZags:1
;Minimum Support X/Y Distance:0.2
;Support Line Distance:0
; ---------PrintSpeed & Travel----------
;Enable Print Cool:true
;Avoid Printed Parts Traveling:true
;Enable Retraction:false
;Retraction Distance:8
;Retraction Speed:100
;Retraction Prime Speed:100
;Maximum Retraction Count:100
;Minimum Extrusion Distance Window:8
;Z Hop When Retracted:false
;Z Hop Height:0.2
;Retract Before Outer Wall:true
;Print Speed:50
;Infill Speed:50

;Prime Tower Speed:50
;Travel Speed:120
;Initial Layer Speed:25
;Skirt/Brim Speed:25
;Combing Mode:infill
; --------SpecialModel&Mesh Fixes--------
;Union Overlapping Volum:true
;Remove All Holes:false
;Maximum Travel Resolution:0.6
;Maximum Deviation:0.05
;Maximum Model Angle:0.872665
;IS Mold Print:false
;Make Overhang Printable:false
;Enable Coasting:false
;Coasting Volumes:0.06
;Coasting Speed:0.9
;Raft AirGap:0.25
;Layer0 ZOverLap:0.13
;---------------------End of Head--------------------------
M140 S60
M105
M104 S200
M105
M109 S200
M105
M190 S60
M82 ;absolute extrusion mode
M220 S100 ;Reset Feedrate
M221 S100 ;Reset Flowrate

G28 ;Home

G92 E0 ;Reset Extruder
G1 Z2.0 F3000 ;Move Z Axis up
G1 X10.1 Y20 Z0.28 F5000.0 ;Move to start position
G1 X10.1 Y145.0 Z0.28 F1500.0 E15 ;Draw the first line
G1 X10.4 Y145.0 Z0.28 F5000.0 ;Move to side a little
G1 X10.4 Y20 Z0.28 F1500.0 E30 ;Draw the second line
G92 E0  ;Reset Extruder
G1 E-1.0000 F1800 ;Retract a bit
G1 Z2.0 F3000 ;Move Z Axis up
G1 E0.0000 F1800 

G92 E0

;LAYER_COUNT:40

;LAYER:-4
M107
G0 F7200 X51.2 Y100.653 Z0.24
;TYPE:SUPPORT-INTERFACE
G1 F1200 X51.2 Y106.348 E0.50006
G1 X51.079 Y105.727 E0.55561
G1 X50.995 Y104.93 E0.62598
G1 X50.978 Y102.565 E0.83365
G1 X51.023 Y101.719 E0.90804
G1 X51.147 Y100.876 E0.98286
G1 X51.335 Y100.085 E1.05425
G1 X51.592 Y99.316 E1.12544
G1 X51.921 Y98.567 E1.19727
G1 X52.332 Y97.818 E1.27229
G1 X52.794 Y97.135 E1.3447
G1 X52.8 Y97.127 E1.34557
G1 X52.8 Y109.858 E2.46344
G1 X53.047 Y110.19 E2.49978
G1 X53.678 Y110.895 E2.58285
G1 X54.189 Y111.379 E2.64466
G1 X54.4 Y111.544 E2.66818
G1 X54.4 Y95.447 E4.0816
G1 X54.479 Y95.377 E4.09087
G1 X55.137 Y94.886 E4.16296
G1 X55.83 Y94.46 E4.23439
G1 X56 Y94.375 E4.25108
G1 X56 Y112.918 E5.87928
G1 X56.354 Y113.343 E5.92784
G1 X56.75 Y113.961 E5.99229
G1 X57.063 Y114.624 E6.05667
G1 X57.292 Y115.32 E6.12101
G1 X57.431 Y116.041 E6.18548
G1 X57.475 Y116.747 E6.24759
G1 X57.495 Y124.931 E6.96621
G1 X57.579 Y125.726 E7.0364
G1 X57.6 Y125.834 E7.04606
G1 X57.6 Y93.716 E9.86624
G1 X58.135 Y93.562 E9.91512
G1 X58.948 Y93.404 E9.98785
G1 X59.2 Y93.377 E10.0101
G1 X59.2 Y129.724 E13.20161
G1 X59.547 Y130.19 E13.25263
G1 X60.178 Y130.895 E13.33571
G1 X60.692 Y131.381 E13.39782
G1 X60.8 Y131.468 E13.41
G1 X60.8 Y93.318 E16.75982
G1 X62.4 Y93.314 E16.90031
G1 X62.4 Y132.566 E20.34691
G1 X62.738 Y132.752 E20.38078
G1 X63.483 Y133.079 E20.45222
G1 X64 Y133.252 E20.50009
G1 X64 Y93.309 E24.00736
G1 X65.6 Y93.305 E24.14785
G1 X65.6 Y133.609 E27.68681
G1 X65.876 Y133.65 E27.71131
G1 X66.888 Y133.7 E27.80028
G1 X67.2 Y133.7 E27.82768
G1 X67.2 Y93.301 E31.37498
G1 X67.749 Y93.3 E31.42319
G1 X68.455 Y93.256 E31.4853
G1 X68.8 Y93.189 E31.51616
G1 X68.8 Y133.7 E35.0733
G1 X70.4 Y133.7 E35.21379
G1 X70.4 Y92.638 E38.81931
G1 X70.535 Y92.575 E38.83239
G1 X71.153 Y92.179 E38.89684
G1 X71.716 Y91.709 E38.96124
G1 X72 Y91.402 E38.99796
G1 X72 Y133.7 E42.71201
G1 X73.6 Y133.7 E42.8525
G1 X73.6 Y89.35 E46.74673
G1 X73.928 Y89.005 E46.78853
G1 X74.635 Y88.372 E46.87186
G1 X75.2 Y87.95 E46.93378
G1 X75.2 Y133.7 E50.95094
G1 X76.8 Y133.7 E51.09143
G1 X76.8 Y87.061 E55.18665
G1 X77.503 Y86.788 E55.25287
G1 X78.285 Y86.562 E55.32434
G1 X78.4 Y86.539 E55.33464
G1 X78.4 Y133.7 E59.47569
G1 X80 Y133.7 E59.61618
G1 X80 Y86.317 E63.77673
G1 X80.493 Y86.3 E63.82005
G1 X81.6 Y86.3 E63.91725
G1 X81.6 Y133.7 E68.07929
G1 X83.2 Y133.7 E68.21978
G1 X83.2 Y86.3 E72.38182
G1 X84.8 Y86.3 E72.52231
G1 X84.8 Y133.7 E76.68435
G1 X86.4 Y133.7 E76.82484
G1 X86.4 Y86.3 E80.98688
G1 X88 Y86.3 E81.12737
G1 X88 Y133.7 E85.28941
G1 X89.6 Y133.7 E85.42991
G1 X89.6 Y86.3 E89.59195
G1 X91.2 Y86.3 E89.73244
G1 X91.2 Y133.7 E93.89448
G1 X92.8 Y133.7 E94.03497
G1 X92.8 Y86.3 E98.19701
G1 X94.4 Y86.3 E98.3375
G1 X94.4 Y133.7 E102.49954
G1 X96 Y133.7 E102.64003
G1 X96 Y86.3 E106.80207
G1 X97.6 Y86.3 E106.94256
G1 X97.6 Y133.7 E111.1046
G1 X99.2 Y133.7 E111.24509
G1 X99.2 Y86.3 E115.40713
G1 X100.8 Y86.3 E115.54762
G1 X100.8 Y133.7 E119.70967
G1 X102.4 Y133.7 E119.85016
G1 X102.4 Y86.3 E124.0122
G1 X104 Y86.3 E124.15269
G1 X104 Y133.7 E128.31473
G1 X105.6 Y133.7 E128.45522
G1 X105.6 Y86.3 E132.61726
G1 X107.2 Y86.3 E132.75775
G1 X107.2 Y133.7 E136.91979
G1 X108.8 Y133.7 E137.06028
G1 X108.8 Y86.3 E141.22232
G1 X110.4 Y86.3 E141.36281
G1 X110.4 Y133.7 E145.52485
G1 X112 Y133.7 E145.66534
G1 X112 Y86.3 E149.82738
G1 X113.6 Y86.3 E149.96788
G1 X113.6 Y133.7 E154.12992
G1 X115.2 Y133.7 E154.27041
G1 X115.2 Y86.3 E158.43245
G1 X116.8 Y86.3 E158.57294
G1 X116.8 Y133.7 E162.73498
G1 X118.4 Y133.7 E162.87547
G1 X118.4 Y86.3 E167.03751
G1 X120 Y86.3 E167.178
G1 X120 Y133.7 E171.34004
G1 X121.6 Y133.7 E171.48053
G1 X121.6 Y86.3 E175.64257
G1 X123.2 Y86.3 E175.78306
G1 X123.2 Y133.7 E179.9451
G1 X124.8 Y133.7 E180.08559
G1 X124.8 Y86.3 E184.24764
G1 X126.4 Y86.3 E184.38813
G1 X126.4 Y133.7 E188.55017
G1 X128 Y133.7 E188.69066
G1 X128 Y86.3 E192.8527
G1 X129.6 Y86.3 E192.99319
G1 X129.6 Y133.7 E197.15523
G1 X131.2 Y133.7 E197.29572
G1 X131.2 Y86.3 E201.45776
G1 X132.8 Y86.3 E201.59825
G1 X132.8 Y133.7 E205.76029
G1 X134.4 Y133.7 E205.90078
G1 X134.4 Y86.3 E210.06282
G1 X136 Y86.3 E210.20331
G1 X136 Y133.7 E214.36535
G1 X137.6 Y133.7 E214.50585
G1 X137.6 Y86.3 E218.66789
G1 X139.2 Y86.3 E218.80838
G1 X139.2 Y133.7 E222.97042
G1 X139.507 Y133.7 E222.99737
G1 X140.114 Y133.679 E223.0507
G1 X140.8 Y133.607 E223.11127
G1 X140.8 Y86.3 E227.26515
G1 X142.4 Y86.3 E227.40564
G1 X142.4 Y133.241 E231.52737
G1 X142.497 Y133.212 E231.53626
G1 X143.29 Y132.904 E231.61096
G1 X144 Y132.55 E231.68062
G1 X144 Y86.3 E235.74169
G1 X145.6 Y86.3 E235.88218
G1 X145.6 Y131.418 E239.84384
G1 X146.065 Y131.002 E239.89863
G1 X146.556 Y130.483 E239.96136
G1 X147.056 Y129.865 E240.03116
G1 X147.2 Y129.653 E240.05366
G1 X147.2 Y86.3 E243.86035
G1 X148.8 Y86.3 E244.00084
G1 X148.8 Y126.043 E247.49055
G1 X148.807 Y126.021 E247.49257
G1 X148.846 Y126.034 E247.49618
G1 X149.174 Y125.426 E247.55684
G1 X149.603 Y124.828 E247.62147
G1 X150.101 Y124.291 E247.68577
G1 X150.4 Y124.042 E247.71994
G1 X150.4 Y86.3 E251.03394
G1 X152 Y86.3 E251.17443
G1 X152 Y123.094 E254.40519
G1 X152.641 Y122.883 E254.46445
G1 X153.362 Y122.744 E254.52892
G1 X153.6 Y122.73 E254.54986
G1 X153.6 Y86.325 E257.74646
G1 X154.124 Y86.35 E257.79253
G1 X154.949 Y86.472 E257.86575
G1 X155.2 Y86.532 E257.88841
G1 X155.2 Y122.697 E261.06395
G1 X156.8 Y122.691 E261.20444
G1 X156.8 Y87.046 E264.33431
G1 X157.258 Y87.246 E264.37819
G1 X158.007 Y87.657 E264.45321
G1 X158.4 Y87.923 E264.49488
G1 X158.4 Y122.686 E267.54731
G1 X160 Y122.68 E267.6878
G1 X160 Y89.304 E270.61844
G1 X160.453 Y89.81 E270.67807
G1 X160.945 Y90.47 E270.75035
G1 X161.354 Y91.134 E270.81883
G1 X161.6 Y91.628 E270.86729
G1 X161.6 Y122.49 E273.57718
G1 X161.865 Y122.438 E273.60089
G1 X162.647 Y122.212 E273.67237
G1 X163.2 Y121.998 E273.72443
G1 X163.2 Y101.934 E275.48619
G1 X163.25 Y102.039 E275.4964
G1 X163.646 Y102.657 E275.56085
G1 X164.124 Y103.23 E275.62637
G1 X164.8 Y103.82 E275.70516
G1 X164.8 Y121.153 E277.22711
G1 X164.862 Y121.114 E277.23354
G1 X165.519 Y120.624 E277.30551
G1 X166.215 Y120.002 E277.38747
G1 X166.706 Y119.483 E277.4502
G1 X167.206 Y118.865 E277.52
G1 X167.668 Y118.182 E277.59241
G1 X168 Y117.577 E277.653
G1 X168 Y107.427 E278.54424
G1 X167.854 Y107.134 E278.57299
G1 X167.445 Y106.47 E278.64146
G1 X166.953 Y105.81 E278.71375
G1 X166.4 Y105.192 E278.78657
G1 X166.4 Y119.807 E280.06986
G0 F600 X166.4 Y119.807 Z0.54
G0 F7200 X163.426 Y99.853
G0 X162.646 Y93.35
;TIME_ELAPSED:163.550642

;LAYER:-3
;TYPE:SUPPORT
G1 F1800 X155.485 Y86.189 E281.08036
G1 X155.851 Y86.276 E281.11789
G1 X156.657 Y86.546 E281.20271
G1 X157.442 Y86.89 E281.28823
G1 X157.795 Y87.085 E281.32847
G1 X161.757 Y91.046 E281.88748
G1 X162.097 Y91.727 E281.96342
G1 X162.416 Y92.549 E282.0514
G1 X162.655 Y93.378 E282.13749
G1 X162.817 Y94.213 E282.22236
G1 X162.902 Y95.02 E282.30333
G1 X153.816 Y85.933 E283.58553
G1 X153.132 Y85.9 E283.65386
G1 X152.368 Y85.9 E283.73009
G1 X162.911 Y96.443 E285.21783
G1 X162.918 Y97.864 E285.35962
G1 X150.953 Y85.9 E287.04794
G1 X149.539 Y85.9 E287.18902
G1 X162.928 Y99.288 E289.07829
G1 X162.967 Y99.908 E289.14027
G1 X163.096 Y100.579 E289.20845
G1 X163.237 Y101.011 E289.25379
G1 X148.125 Y85.9 E291.38619
G1 X146.711 Y85.9 E291.52728
G1 X168.632 Y107.821 E294.62057
G1 X168.916 Y108.549 E294.69854
G1 X169.155 Y109.378 E294.78463
G1 X169.245 Y109.848 E294.83238
G1 X145.297 Y85.9 E298.2117
G1 X143.882 Y85.9 E298.35289
G1 X169.406 Y111.423 E301.95453
G1 X169.417 Y112.848 E302.09672
G1 X142.468 Y85.9 E305.89945
G1 X141.054 Y85.9 E306.04054
G1 X169.38 Y114.226 E310.03764
G1 X169.375 Y114.328 E310.04783
G1 X169.247 Y115.195 E310.13528
G1 X169.186 Y115.446 E310.16105
G1 X139.64 Y85.9 E314.33031
G1 X138.225 Y85.9 E314.4715
G1 X168.874 Y116.548 E318.79634
G1 X168.78 Y116.832 E318.82619
G1 X168.463 Y117.551 E318.90459
G1 X136.811 Y85.9 E323.37096
G1 X135.397 Y85.9 E323.51205
G1 X167.96 Y118.463 E328.10704
G1 X167.524 Y119.109 E328.18481
G1 X167.375 Y119.292 E328.20835
G1 X133.983 Y85.9 E332.92032
G1 X132.569 Y85.9 E333.06141
G1 X166.72 Y120.051 E337.88049
G1 X166.497 Y120.287 E337.91289
G1 X165.991 Y120.737 E337.98045
G1 X131.154 Y85.9 E342.89633
G1 X129.74 Y85.9 E343.03742
G1 X165.2 Y121.36 E348.04121
G1 X165.085 Y121.447 E348.0556
G1 X164.371 Y121.887 E348.13928
G1 X164.331 Y121.905 E348.14366
G1 X128.326 Y85.9 E353.22435
G1 X126.912 Y85.9 E353.36544
G1 X163.371 Y122.359 E358.5102
G1 X162.78 Y122.59 E358.57352
G1 X162.32 Y122.722 E358.62127
G1 X125.498 Y85.9 E363.81725
G1 X124.083 Y85.9 E363.95844
G1 X161.165 Y122.981 E369.19104
G1 X161.112 Y122.992 E369.19644
G1 X160.291 Y123.079 E369.27882
G1 X159.849 Y123.08 E369.32292
G1 X122.669 Y85.9 E374.56942
G1 X121.255 Y85.9 E374.71051
G1 X158.44 Y123.084 E379.95765
G1 X157.03 Y123.089 E380.09834
G1 X119.841 Y85.9 E385.34611
G1 X118.426 Y85.9 E385.4873
G1 X155.621 Y123.094 E390.73584
G1 X154.212 Y123.099 E390.87643
G1 X117.012 Y85.9 E396.12569
G1 X115.598 Y85.9 E396.26678
G1 X152.932 Y123.233 E401.53494
G1 X152.742 Y123.271 E401.55427
G1 X152.093 Y123.484 E401.62243
G1 X151.872 Y123.588 E401.6468
G1 X114.184 Y85.9 E406.96498
G1 X112.77 Y85.9 E407.10607
G1 X150.969 Y124.099 E412.49636
G1 X150.901 Y124.144 E412.5045
G1 X150.377 Y124.582 E412.57264
G1 X150.213 Y124.757 E412.59657
G1 X111.355 Y85.9 E418.07979
G1 X109.941 Y85.9 E418.22088
G1 X149.582 Y125.541 E423.81465
G1 X149.514 Y125.638 E423.82647
G1 X149.188 Y126.242 E423.89496
G1 X149.102 Y126.475 E423.91974
G1 X108.527 Y85.9 E429.64531
G1 X107.113 Y85.9 E429.7864
G1 X148.732 Y127.519 E435.65929
G1 X148.63 Y127.832 E435.69214
G1 X148.324 Y128.525 E435.76773
G1 X105.699 Y85.9 E441.78257
G1 X104.284 Y85.9 E441.92376
G1 X147.825 Y129.44 E448.0678
G1 X147.374 Y130.109 E448.1483
G1 X147.242 Y130.271 E448.16915
G1 X102.87 Y85.9 E454.43045
G1 X101.456 Y85.9 E454.57154
G1 X146.588 Y131.031 E460.94008
G1 X146.347 Y131.287 E460.97517
G1 X145.861 Y131.719 E461.04005
G1 X100.042 Y85.9 E467.5056
G1 X98.627 Y85.9 E467.64679
G1 X145.071 Y132.343 E474.20047
G1 X144.935 Y132.447 E474.21756
G1 X144.221 Y132.887 E474.30124
G1 X144.206 Y132.892 E474.30282
G1 X97.213 Y85.9 E480.93397
G1 X95.799 Y85.9 E481.07506
G1 X143.248 Y133.349 E487.77063
G1 X142.63 Y133.59 E487.83681
G1 X142.199 Y133.713 E487.88153
G1 X94.385 Y85.9 E494.62854
G1 X92.971 Y85.9 E494.76963
G1 X141.045 Y133.974 E501.55339
G1 X140.962 Y133.992 E501.56186
G1 X140.141 Y134.079 E501.64424
G1 X139.748 Y134.091 E501.68347
G1 X91.556 Y85.9 E508.48381
G1 X90.142 Y85.9 E508.6249
G1 X138.341 Y134.099 E515.4263
G1 X136.927 Y134.099 E515.56739
G1 X88.728 Y85.9 E522.36879
G1 X87.314 Y85.9 E522.50988
G1 X135.513 Y134.099 E529.31128
G1 X134.099 Y134.099 E529.45237
G1 X85.9 Y85.9 E536.25377
G1 X84.485 Y85.9 E536.39496
G1 X132.685 Y134.099 E543.19643
G1 X131.27 Y134.099 E543.33762
G1 X83.071 Y85.9 E550.13902
G1 X81.657 Y85.9 E550.28011
G1 X129.856 Y134.099 E557.08151
G1 X128.442 Y134.099 E557.2226
G1 X80.25 Y85.907 E564.02301
G1 X79.859 Y85.921 E564.06205
G1 X79.038 Y86.008 E564.14443
G1 X78.953 Y86.024 E564.15306
G1 X127.028 Y134.099 E570.93696
G1 X125.613 Y134.099 E571.07815
G1 X77.8 Y86.285 E577.82515
G1 X77.37 Y86.41 E577.86983
G1 X76.75 Y86.65 E577.93617
G1 X124.199 Y134.099 E584.63174
G1 X122.785 Y134.099 E584.77283
G1 X75.792 Y87.106 E591.40405
G1 X75.779 Y87.113 E591.40552
G1 X75.065 Y87.553 E591.48921
G1 X74.927 Y87.655 E591.50633
G1 X121.371 Y134.099 E598.06008
G1 X119.957 Y134.099 E598.20117
G1 X74.137 Y88.279 E604.66687
G1 X73.653 Y88.714 E604.7318
G1 X73.411 Y88.967 E604.76673
G1 X118.542 Y134.099 E611.13527
G1 X117.128 Y134.099 E611.27636
G1 X72.757 Y89.727 E617.53766
G1 X72.614 Y89.906 E617.56052
G1 X72.162 Y90.547 E617.63878
G1 X115.714 Y134.099 E623.78444
G1 X114.3 Y134.099 E623.92553
G1 X71.525 Y91.324 E629.96155
G1 X71.44 Y91.418 E629.97419
G1 X70.916 Y91.856 E630.04234
G1 X70.749 Y91.962 E630.06207
G1 X112.886 Y134.099 E636.00806
G1 X111.471 Y134.099 E636.14925
G1 X69.835 Y92.463 E642.02454
G1 X69.724 Y92.516 E642.03681
G1 X69.075 Y92.729 E642.10497
G1 X68.749 Y92.79 E642.13806
G1 X110.057 Y134.099 E647.96714
G1 X108.643 Y134.099 E648.10823
G1 X67.444 Y92.9 E653.92185
G1 X66.033 Y92.903 E654.06264
G1 X107.229 Y134.099 E659.87584
G1 X105.814 Y134.099 E660.01703
G1 X64.623 Y92.907 E665.8296
G1 X63.212 Y92.911 E665.97039
G1 X104.4 Y134.099 E671.78246
G1 X102.986 Y134.099 E671.92355
G1 X61.802 Y92.915 E677.73506
G1 X60.391 Y92.918 E677.87585
G1 X101.572 Y134.099 E683.68693
G1 X100.158 Y134.099 E683.82802
G1 X59.049 Y92.99 E689.62894
G1 X58.888 Y93.008 E689.64511
G1 X58.047 Y93.171 E689.73059
G1 X57.867 Y93.222 E689.74925
G1 X98.743 Y134.099 E695.51737
G1 X97.329 Y134.099 E695.65846
G1 X56.802 Y93.572 E701.37726
