; HEADER_BLOCK_START
; generated by OrcaSlicer 2.1.1 on 2025-01-04 at 16:11:50
; total layer number: 36
; filament_density: 1.27
; filament_diameter: 1.75
; max_z_height: 3.00
; HEADER_BLOCK_END

; THUMBNAIL_BLOCK_START

;
; THUMBNAIL_BLOCK_END







; external perimeters extrusion width = 0.40mm
; perimeters extrusion width = 0.45mm
; infill extrusion width = 0.45mm
; solid infill extrusion width = 0.45mm
; top infill extrusion width = 0.38mm
; first layer extrusion width = 0.42mm

; EXECUTABLE_BLOCK_START
EXCLUDE_OBJECT_DEFINE NAME=电池盒固定架_-_封盖.STL_id_0_copy_0 CENTER=117.5,115 POLYGON=[[87.75,63.1],[147.25,63.1],[147.25,166.9],[87.75,166.9],[87.75,63.1]]
M73 P0 R50
;TYPE:Custom
;ELEGOO NEPTUNE 4 PRO
M220 S100 ;Set the feed speed to 100%
M221 S100 ;Set the flow rate to 100%
M104 S140
M190 S70
G90
G28 ;home
G1 Z10 F300
G1 X67.5 Y0 F6000
G1 Z0 F300
M109 S240
G92 E0 ;Reset Extruder
G1 X67.5 Y0 Z0.4 F300 ;Move to start position
G1 X167.5 E30 F400 ;Draw the first line
G1 Z0.6 F120.0 ;Move to side a little
G1 X162.5 F3000
G92 E0 ;Reset Extruder
G90
G21
M83 ; use relative distances for extrusion
; filament start gcode
M106 S0
;LAYER_CHANGE
;Z:0.2
;HEIGHT:0.2
;BEFORE_LAYER_CHANGE
G92 E0
;0.2


G1 E-.8 F3600
;AFTER_LAYER_CHANGE
;0.2
;_SET_FAN_SPEED_CHANGING_LAYER
SET_VELOCITY_LIMIT ACCEL=1000 ACCEL_TO_DECEL=500
SET_VELOCITY_LIMIT SQUARE_CORNER_VELOCITY=7
; printing object 电池盒固定架 - 封盖.STL id:0 copy 0
EXCLUDE_OBJECT_START NAME=电池盒固定架_-_封盖.STL_id_0_copy_0
G1 X140 Y94.049 F21000
G1 Z.4
G1 Z.2
G1 E.8 F2700
;TYPE:Inner wall
;WIDTH:0.419999
G1 F3000
G1 X139.913 Y94.232 E.00603
G1 X139.724 Y94.488 E.00948
G1 X139.345 Y94.831 E.01525
G1 X138.787 Y95.089 E.01829
G1 X138.243 Y95.158 E.01633
G1 X137.927 Y95.131 E.00945
G1 X137.46 Y94.998 E.01445
G1 X137.018 Y94.721 E.01556
G1 X136.785 Y94.498 E.0096
G1 X136.492 Y94.078 E.01526
G1 X136.325 Y93.57 E.01591
G1 X136.295 Y93.29 E.0084
G1 X136.331 Y92.778 E.01527
G1 X136.52 Y92.278 E.01593
G1 X136.672 Y92.041 E.00838
G1 X137.03 Y91.66 E.01557
G1 X137.495 Y91.39 E.01602
G1 X137.749 Y91.308 E.00795
G1 X138.319 Y91.239 E.01711
G1 X138.736 Y91.304 E.01257
G1 X139.201 Y91.481 E.01481
G1 X139.609 Y91.791 E.01528
G1 X139.82 Y92.031 E.00949
G1 X140.072 Y92.465 E.01496
G1 X140.193 Y92.958 E.01512
G1 X140.206 Y93.276 E.00949
G1 X140.128 Y93.777 E.0151
G1 X140.017 Y94.013 E.00775
G1 X139.65 Y93.898 F21000
G1 F3000
G1 X139.525 Y94.146 E.00828
G1 X139.136 Y94.517 E.01602
G1 X138.675 Y94.729 E.01509
G1 X138.167 Y94.784 E.01524
G1 X137.662 Y94.672 E.0154
G1 X137.187 Y94.377 E.01665
G1 X136.875 Y93.985 E.01494
G1 X136.696 Y93.495 E.01553
G1 X136.686 Y92.961 E.01593
G1 X136.855 Y92.453 E.01593
G1 X137.183 Y92.031 E.01593
G1 X137.634 Y91.743 E.01593
G1 X138.148 Y91.621 E.01575
G1 X138.536 Y91.639 E.01157
G1 X139.02 Y91.812 E.0153
G1 X139.44 Y92.149 E.01603
G1 X139.722 Y92.607 E.01603
G1 X139.836 Y93.132 E.01602
G1 X139.768 Y93.666 E.01602
G1 X139.668 Y93.862 E.00655
G1 X139.316 Y93.731 F21000
;TYPE:Outer wall
G1 F3000
G1 X139.202 Y93.944 E.00718
G1 X138.9 Y94.218 E.01215
G1 X138.523 Y94.377 E.01217
G1 X138.116 Y94.401 E.01216
G1 X137.759 Y94.306 E.01099
G1 X137.391 Y94.05 E.01336
G1 X137.157 Y93.715 E.01216
G1 X137.048 Y93.322 E.01216
G1 X137.076 Y92.914 E.01216
G1 X137.238 Y92.54 E.01216
G1 X137.516 Y92.24 E.01216
G1 X137.877 Y92.051 E.01216
G1 X138.26 Y91.991 E.01152
G1 X138.485 Y92.015 E.00676
G1 X138.867 Y92.161 E.01217
G1 X139.178 Y92.426 E.01216
G1 X139.383 Y92.779 E.01216
G1 X139.458 Y93.181 E.01216
G1 X139.395 Y93.584 E.01216
G1 X139.335 Y93.696 E.00379
G1 E-.68 F3600
;WIPE_START
G1 F3000
G1 X139.202 Y93.944 E-.03374
G1 X138.9 Y94.218 E-.04897
G1 X138.614 Y94.339 E-.03729
;WIPE_END
G1 X138.374 Y101.967 Z.6 F21000
G1 X136.449 Y163.282 Z.6
G1 Z.2
G1 E.8 F2700
;TYPE:Inner wall
G1 F3000
G1 X136.331 Y163.581 E.00958
G1 X136.294 Y164.086 E.01509
G1 X136.334 Y164.4 E.0094
G1 X136.436 Y164.735 E.01045
G1 X136.58 Y165.022 E.00954
G1 X136.784 Y165.297 E.01022
G1 X137.014 Y165.518 E.00949
G1 X137.301 Y165.712 E.01033
G1 X137.575 Y165.836 E.00894
G1 X97.423 Y165.836 E1.19599
G1 X97.711 Y165.705 E.00942
G1 X97.975 Y165.527 E.0095
G1 X98.225 Y165.287 E.01031
G1 X98.415 Y165.03 E.00951
G1 X98.57 Y164.721 E.0103
G1 X98.663 Y164.417 E.00949
G1 X98.706 Y164.075 E.01025
G1 X98.692 Y163.754 E.00957
G1 X98.562 Y163.242 E.01575
G1 X98.319 Y162.829 E.01425
G1 X98.109 Y162.591 E.00945
G1 X97.684 Y162.272 E.01584
G1 X97.185 Y162.087 E.01586
G1 X96.668 Y162.039 E.01545
G1 X96.154 Y162.129 E.01557
G1 X95.648 Y162.382 E.01683
G1 X95.4 Y162.582 E.00949
G1 X95.079 Y162.967 E.01492
G1 X94.839 Y163.547 E.0187
G1 X94.795 Y164.09 E.01624
G1 X94.835 Y164.406 E.0095
G1 X94.936 Y164.736 E.01028
G1 X95.08 Y165.021 E.00948
G1 X95.285 Y165.298 E.01029
G1 X95.515 Y165.519 E.00949
G1 X95.801 Y165.712 E.01029
G1 X96.075 Y165.836 E.00894
G1 X88.814 Y165.836 E.21627
G1 X88.814 Y98.164 E2.0157
G1 X93.964 Y98.164 E.15338
G1 X94.256 Y98.082 E.00904
G1 X94.526 Y97.9 E.00971
G1 X94.737 Y97.595 E.01104
G1 X94.814 Y97.221 E.01136
G1 X94.811 Y93.492 E.11108
G1 X94.936 Y93.936 E.01374
G1 X95.08 Y94.221 E.00949
G1 X95.285 Y94.498 E.01029
G1 X95.518 Y94.721 E.0096
G1 X95.809 Y94.916 E.01044
G1 X96.098 Y95.046 E.00942
G1 X96.427 Y95.131 E.01013
G1 X96.732 Y95.158 E.00912
G1 X97.087 Y95.128 E.01063
G1 X97.396 Y95.048 E.00949
G1 X97.854 Y94.825 E.01517
G1 X98.224 Y94.488 E.01491
G1 X98.401 Y94.257 E.00867
G1 X98.626 Y93.783 E.01564
G1 X98.706 Y93.276 E.01526
G1 X98.7 Y92.995 E.00839
G1 X98.576 Y92.475 E.01592
G1 X98.32 Y92.031 E.01527
G1 X98.109 Y91.791 E.00949
G1 X97.709 Y91.486 E.015
G1 X97.236 Y91.304 E.01509
G1 X96.819 Y91.239 E.01257
G1 X96.249 Y91.308 E.01711
G1 X95.95 Y91.413 E.00945
G1 X95.648 Y91.582 E.01029
G1 X95.398 Y91.785 E.0096
G1 X95.167 Y92.049 E.01044
G1 X95.002 Y92.319 E.00942
G1 X94.876 Y92.635 E.01013
;WIDTH:0.419055
G1 X94.812 Y92.945 E.00942
;WIDTH:0.419999
G1 X94.814 Y87.958 E.14855
G1 X94.733 Y87.596 E.01106
G1 X94.522 Y87.296 E.01092
G1 X94.233 Y87.108 E.01025
G1 X93.871 Y87.036 E.01099
G1 X88.814 Y87.036 E.15064
G1 X88.814 Y64.164 E.68127
G1 X146.186 Y64.164 E1.7089
G1 X146.186 Y109.836 E1.3604
M73 P0 R49
G1 X144.129 Y109.836 E.06128
G1 X143.75 Y109.915 E.01151
G1 X143.447 Y110.128 E.01104
G1 X143.259 Y110.414 E.0102
G1 X143.186 Y110.779 E.01107
G1 X143.186 Y119.221 E.25149
G1 X143.26 Y119.587 E.01112
G1 X143.467 Y119.893 E.01101
G1 X143.737 Y120.079 E.00977
G1 X144.129 Y120.164 E.01192
G1 X146.186 Y120.164 E.06128
G1 X146.186 Y165.836 E1.3604
G1 X138.923 Y165.836 E.21635
M73 P1 R49
G1 X139.211 Y165.706 E.00941
G1 X139.475 Y165.527 E.00949
G1 X139.724 Y165.288 E.01029
G1 X139.913 Y165.032 E.00949
G1 X140.069 Y164.724 E.01029
G1 X140.162 Y164.419 E.00949
G1 X140.206 Y164.076 E.01029
G1 X140.192 Y163.754 E.0096
G1 X140.069 Y163.258 E.01524
G1 X139.819 Y162.829 E.01477
G1 X139.609 Y162.591 E.00945
G1 X139.201 Y162.281 E.01528
G1 X138.612 Y162.069 E.01864
G1 X138.155 Y162.04 E.01363
G1 X137.629 Y162.137 E.01595
G1 X137.148 Y162.382 E.01607
G1 X136.9 Y162.582 E.00949
G1 X136.56 Y162.998 E.01602
G1 X136.463 Y163.244 E.00787
G1 E-.68 F3600
;WIPE_START
G1 F3000
G1 X136.331 Y163.581 E-.04341
G1 X136.294 Y164.086 E-.06081
G1 X136.311 Y164.217 E-.01578
;WIPE_END
G1 X137.118 Y166.213 Z.6 F21000
G1 Z.2
G1 E.8 F2700
G1 F3000
G1 X97.739 Y166.213 E1.17298
;WIDTH:0.467419
G1 X97.52 Y166.189 E.00737
;WIDTH:0.514839
G1 X97.302 Y166.165 E.00819
;WIDTH:0.562258
G1 X97.083 Y166.142 E.00902
G1 X96.438 Y166.143 E.02648
;WIDTH:0.560431
G1 X96.323 Y166.163 E.00478
;WIDTH:0.519681
G1 X96.208 Y166.183 E.0044
;WIDTH:0.478931
G1 X96.093 Y166.204 E.00403
;WIDTH:0.43818
G1 X95.763 Y166.213 E.01028
;WIDTH:0.419999
G1 X88.437 Y166.213 E.21822
G1 X88.437 Y97.787 E2.03817
G1 X93.93 Y97.787 E.16362
G1 X94.173 Y97.7 E.00769
G1 X94.366 Y97.497 E.00834
G1 X94.437 Y97.221 E.00847
G1 X94.435 Y87.926 E.27689
G1 X94.339 Y87.66 E.00842
G1 X94.126 Y87.473 E.00843
G1 X93.871 Y87.413 E.00779
G1 X88.437 Y87.413 E.16187
G1 X88.437 Y63.787 E.70373
G1 X146.563 Y63.787 E1.73137
G1 X146.563 Y110.213 E1.38286
G1 X144.03 Y110.213 E.07546
G1 X143.779 Y110.334 E.0083
G1 X143.629 Y110.514 E.00697
G1 X143.563 Y110.779 E.00813
G1 X143.563 Y119.289 E.25349
G1 X143.68 Y119.566 E.00897
G1 X143.894 Y119.736 E.00814
G1 X144.129 Y119.787 E.00715
G1 X146.563 Y119.787 E.07251
G1 X146.563 Y166.213 E1.38286
G1 X139.239 Y166.213 E.21817
;WIDTH:0.467419
G1 X139.02 Y166.189 E.00737
;WIDTH:0.514839
G1 X138.802 Y166.165 E.00819
;WIDTH:0.562258
G1 X138.583 Y166.142 E.00901
G1 X137.938 Y166.143 E.02648
;WIDTH:0.560405
G1 X137.823 Y166.163 E.00478
;WIDTH:0.5197
G1 X137.708 Y166.183 E.0044
;WIDTH:0.478995
G1 X137.593 Y166.204 E.00402
;WIDTH:0.43829
G1 X137.263 Y166.213 E.0103
;WIDTH:0.419999
G1 X137.158 Y166.213 E.00313
G1 E-.68 F3600
;WIPE_START
G1 F3000
G1 X136.158 Y166.213 E-.12
;WIPE_END
G1 X131.785 Y159.957 Z.6 F21000
G1 X88.06 Y97.41 Z.6
G1 Z.2
G1 E.8 F2700
;TYPE:Outer wall
G1 F3000
G1 X93.871 Y97.41 E.1731
G1 X93.989 Y97.369 E.00372
G1 X94.06 Y97.224 E.0048
G1 X94.06 Y87.979 E.27538
G1 X94.015 Y87.857 E.00386
G1 X93.871 Y87.79 E.00473
G1 X88.06 Y87.79 E.1731
G1 X88.06 Y63.41 E.7262
G1 X146.94 Y63.41 E1.75383
G1 X146.94 Y110.59 E1.40533
G1 X144.129 Y110.59 E.08374
G1 X144.012 Y110.63 E.00368
G1 X143.94 Y110.776 E.00485
G1 X143.94 Y119.221 E.25155
G1 X143.987 Y119.345 E.00395
G1 X144.129 Y119.41 E.00465
G1 X146.94 Y119.41 E.08374
G1 X146.94 Y166.59 E1.40533
G1 X88.06 Y166.59 E1.75383
G1 X88.06 Y97.45 E2.05944
G1 E-.68 F3600
;WIPE_START
G1 F3000
G1 X89.06 Y97.443 E-.12
;WIPE_END
G1 X93.535 Y103.626 Z.6 F21000
G1 X136.802 Y163.406 Z.6
G1 Z.2
G1 E.8 F2700
;TYPE:Inner wall
G1 F3000
G1 X136.923 Y163.131 E.00894
G1 X137.277 Y162.747 E.01557
G1 X137.741 Y162.497 E.01571
G1 X138.238 Y162.413 E.01501
G1 X138.611 Y162.459 E.01119
G1 X139.104 Y162.668 E.01594
G1 X139.498 Y163.028 E.01591
G1 X139.748 Y163.493 E.01573
G1 X139.832 Y164.028 E.01615
G1 X139.732 Y164.554 E.01593
G1 X139.463 Y165.016 E.01593
G1 X139.055 Y165.362 E.01593
;WIDTH:0.469141
G1 X138.909 Y165.448 E.00569
;WIDTH:0.518283
G1 X138.764 Y165.533 E.00635
;WIDTH:0.567425
G1 X138.618 Y165.619 E.007
G1 X138.003 Y165.634 E.02547
;WIDTH:0.560405
G1 X137.84 Y165.556 E.00741
;WIDTH:0.513603
G1 X137.676 Y165.478 E.00674
;WIDTH:0.466801
G1 X137.513 Y165.4 E.00607
;WIDTH:0.419999
G1 X137.087 Y165.073 E.01597
G1 X136.797 Y164.626 E.01589
G1 X136.671 Y164.102 E.01604
G1 X136.724 Y163.585 E.01549
G1 X136.786 Y163.443 E.00461
G1 X137.144 Y163.555 F21000
;TYPE:Outer wall
G1 F3000
G1 X137.227 Y163.353 E.00652
G1 X137.516 Y163.04 E.01268
G1 X137.877 Y162.851 E.01216
G1 X138.26 Y162.791 E.01152
G1 X138.485 Y162.815 E.00676
G1 X138.867 Y162.961 E.01217
G1 X139.178 Y163.226 E.01216
G1 X139.383 Y163.587 E.01237
G1 X139.458 Y163.981 E.01194
G1 X139.395 Y164.384 E.01216
G1 X139.202 Y164.744 E.01216
G1 X138.9 Y165.018 E.01216
G1 X138.523 Y165.177 E.01216
G1 X138.116 Y165.201 E.01216
G1 X137.724 Y165.088 E.01216
G1 X137.39 Y164.849 E.01221
G1 X137.158 Y164.516 E.01211
G1 X137.048 Y164.118 E.01231
G1 X137.074 Y163.724 E.01177
G1 X137.129 Y163.592 E.00422
G1 E-.68 F3600
;WIPE_START
G1 F3000
G1 X137.227 Y163.353 E-.03106
G1 X137.516 Y163.04 E-.05108
G1 X137.795 Y162.894 E-.03786
;WIPE_END
G1 X130.163 Y162.808 Z.6 F21000
G1 X96.647 Y162.434 Z.6
G1 Z.2
G1 E.8 F2700
;TYPE:Inner wall
G1 F3000
G1 X96.789 Y162.415 E.00429
G1 X97.111 Y162.459 E.00966
G1 X97.584 Y162.652 E.01521
G1 X97.963 Y162.976 E.01485
G1 X98.215 Y163.391 E.01446
G1 X98.323 Y163.835 E.01362
G1 X98.289 Y164.369 E.01594
G1 X98.078 Y164.861 E.01594
G1 X97.714 Y165.255 E.01597
;WIDTH:0.469141
G1 X97.515 Y165.376 E.00784
;WIDTH:0.518283
G1 X97.317 Y165.497 E.00874
;WIDTH:0.567425
G1 X97.118 Y165.619 E.00965
G1 X96.503 Y165.634 E.02548
;WIDTH:0.560431
G1 X96.34 Y165.556 E.00741
;WIDTH:0.513621
G1 X96.176 Y165.478 E.00674
;WIDTH:0.46681
G1 X96.012 Y165.4 E.00607
;WIDTH:0.419999
G1 X95.588 Y165.074 E.01593
G1 X95.297 Y164.626 E.01593
G1 X95.171 Y164.106 E.01592
G1 X95.226 Y163.574 E.01594
G1 X95.455 Y163.091 E.01593
G1 X95.832 Y162.711 E.01593
G1 X96.313 Y162.479 E.01591
G1 X96.607 Y162.439 E.00883
G1 X96.695 Y162.801 F21000
;TYPE:Outer wall
G1 F3000
G1 X96.76 Y162.791 E.00195
G1 X96.985 Y162.815 E.00676
G1 X97.367 Y162.961 E.01217
G1 X97.678 Y163.226 E.01216
G1 X97.88 Y163.574 E.01199
G1 X97.958 Y163.98 E.01233
G1 X97.896 Y164.383 E.01212
G1 X97.703 Y164.743 E.01218
G1 X97.4 Y165.018 E.01219
G1 X97.023 Y165.177 E.01217
G1 X96.616 Y165.201 E.01216
G1 X96.224 Y165.087 E.01216
G1 X95.891 Y164.85 E.01216
G1 X95.657 Y164.515 E.01216
G1 X95.548 Y164.122 E.01215
G1 X95.576 Y163.714 E.01217
G1 X95.738 Y163.34 E.01216
G1 X96.016 Y163.04 E.01216
G1 X96.377 Y162.851 E.01216
G1 X96.655 Y162.807 E.00838
G1 E-.68 F3600
;WIPE_START
G1 F3000
G1 X96.76 Y162.791 E-.01264
G1 X96.985 Y162.815 E-.02723
G1 X97.367 Y162.961 E-.04904
G1 X97.564 Y163.129 E-.03108
;WIPE_END
G1 X97.631 Y155.497 Z.6 F21000
G1 X98.173 Y93.852 Z.6
G1 Z.2
G1 E.8 F2700
;TYPE:Inner wall
G1 F3000
G1 X98.069 Y94.077 E.00739
G1 X97.714 Y94.455 E.01544
G1 X97.214 Y94.715 E.01679
G1 X96.711 Y94.782 E.01511
G1 X96.192 Y94.681 E.01575
G1 X95.728 Y94.408 E.01604
G1 X95.383 Y93.996 E.01599
G1 X95.196 Y93.495 E.01593
G1 X95.186 Y92.961 E.01593
G1 X95.352 Y92.459 E.01575
G1 X95.682 Y92.033 E.01605
G1 X96.134 Y91.743 E.01599
G1 X96.648 Y91.621 E.01575
G1 X97.099 Y91.655 E.01346
G1 X97.57 Y91.843 E.01511
G1 X97.959 Y92.171 E.01516
G1 X98.221 Y92.603 E.01505
G1 X98.334 Y93.105 E.01531
G1 X98.28 Y93.617 E.01534
G1 X98.189 Y93.815 E.0065
G1 X97.832 Y93.701 F21000
;TYPE:Outer wall
G1 F3000
G1 X97.702 Y93.944 E.0082
G1 X97.44 Y94.194 E.01079
G1 X97.023 Y94.377 E.01355
G1 X96.616 Y94.401 E.01216
G1 X96.229 Y94.29 E.01199
G1 X95.891 Y94.05 E.01234
G1 X95.657 Y93.715 E.01216
G1 X95.548 Y93.322 E.01216
G1 X95.576 Y92.915 E.01216
G1 X95.735 Y92.545 E.01199
G1 X96.016 Y92.24 E.01234
G1 X96.377 Y92.051 E.01216
G1 X96.76 Y91.991 E.01152
G1 X96.985 Y92.015 E.00676
G1 X97.367 Y92.161 E.01217
G1 X97.678 Y92.426 E.01216
G1 X97.883 Y92.779 E.01216
G1 X97.958 Y93.181 E.01216
G1 X97.895 Y93.584 E.01216
G1 X97.851 Y93.666 E.00277
G1 E-.68 F3600
;WIPE_START
G1 F3000
G1 X97.702 Y93.944 E-.03784
G1 X97.44 Y94.194 E-.04347
G1 X97.145 Y94.323 E-.03869
;WIPE_END
G1 X94.811 Y93.492 Z.6 F21000
G1 Z.2
G1 E.8 F2700
;TYPE:Inner wall
;WIDTH:0.415026
G1 F3000
G1 X94.812 Y92.945 E.01609
G1 E-.68 F3600
;WIPE_START
G1 F3000
G1 X94.811 Y93.492 E-.12
;WIPE_END
G1 X101.417 Y89.67 Z.6 F21000
G1 X145.309 Y64.277 Z.6
G1 Z.2
G1 E.8 F2700
;TYPE:Bottom surface
;WIDTH:0.420677
G1 F4800
G1 X145.903 Y64.871 E.02507
G1 X145.903 Y65.406 E.01594
G1 X144.944 Y64.447 E.04045
G1 X144.41 Y64.447 E.01594
G1 X145.903 Y65.94 E.063
G1 X145.903 Y66.474 E.01594
G1 X143.876 Y64.447 E.08554
G1 X143.342 Y64.447 E.01594
G1 X145.903 Y67.008 E.10809
G1 X145.903 Y67.542 E.01594
G1 X142.808 Y64.447 E.13063
G1 X142.273 Y64.447 E.01594
G1 X145.903 Y68.077 E.15317
G1 X145.903 Y68.611 E.01594
G1 X141.739 Y64.447 E.17572
G1 X141.205 Y64.447 E.01594
G1 X145.903 Y69.145 E.19826
G1 X145.903 Y69.679 E.01594
G1 X140.671 Y64.447 E.22081
G1 X140.136 Y64.447 E.01594
G1 X145.903 Y70.214 E.24335
G1 X145.903 Y70.748 E.01594
G1 X139.602 Y64.447 E.2659
G1 X139.068 Y64.447 E.01594
G1 X145.903 Y71.282 E.28844
G1 X145.903 Y71.816 E.01594
G1 X138.534 Y64.447 E.31099
G1 X137.999 Y64.447 E.01594
G1 X145.903 Y72.351 E.33353
G1 X145.903 Y72.885 E.01594
G1 X137.465 Y64.447 E.35608
G1 X136.931 Y64.447 E.01594
G1 X145.903 Y73.419 E.37862
G1 X145.903 Y73.953 E.01594
G1 X136.397 Y64.447 E.40117
G1 X135.863 Y64.447 E.01594
G1 X145.903 Y74.487 E.42371
G1 X145.903 Y75.022 E.01594
G1 X135.328 Y64.447 E.44625
G1 X134.794 Y64.447 E.01594
G1 X145.903 Y75.556 E.4688
G1 X145.903 Y76.09 E.01594
G1 X134.26 Y64.447 E.49134
G1 X133.726 Y64.447 E.01594
G1 X145.903 Y76.624 E.51389
G1 X145.903 Y77.159 E.01594
G1 X133.191 Y64.447 E.53643
G1 X132.657 Y64.447 E.01594
G1 X145.903 Y77.693 E.55898
G1 X145.903 Y78.227 E.01594
G1 X132.123 Y64.447 E.58152
G1 X131.589 Y64.447 E.01594
G1 X145.903 Y78.761 E.60407
G1 X145.903 Y79.295 E.01594
G1 X131.055 Y64.447 E.62661
