; HEADER_BLOCK_START
; generated by OrcaSlicer 2.1.1 on 2024-12-29 at 10:08:56
; total layer number: 36
; filament_density: 1.27
; filament_diameter: 1.75
; max_z_height: 3.00
; HEADER_BLOCK_END

; THUMBNAIL_BLOCK_START

;
; THUMBNAIL_BLOCK_END







; external perimeters extrusion width = 0.40mm
; perimeters extrusion width = 0.45mm
; infill extrusion width = 0.45mm
; solid infill extrusion width = 0.45mm
; top infill extrusion width = 0.38mm
; first layer extrusion width = 0.42mm

; EXECUTABLE_BLOCK_START
EXCLUDE_OBJECT_DEFINE NAME=电池盒固定架.STL_id_0_copy_0 CENTER=117.5,115 POLYGON=[[88.75,91.75],[146.25,91.75],[146.25,138.25],[88.75,138.25],[88.75,91.75]]
M73 P0 R24
;TYPE:Custom
;ELEGOO NEPTUNE 4 PRO
M220 S100 ;Set the feed speed to 100%
M221 S100 ;Set the flow rate to 100%
M104 S140
M190 S70
G90
G28 ;home
G1 Z10 F300
G1 X67.5 Y0 F6000
G1 Z0 F300
M109 S240
G92 E0 ;Reset Extruder
G1 X67.5 Y0 Z0.4 F300 ;Move to start position
G1 X167.5 E30 F400 ;Draw the first line
G1 Z0.6 F120.0 ;Move to side a little
M73 P1 R24
G1 X162.5 F3000
G92 E0 ;Reset Extruder
G90
G21
M83 ; use relative distances for extrusion
; filament start gcode
M106 S0
;LAYER_CHANGE
;Z:0.2
;HEIGHT:0.2
;BEFORE_LAYER_CHANGE
G92 E0
;0.2


G1 E-.8 F3600
;AFTER_LAYER_CHANGE
;0.2
;_SET_FAN_SPEED_CHANGING_LAYER
SET_VELOCITY_LIMIT ACCEL=1000 ACCEL_TO_DECEL=500
SET_VELOCITY_LIMIT SQUARE_CORNER_VELOCITY=7
; printing object 电池盒固定架.STL id:0 copy 0
EXCLUDE_OBJECT_START NAME=电池盒固定架.STL_id_0_copy_0
G1 X145.186 Y137.186 F21000
G1 Z.4
G1 Z.2
G1 E.8 F2700
;TYPE:Inner wall
;WIDTH:0.419999
G1 F3000
G1 X89.814 Y137.186 E1.64933
G1 X89.814 Y92.814 E1.32168
G1 X145.186 Y92.814 E1.64933
G1 X145.186 Y137.146 E1.32049
G1 X145.563 Y137.563 F21000
G1 F3000
G1 X89.437 Y137.563 E1.67179
G1 X89.437 Y92.437 E1.34414
G1 X145.563 Y92.437 E1.67179
G1 X145.563 Y137.523 E1.34295
G1 X145.94 Y137.94 F21000
;TYPE:Outer wall
G1 F3000
G1 X89.06 Y137.94 E1.69426
G1 X89.06 Y92.06 E1.36661
M73 P2 R23
G1 X145.94 Y92.06 E1.69426
G1 X145.94 Y137.9 E1.36541
G1 E-.68 F3600
;WIPE_START
G1 F3000
G1 X144.94 Y137.901 E-.12
;WIPE_END
G1 X137.525 Y136.091 Z.6 F21000
G1 X115.549 Y130.728 Z.6
G1 Z.2
G1 E.8 F2700
;TYPE:Inner wall
G1 F3000
G1 X115.458 Y130.346 E.01168
G1 X115.444 Y130.028 E.00949
G1 X115.518 Y129.524 E.01518
G1 X115.756 Y129.009 E.01689
G1 X115.945 Y128.753 E.0095
G1 X116.314 Y128.411 E.01497
G1 X116.829 Y128.155 E.01713
G1 X117.137 Y128.075 E.00949
G1 X117.64 Y128.041 E.01501
G1 X118.143 Y128.143 E.01527
G1 X118.609 Y128.36 E.01531
G1 X119.054 Y128.752 E.01769
G1 X119.244 Y129.008 E.00949
G1 X119.474 Y129.495 E.01603
G1 X119.556 Y130.021 E.01585
G1 X119.543 Y130.337 E.00942
G1 X119.42 Y130.859 E.01599
G1 X119.145 Y131.335 E.01638
G1 X118.935 Y131.574 E.00945
G1 X118.517 Y131.896 E.01573
G1 X117.852 Y132.134 E.02103
G1 X117.31 Y132.148 E.01615
G1 X116.996 Y132.095 E.00949
G1 X116.491 Y131.901 E.01613
G1 X116.071 Y131.58 E.01575
G1 X115.861 Y131.343 E.00942
G1 X115.581 Y130.863 E.01655
G1 X115.558 Y130.767 E.00295
G1 X115.967 Y130.749 F21000
G1 F3000
G1 X115.906 Y130.637 E.0038
G1 X115.814 Y130.133 E.01528
G1 X115.882 Y129.623 E.01532
G1 X116.106 Y129.153 E.0155
G1 X116.48 Y128.762 E.01612
G1 X116.639 Y128.655 E.0057
G1 X117.121 Y128.457 E.01554
G1 X117.622 Y128.417 E.01496
G1 X118.016 Y128.499 E.01197
G1 X118.482 Y128.729 E.01549
G1 X118.847 Y129.084 E.01515
G1 X119.086 Y129.533 E.01516
G1 X119.182 Y130.069 E.01622
G1 X119.094 Y130.635 E.01707
G1 X118.824 Y131.138 E.017
G1 X118.408 Y131.516 E.01674
G1 X118.243 Y131.609 E.00565
G1 X117.69 Y131.771 E.01717
G1 X117.122 Y131.739 E.01694
G1 X116.598 Y131.52 E.01691
G1 X116.182 Y131.144 E.01672
G1 X115.986 Y130.785 E.01218
G1 X116.287 Y130.579 F21000
;TYPE:Outer wall
G1 F3000
G1 X116.275 Y130.558 E.00072
G1 X116.192 Y130.124 E.01317
G1 X116.259 Y129.687 E.01317
G1 X116.467 Y129.297 E.01316
G1 X116.794 Y128.999 E.01318
G1 X117.201 Y128.826 E.01317
G1 X117.627 Y128.796 E.01271
G1 X117.86 Y128.842 E.00708
G1 X118.258 Y129.034 E.01316
G1 X118.57 Y129.348 E.01318
G1 X118.76 Y129.747 E.01316
G1 X118.805 Y130.181 E.01298
G1 X118.702 Y130.617 E.01336
G1 X118.461 Y130.988 E.01316
G1 X118.116 Y131.254 E.01298
G1 X117.69 Y131.394 E.01336
G1 X117.248 Y131.384 E.01317
G1 X116.835 Y131.226 E.01316
G1 X116.502 Y130.945 E.01298
G1 X116.307 Y130.613 E.01145
G1 E-.68 F3600
;WIPE_START
G1 F3000
G1 X116.275 Y130.558 E-.00769
G1 X116.192 Y130.124 E-.05306
G1 X116.259 Y129.687 E-.05305
G1 X116.283 Y129.641 E-.0062
;WIPE_END
G1 X116.151 Y122.01 Z.6 F21000
G1 X115.749 Y98.848 Z.6
G1 Z.2
G1 E.8 F2700
;TYPE:Inner wall
G1 F3000
G1 X115.835 Y98.68 E.00562
G1 X116.219 Y98.29 E.01631
G1 X116.483 Y98.111 E.00949
G1 X116.978 Y97.902 E.01599
G1 X117.515 Y97.843 E.0161
G1 X117.942 Y97.885 E.01278
G1 X118.517 Y98.111 E.01839
G1 X118.781 Y98.29 E.00949
G1 X119.164 Y98.678 E.01625
G1 X119.414 Y99.147 E.01584
G1 X119.508 Y99.452 E.00949
G1 X119.562 Y100.002 E.01647
G1 X119.463 Y100.517 E.01563
G1 X119.344 Y100.811 E.00945
G1 X119.067 Y101.244 E.01531
G1 X118.642 Y101.611 E.01671
G1 X118.361 Y101.768 E.0096
G1 X117.855 Y101.934 E.01586
G1 X117.31 Y101.948 E.01623
G1 X116.996 Y101.895 E.00949
G1 X116.527 Y101.72 E.01491
G1 X116.066 Y101.375 E.01718
G1 X115.855 Y101.135 E.00949
G1 X115.578 Y100.653 E.01657
G1 X115.458 Y100.146 E.01552
G1 X115.444 Y99.829 E.00945
G1 X115.538 Y99.262 E.01713
G1 X115.731 Y98.883 E.01266
G1 X116.15 Y98.917 F21000
G1 F3000
G1 X116.48 Y98.562 E.01444
G1 X116.984 Y98.299 E.01694
G1 X117.547 Y98.219 E.01693
G1 X117.878 Y98.257 E.00993
G1 X118.361 Y98.455 E.01555
G1 X118.793 Y98.825 E.01694
G1 X119.078 Y99.317 E.01693
G1 X119.182 Y99.876 E.01694
G1 X119.094 Y100.437 E.01694
G1 X118.828 Y100.932 E.01674
G1 X118.404 Y101.318 E.01707
G1 X118.236 Y101.413 E.00576
G1 X117.759 Y101.567 E.01493
G1 X117.259 Y101.569 E.0149
G1 X116.764 Y101.413 E.01544
G1 X116.598 Y101.319 E.00569
G1 X116.209 Y100.985 E.01528
G1 X115.944 Y100.553 E.01508
G1 X115.826 Y100.067 E.01491
G1 X115.865 Y99.506 E.01674
G1 X116.092 Y98.98 E.01707
G1 X116.123 Y98.947 E.00137
G1 X116.419 Y99.188 F21000
;TYPE:Outer wall
G1 F3000
G1 X116.468 Y99.097 E.00309
G1 X116.794 Y98.799 E.01317
G1 X117.201 Y98.626 E.01317
G1 X117.627 Y98.596 E.01271
G1 X117.86 Y98.643 E.00709
G1 X118.259 Y98.834 E.01317
G1 X118.57 Y99.148 E.01317
G1 X118.76 Y99.548 E.01317
G1 X118.805 Y99.987 E.01317
G1 X118.702 Y100.417 E.01316
G1 X118.465 Y100.783 E.01298
G1 X118.11 Y101.057 E.01336
G1 X117.69 Y101.194 E.01317
G1 X117.248 Y101.184 E.01317
G1 X116.834 Y101.026 E.01317
G1 X116.497 Y100.74 E.01317
G1 X116.275 Y100.358 E.01317
G1 X116.195 Y99.987 E.0113
G1 X116.257 Y99.493 E.01484
G1 X116.4 Y99.224 E.00909
G1 E-.68 F3600
;WIPE_START
G1 F3000
G1 X116.468 Y99.097 E-.01723
G1 X116.794 Y98.799 E-.05306
G1 X117.176 Y98.637 E-.04971
;WIPE_END
G1 X124.691 Y97.305 Z.6 F21000
G1 X145.073 Y93.691 Z.6
G1 Z.2
G1 E.8 F2700
;TYPE:Bottom surface
;WIDTH:0.420675
G1 F4800
G1 X144.479 Y93.097 E.02507
G1 X143.944 Y93.097 E.01594
G1 X144.903 Y94.056 E.04045
G1 X144.903 Y94.59 E.01594
G1 X143.41 Y93.097 E.063
G1 X142.876 Y93.097 E.01594
G1 X144.903 Y95.124 E.08554
G1 X144.903 Y95.658 E.01594
G1 X142.342 Y93.097 E.10808
G1 X141.808 Y93.097 E.01594
G1 X144.903 Y96.192 E.13063
G1 X144.903 Y96.727 E.01594
G1 X141.273 Y93.097 E.15317
G1 X140.739 Y93.097 E.01594
G1 X144.903 Y97.261 E.17572
G1 X144.903 Y97.795 E.01594
G1 X140.205 Y93.097 E.19826
G1 X139.671 Y93.097 E.01594
G1 X144.903 Y98.329 E.22081
G1 X144.903 Y98.864 E.01594
G1 X139.136 Y93.097 E.24335
G1 X138.602 Y93.097 E.01594
G1 X144.903 Y99.398 E.26589
G1 X144.903 Y99.932 E.01594
G1 X138.068 Y93.097 E.28844
G1 X137.534 Y93.097 E.01594
G1 X144.903 Y100.466 E.31098
G1 X144.903 Y101 E.01594
G1 X137 Y93.097 E.33353
G1 X136.465 Y93.097 E.01594
G1 X144.903 Y101.535 E.35607
G1 X144.903 Y102.069 E.01594
G1 X135.931 Y93.097 E.37862
G1 X135.397 Y93.097 E.01594
G1 X144.903 Y102.603 E.40116
G1 X144.903 Y103.137 E.01594
G1 X134.863 Y93.097 E.42371
G1 X134.328 Y93.097 E.01594
G1 X144.903 Y103.672 E.44625
G1 X144.903 Y104.206 E.01594
G1 X133.794 Y93.097 E.46879
G1 X133.26 Y93.097 E.01594
G1 X144.903 Y104.74 E.49134
G1 X144.903 Y105.274 E.01594
G1 X132.726 Y93.097 E.51388
G1 X132.192 Y93.097 E.01594
G1 X144.903 Y105.809 E.53643
G1 X144.903 Y106.343 E.01594
G1 X131.657 Y93.097 E.55897
G1 X131.123 Y93.097 E.01594
G1 X144.903 Y106.877 E.58152
G1 X144.903 Y107.411 E.01594
G1 X130.589 Y93.097 E.60406
G1 X130.055 Y93.097 E.01594
G1 X144.903 Y107.945 E.6266
G1 X144.903 Y108.48 E.01594
M73 P3 R23
G1 X129.52 Y93.097 E.64915
G1 X128.986 Y93.097 E.01594
G1 X144.903 Y109.014 E.67169
G1 X144.903 Y109.548 E.01594
G1 X128.452 Y93.097 E.69424
G1 X127.918 Y93.097 E.01594
G1 X144.903 Y110.082 E.71678
G1 X144.903 Y110.617 E.01594
G1 X127.383 Y93.097 E.73933
G1 X126.849 Y93.097 E.01594
G1 X144.903 Y111.151 E.76187
G1 X144.903 Y111.685 E.01594
G1 X126.315 Y93.097 E.78442
G1 X125.781 Y93.097 E.01594
G1 X144.903 Y112.219 E.80696
G1 X144.903 Y112.753 E.01594
G1 X125.247 Y93.097 E.8295
G1 X124.712 Y93.097 E.01594
G1 X144.903 Y113.288 E.85205
G1 X144.903 Y113.822 E.01594
G1 X124.178 Y93.097 E.87459
G1 X123.644 Y93.097 E.01594
G1 X144.903 Y114.356 E.89714
G1 X144.903 Y114.89 E.01594
G1 X123.11 Y93.097 E.91968
G1 X122.575 Y93.097 E.01594
G1 X144.903 Y115.425 E.94223
G1 X144.903 Y115.959 E.01594
G1 X122.041 Y93.097 E.96477
G1 X121.507 Y93.097 E.01594
G1 X144.903 Y116.493 E.98731
G1 X144.903 Y117.027 E.01594
G1 X120.973 Y93.097 E1.00986
G1 X120.439 Y93.097 E.01594
G1 X144.903 Y117.561 E1.0324
G1 X144.903 Y118.096 E.01594
G1 X119.904 Y93.097 E1.05495
G1 X119.37 Y93.097 E.01594
G1 X144.903 Y118.63 E1.07749
G1 X144.903 Y119.164 E.01594
G1 X118.836 Y93.097 E1.10004
G1 X118.302 Y93.097 E.01594
G1 X144.903 Y119.698 E1.12258
G1 X144.903 Y120.233 E.01594
G1 X117.767 Y93.097 E1.14513
G1 X117.233 Y93.097 E.01594
G1 X144.903 Y120.767 E1.16767
G1 X144.903 Y121.301 E.01594
G1 X116.699 Y93.097 E1.19021
G1 X116.165 Y93.097 E.01594
G1 X144.903 Y121.835 E1.21276
G1 X144.903 Y122.37 E.01594
G1 X115.63 Y93.097 E1.2353
G1 X115.096 Y93.097 E.01594
G1 X144.903 Y122.904 E1.25785
G1 X144.903 Y123.438 E.01594
G1 X114.562 Y93.097 E1.28039
G1 X114.028 Y93.097 E.01594
G1 X144.903 Y123.972 E1.30294
G1 X144.903 Y124.506 E.01594
M73 P4 R23
G1 X119.781 Y99.385 E1.06013
G1 X119.727 Y99.158 E.00696
G1 X119.495 Y98.678 E.01589
G1 X119.393 Y98.511 E.00586
G1 X119.252 Y98.35 E.00637
G1 X118.819 Y97.957 E.01744
G1 X118.283 Y97.696 E.0178
G1 X118.008 Y97.611 E.0086
G1 X113.494 Y93.097 E.1905
G1 X112.959 Y93.097 E.01594
G1 X117.43 Y97.568 E.18868
G1 X116.951 Y97.623 E.0144
G1 X112.425 Y93.097 E.19099
G1 X111.891 Y93.097 E.01594
G1 X116.565 Y97.771 E.19724
G1 X116.204 Y97.945 E.01194
G1 X111.357 Y93.097 E.20457
G1 X110.822 Y93.097 E.01594
G1 X115.92 Y98.194 E.2151
G1 X115.652 Y98.46 E.01127
G1 X110.288 Y93.097 E.22634
G1 X109.754 Y93.097 E.01594
G1 X115.45 Y98.793 E.24037
G1 X115.277 Y99.154 E.01195
G1 X109.22 Y93.097 E.25561
G1 X108.686 Y93.097 E.01594
G1 X115.188 Y99.599 E.2744
G1 X115.155 Y100.021 E.01261
G1 X115.174 Y100.12 E.00301
G1 X107.982 Y92.927 E.30352
G1 E-.68 F3600
;WIPE_START
G1 F4800
G1 X108.689 Y93.634 E-.12
;WIPE_END
G1 X114.453 Y98.637 Z.6 F21000
G1 X145.073 Y125.21 Z.6
G1 Z.2
G1 E.8 F2700
G1 F4800
G1 X119.84 Y99.978 E1.06481
G1 X119.82 Y100.201 E.00669
G1 X119.764 Y100.436 E.00719
G1 X144.903 Y125.575 E1.06088
G1 X144.903 Y126.109 E.01594
G1 X119.643 Y100.849 E1.06596
G1 X119.446 Y101.186 E.01165
G1 X144.903 Y126.643 E1.0743
G1 X144.903 Y127.178 E.01594
G1 X119.218 Y101.493 E1.0839
G1 X118.929 Y101.738 E.01131
G1 X144.903 Y127.712 E1.0961
G1 X144.903 Y128.246 E.01594
G1 X118.619 Y101.962 E1.1092
G1 X118.233 Y102.11 E.01234
G1 X144.903 Y128.78 E1.12549
G1 X144.903 Y129.314 E.01594
G1 X117.808 Y102.219 E1.14342
G1 X117.285 Y102.231 E.01561
G1 X144.903 Y129.849 E1.16548
G1 X144.903 Y130.383 E.01594
G1 X107.617 Y93.097 E1.57347
G1 X107.083 Y93.097 E.01594
G1 X144.903 Y130.917 E1.59601
G1 X144.903 Y131.451 E.01594
G1 X106.549 Y93.097 E1.61856
G1 X106.014 Y93.097 E.01594
G1 X144.903 Y131.986 E1.6411
G1 X144.903 Y132.52 E.01594
G1 X105.48 Y93.097 E1.66365
G1 X104.946 Y93.097 E.01594
G1 X144.903 Y133.054 E1.68619
G1 X144.903 Y133.588 E.01594
G1 X104.412 Y93.097 E1.70873
G1 X103.878 Y93.097 E.01594
M73 P5 R23
G1 X144.903 Y134.122 E1.73128
G1 X144.903 Y134.657 E.01594
G1 X103.343 Y93.097 E1.75382
G1 X102.809 Y93.097 E.01594
G1 X144.903 Y135.191 E1.77637
G1 X144.903 Y135.725 E.01594
G1 X102.275 Y93.097 E1.79891
G1 X101.741 Y93.097 E.01594
G1 X144.903 Y136.259 E1.82146
G1 X144.903 Y136.794 E.01594
G1 X101.206 Y93.097 E1.844
G1 X100.672 Y93.097 E.01594
G1 X144.478 Y136.903 E1.84862
G1 X143.944 Y136.903 E.01594
G1 X100.138 Y93.097 E1.84862
G1 X99.604 Y93.097 E.01594
G1 X143.41 Y136.903 E1.84862
G1 X142.876 Y136.903 E.01594
G1 X99.069 Y93.097 E1.84862
G1 X98.535 Y93.097 E.01594
G1 X142.341 Y136.903 E1.84862
G1 X141.807 Y136.903 E.01594
G1 X98.001 Y93.097 E1.84862
G1 X97.467 Y93.097 E.01594
G1 X141.273 Y136.903 E1.84862
G1 X140.739 Y136.903 E.01594
G1 X96.933 Y93.097 E1.84862
G1 X96.398 Y93.097 E.01594
G1 X140.204 Y136.903 E1.84862
G1 X139.67 Y136.903 E.01594
G1 X95.864 Y93.097 E1.84862
G1 X95.33 Y93.097 E.01594
G1 X139.136 Y136.903 E1.84862
G1 X138.602 Y136.903 E.01594
M73 P6 R23
G1 X94.796 Y93.097 E1.84862
G1 X94.261 Y93.097 E.01594
G1 X138.068 Y136.903 E1.84862
G1 X137.533 Y136.903 E.01594
M73 P6 R22
G1 X93.727 Y93.097 E1.84862
G1 X93.193 Y93.097 E.01594
G1 X136.999 Y136.903 E1.84862
G1 X136.465 Y136.903 E.01594
G1 X92.659 Y93.097 E1.84862
G1 X92.125 Y93.097 E.01594
G1 X135.931 Y136.903 E1.84862
G1 X135.396 Y136.903 E.01594
G1 X91.59 Y93.097 E1.84862
G1 X91.056 Y93.097 E.01594
G1 X134.862 Y136.903 E1.84862
G1 X134.328 Y136.903 E.01594
G1 X90.522 Y93.097 E1.84862
G1 X90.097 Y93.097 E.01268
G1 X90.097 Y93.206 E.00326
G1 X133.794 Y136.903 E1.844
G1 X133.259 Y136.903 E.01594
G1 X90.097 Y93.741 E1.82146
G1 X90.097 Y94.275 E.01594
G1 X132.725 Y136.903 E1.79892
G1 X132.191 Y136.903 E.01594
G1 X90.097 Y94.809 E1.77637
G1 X90.097 Y95.343 E.01594
G1 X131.657 Y136.903 E1.75383
G1 X131.123 Y136.903 E.01594
G1 X90.097 Y95.877 E1.73128
G1 X90.097 Y96.412 E.01594
G1 X130.588 Y136.903 E1.70874
G1 X130.054 Y136.903 E.01594
G1 X90.097 Y96.946 E1.68619
G1 X90.097 Y97.48 E.01594
M73 P7 R22
G1 X129.52 Y136.903 E1.66365
G1 X128.986 Y136.903 E.01594
G1 X90.097 Y98.014 E1.6411
G1 X90.097 Y98.549 E.01594
G1 X128.451 Y136.903 E1.61856
G1 X127.917 Y136.903 E.01594
G1 X90.097 Y99.083 E1.59602
G1 X90.097 Y99.617 E.01594
G1 X127.383 Y136.903 E1.57347
G1 X126.849 Y136.903 E.01594
G1 X119.818 Y129.873 E.29668
G1 X119.842 Y130.244 E.01111
G1 X119.812 Y130.401 E.00476
G1 X126.315 Y136.903 E.27441
G1 X125.78 Y136.903 E.01594
G1 X119.719 Y130.842 E.25577
G1 X119.684 Y130.962 E.00374
G1 X119.554 Y131.211 E.00837
G1 X125.246 Y136.903 E.24021
G1 X124.712 Y136.903 E.01594
G1 X119.347 Y131.538 E.22642
G1 X119.268 Y131.645 E.00396
G1 X119.088 Y131.813 E.00736
G1 X124.178 Y136.903 E.21479
G1 X123.643 Y136.903 E.01594
G1 X118.785 Y132.045 E.20502
G1 X118.657 Y132.143 E.00482
G1 X118.436 Y132.23 E.00709
G1 X123.109 Y136.903 E.19722
G1 X122.575 Y136.903 E.01594
G1 X118.047 Y132.375 E.19109
G1 X117.898 Y132.414 E.00459
G1 X117.562 Y132.424 E.01004
G1 X122.21 Y137.073 E.19618
G1 E-.68 F3600
;WIPE_START
G1 F4800
G1 X121.503 Y136.366 E-.12
;WIPE_END
G1 X118.505 Y129.347 Z.6 F21000
G1 X117.917 Y127.971 Z.6
G1 Z.2
G1 E.8 F2700
G1 F4800
G1 X90.097 Y100.151 E1.17399
G1 X90.097 Y100.685 E.01594
G1 X117.201 Y127.789 E1.14378
G1 X117.007 Y127.806 E.0058
G1 X116.76 Y127.882 E.00773
G1 X90.097 Y101.22 E1.12517
G1 X90.097 Y101.754 E.01594
G1 X116.388 Y128.045 E1.10949
G1 X116.175 Y128.162 E.00726
G1 X116.068 Y128.259 E.00431
G1 X90.097 Y102.288 E1.09597
G1 X90.097 Y102.822 E.01594
G1 X115.788 Y128.514 E1.08417
G1 X115.547 Y128.807 E.01133
G1 X90.097 Y103.357 E1.074
G1 X90.097 Y103.891 E.01594
G1 X115.366 Y129.16 E1.06637
G1 X115.29 Y129.314 E.00511
G1 X115.223 Y129.551 E.00737
G1 X90.097 Y104.425 E1.06032
G1 X90.097 Y104.959 E.01594
G1 X115.331 Y130.193 E1.06488
G1 E-.68 F3600
;WIPE_START
G1 F4800
