; HEADER_BLOCK_START
; generated by OrcaSlicer 2.1.1 on 2025-02-01 at 18:10:26
; total layer number: 36
; filament_density: 1.27
; filament_diameter: 1.75
; max_z_height: 3.00
; HEADER_BLOCK_END

; THUMBNAIL_BLOCK_START

;
; THUMBNAIL_BLOCK_END







; external perimeters extrusion width = 0.40mm
; perimeters extrusion width = 0.45mm
; infill extrusion width = 0.45mm
; solid infill extrusion width = 0.45mm
; top infill extrusion width = 0.38mm
; first layer extrusion width = 0.42mm

; EXECUTABLE_BLOCK_START
EXCLUDE_OBJECT_DEFINE NAME=电池盒固定架_-_磁门.STL_id_0_copy_0 CENTER=117.5,116.6 POLYGON=[[101.5,87.1],[117.4,87.1],[133.5,95.3],[133.5,142.9],[122.333,146.1],[112.667,146.1],[101.5,142.9],[101.5,87.1]]
M73 P0 R16
;TYPE:Custom
;ELEGOO NEPTUNE 4 PRO
M220 S100 ;Set the feed speed to 100%
M221 S100 ;Set the flow rate to 100%
M104 S140
M190 S70
G90
G28 ;home
G1 Z10 F300
G1 X67.5 Y0 F6000
G1 Z0 F300
M109 S240
G92 E0 ;Reset Extruder
G1 X67.5 Y0 Z0.4 F300 ;Move to start position
G1 X167.5 E30 F400 ;Draw the first line
G1 Z0.6 F120.0 ;Move to side a little
M73 P2 R16
G1 X162.5 F3000
G92 E0 ;Reset Extruder
G90
G21
M83 ; use relative distances for extrusion
; filament start gcode
M106 S0
;LAYER_CHANGE
;Z:0.2
;HEIGHT:0.2
;BEFORE_LAYER_CHANGE
G92 E0
;0.2


G1 E-.8 F3600
;AFTER_LAYER_CHANGE
;0.2
;_SET_FAN_SPEED_CHANGING_LAYER
SET_VELOCITY_LIMIT ACCEL=1000 ACCEL_TO_DECEL=500
SET_VELOCITY_LIMIT SQUARE_CORNER_VELOCITY=7
; printing object 电池盒固定架 - 磁门.STL id:0 copy 0
EXCLUDE_OBJECT_START NAME=电池盒固定架_-_磁门.STL_id_0_copy_0
G1 X121.29 Y142.645 F21000
G1 Z.4
G1 Z.2
G1 E.8 F2700
;TYPE:Inner wall
;WIDTH:0.419999
G1 F3000
G1 X121.269 Y142.779 E.00404
G1 X121.269 Y144.064 E.03828
G1 X113.731 Y144.064 E.22454
G1 X113.731 Y142.779 E.03828
G1 X113.686 Y142.49 E.0087
G1 X113.602 Y142.303 E.00612
G1 X113.457 Y142.115 E.00707
G1 X113.156 Y141.91 E.01085
G1 X112.788 Y141.836 E.01117
G1 X102.564 Y141.836 E.30454
G1 X102.564 Y88.164 E1.59869
G1 X116.336 Y88.164 E.41021
G1 X116.34 Y95.514 E.21892
G1 X116.423 Y95.817 E.00936
G1 X116.64 Y96.115 E.01097
G1 X116.948 Y96.304 E.01079
G1 X117.279 Y96.364 E.01
G1 X132.436 Y96.364 E.45148
G1 X132.436 Y141.836 E1.35444
G1 X122.112 Y141.836 E.3075
G1 X121.763 Y141.949 E.01093
G1 X121.483 Y142.18 E.01081
G1 X121.314 Y142.49 E.01051
G1 X121.296 Y142.605 E.00346
G1 X121.67 Y142.691 F21000
G1 F3000
G1 X121.646 Y142.779 E.00271
G1 X121.646 Y144.441 E.04951
G1 X113.354 Y144.441 E.24701
G1 X113.354 Y142.655 E.05318
G1 X113.225 Y142.42 E.00799
G1 X113.057 Y142.281 E.00649
G1 X112.788 Y142.213 E.00827
G1 X102.187 Y142.213 E.31577
G1 X102.187 Y87.787 E1.62116
G1 X116.713 Y87.787 E.43267
G1 X116.716 Y95.477 E.22905
G1 X116.798 Y95.72 E.00764
G1 X117.006 Y95.917 E.00855
G1 X117.279 Y95.987 E.00838
G1 X132.813 Y95.987 E.46272
G1 X132.813 Y142.213 E1.37691
G1 X122.177 Y142.213 E.3168
G1 X121.922 Y142.293 E.00796
G1 X121.724 Y142.493 E.0084
G1 X121.681 Y142.652 E.00491
G1 X122.023 Y142.779 F21000
;TYPE:Outer wall
G1 F3000
G1 X122.023 Y144.818 E.06074
G1 X112.977 Y144.818 E.26947
G1 X112.977 Y142.779 E.06074
G1 X112.934 Y142.659 E.00379
G1 X112.788 Y142.59 E.0048
G1 X101.81 Y142.59 E.327
G1 X101.81 Y87.41 E1.64362
G1 X117.09 Y87.41 E.45514
M73 P3 R16
G1 X117.09 Y95.421 E.23863
G1 X117.139 Y95.548 E.00406
G1 X117.279 Y95.61 E.00454
G1 X133.19 Y95.61 E.47395
G1 X133.19 Y142.59 E1.39937
M73 P3 R15
G1 X122.212 Y142.59 E.327
G1 X122.089 Y142.636 E.0039
G1 X122.04 Y142.742 E.0035
G1 E-.68 F3600
;WIPE_START
G1 F3000
G1 X122.032 Y143.742 E-.12
;WIPE_END
G1 X120.85 Y136.202 Z.6 F21000
G1 X113.565 Y89.709 Z.6
G1 Z.2
G1 E.8 F2700
;TYPE:Inner wall
G1 F3000
G1 X113.832 Y89.757 E.00807
G1 X114.255 Y89.978 E.0142
G1 X114.485 Y90.199 E.00949
G1 X114.723 Y90.611 E.0142
G1 X114.81 Y91.08 E.0142
G1 X114.79 Y91.361 E.0084
G1 X114.597 Y91.835 E.01523
G1 X114.223 Y92.245 E.01653
G1 X113.87 Y92.423 E.01179
G1 X113.407 Y92.515 E.01405
G1 X112.91 Y92.427 E.01504
G1 X112.474 Y92.161 E.01521
G1 X112.243 Y91.906 E.01024
G1 X112.071 Y91.584 E.01089
G1 X111.986 Y91.138 E.0135
G1 X112.013 Y90.842 E.00887
G1 X112.178 Y90.396 E.01417
G1 X112.427 Y90.088 E.01179
G1 X112.612 Y89.937 E.00711
G1 X113.048 Y89.74 E.01424
G1 X113.441 Y89.687 E.01182
G1 X113.526 Y89.702 E.00257
G1 X113.375 Y90.074 F21000
G1 F3000
G1 X113.441 Y90.064 E.00199
G1 X113.737 Y90.122 E.00899
G1 X114.043 Y90.291 E.01041
G1 X114.276 Y90.551 E.01041
G1 X114.409 Y90.874 E.01041
G1 X114.419 Y91.296 E.01257
G1 X114.26 Y91.666 E.01198
G1 X113.986 Y91.952 E.01179
G1 X113.774 Y92.059 E.00707
G1 X113.349 Y92.135 E.01288
G1 X112.97 Y92.04 E.01163
G1 X112.598 Y91.757 E.01394
G1 X112.409 Y91.395 E.01217
G1 X112.367 Y91.048 E.01041
G1 X112.444 Y90.707 E.01041
G1 X112.664 Y90.381 E.01173
G1 X112.849 Y90.23 E.00711
G1 X113.111 Y90.112 E.00854
G1 X113.335 Y90.08 E.00675
G1 X113.427 Y90.444 F21000
;TYPE:Outer wall
G1 F3000
G1 X113.441 Y90.441 E.00041
G1 X113.7 Y90.514 E.00801
G1 X113.878 Y90.647 E.00663
G1 X114.002 Y90.832 E.00663
G1 X114.057 Y91.048 E.00663
G1 X114.03 Y91.283 E.00705
G1 X113.873 Y91.559 E.00945
G1 X113.679 Y91.694 E.00705
G1 X113.368 Y91.758 E.00945
G1 X113.138 Y91.702 E.00705
G1 X112.885 Y91.511 E.00945
G1 X112.778 Y91.316 E.00663
G1 X112.741 Y91.096 E.00663
G1 X112.78 Y90.877 E.00663
G1 X112.852 Y90.735 E.00473
G1 X113.087 Y90.523 E.00943
G1 X113.388 Y90.453 E.00922
G1 E-.68 F3600
;WIPE_START
G1 F3000
G1 X113.441 Y90.441 E-.00647
G1 X113.7 Y90.514 E-.03228
G1 X113.878 Y90.647 E-.02672
G1 X114.002 Y90.832 E-.02672
G1 X114.057 Y91.048 E-.02672
G1 X114.056 Y91.057 E-.0011
;WIPE_END
G1 X106.449 Y90.434 Z.6 F21000
G1 X104.388 Y90.265 Z.6
G1 Z.2
G1 E.8 F2700
;TYPE:Inner wall
G1 F3000
G1 X104.476 Y90.131 E.00479
G1 X104.712 Y89.937 E.00909
G1 X105.148 Y89.74 E.01424
G1 X105.541 Y89.687 E.01182
G1 X105.932 Y89.757 E.01184
G1 X106.355 Y89.978 E.0142
G1 X106.68 Y90.327 E.0142
G1 X106.87 Y90.764 E.0142
G1 X106.91 Y91.08 E.00949
G1 X106.878 Y91.418 E.0101
G1 X106.675 Y91.875 E.01491
G1 X106.546 Y92.053 E.00655
G1 X106.179 Y92.341 E.01389
G1 X105.739 Y92.484 E.01379
G1 X105.341 Y92.501 E.01188
G1 X104.883 Y92.368 E.0142
G1 X104.447 Y92.03 E.01644
G1 X104.305 Y91.838 E.00711
G1 X104.107 Y91.319 E.01655
G1 X104.093 Y91 E.00949
G1 X104.207 Y90.537 E.0142
G1 X104.365 Y90.298 E.00854
G1 X104.715 Y90.441 F21000
G1 F3000
G1 X104.764 Y90.381 E.00231
G1 X104.949 Y90.23 E.00711
G1 X105.211 Y90.112 E.00854
G1 X105.541 Y90.064 E.00994
G1 X105.837 Y90.122 E.00899
G1 X106.143 Y90.291 E.01041
G1 X106.376 Y90.551 E.01041
G1 X106.509 Y90.874 E.01041
G1 X106.523 Y91.264 E.01163
G1 X106.347 Y91.69 E.01372
G1 X106.269 Y91.796 E.00393
G1 X105.944 Y92.035 E.01202
G1 X105.538 Y92.136 E.01247
G1 X105.247 Y92.103 E.00872
G1 X104.928 Y91.962 E.01038
G1 X104.75 Y91.805 E.00707
G1 X104.608 Y91.613 E.00711
G1 X104.471 Y91.218 E.01246
G1 X104.488 Y90.89 E.00978
G1 X104.615 Y90.565 E.01038
G1 X104.69 Y90.472 E.00358
G1 X105.005 Y90.671 F21000
;TYPE:Outer wall
G1 F3000
G1 X105.274 Y90.484 E.00975
G1 X105.588 Y90.447 E.00943
G1 X105.8 Y90.514 E.0066
G1 X105.978 Y90.647 E.00663
G1 X106.102 Y90.832 E.00663
G1 X106.157 Y91.048 E.00663
G1 X106.13 Y91.283 E.00705
G1 X105.993 Y91.54 E.00868
G1 X105.779 Y91.694 E.00785
G1 X105.468 Y91.758 E.00945
G1 X105.251 Y91.71 E.00663
G1 X105.053 Y91.58 E.00705
G1 X104.878 Y91.316 E.00945
G1 X104.841 Y91.096 E.00663
G1 X104.88 Y90.877 E.00663
G1 X104.983 Y90.704 E.006
G1 E-.68 F3600
;WIPE_START
G1 F3000
G1 X105.274 Y90.484 E-.04375
G1 X105.588 Y90.447 E-.03799
G1 X105.8 Y90.514 E-.02661
G1 X105.878 Y90.572 E-.01165
;WIPE_END
G1 X113.278 Y92.439 Z.6 F21000
G1 X132.323 Y97.243 Z.6
G1 Z.2
G1 E.8 F2700
;TYPE:Bottom surface
;WIDTH:0.421556
G1 F4800
G1 X131.727 Y96.647 E.02521
G1 X131.191 Y96.647 E.01602
G1 X132.153 Y97.609 E.04068
G1 X132.153 Y98.144 E.01602
G1 X130.656 Y96.647 E.06333
G1 X130.12 Y96.647 E.01602
G1 X132.153 Y98.68 E.08598
G1 X132.153 Y99.215 E.01602
G1 X129.585 Y96.647 E.10863
G1 X129.049 Y96.647 E.01602
G1 X132.153 Y99.751 E.13128
G1 X132.153 Y100.286 E.01602
G1 X128.514 Y96.647 E.15393
G1 X127.979 Y96.647 E.01602
G1 X132.153 Y100.821 E.17658
G1 X132.153 Y101.357 E.01602
G1 X127.443 Y96.647 E.19922
G1 X126.908 Y96.647 E.01602
G1 X132.153 Y101.892 E.22187
G1 X132.153 Y102.428 E.01602
G1 X126.372 Y96.647 E.24452
G1 X125.837 Y96.647 E.01602
G1 X132.153 Y102.963 E.26717
G1 X132.153 Y103.499 E.01602
G1 X125.301 Y96.647 E.28982
G1 X124.766 Y96.647 E.01602
G1 X132.153 Y104.034 E.31247
G1 X132.153 Y104.57 E.01602
G1 X124.23 Y96.647 E.33512
G1 X123.695 Y96.647 E.01602
G1 X132.153 Y105.105 E.35777
G1 X132.153 Y105.641 E.01602
G1 X123.159 Y96.647 E.38042
G1 X122.624 Y96.647 E.01602
G1 X132.153 Y106.176 E.40307
G1 X132.153 Y106.712 E.01602
G1 X122.088 Y96.647 E.42572
G1 X121.553 Y96.647 E.01602
G1 X132.153 Y107.247 E.44837
G1 X132.153 Y107.783 E.01602
M73 P4 R15
G1 X121.017 Y96.647 E.47102
G1 X120.482 Y96.647 E.01602
G1 X132.153 Y108.318 E.49367
G1 X132.153 Y108.854 E.01602
G1 X119.946 Y96.647 E.51632
G1 X119.411 Y96.647 E.01602
G1 X132.153 Y109.389 E.53897
G1 X132.153 Y109.924 E.01602
G1 X118.876 Y96.647 E.56162
G1 X118.34 Y96.647 E.01602
G1 X132.153 Y110.46 E.58427
G1 X132.153 Y110.995 E.01602
G1 X117.635 Y96.477 E.6141
G1 E-.68 F3600
;WIPE_START
G1 F4800
G1 X118.342 Y97.184 E-.12
;WIPE_END
G1 X116.505 Y89.776 Z.6 F21000
G1 X116.223 Y88.64 Z.6
G1 Z.2
G1 E.8 F2700
G1 F4800
G1 X116.03 Y88.447 E.00815
G1 X115.495 Y88.447 E.01602
G1 X116.054 Y89.006 E.02364
G1 X116.054 Y89.542 E.01603
G1 X114.959 Y88.447 E.0463
G1 X114.424 Y88.447 E.01602
G1 X116.054 Y90.078 E.06897
G1 X116.055 Y90.613 E.01603
G1 X113.888 Y88.447 E.09164
G1 X113.353 Y88.447 E.01602
G1 X116.055 Y91.149 E.1143
G1 X116.056 Y91.685 E.01603
G1 X115.035 Y90.665 E.04317
G1 X114.991 Y90.521 E.00449
G1 X114.811 Y90.164 E.01197
G1 X114.597 Y89.895 E.01027
G1 X114.277 Y89.651 E.01205
G1 X113.837 Y89.467 E.01426
G1 X112.817 Y88.447 E.04313
G1 X112.282 Y88.447 E.01602
G1 X113.255 Y89.42 E.04114
G1 X112.982 Y89.465 E.00826
G1 X112.832 Y89.533 E.00492
G1 X111.746 Y88.447 E.04593
G1 X111.211 Y88.447 E.01602
G1 X112.464 Y89.7 E.05302
G1 X112.241 Y89.874 E.00847
G1 X112.179 Y89.951 E.00294
G1 X110.676 Y88.447 E.0636
G1 X110.14 Y88.447 E.01602
G1 X111.94 Y90.247 E.07614
G1 X111.851 Y90.417 E.00575
G1 X111.786 Y90.628 E.00661
G1 X109.605 Y88.447 E.09227
G1 X109.069 Y88.447 E.01602
G1 X111.889 Y91.267 E.11928
G1 E-.68 F3600
;WIPE_START
G1 F4800
G1 X111.182 Y90.56 E-.12
;WIPE_END
G1 X114.921 Y91.086 Z.6 F21000
G1 Z.2
G1 E.8 F2700
G1 F4800
G1 X116.056 Y92.221 E.04801
G1 X116.056 Y92.757 E.01603
G1 X114.98 Y91.681 E.04552
G1 X114.845 Y91.971 E.00957
G1 X114.796 Y92.032 E.00234
G1 X116.057 Y93.293 E.05333
G1 X116.057 Y93.829 E.01603
G1 X114.557 Y92.328 E.06346
G1 X114.393 Y92.471 E.0065
G1 X114.241 Y92.548 E.00509
G1 X116.058 Y94.365 E.07683
G1 X116.058 Y94.9 E.01603
G1 X113.873 Y92.715 E.09243
G1 X113.705 Y92.759 E.00518
G1 X113.419 Y92.797 E.00863
G1 X116.058 Y95.436 E.11164
G1 X116.058 Y95.543 E.0032
G1 X116.133 Y95.861 E.00975
G1 X116.301 Y96.162 E.01031
G1 X116.526 Y96.389 E.00956
G1 X116.768 Y96.536 E.00849
G1 X117.004 Y96.616 E.00743
G1 X117.269 Y96.646 E.00797
G1 X132.153 Y111.531 E.62959
G1 X132.153 Y112.066 E.01602
G1 X108.534 Y88.447 E.99907
G1 X107.998 Y88.447 E.01602
G1 X132.153 Y112.602 E1.02171
G1 X132.153 Y113.137 E.01602
G1 X107.463 Y88.447 E1.04436
G1 X106.927 Y88.447 E.01602
G1 X132.153 Y113.673 E1.06701
G1 X132.153 Y114.208 E.01602
G1 X106.392 Y88.447 E1.08966
G1 X105.856 Y88.447 E.01602
G1 X132.153 Y114.744 E1.11231
G1 X132.153 Y115.279 E.01602
G1 X105.321 Y88.447 E1.13496
G1 X104.785 Y88.447 E.01602
G1 X105.771 Y89.433 E.04171
G1 X106.011 Y89.486 E.00734
G1 X106.374 Y89.65 E.01192
G1 X106.52 Y89.748 E.00525
G1 X106.807 Y90.024 E.01192
G1 X106.912 Y90.165 E.00525
G1 X107.092 Y90.524 E.01201
G1 X107.163 Y90.824 E.00923
G1 X132.153 Y115.815 E1.05705
G1 X132.153 Y116.35 E.01602
M73 P5 R15
G1 X107.173 Y91.37 E1.05663
G1 X107.112 Y91.623 E.0078
G1 X107.039 Y91.772 E.00495
G1 X132.153 Y116.886 E1.06226
G1 X132.153 Y117.421 E.01602
G1 X106.848 Y92.116 E1.07036
G1 X106.754 Y92.246 E.00479
G1 X106.585 Y92.389 E.00661
G1 X132.153 Y117.957 E1.08148
G1 X132.153 Y118.492 E.01602
G1 X106.267 Y92.606 E1.09492
G1 X106.194 Y92.647 E.00252
G1 X105.867 Y92.741 E.01017
G1 X132.153 Y119.028 E1.11186
G1 X132.153 Y119.563 E.01602
G1 X105.177 Y92.587 E1.14105
G1 E-.68 F3600
;WIPE_START
G1 F4800
G1 X105.884 Y93.294 E-.12
;WIPE_END
G1 X105.39 Y89.587 Z.6 F21000
G1 Z.2
G1 E.8 F2700
G1 F4800
G1 X104.25 Y88.447 E.04822
G1 X103.714 Y88.447 E.01602
G1 X104.842 Y89.574 E.04768
G1 X104.543 Y89.71 E.00981
G1 X104.488 Y89.756 E.00215
G1 X103.179 Y88.447 E.05536
G1 X102.847 Y88.447 E.00993
G1 X102.847 Y88.651 E.00609
G1 X104.213 Y90.016 E.05777
G1 X103.993 Y90.332 E.01151
G1 X102.847 Y89.186 E.04849
G1 X102.847 Y89.721 E.01602
G1 X103.855 Y90.73 E.04264
G1 X103.802 Y91.12 E.01177
G1 X103.811 Y91.221 E.00305
G1 X102.847 Y90.257 E.04079
G1 X102.847 Y90.792 E.01602
G1 X132.153 Y120.098 E1.2396
G1 X132.153 Y120.634 E.01602
G1 X102.847 Y91.328 E1.2396
G1 X102.847 Y91.863 E.01602
G1 X132.153 Y121.169 E1.2396
G1 X132.153 Y121.705 E.01602
G1 X102.847 Y92.399 E1.2396
G1 X102.847 Y92.934 E.01602
G1 X132.153 Y122.24 E1.2396
G1 X132.153 Y122.776 E.01602
G1 X102.847 Y93.47 E1.2396
G1 X102.847 Y94.005 E.01602
G1 X132.153 Y123.311 E1.2396
G1 X132.153 Y123.847 E.01602
G1 X102.847 Y94.541 E1.2396
G1 X102.847 Y95.076 E.01602
M73 P6 R15
G1 X132.153 Y124.382 E1.2396
G1 X132.153 Y124.918 E.01602
G1 X102.847 Y95.612 E1.2396
G1 X102.847 Y96.147 E.01602
G1 X132.153 Y125.453 E1.2396
G1 X132.153 Y125.989 E.01602
G1 X102.847 Y96.683 E1.2396
G1 X102.847 Y97.218 E.01602
G1 X132.153 Y126.524 E1.2396
G1 X132.153 Y127.06 E.01602
G1 X102.847 Y97.754 E1.2396
G1 X102.847 Y98.289 E.01602
G1 X132.153 Y127.595 E1.2396
G1 X132.153 Y128.131 E.01602
G1 X102.847 Y98.824 E1.2396
G1 X102.847 Y99.36 E.01602
G1 X132.153 Y128.666 E1.2396
G1 X132.153 Y129.201 E.01602
G1 X102.847 Y99.895 E1.2396
G1 X102.847 Y100.431 E.01602
G1 X132.153 Y129.737 E1.2396
G1 X132.153 Y130.272 E.01602
G1 X102.847 Y100.966 E1.2396
G1 X102.847 Y101.502 E.01602
G1 X132.153 Y130.808 E1.2396
G1 X132.153 Y131.343 E.01602
G1 X102.847 Y102.037 E1.2396
G1 X102.847 Y102.573 E.01602
G1 X132.153 Y131.879 E1.2396
G1 X132.153 Y132.414 E.01602
G1 X102.847 Y103.108 E1.2396
G1 X102.847 Y103.644 E.01602
M73 P7 R15
G1 X132.153 Y132.95 E1.2396
G1 X132.153 Y133.485 E.01602
G1 X102.847 Y104.179 E1.2396
G1 X102.847 Y104.715 E.01602
G1 X132.153 Y134.021 E1.2396
G1 X132.153 Y134.556 E.01602
G1 X102.847 Y105.25 E1.2396
G1 X102.847 Y105.786 E.01602
G1 X132.153 Y135.092 E1.2396
G1 X132.153 Y135.627 E.01602
G1 X102.847 Y106.321 E1.2396
G1 X102.847 Y106.857 E.01602
G1 X132.153 Y136.163 E1.2396
G1 X132.153 Y136.698 E.01602
G1 X102.847 Y107.392 E1.2396
G1 X102.847 Y107.928 E.01602
G1 X132.153 Y137.234 E1.2396
G1 X132.153 Y137.769 E.01602
G1 X102.847 Y108.463 E1.2396
G1 X102.847 Y108.998 E.01602
G1 X132.153 Y138.305 E1.2396
G1 X132.153 Y138.84 E.01602
G1 X102.847 Y109.534 E1.2396
G1 X102.847 Y110.069 E.01602
G1 X132.153 Y139.375 E1.2396
G1 X132.153 Y139.911 E.01602
G1 X102.847 Y110.605 E1.2396
G1 X102.847 Y111.14 E.01602
G1 X132.153 Y140.446 E1.2396
G1 X132.153 Y140.982 E.01602
G1 X102.847 Y111.676 E1.2396
G1 X102.847 Y112.211 E.01602
M73 P8 R15
G1 X132.153 Y141.517 E1.2396
G1 X132.153 Y141.553 E.00107
G1 X131.653 Y141.553 E.01495
G1 X102.847 Y112.747 E1.21846
G1 X102.847 Y113.282 E.01602
G1 X131.118 Y141.553 E1.19581
G1 X130.582 Y141.553 E.01602
G1 X102.847 Y113.818 E1.17316
G1 X102.847 Y114.353 E.01602
G1 X130.047 Y141.553 E1.15051
G1 X129.511 Y141.553 E.01602
G1 X102.847 Y114.889 E1.12786
G1 X102.847 Y115.424 E.01602
G1 X128.976 Y141.553 E1.10521
G1 X128.44 Y141.553 E.01602
G1 X102.847 Y115.96 E1.08256
G1 X102.847 Y116.495 E.01602
G1 X127.905 Y141.553 E1.05991
G1 X127.369 Y141.553 E.01602
G1 X102.847 Y117.031 E1.03726
G1 X102.847 Y117.566 E.01602
G1 X126.834 Y141.553 E1.01461
G1 X126.299 Y141.553 E.01602
G1 X102.847 Y118.101 E.99196
G1 X102.847 Y118.637 E.01602
G1 X125.763 Y141.553 E.96931
G1 X125.228 Y141.553 E.01602
G1 X102.847 Y119.172 E.94667
