; HEADER_BLOCK_START
; generated by OrcaSlicer 2.1.1 on 2025-01-01 at 17:29:29
; total layer number: 24
; filament_density: 1.27
; filament_diameter: 1.75
; max_z_height: 1.96
; HEADER_BLOCK_END

; THUMBNAIL_BLOCK_START

;
; THUMBNAIL_BLOCK_END







; external perimeters extrusion width = 0.40mm
; perimeters extrusion width = 0.45mm
; infill extrusion width = 0.45mm
; solid infill extrusion width = 0.45mm
; top infill extrusion width = 0.38mm
; support material extrusion width = 0.38mm
; first layer extrusion width = 0.42mm

; EXECUTABLE_BLOCK_START
EXCLUDE_OBJECT_DEFINE NAME=电池盒固定架_-_拉手.STL_id_0_copy_0 CENTER=117.5,114.5 POLYGON=[[116,110.55],[116.018,110.315],[116.073,110.086],[116.163,109.869],[116.286,109.668],[116.439,109.489],[116.618,109.336],[116.819,109.214],[117.036,109.123],[117.265,109.068],[117.5,109.05],[117.735,109.068],[117.964,109.123],[118.181,109.214],[118.382,109.336],[118.561,109.489],[118.714,109.668],[118.837,109.869],[118.927,110.086],[118.982,110.315],[119,110.55],[119,118.45],[118.982,118.685],[118.927,118.914],[118.837,119.131],[118.714,119.332],[118.561,119.511],[118.382,119.664],[118.181,119.787],[117.964,119.877],[117.735,119.932],[117.5,119.95],[117.265,119.932],[117.036,119.877],[116.819,119.787],[116.618,119.664],[116.439,119.511],[116.286,119.332],[116.163,119.131],[116.073,118.914],[116.018,118.685],[116,118.45],[116,110.55]]
M73 P0 R1
;TYPE:Custom
;ELEGOO NEPTUNE 4 PRO
M220 S100 ;Set the feed speed to 100%
M221 S100 ;Set the flow rate to 100%
M104 S140
M190 S70
G90
G28 ;home
G1 Z10 F300
G1 X67.5 Y0 F6000
M73 P2 R1
G1 Z0 F300
M109 S240
G92 E0 ;Reset Extruder
M73 P3 R1
G1 X67.5 Y0 Z0.4 F300 ;Move to start position
M73 P5 R1
G1 X167.5 E30 F400 ;Draw the first line
G1 Z0.6 F120.0 ;Move to side a little
M73 P22 R1
G1 X162.5 F3000
G92 E0 ;Reset Extruder
G90
G21
M83 ; use relative distances for extrusion
; filament start gcode
M106 S0
;LAYER_CHANGE
;Z:0.2
;HEIGHT:0.2
;BEFORE_LAYER_CHANGE
G92 E0
;0.2


G1 E-.8 F3600
;AFTER_LAYER_CHANGE
;0.2
;_SET_FAN_SPEED_CHANGING_LAYER
SET_VELOCITY_LIMIT ACCEL=1000 ACCEL_TO_DECEL=500
SET_VELOCITY_LIMIT SQUARE_CORNER_VELOCITY=7
; printing object 电池盒固定架 - 拉手.STL id:0 copy 0
EXCLUDE_OBJECT_START NAME=电池盒固定架_-_拉手.STL_id_0_copy_0
G1 X115.469 Y110.206 F21000
G1 Z.4
M73 P23 R1
G1 Z.2
G1 E.8 F2700
;TYPE:Support
;WIDTH:0.42
G1 F1592
G1 X115.441 Y110.671 E.01388
G1 X115.473 Y111.004 E.00996
G1 X115.563 Y111.338 E.01031
G1 X115.685 Y111.611 E.0089
G1 X115.866 Y111.89 E.00991
G1 X116.231 Y112.284 E.016
G1 X116.407 Y112.537 E.00917
G1 X116.651 Y112.664 E.00819
G1 X118.355 Y112.664 E.05077
G1 X118.607 Y112.526 E.00855
G1 X118.764 Y112.289 E.00847
G1 X119.134 Y111.89 E.01619
G1 X119.315 Y111.611 E.00991
G1 X119.452 Y111.294 E.0103
G1 X119.535 Y110.957 E.01031
G1 X119.56 Y110.539 E.01249
G1 X119.522 Y110.166 E.01117
G1 X121.834 Y110.166 E.06888
G1 X121.834 Y118.834 E.2582
G1 X119.522 Y118.834 E.06888
M73 P24 R1
G1 X119.56 Y118.461 E.01117
G1 X119.535 Y118.043 E.01249
G1 X119.452 Y117.706 E.01031
G1 X119.315 Y117.389 E.0103
G1 X119.134 Y117.11 E.00991
G1 X118.769 Y116.716 E.016
G1 X118.593 Y116.463 E.00917
G1 X118.349 Y116.336 E.00819
G1 X116.645 Y116.336 E.05077
G1 X116.393 Y116.474 E.00855
G1 X116.236 Y116.71 E.00845
G1 X115.874 Y117.099 E.01582
G1 X115.707 Y117.35 E.00898
G1 X115.563 Y117.662 E.01025
G1 X115.473 Y117.996 E.0103
G1 X115.441 Y118.329 E.00996
G1 X115.478 Y118.834 E.01509
G1 X113.166 Y118.834 E.06888
G1 X113.166 Y110.166 E.2582
G1 X115.463 Y110.166 E.06843
M73 P25 R1
G1 E-.68 F3600
;WIPE_START
G1 F3000
G1 X114.463 Y110.166 E-.12
;WIPE_END
G1 X116.568 Y113.003 Z.6 F21000
G1 Z.2
G1 E.8 F2700
G1 F1592
G1 X118.442 Y113.003 E.05584
G1 X118.846 Y112.781 E.01373
G1 X119.026 Y112.506 E.00979
G1 X119.361 Y112.149 E.0146
G1 X119.583 Y111.828 E.01162
G1 X119.752 Y111.464 E.01197
G1 X119.859 Y111.075 E.01201
G1 X119.898 Y110.693 E.01145
G1 X119.898 Y110.505 E.00558
G1 X121.495 Y110.505 E.04755
G1 X121.495 Y118.495 E.23798
G1 X119.898 Y118.495 E.04755
M73 P26 R1
G1 X119.898 Y118.308 E.00558
G1 X119.859 Y117.925 E.01145
G1 X119.752 Y117.536 E.01201
G1 X119.583 Y117.172 E.01197
G1 X119.409 Y116.91 E.00938
G1 X119.033 Y116.501 E.01653
G1 X118.824 Y116.201 E.0109
G1 X118.432 Y115.997 E.01315
G1 X116.558 Y115.997 E.05584
G1 X116.154 Y116.218 E.01373
G1 X115.975 Y116.493 E.00975
G1 X115.647 Y116.839 E.0142
G1 X115.417 Y117.173 E.0121
G1 X115.247 Y117.537 E.01194
G1 X115.141 Y117.925 E.012
G1 X115.102 Y118.308 E.01145
G1 X115.102 Y118.495 E.00558
G1 X113.505 Y118.495 E.04755
G1 X113.505 Y110.505 E.23798
G1 X115.102 Y110.505 E.04755
M73 P27 R1
G1 X115.102 Y110.693 E.00558
G1 X115.141 Y111.075 E.01145
G1 X115.248 Y111.464 E.01201
G1 X115.417 Y111.828 E.01197
G1 X115.591 Y112.09 E.00938
G1 X115.967 Y112.499 E.01653
G1 X116.176 Y112.799 E.0109
G1 X116.568 Y113.003 E.01315
G1 X116.465 Y113.422 F21000
G1 F1592
G1 X118.55 Y113.422 E.0621
G1 X119.142 Y113.097 E.02013
G1 X119.346 Y112.777 E.0113
G1 X119.748 Y112.336 E.01777
G1 X119.994 Y111.949 E.01367
G1 X120.142 Y111.619 E.01079
G1 X120.269 Y111.162 E.01411
G1 X120.31 Y110.924 E.00719
G1 X121.076 Y110.924 E.02282
G1 X121.076 Y118.076 E.21302
G1 X120.31 Y118.076 E.02282
G1 X120.269 Y117.838 E.0072
G1 X120.142 Y117.381 E.01411
G1 X119.994 Y117.051 E.01079
G1 X119.748 Y116.664 E.01367
M73 P28 R1
G1 X119.359 Y116.237 E.01719
G1 X119.109 Y115.877 E.01305
G1 X118.535 Y115.578 E.01927
G1 X116.45 Y115.578 E.0621
G1 X115.858 Y115.903 E.02013
G1 X115.655 Y116.222 E.01126
G1 X115.261 Y116.651 E.01736
G1 X115.058 Y116.956 E.01089
G1 X114.858 Y117.382 E.01404
G1 X114.731 Y117.838 E.01409
G1 X114.69 Y118.076 E.0072
G1 X113.924 Y118.076 E.02282
G1 X113.924 Y110.924 E.21302
G1 X114.69 Y110.924 E.02282
G1 X114.731 Y111.162 E.00719
G1 X114.858 Y111.619 E.01411
G1 X115.006 Y111.949 E.01079
G1 X115.252 Y112.336 E.01367
G1 X115.641 Y112.763 E.01719
G1 X115.891 Y113.123 E.01305
G1 X116.465 Y113.422 E.01927
G1 X116.362 Y113.841 F21000
G1 F1592
G1 X118.657 Y113.841 E.06836
G1 X119.438 Y113.413 E.02653
M73 P29 R1
G1 X119.678 Y113.036 E.01332
G1 X120.087 Y112.583 E.01817
G1 X120.374 Y112.129 E.01601
G1 X120.657 Y112.201 E.00871
G1 X120.657 Y116.799 E.13693
G1 X120.374 Y116.871 E.00871
G1 X120.087 Y116.417 E.01601
G1 X119.685 Y115.972 E.01785
G1 X119.394 Y115.553 E.0152
G1 X118.638 Y115.159 E.02539
G1 X116.343 Y115.159 E.06836
G1 X115.562 Y115.587 E.02652
G1 X115.323 Y115.963 E.01327
G1 X114.922 Y116.404 E.01776
G1 X114.626 Y116.872 E.01648
G1 X114.343 Y116.799 E.00871
G1 X114.343 Y112.201 E.13694
G1 X114.626 Y112.129 E.00871
M73 P30 R1
G1 X114.913 Y112.583 E.01601
G1 X115.315 Y113.028 E.01785
G1 X115.606 Y113.447 E.0152
G1 X116.362 Y113.841 E.0254
G1 X116.259 Y114.26 F21000
G1 F1592
G1 X118.764 Y114.26 E.07462
G1 X119.734 Y113.728 E.03293
G1 X119.966 Y113.363 E.0129
G1 X120.238 Y113.442 E.00843
G1 X120.238 Y115.57 E.06338
G1 X119.974 Y115.653 E.00825
G1 X119.679 Y115.23 E.01537
G1 X118.741 Y114.74 E.03152
G1 X116.236 Y114.74 E.07462
G1 X115.267 Y115.271 E.03292
G1 X115.034 Y115.637 E.01292
G1 X114.762 Y115.558 E.00842
G1 X114.762 Y113.43 E.06339
G1 X115.026 Y113.347 E.00825
G1 X115.321 Y113.77 E.01537
G1 X116.259 Y114.26 E.03152
G1 X115.807 Y114.497 F21000
M73 P31 R1
G1 F1592
G1 X115.181 Y114.84 E.02128
G1 X115.181 Y114.17 E.01997
G1 X115.807 Y114.497 E.02104
G1 X119.193 Y114.503 F21000
G1 F1592
G1 X119.819 Y114.16 E.02128
G1 X119.819 Y114.83 E.01997
G1 X119.193 Y114.503 E.02104
G1 E-.68 F3600
;WIPE_START
G1 F3000
G1 X119.819 Y114.83 E-.08477
G1 X119.819 Y114.537 E-.03523
;WIPE_END
G1 X118.034 Y117.217 Z.6 F21000
G1 Z.2
G1 E.8 F2700
;TYPE:Outer wall
;WIDTH:0.460955
G1 F1592
G1 X118.06 Y117.218 E.00085
G1 X118.433 Y117.603 E.0177
;WIDTH:0.42741
G1 X118.568 Y117.816 E.00765
;WIDTH:0.427239
G1 X118.706 Y118.182 E.01189
G1 X118.719 Y118.608 E.01294
;WIDTH:0.428962
G1 X118.606 Y118.981 E.01187
G1 X118.418 Y119.269 E.01048
;WIDTH:0.424756
G1 X118.084 Y119.531 E.01281
G1 X117.721 Y119.66 E.01163
;WIDTH:0.423051
G1 X117.355 Y119.671 E.011
;WIDTH:0.422479
G1 X117.01 Y119.574 E.01073
;WIDTH:0.419845
G1 X116.675 Y119.359 E.01187
;WIDTH:0.421132
G1 X116.418 Y119.035 E.01236
;WIDTH:0.421815
G1 X116.291 Y118.675 E.01139
G1 X116.288 Y118.217 E.01373
;WIDTH:0.420552
G1 X116.421 Y117.819 E.01251
;WIDTH:0.427604
G1 X116.564 Y117.606 E.00779
;WIDTH:0.460308
M73 P32 R1
G1 X116.942 Y117.219 E.01786
G1 X117.496 Y117.196 E.01829
;WIDTH:0.460955
G1 X117.994 Y117.216 E.01645
G1 X118.077 Y117.817 F21000
G1 F1592
G1 X118.231 Y117.974 E.00726
;WIDTH:0.416106
G1 X118.352 Y118.375 E.01236
;WIDTH:0.415609
G1 X118.323 Y118.674 E.00884
;WIDTH:0.41874
G1 X118.11 Y119.048 E.01276
G1 X117.755 Y119.266 E.01237
;WIDTH:0.415173
G1 X117.468 Y119.305 E.00851
;WIDTH:0.425108
G1 X117.134 Y119.217 E.01044
G1 X116.839 Y118.991 E.01123
;WIDTH:0.413592
G1 X116.696 Y118.739 E.00846
;WIDTH:0.413333
G1 X116.646 Y118.464 E.0082
;WIDTH:0.417548
G1 X116.662 Y118.236 E.00676
;WIDTH:0.424933
G1 X116.817 Y117.896 E.01126
;WIDTH:0.446603
G1 X117.162 Y117.61 E.01431
G1 X117.468 Y117.568 E.00986
;WIDTH:0.460955
G1 X117.88 Y117.617 E.01368
G1 X118.049 Y117.789 E.00797
G1 E-.68 F3600
;WIPE_START
G1 F3000
G1 X118.231 Y117.974 E-.03117
G1 X118.352 Y118.375 E-.05031
G1 X118.323 Y118.674 E-.03605
G1 X118.312 Y118.692 E-.00246
;WIPE_END
G1 X116.907 Y111.746 Z.6 F21000
G1 Z.2
G1 E.8 F2700
;WIDTH:0.464575
G1 F1592
G1 X116.611 Y111.447 E.01403
;WIDTH:0.430778
G1 X116.367 Y111.059 E.01405
G1 X116.28 Y110.707 E.01108
;WIDTH:0.417902
G1 X116.321 Y110.197 E.01515
G1 X116.46 Y109.898 E.00977
G1 X116.732 Y109.591 E.01217
;WIDTH:0.42878
G1 X117.092 Y109.393 E.01253
G1 X117.355 Y109.334 E.0082
;WIDTH:0.413423
G1 X117.756 Y109.352 E.01177
;WIDTH:0.414303
G1 X118.129 Y109.497 E.01172
;WIDTH:0.41624
G1 X118.428 Y109.747 E.01151
;WIDTH:0.42751
G1 X118.657 Y110.142 E.01387
G1 X118.724 Y110.715 E.01751
;WIDTH:0.418242
G1 X118.616 Y111.094 E.01168
;WIDTH:0.431565
M73 P33 R1
G1 X118.442 Y111.383 E.01037
;WIDTH:0.462319
G1 X118.043 Y111.782 E.0187
G1 X117.59 Y111.804 E.01501
;WIDTH:0.464575
G1 X116.941 Y111.781 E.02165
G1 X116.935 Y111.775 E.00027
G1 E-.68 F3600
;WIPE_START
G1 F3000
G1 X116.611 Y111.447 E-.05534
G1 X116.367 Y111.059 E-.05502
G1 X116.347 Y110.981 E-.00964
;WIPE_END
G1 X118.342 Y110.704 Z.6 F21000
G1 Z.2
G1 E.8 F2700
;WIDTH:0.419536
G1 F1592
G1 X118.34 Y110.751 E.0014
;WIDTH:0.424242
G1 X118.225 Y111.044 E.00949
;WIDTH:0.462319
G1 X117.868 Y111.375 E.01611
G1 X117.604 Y111.429 E.00895
;WIDTH:0.461875
G1 X117.14 Y111.385 E.01542
G1 X116.81 Y111.085 E.01476
;WIDTH:0.419309
G1 X116.651 Y110.682 E.01289
;WIDTH:0.417907
G1 X116.691 Y110.269 E.01227
;WIDTH:0.416776
G1 X116.831 Y110.016 E.00855
;WIDTH:0.415938
G1 X117.061 Y109.819 E.00894
;WIDTH:0.418192
G1 X117.458 Y109.695 E.01232
;WIDTH:0.419861
G1 X117.747 Y109.729 E.00866
G1 X118.006 Y109.858 E.00862
;WIDTH:0.418222
M73 P33 R0
G1 X118.212 Y110.08 E.009
;WIDTH:0.415869
G1 X118.352 Y110.468 E.01212
;WIDTH:0.419536
G1 X118.344 Y110.664 E.00585
; stop printing object 电池盒固定架 - 拉手.STL id:0 copy 0
;LAYER_CHANGE
;Z:0.28
;HEIGHT:0.08
;BEFORE_LAYER_CHANGE
G92 E0
;0.28


G1 E-.68 F3600
;WIPE_START
G1 F3000
G1 X118.34 Y110.751 E-.01044
G1 X118.225 Y111.044 E-.03782
G1 X117.868 Y111.375 E-.05837
G1 X117.759 Y111.397 E-.01337
;WIPE_END
EXCLUDE_OBJECT_END NAME=电池盒固定架_-_拉手.STL_id_0_copy_0
;AFTER_LAYER_CHANGE
;0.28
;_SET_FAN_SPEED_CHANGING_LAYER
SET_VELOCITY_LIMIT ACCEL=5000 ACCEL_TO_DECEL=2500
SET_VELOCITY_LIMIT SQUARE_CORNER_VELOCITY=9
M140 S70 ; set bed temperature
; printing object 电池盒固定架 - 拉手.STL id:0 copy 0
EXCLUDE_OBJECT_START NAME=电池盒固定架_-_拉手.STL_id_0_copy_0
G1 X118.04 Y117.132 Z.6 F21000
G1 Z.28
G1 E.8 F2700
SET_VELOCITY_LIMIT ACCEL=3000 ACCEL_TO_DECEL=1500 SQUARE_CORNER_VELOCITY=7
;WIDTH:0.556711
G1 F600
G1 X118.098 Y117.219 E.00179
;WIDTH:0.555253
G1 X118.285 Y117.397 E.00439
;WIDTH:0.520952
G1 X118.471 Y117.575 E.00411
;WIDTH:0.48665
G1 X118.667 Y117.915 E.00582
;WIDTH:0.480716
M73 P34 R0
G1 X118.764 Y118.401 E.00727
;WIDTH:0.458488
G1 X118.723 Y118.738 E.00472
;WIDTH:0.453598
G1 X118.562 Y119.131 E.00586
;WIDTH:0.454067
G1 X118.306 Y119.418 E.00532
;WIDTH:0.462805
G1 X117.923 Y119.638 E.00622
G1 X117.535 Y119.712 E.00556
;WIDTH:0.460123
G1 X117.143 Y119.661 E.00553
;WIDTH:0.459957
G1 X116.798 Y119.497 E.00534
;WIDTH:0.459678
G1 X116.533 Y119.258 E.00499
G1 X116.312 Y118.872 E.00622
;WIDTH:0.458295
G1 X116.257 Y118.631 E.00345
;WIDTH:0.469058
G1 X116.251 Y118.19 E.00629
;WIDTH:0.476316
G1 X116.368 Y117.842 E.00534
;WIDTH:0.488093
G1 X116.542 Y117.561 E.00491
;WIDTH:0.52407
G1 X116.765 Y117.326 E.00519
;WIDTH:0.560047
G1 X116.988 Y117.091 E.00555
G1 X117.494 Y117.08 E.00868
;WIDTH:0.556711
G1 X118.018 Y117.099 E.00893
SET_VELOCITY_LIMIT ACCEL=5000 ACCEL_TO_DECEL=2500 SQUARE_CORNER_VELOCITY=9
G1 X118.048 Y117.825 F21000
SET_VELOCITY_LIMIT ACCEL=3000 ACCEL_TO_DECEL=1500 SQUARE_CORNER_VELOCITY=7
;WIDTH:0.491912
G1 F600
G1 X118.201 Y118.003 E.00352
;WIDTH:0.473919
G1 X118.324 Y118.382 E.00576
;WIDTH:0.458683
G1 X118.286 Y118.695 E.0044
G1 X118.179 Y118.921 E.00348
;WIDTH:0.459569
G1 X117.997 Y119.105 E.00362
M73 P35 R0
G1 X117.603 Y119.267 E.00595
;WIDTH:0.459957
G1 X117.251 Y119.233 E.00494
;WIDTH:0.461188
G1 X117.039 Y119.131 E.00331
G1 X116.84 Y118.94 E.00387
;WIDTH:0.459678
G1 X116.691 Y118.612 E.00504
;WIDTH:0.469066
G1 X116.687 Y118.288 E.00462
;WIDTH:0.488093
G1 X116.863 Y117.905 E.00628
;WIDTH:0.52407
G1 X117.033 Y117.766 E.00352
;WIDTH:0.560047
G1 X117.203 Y117.627 E.00377
G1 X117.47 Y117.589 E.00462
;WIDTH:0.555253
G1 X117.764 Y117.616 E.00502
G1 X117.885 Y117.695 E.00245
;WIDTH:0.523583
G1 X118.005 Y117.774 E.00231
;WIDTH:0.491912
G1 X118.022 Y117.794 E.00039
SET_VELOCITY_LIMIT ACCEL=5000 ACCEL_TO_DECEL=2500 SQUARE_CORNER_VELOCITY=9
G1 E-.68 F3600
;WIPE_START
G1 F7200
G1 X118.201 Y118.003 E-.03294
G1 X118.324 Y118.382 E-.04786
G1 X118.286 Y118.695 E-.03787
G1 X118.281 Y118.705 E-.00133
;WIPE_END
G1 X116.951 Y111.872 Z.68 F21000
G1 Z.28
G1 E.8 F2700
SET_VELOCITY_LIMIT ACCEL=3000 ACCEL_TO_DECEL=1500 SQUARE_CORNER_VELOCITY=7
;WIDTH:0.558218
G1 F600
G1 X116.795 Y111.707 E.00388
;WIDTH:0.52251
G1 X116.602 Y111.504 E.00448
;WIDTH:0.486802
G1 X116.361 Y111.147 E.0064
;WIDTH:0.471346
G1 X116.248 Y110.734 E.00614
;WIDTH:0.45719
G1 X116.276 Y110.282 E.00629
;WIDTH:0.453488
G1 X116.427 Y109.891 E.00578
;WIDTH:0.454909
G1 X116.701 Y109.575 E.00578
;WIDTH:0.465398
G1 X117.078 Y109.364 E.00612
G1 X117.451 Y109.289 E.0054
;WIDTH:0.457047
M73 P36 R0
G1 X117.858 Y109.338 E.00569
G1 X118.203 Y109.501 E.00531
;WIDTH:0.46212
G1 X118.466 Y109.743 E.00503
G1 X118.687 Y110.128 E.00624
;WIDTH:0.461765
G1 X118.766 Y110.585 E.00652
;WIDTH:0.463797
G1 X118.752 Y110.797 E.003
;WIDTH:0.480226
G1 X118.599 Y111.25 E.00699
;WIDTH:0.505768
G1 X118.262 Y111.635 E.0079
;WIDTH:0.535163
G1 X118.136 Y111.772 E.00304
;WIDTH:0.564558
G1 X118.01 Y111.908 E.00321
G1 X117.559 Y111.923 E.0078
;WIDTH:0.558218
G1 X116.988 Y111.911 E.00977
G1 X116.979 Y111.901 E.00023
SET_VELOCITY_LIMIT ACCEL=5000 ACCEL_TO_DECEL=2500 SQUARE_CORNER_VELOCITY=9
G1 E-.68 F3600
;WIPE_START
G1 F7200
G1 X116.795 Y111.707 E-.03205
G1 X116.602 Y111.504 E-.03366
G1 X116.361 Y111.147 E-.05173
G1 X116.355 Y111.126 E-.00256
;WIPE_END
G1 X118.307 Y110.7 Z.68 F21000
G1 Z.28
G1 E.8 F2700
SET_VELOCITY_LIMIT ACCEL=3000 ACCEL_TO_DECEL=1500 SQUARE_CORNER_VELOCITY=7
;WIDTH:0.464807
G1 F600
G1 X118.303 Y110.762 E.00087
;WIDTH:0.48851
G1 X118.135 Y111.093 E.00553
;WIDTH:0.505768
G1 X117.983 Y111.246 E.00333
;WIDTH:0.536839
G1 X117.648 Y111.406 E.0061
;WIDTH:0.557648
G1 X117.216 Y111.382 E.00739
G1 X117.047 Y111.245 E.00371
;WIDTH:0.522937
G1 X116.878 Y111.108 E.00347
;WIDTH:0.488226
G1 X116.744 Y110.891 E.0038
;WIDTH:0.475262
G1 X116.68 Y110.618 E.00406
;WIDTH:0.461564
M73 P37 R0
G1 X116.694 Y110.392 E.00318
;WIDTH:0.453024
G1 X116.86 Y110.031 E.00547
;WIDTH:0.453557
G1 X117.086 Y109.84 E.00408
;WIDTH:0.458252
G1 X117.481 Y109.725 E.00574
G1 X117.744 Y109.761 E.00369
;WIDTH:0.456676
G1 X118.003 Y109.898 E.00407
;WIDTH:0.45592
G1 X118.236 Y110.186 E.00513
;WIDTH:0.453778
G1 X118.322 Y110.482 E.00425
;WIDTH:0.464807
