; HEADER_BLOCK_START
; generated by OrcaSlicer 2.1.1 on 2025-01-12 at 11:34:25
; total layer number: 216
; filament_density: 1.27
; filament_diameter: 1.75
; max_z_height: 17.40
; HEADER_BLOCK_END

; THUMBNAIL_BLOCK_START

;
; THUMBNAIL_BLOCK_END







; external perimeters extrusion width = 0.40mm
; perimeters extrusion width = 0.45mm
; infill extrusion width = 0.45mm
; solid infill extrusion width = 0.45mm
; top infill extrusion width = 0.38mm
; support material extrusion width = 0.38mm
; first layer extrusion width = 0.42mm

; EXECUTABLE_BLOCK_START
EXCLUDE_OBJECT_DEFINE NAME=驾驶舱_-_门框1_-_p2.STL_id_0_copy_0 CENTER=117.5,115 POLYGON=[[82.75,113.5],[152.25,113.5],[152.25,116.5],[82.75,116.5],[82.75,113.5]]
M73 P0 R24
;TYPE:Custom
;ELEGOO NEPTUNE 4 PRO
M220 S100 ;Set the feed speed to 100%
M221 S100 ;Set the flow rate to 100%
M104 S140
M190 S70
G90
G28 ;home
G1 Z10 F300
G1 X67.5 Y0 F6000
G1 Z0 F300
M109 S240
G92 E0 ;Reset Extruder
G1 X67.5 Y0 Z0.4 F300 ;Move to start position
G1 X167.5 E30 F400 ;Draw the first line
G1 Z0.6 F120.0 ;Move to side a little
M73 P1 R24
G1 X162.5 F3000
G92 E0 ;Reset Extruder
G90
G21
M83 ; use relative distances for extrusion
; filament start gcode
M106 S0
;LAYER_CHANGE
;Z:0.2
;HEIGHT:0.2
;BEFORE_LAYER_CHANGE
G92 E0
;0.2


G1 E-.8 F3600
;AFTER_LAYER_CHANGE
;0.2
;_SET_FAN_SPEED_CHANGING_LAYER
SET_VELOCITY_LIMIT ACCEL=1000 ACCEL_TO_DECEL=500
SET_VELOCITY_LIMIT SQUARE_CORNER_VELOCITY=7
; printing object 驾驶舱 - 门框1 - p2.STL id:0 copy 0
EXCLUDE_OBJECT_START NAME=驾驶舱_-_门框1_-_p2.STL_id_0_copy_0
G1 X128.56 Y112.246 F21000
G1 Z.4
G1 Z.2
G1 E.8 F2700
;TYPE:Support
;WIDTH:0.42
G1 F3000
G1 X126.56 Y112.246 E.05957
G1 X126.56 Y117.754 E.16409
G1 X128.56 Y117.754 E.05957
G1 X128.56 Y119.334 E.04706
G1 X80.086 Y119.334 E1.44386
G1 X80.086 Y110.666 E.2582
G1 X128.56 Y110.666 E1.44386
G1 X128.56 Y112.189 E.04537
G1 E-.68 F3600
;WIPE_START
G1 F3000
G1 X128.56 Y111.189 E-.12
;WIPE_END
G1 X126.22 Y118.094 Z.6 F21000
G1 Z.2
G1 E.8 F2700
G1 F3000
G1 X128.22 Y118.094 E.05957
G1 X128.22 Y118.995 E.02684
G1 X80.426 Y118.995 E1.42364
G1 X80.426 Y111.005 E.23798
G1 X128.22 Y111.005 E1.42364
G1 X128.22 Y111.906 E.02684
G1 X126.22 Y111.906 E.05957
G1 X126.22 Y118.094 E.1843
G1 X125.801 Y118.576 F21000
G1 F3000
G1 X80.845 Y118.576 E1.33911
G1 X80.845 Y111.424 E.21302
G1 X125.801 Y111.424 E1.33911
G1 X125.801 Y118.576 E.21302
G1 X125.382 Y118.157 F21000
G1 F3000
G1 X81.264 Y118.157 E1.31415
G1 X81.264 Y111.843 E.18806
G1 X125.382 Y111.843 E1.31415
G1 X125.382 Y118.157 E.18806
M73 P2 R24
G1 X124.964 Y117.738 F21000
G1 F3000
G1 X81.683 Y117.738 E1.28919
G1 X81.683 Y112.262 E.1631
G1 X124.964 Y112.262 E1.28919
G1 X124.964 Y117.738 E.1631
G1 X124.545 Y117.319 F21000
G1 F3000
G1 X82.101 Y117.319 E1.26423
G1 X82.101 Y112.681 E.13814
G1 X124.545 Y112.681 E1.26423
G1 X124.545 Y117.319 E.13814
G1 X124.126 Y116.9 F21000
G1 F3000
G1 X82.52 Y116.9 E1.23927
G1 X82.52 Y113.1 E.11318
G1 X124.126 Y113.1 E1.23927
G1 X124.126 Y116.9 E.11318
G1 X123.707 Y116.481 F21000
G1 F3000
G1 X82.939 Y116.481 E1.21431
G1 X82.939 Y113.519 E.08822
G1 X123.707 Y113.519 E1.21431
G1 X123.707 Y116.481 E.08822
G1 X123.288 Y116.062 F21000
G1 F3000
G1 X83.358 Y116.062 E1.18935
G1 X83.358 Y113.938 E.06326
G1 X123.288 Y113.938 E1.18935
G1 X123.288 Y116.062 E.06326
G1 X122.869 Y115.643 F21000
G1 F3000
G1 X83.777 Y115.643 E1.16439
G1 X83.777 Y114.357 E.0383
G1 X122.869 Y114.357 E1.16439
G1 X122.869 Y115.643 E.0383
G1 X122.45 Y115.224 F21000
G1 F3000
G1 X84.196 Y115.224 E1.13943
G1 X84.196 Y114.776 E.01334
G1 X122.45 Y114.776 E1.13943
G1 X122.45 Y115.224 E.01334
G1 E-.68 F3600
;WIPE_START
G1 F3000
G1 X122.45 Y114.776 E-.05376
G1 X121.898 Y114.776 E-.06624
;WIPE_END
G1 X129.331 Y116.509 Z.6 F21000
G1 X131.571 Y117.031 Z.6
G1 Z.2
G1 E.8 F2700
;TYPE:Support interface
G1 F3000
G1 X131.571 Y117.363 E.00987
G1 X131.008 Y117.363 E.01676
M73 P3 R24
G1 X131.008 Y117.031 E.00987
G1 X130.445 Y117.031 E.01676
G1 X130.445 Y117.363 E.00987
G1 X129.882 Y117.363 E.01676
G1 X129.882 Y117.031 E.00987
G1 X129.698 Y117.031 E.0055
G1 X129.548 Y116.881 E.00632
G1 X129.501 Y116.881 E.0014
G1 E-.68 F3600
;WIPE_START
G1 F3000
G1 X129.548 Y116.881 E-.00562
G1 X129.698 Y117.031 E-.02546
G1 X129.882 Y117.031 E-.02215
G1 X129.882 Y117.363 E-.03977
G1 X130.107 Y117.363 E-.027
;WIPE_END
G1 X127.068 Y117.363 Z.6 F21000
G1 Z.2
G1 E.8 F2700
G1 F3000
G1 X127.068 Y112.637 E.14076
G1 X127.631 Y112.637 E.01676
G1 X127.631 Y117.363 E.14076
G1 X128.194 Y117.363 E.01676
G1 X128.194 Y112.637 E.14076
G1 X128.757 Y112.637 E.01676
G1 X128.757 Y117.363 E.14076
G1 X129.319 Y117.363 E.01676
G1 X129.319 Y116.881 E.01434
G1 X129.295 Y116.881 E.00073
G1 X129.071 Y116.658 E.00941
G1 X129.071 Y113.342 E.09877
G1 X129.295 Y113.119 E.00941
G1 X129.319 Y113.119 E.00073
G1 X129.319 Y112.637 E.01434
G1 X129.882 Y112.637 E.01676
G1 X129.882 Y112.969 E.00987
G1 X130.445 Y112.969 E.01676
G1 X130.445 Y112.637 E.00987
G1 X131.008 Y112.637 E.01676
G1 X131.008 Y112.969 E.00987
G1 X131.571 Y112.969 E.01676
G1 X131.571 Y112.637 E.00987
G1 E-.68 F3600
;WIPE_START
G1 F3000
G1 X131.571 Y112.969 E-.03977
G1 X131.008 Y112.969 E-.06754
G1 X131.008 Y112.863 E-.01269
;WIPE_END
G1 X138.579 Y113.828 Z.6 F21000
G1 X151.186 Y115.436 Z.6
G1 Z.2
G1 E.8 F2700
;TYPE:Inner wall
;WIDTH:0.419999
G1 F3000
G1 X130.982 Y115.436 E.6018
G1 X130.982 Y114.564 E.02596
G1 X151.186 Y114.564 E.6018
G1 X151.186 Y115.396 E.02477
G1 X151.563 Y115.813 F21000
G1 F3000
G1 X130.605 Y115.813 E.62427
G1 X130.605 Y114.187 E.04843
G1 X151.563 Y114.187 E.62427
G1 X151.563 Y115.773 E.04724
G1 X151.94 Y116.19 F21000
;TYPE:Outer wall
G1 F3000
G1 X130.228 Y116.19 E.64673
G1 X130.228 Y113.81 E.07089
G1 X151.94 Y113.81 E.64673
G1 X151.94 Y116.15 E.0697
G1 E-.68 F3600
;WIPE_START
G1 F3000
G1 X150.94 Y116.152 E-.12
;WIPE_END
G1 X150.939 Y115.323 Z.6 F21000
G1 Z.2
G1 E.8 F2700
;TYPE:Bottom surface
;WIDTH:0.428078
G1 F4800
G1 X150.463 Y114.847 E.02047
G1 X149.918 Y114.847 E.01657
G1 X150.224 Y115.153 E.01317
G1 X149.68 Y115.153 E.01657
G1 X149.374 Y114.847 E.01317
G1 X148.829 Y114.847 E.01657
G1 X149.135 Y115.153 E.01317
G1 X148.59 Y115.153 E.01657
G1 X148.284 Y114.847 E.01317
G1 X147.74 Y114.847 E.01657
G1 X148.046 Y115.153 E.01317
G1 X147.501 Y115.153 E.01657
G1 X147.195 Y114.847 E.01317
G1 X146.65 Y114.847 E.01657
G1 X146.956 Y115.153 E.01317
G1 X146.412 Y115.153 E.01657
G1 X146.105 Y114.847 E.01317
G1 X145.561 Y114.847 E.01657
G1 X145.867 Y115.153 E.01317
G1 X145.322 Y115.153 E.01657
G1 X145.016 Y114.847 E.01317
G1 X144.471 Y114.847 E.01657
G1 X144.777 Y115.153 E.01317
G1 X144.233 Y115.153 E.01657
G1 X143.927 Y114.847 E.01317
G1 X143.382 Y114.847 E.01657
G1 X143.688 Y115.153 E.01317
G1 X143.143 Y115.153 E.01657
G1 X142.837 Y114.847 E.01317
G1 X142.293 Y114.847 E.01657
G1 X142.599 Y115.153 E.01317
G1 X142.054 Y115.153 E.01657
G1 X141.748 Y114.847 E.01317
G1 X141.203 Y114.847 E.01657
G1 X141.509 Y115.153 E.01317
G1 X140.965 Y115.153 E.01657
G1 X140.658 Y114.847 E.01317
G1 X140.114 Y114.847 E.01657
G1 X140.42 Y115.153 E.01317
G1 X139.875 Y115.153 E.01657
G1 X139.569 Y114.847 E.01317
G1 X139.024 Y114.847 E.01657
G1 X139.33 Y115.153 E.01317
G1 X138.786 Y115.153 E.01657
G1 X138.48 Y114.847 E.01317
G1 X137.935 Y114.847 E.01657
G1 X138.241 Y115.153 E.01317
G1 X137.696 Y115.153 E.01657
G1 X137.39 Y114.847 E.01317
G1 X136.846 Y114.847 E.01657
G1 X137.152 Y115.153 E.01317
G1 X136.607 Y115.153 E.01657
G1 X136.301 Y114.847 E.01317
G1 X135.756 Y114.847 E.01657
G1 X136.062 Y115.153 E.01317
G1 X135.518 Y115.153 E.01657
G1 X135.212 Y114.847 E.01317
G1 X134.667 Y114.847 E.01657
G1 X134.973 Y115.153 E.01317
G1 X134.428 Y115.153 E.01657
G1 X134.122 Y114.847 E.01317
G1 X133.577 Y114.847 E.01657
G1 X133.884 Y115.153 E.01317
G1 X133.339 Y115.153 E.01657
G1 X133.033 Y114.847 E.01317
G1 X132.488 Y114.847 E.01657
G1 X132.794 Y115.153 E.01317
G1 X132.249 Y115.153 E.01657
G1 X131.943 Y114.847 E.01317
G1 X131.399 Y114.847 E.01657
G1 X131.874 Y115.323 E.02047
; stop printing object 驾驶舱 - 门框1 - p2.STL id:0 copy 0
;LAYER_CHANGE
;Z:0.28
;HEIGHT:0.08
;BEFORE_LAYER_CHANGE
G92 E0
;0.28


G1 E-.68 F3600
;WIPE_START
G1 F4800
G1 X131.399 Y114.847 E-.08074
G1 X131.726 Y114.847 E-.03926
;WIPE_END
EXCLUDE_OBJECT_END NAME=驾驶舱_-_门框1_-_p2.STL_id_0_copy_0
;AFTER_LAYER_CHANGE
;0.28
;_SET_FAN_SPEED_CHANGING_LAYER
SET_VELOCITY_LIMIT ACCEL=5000 ACCEL_TO_DECEL=2500
SET_VELOCITY_LIMIT SQUARE_CORNER_VELOCITY=9
M140 S70 ; set bed temperature
; printing object 驾驶舱 - 门框1 - p2.STL id:0 copy 0
EXCLUDE_OBJECT_START NAME=驾驶舱_-_门框1_-_p2.STL_id_0_copy_0
G1 X129.019 Y113.129 Z.6 F21000
G1 Z.28
G1 E.8 F2700
;TYPE:Support interface
;WIDTH:0.38
G1 F1459
G1 X129.083 Y113.119 E.00074
G1 X129.233 Y112.969 E.00243
G1 X129.314 Y112.969 E.00093
G1 X129.314 Y112.637 E.0038
G1 X128.757 Y112.637 E.00639
G1 X128.757 Y117.363 E.05418
G1 X128.194 Y117.363 E.00645
G1 X128.194 Y112.637 E.05418
G1 X127.631 Y112.637 E.00645
G1 X127.631 Y117.363 E.05418
G1 X127.068 Y117.363 E.00645
M73 P3 R23
G1 X127.068 Y112.637 E.05418
G1 E-.68 F3600
;WIPE_START
G1 X127.068 Y113.637 E-.12
;WIPE_END
G1 X129.019 Y116.871 Z.68 F21000
G1 Z.28
G1 E.8 F2700
G1 F1459
G1 X129.083 Y116.881 E.00074
G1 X129.233 Y117.031 E.00243
G1 X129.314 Y117.031 E.00093
G1 X129.314 Y117.363 E.0038
G1 X128.938 Y117.363 E.00431
G1 E-.68 F3600
;WIPE_START
G1 X129.314 Y117.363 E-.04514
G1 X129.314 Y117.031 E-.03977
G1 X129.233 Y117.031 E-.00978
G1 X129.084 Y116.882 E-.02531
;WIPE_END
G1 X136.7 Y116.392 Z.68 F21000
G1 X151.209 Y115.459 Z.68
G1 Z.28
G1 E.8 F2700
SET_VELOCITY_LIMIT ACCEL=3000 ACCEL_TO_DECEL=1500 SQUARE_CORNER_VELOCITY=7
;TYPE:Inner wall
;WIDTH:0.449999
G1 F1459
G1 X130.493 Y115.459 E.28331
G1 X130.493 Y114.541 E.01256
G1 X151.209 Y114.541 E.28331
G1 X151.209 Y115.419 E.01202
SET_VELOCITY_LIMIT ACCEL=5000 ACCEL_TO_DECEL=2500 SQUARE_CORNER_VELOCITY=9
G1 X151.642 Y115.892 F21000
SET_VELOCITY_LIMIT ACCEL=3000 ACCEL_TO_DECEL=1500 SQUARE_CORNER_VELOCITY=7
G1 F1459
G1 X130.061 Y115.892 E.29515
G1 X130.061 Y114.108 E.0244
G1 X151.642 Y114.108 E.29515
G1 X151.642 Y115.852 E.02386
SET_VELOCITY_LIMIT ACCEL=5000 ACCEL_TO_DECEL=2500 SQUARE_CORNER_VELOCITY=9
G1 X152.05 Y116.3 F21000
SET_VELOCITY_LIMIT ACCEL=3000 ACCEL_TO_DECEL=1500 SQUARE_CORNER_VELOCITY=7
;TYPE:Outer wall
;WIDTH:0.399999
G1 F1459
G1 X151.45 Y116.3 E.00726
G1 X130.718 Y116.3 E.25078
G1 X129.918 Y116.3 E.00968
G1 X129.718 Y116.3 E.00242
SET_VELOCITY_LIMIT ACCEL=1500 ACCEL_TO_DECEL=750 SQUARE_CORNER_VELOCITY=9
;TYPE:Overhang wall
G1 X129.653 Y116.3 E.00079
G1 X129.653 Y113.7 E.03145
G1 X129.718 Y113.7 E.00079
SET_VELOCITY_LIMIT ACCEL=3000 ACCEL_TO_DECEL=1500 SQUARE_CORNER_VELOCITY=7
;TYPE:Outer wall
G1 X129.918 Y113.7 E.00242
M106 S0
G1 X130.718 Y113.7 E.00968
G1 X151.45 Y113.7 E.25078
G1 X152.05 Y113.7 E.00726
M73 P4 R23
G1 X152.05 Y116.26 E.03097
SET_VELOCITY_LIMIT ACCEL=5000 ACCEL_TO_DECEL=2500 SQUARE_CORNER_VELOCITY=9
G1 E-.68 F3600
;WIPE_START
G1 F7200
G1 X151.05 Y116.262 E-.12
;WIPE_END
G1 X143.433 Y115.784 Z.68 F21000
G1 X130.953 Y115 Z.68
G1 Z.28
G1 E.8 F2700
;TYPE:Internal solid infill
;WIDTH:0.503016
G1 F1459
G1 X150.71 Y115 E.3033
; stop printing object 驾驶舱 - 门框1 - p2.STL id:0 copy 0
;LAYER_CHANGE
;Z:0.36
;HEIGHT:0.08
;BEFORE_LAYER_CHANGE
G92 E0
;0.36


G1 E-.68 F3600
;WIPE_START
G1 F12000
G1 X149.71 Y115 E-.12
;WIPE_END
EXCLUDE_OBJECT_END NAME=驾驶舱_-_门框1_-_p2.STL_id_0_copy_0
;AFTER_LAYER_CHANGE
;0.36
;_SET_FAN_SPEED_CHANGING_LAYER
; printing object 驾驶舱 - 门框1 - p2.STL id:0 copy 0
EXCLUDE_OBJECT_START NAME=驾驶舱_-_门框1_-_p2.STL_id_0_copy_0
G1 X151.209 Y115.459 Z.68 F21000
G1 Z.36
G1 E.8 F2700
SET_VELOCITY_LIMIT ACCEL=3000 ACCEL_TO_DECEL=1500 SQUARE_CORNER_VELOCITY=7
;TYPE:Inner wall
;WIDTH:0.449999
G1 F1248
G1 X130.228 Y115.459 E.28695
G1 X130.228 Y114.541 E.01256
G1 X151.209 Y114.541 E.28695
G1 X151.209 Y115.419 E.01202
SET_VELOCITY_LIMIT ACCEL=5000 ACCEL_TO_DECEL=2500 SQUARE_CORNER_VELOCITY=9
G1 X151.642 Y115.892 F21000
SET_VELOCITY_LIMIT ACCEL=3000 ACCEL_TO_DECEL=1500 SQUARE_CORNER_VELOCITY=7
G1 F1248
G1 X129.795 Y115.892 E.29879
G1 X129.795 Y114.108 E.0244
G1 X151.642 Y114.108 E.29879
G1 X151.642 Y115.852 E.02386
SET_VELOCITY_LIMIT ACCEL=5000 ACCEL_TO_DECEL=2500 SQUARE_CORNER_VELOCITY=9
G1 X152.05 Y116.3 F21000
SET_VELOCITY_LIMIT ACCEL=3000 ACCEL_TO_DECEL=1500 SQUARE_CORNER_VELOCITY=7
;TYPE:Outer wall
;WIDTH:0.399999
G1 F1248
G1 X151.45 Y116.3 E.00726
G1 X130.253 Y116.3 E.25641
G1 X129.453 Y116.3 E.00968
G1 X129.387 Y116.3 E.0008
G1 X129.387 Y113.7 E.03145
G1 X129.453 Y113.7 E.0008
M106 S0
G1 X130.253 Y113.7 E.00968
G1 X151.45 Y113.7 E.25641
G1 X152.05 Y113.7 E.00726
G1 X152.05 Y116.26 E.03097
SET_VELOCITY_LIMIT ACCEL=5000 ACCEL_TO_DECEL=2500 SQUARE_CORNER_VELOCITY=9
G1 E-.68 F3600
;WIPE_START
G1 F7200
G1 X151.05 Y116.262 E-.12
;WIPE_END
G1 X143.432 Y115.79 Z.76 F21000
G1 X130.687 Y115 Z.76
G1 Z.36
G1 E.8 F2700
;TYPE:Internal solid infill
;WIDTH:0.503016
G1 F1248
G1 X150.71 Y115 E.30738
; stop printing object 驾驶舱 - 门框1 - p2.STL id:0 copy 0
M106 S125
;LAYER_CHANGE
;Z:0.44
;HEIGHT:0.08
;BEFORE_LAYER_CHANGE
G92 E0
;0.44


G1 E-.68 F3600
;WIPE_START
G1 F12000
G1 X149.71 Y115 E-.12
;WIPE_END
EXCLUDE_OBJECT_END NAME=驾驶舱_-_门框1_-_p2.STL_id_0_copy_0
;AFTER_LAYER_CHANGE
;0.44
;_SET_FAN_SPEED_CHANGING_LAYER
; printing object 驾驶舱 - 门框1 - p2.STL id:0 copy 0
EXCLUDE_OBJECT_START NAME=驾驶舱_-_门框1_-_p2.STL_id_0_copy_0
G1 X142.114 Y115.743 Z.76 F21000
G1 X128.938 Y117.031 Z.76
G1 Z.44
G1 E.8 F2700
;TYPE:Support interface
;WIDTH:0.38
;HEIGHT:0.16
G1 F2624
G1 X129.314 Y117.031 E.00822
G1 X129.314 Y117.363 E.00724
G1 X128.938 Y117.363 E.00822
G1 X128.465 Y116.849 F21000
G1 F2624
G1 X128.498 Y116.881 E.001
G1 X128.551 Y116.881 E.00117
G1 X128.701 Y117.031 E.00463
G1 X128.757 Y117.031 E.00121
G1 X128.757 Y117.363 E.00724
G1 X128.194 Y117.363 E.01229
G1 X128.194 Y112.637 E.10323
G1 X128.757 Y112.637 E.01229
G1 X128.757 Y112.969 E.00724
G1 X128.701 Y112.969 E.00121
G1 X128.551 Y113.119 E.00463
G1 X128.498 Y113.119 E.00117
G1 X128.465 Y113.151 E.001
G1 X128.938 Y112.969 F21000
G1 F2624
G1 X129.314 Y112.969 E.00822
G1 X129.314 Y112.637 E.00724
G1 X128.938 Y112.637 E.00822
G1 X128.012 Y112.637 F21000
G1 F2624
G1 X127.631 Y112.637 E.00833
G1 X127.631 Y117.363 E.10323
G1 X127.068 Y117.363 E.01229
G1 X127.068 Y112.637 E.10323
G1 E-.68 F3600
;WIPE_START
G1 X127.068 Y113.637 E-.12
;WIPE_END
G1 X126.588 Y117.363 Z.84 F21000
G1 Z.44
G1 E.8 F2700
;TYPE:Support
G1 F2624
G1 X126.58 Y117.363 E.00019
;HEIGHT:0.24
G1 X82.058 Y117.363 E1.38636
G1 X82.058 Y115 E.07358
G1 X126.58 Y115 E1.38636
;HEIGHT:0.16
G1 X126.58 Y112.637 E.05161
;HEIGHT:0.24
G1 X82.058 Y112.637 E1.38636
G1 E-.68 F3600
;WIPE_START
G1 X83.058 Y112.637 E-.12
;WIPE_END
G1 X90.683 Y112.953 Z.84 F21000
G1 X151.209 Y115.459 Z.84
G1 Z.44
G1 E.8 F2700
SET_VELOCITY_LIMIT ACCEL=3000 ACCEL_TO_DECEL=1500 SQUARE_CORNER_VELOCITY=7
;TYPE:Inner wall
;WIDTH:0.449999
;HEIGHT:0.08
G1 F2624
G1 X129.962 Y115.459 E.29058
G1 X129.962 Y114.541 E.01256
M73 P5 R23
G1 X151.209 Y114.541 E.29058
G1 X151.209 Y115.419 E.01202
SET_VELOCITY_LIMIT ACCEL=5000 ACCEL_TO_DECEL=2500 SQUARE_CORNER_VELOCITY=9
G1 X151.642 Y115.892 F21000
SET_VELOCITY_LIMIT ACCEL=3000 ACCEL_TO_DECEL=1500 SQUARE_CORNER_VELOCITY=7
G1 F2624
G1 X129.529 Y115.892 E.30242
G1 X129.529 Y114.108 E.0244
G1 X151.642 Y114.108 E.30242
G1 X151.642 Y115.852 E.02386
SET_VELOCITY_LIMIT ACCEL=5000 ACCEL_TO_DECEL=2500 SQUARE_CORNER_VELOCITY=9
G1 X152.05 Y116.3 F21000
SET_VELOCITY_LIMIT ACCEL=3000 ACCEL_TO_DECEL=1500 SQUARE_CORNER_VELOCITY=7
;TYPE:Outer wall
;WIDTH:0.399999
G1 F2624
G1 X151.45 Y116.3 E.00726
G1 X129.987 Y116.3 E.25962
M106 S229
G1 X129.187 Y116.3 E.00968
G1 F2211.19
G1 X129.121 Y116.3 E.0008
G1 X129.121 Y113.7 E.03145
G1 X129.187 Y113.7 E.0008
M106 S125
G1 F2624
G1 X129.987 Y113.7 E.00968
G1 X151.45 Y113.7 E.25962
G1 X152.05 Y113.7 E.00726
G1 X152.05 Y116.26 E.03097
SET_VELOCITY_LIMIT ACCEL=5000 ACCEL_TO_DECEL=2500 SQUARE_CORNER_VELOCITY=9
G1 E-.68 F3600
;WIPE_START
G1 F7200
G1 X151.05 Y116.262 E-.12
;WIPE_END
G1 X143.432 Y115.796 Z.84 F21000
G1 X130.421 Y115 Z.84
G1 Z.44
G1 E.8 F2700
;TYPE:Internal solid infill
;WIDTH:0.503016
G1 F2624
