; HEADER_BLOCK_START
; generated by OrcaSlicer 2.1.1 on 2025-01-10 at 23:45:27
; total layer number: 36
; filament_density: 1.27
; filament_diameter: 1.75
; max_z_height: 3.00
; HEADER_BLOCK_END

; THUMBNAIL_BLOCK_START

;
; THUMBNAIL_BLOCK_END







; external perimeters extrusion width = 0.40mm
; perimeters extrusion width = 0.45mm
; infill extrusion width = 0.45mm
; solid infill extrusion width = 0.45mm
; top infill extrusion width = 0.38mm
; support material extrusion width = 0.38mm
; first layer extrusion width = 0.42mm

; EXECUTABLE_BLOCK_START
EXCLUDE_OBJECT_DEFINE NAME=驾驶舱_-_控制杆1.STL_id_0_copy_0 CENTER=118.08,115 POLYGON=[[112.046,96.7172],[113.846,96.7172],[124.022,131.276],[124.089,131.52],[124.113,131.772],[124.095,132.025],[124.034,132.271],[123.932,132.504],[123.793,132.715],[123.619,132.901],[123.417,133.054],[123.192,133.171],[122.951,133.248],[122.7,133.283],[122.446,133.275],[122.198,133.225],[121.961,133.133],[121.744,133.002],[121.552,132.837],[121.39,132.642],[121.264,132.422],[113.941,114.887],[113.697,114.178],[113.503,113.453],[113.359,112.717],[113.265,111.973],[112.046,100.217],[112.046,96.7172]]
M73 P0 R3
;TYPE:Custom
;ELEGOO NEPTUNE 4 PRO
M220 S100 ;Set the feed speed to 100%
M221 S100 ;Set the flow rate to 100%
M104 S140
M190 S70
G90
G28 ;home
G1 Z10 F300
G1 X67.5 Y0 F6000
G1 Z0 F300
M109 S240
G92 E0 ;Reset Extruder
M73 P1 R3
G1 X67.5 Y0 Z0.4 F300 ;Move to start position
G1 X167.5 E30 F400 ;Draw the first line
M73 P2 R3
G1 Z0.6 F120.0 ;Move to side a little
M73 P8 R3
G1 X162.5 F3000
G92 E0 ;Reset Extruder
G90
G21
M83 ; use relative distances for extrusion
; filament start gcode
M106 S0
;LAYER_CHANGE
;Z:0.2
;HEIGHT:0.2
;BEFORE_LAYER_CHANGE
G92 E0
;0.2


G1 E-.8 F3600
;AFTER_LAYER_CHANGE
;0.2
;_SET_FAN_SPEED_CHANGING_LAYER
SET_VELOCITY_LIMIT ACCEL=1000 ACCEL_TO_DECEL=500
SET_VELOCITY_LIMIT SQUARE_CORNER_VELOCITY=7
; printing object 驾驶舱 - 控制杆1.STL id:0 copy 0
EXCLUDE_OBJECT_START NAME=驾驶舱_-_控制杆1.STL_id_0_copy_0
G1 X111.144 Y100.823 F21000
G1 Z.4
G1 Z.2
G1 E.8 F2700
;TYPE:Support interface
;WIDTH:0.42
G1 F3000
G1 X110.991 Y100.823 E.00456
G1 X110.991 Y96.097 E.14076
G1 X111.326 Y96.097 E.00996
G1 X111.326 Y100.823 E.14076
G1 X111.889 Y100.823 E.01676
G1 X111.889 Y96.097 E.14076
G1 X112.451 Y96.097 E.01676
G1 X112.451 Y100.823 E.14076
G1 X113.014 Y100.823 E.01676
G1 X113.014 Y96.097 E.14076
M73 P9 R3
G1 X113.354 Y96.097 E.01012
G1 X113.354 Y100.823 E.14076
G1 X113.196 Y100.823 E.00472
G1 E-.68 F3600
;WIPE_START
G1 F3000
G1 X113.354 Y100.823 E-.01901
G1 X113.354 Y99.981 E-.10099
;WIPE_END
G1 X115.76 Y107.225 Z.6 F21000
G1 X117.688 Y113.029 Z.6
G1 Z.2
G1 E.8 F2700
;TYPE:Support
G1 F3000
G1 X120.051 Y113.029 E.07038
G1 X120.051 Y117.754 E.14076
G1 X122.414 Y117.754 E.07038
G1 X122.414 Y122.48 E.14076
G1 X124.777 Y122.48 E.07038
G1 X124.777 Y132.429 E.29635
G1 X123.057 Y132.888 E.05303
G1 X122.884 Y133.511 E.01927
G1 X118.471 Y133.511 E.13144
G1 X118.471 Y131.148 E.07038
G1 X116.108 Y131.148 E.07038
G1 X116.108 Y126.423 E.14076
G1 X113.746 Y126.423 E.07038
G1 X113.746 Y121.697 E.14076
G1 X111.383 Y121.697 E.07038
G1 X111.383 Y112.246 E.28152
G1 X109.02 Y112.246 E.07038
M73 P10 R3
G1 X109.02 Y99.215 E.38815
G1 X110.6 Y99.215 E.04706
G1 X110.6 Y101.215 E.05957
G1 X113.746 Y101.215 E.0937
G1 X113.746 Y95.706 E.16409
G1 X111.746 Y95.706 E.05957
G1 X111.746 Y94.126 E.04706
G1 X117.688 Y94.126 E.17701
G1 X117.688 Y112.972 E.56136
G1 X122.491 Y130.708 F21000
G1 F3000
G1 X122.31 Y130.745 E.00551
G1 X122.095 Y130.834 E.00692
G1 X121.941 Y130.936 E.00551
G1 X121.722 Y131.171 E.00957
G1 X121.63 Y131.331 E.00551
G1 X121.567 Y131.505 E.00551
G1 X121.533 Y131.687 E.00551
G1 X121.536 Y131.919 E.00692
G1 X121.574 Y132.1 E.00551
G1 X121.664 Y132.313 E.00688
G1 X121.824 Y132.536 E.00819
G1 X121.962 Y132.66 E.00551
G1 X122.118 Y132.758 E.00551
G1 X122.289 Y132.829 E.00551
G1 X122.469 Y132.87 E.00551
G1 X122.701 Y132.877 E.00692
G1 X122.884 Y132.847 E.00551
G1 X123.181 Y132.724 E.00957
G1 X123.33 Y132.616 E.00551
G1 X123.46 Y132.483 E.00551
G1 X123.565 Y132.331 E.00551
G1 X123.643 Y132.164 E.00551
G1 X123.691 Y131.985 E.00551
G1 X123.708 Y131.753 E.00692
G1 X123.686 Y131.57 E.00551
G1 X123.633 Y131.393 E.00551
G1 X123.552 Y131.227 E.00551
G1 X123.347 Y130.979 E.00957
G1 X123.159 Y130.843 E.00692
G1 X122.991 Y130.766 E.00551
G1 X122.812 Y130.717 E.00551
G1 X122.547 Y130.705 E.0079
G1 X117.349 Y113.368 F21000
G1 F3000
M73 P11 R3
G1 X119.712 Y113.368 E.07038
G1 X119.712 Y118.094 E.14076
G1 X122.074 Y118.094 E.07038
G1 X122.074 Y122.819 E.14076
G1 X124.437 Y122.819 E.07038
G1 X124.437 Y132.168 E.27847
G1 X123.955 Y132.297 E.01488
G1 X124.024 Y132.053 E.00756
G1 X124.048 Y131.811 E.00722
G1 X124.031 Y131.57 E.00722
G1 X123.973 Y131.334 E.00722
G1 X123.877 Y131.112 E.00722
G1 X123.744 Y130.909 E.00722
G1 X123.579 Y130.731 E.00722
G1 X123.386 Y130.584 E.00722
G1 X123.1 Y130.444 E.00949
G1 X122.941 Y130.397 E.00495
G1 X122.701 Y130.363 E.00722
G1 X122.382 Y130.38 E.00949
G1 X122.22 Y130.417 E.00495
G1 X121.994 Y130.504 E.00722
G1 X121.725 Y130.674 E.00949
G1 X121.549 Y130.841 E.00722
G1 X121.404 Y131.036 E.00722
G1 X121.325 Y131.182 E.00495
G1 X121.241 Y131.409 E.00722
G1 X121.196 Y131.648 E.00722
G1 X121.192 Y131.89 E.00722
G1 X121.25 Y132.203 E.00949
G1 X121.339 Y132.429 E.00722
G1 X121.466 Y132.636 E.00722
G1 X121.625 Y132.818 E.00722
G1 X121.813 Y132.971 E.00722
G1 X122.025 Y133.09 E.00722
G1 X122.252 Y133.172 E.00718
G1 X118.811 Y133.172 E.1025
G1 X118.811 Y130.809 E.07038
G1 X116.448 Y130.809 E.07038
G1 X116.448 Y126.083 E.14076
G1 X114.085 Y126.083 E.07038
G1 X114.085 Y121.358 E.14076
G1 X111.722 Y121.358 E.07038
G1 X111.722 Y111.906 E.28152
G1 X109.359 Y111.906 E.07038
G1 X109.359 Y99.554 E.36794
G1 X110.26 Y99.554 E.02684
G1 X110.26 Y101.554 E.05957
M73 P12 R3
G1 X114.085 Y101.554 E.11392
G1 X114.085 Y95.366 E.1843
G1 X112.085 Y95.366 E.05957
G1 X112.085 Y94.465 E.02684
G1 X117.349 Y94.465 E.15679
G1 X117.349 Y113.368 E.56305
G1 X116.93 Y113.787 F21000
G1 F3000
G1 X119.293 Y113.787 E.07038
G1 X119.293 Y118.513 E.14076
G1 X121.655 Y118.513 E.07038
G1 X121.655 Y123.238 E.14076
G1 X124.018 Y123.238 E.07038
G1 X124.018 Y130.523 E.217
G1 X123.617 Y130.234 E.01474
G1 X123.34 Y130.088 E.00934
G1 X123.041 Y129.99 E.00934
G1 X122.731 Y129.945 E.00934
G1 X122.418 Y129.952 E.00934
G1 X122.11 Y130.013 E.00934
G1 X121.817 Y130.124 E.00934
G1 X121.547 Y130.283 E.00934
G1 X121.308 Y130.486 E.00934
G1 X121.106 Y130.727 E.00934
G1 X120.948 Y130.998 E.00934
G1 X120.811 Y131.4 E.01266
G1 X120.771 Y131.711 E.00934
G1 X120.784 Y132.024 E.00934
G1 X120.85 Y132.331 E.00934
G1 X121.005 Y132.753 E.01339
G1 X119.23 Y132.753 E.05289
G1 X119.23 Y130.39 E.07038
G1 X116.867 Y130.39 E.07038
G1 X116.867 Y125.664 E.14076
G1 X114.504 Y125.664 E.07038
G1 X114.504 Y120.939 E.14076
M73 P13 R3
G1 X112.141 Y120.939 E.07038
G1 X112.141 Y111.487 E.28152
G1 X109.778 Y111.487 E.07038
G1 X109.778 Y101.973 E.2834
G1 X114.504 Y101.973 E.14076
G1 X114.504 Y94.884 E.21114
G1 X116.93 Y94.884 E.07226
G1 X116.93 Y113.787 E.56305
G1 X116.511 Y114.206 F21000
G1 F3000
G1 X118.874 Y114.206 E.07038
G1 X118.874 Y118.932 E.14076
G1 X121.236 Y118.932 E.07038
G1 X121.236 Y123.657 E.14076
G1 X123.599 Y123.657 E.07038
G1 X123.599 Y129.717 E.1805
G1 X122.998 Y129.554 E.01857
G1 X122.614 Y129.522 E.01146
G1 X122.377 Y129.535 E.00707
G1 X121.999 Y129.608 E.01146
G1 X121.64 Y129.744 E.01146
G1 X121.509 Y129.812 E.0044
G1 X121.19 Y130.028 E.01146
G1 X121.014 Y130.187 E.00707
G1 X120.766 Y130.481 E.01146
G1 X120.571 Y130.813 E.01146
M73 P14 R3
G1 X120.436 Y131.173 E.01146
G1 X120.363 Y131.551 E.01146
G1 X120.352 Y131.698 E.0044
G1 X120.369 Y132.082 E.01146
G1 X120.415 Y132.334 E.00761
G1 X119.648 Y132.334 E.02284
G1 X119.648 Y129.971 E.07038
G1 X117.286 Y129.971 E.07038
G1 X117.286 Y125.245 E.14076
G1 X114.923 Y125.245 E.07038
G1 X114.923 Y120.52 E.14076
G1 X112.56 Y120.52 E.07038
G1 X112.56 Y111.068 E.28152
G1 X110.197 Y111.068 E.07038
G1 X110.197 Y102.392 E.25844
G1 X114.923 Y102.392 E.14076
G1 X114.923 Y95.303 E.21114
G1 X116.511 Y95.303 E.0473
G1 X116.511 Y114.206 E.56305
G1 X116.092 Y114.625 F21000
G1 F3000
G1 X118.455 Y114.625 E.07038
G1 X118.455 Y119.351 E.14076
G1 X120.818 Y119.351 E.07038
G1 X120.818 Y124.076 E.14076
G1 X123.18 Y124.076 E.07038
M73 P15 R3
G1 X123.18 Y129.153 E.15122
G1 X122.792 Y129.108 E.01163
G1 X122.337 Y129.117 E.01358
G1 X121.889 Y129.203 E.01358
G1 X121.462 Y129.364 E.01358
G1 X121.3 Y129.448 E.00546
G1 X120.923 Y129.705 E.01358
G1 X120.595 Y130.021 E.01358
G1 X120.336 Y130.372 E.01298
G1 X120.067 Y130.291 E.00836
G1 X120.067 Y129.552 E.02202
G1 X117.705 Y129.552 E.07038
G1 X117.705 Y124.826 E.14076
G1 X115.342 Y124.826 E.07038
G1 X115.342 Y120.101 E.14076
G1 X112.979 Y120.101 E.07038
G1 X112.979 Y110.649 E.28152
G1 X110.616 Y110.649 E.07038
G1 X110.616 Y102.811 E.23348
G1 X115.342 Y102.811 E.14076
G1 X115.342 Y95.722 E.21114
G1 X116.092 Y95.722 E.02234
G1 X116.092 Y114.625 E.56305
G1 X115.673 Y115.044 F21000
G1 F3000
G1 X118.036 Y115.044 E.07038
G1 X118.036 Y119.77 E.14076
M73 P16 R3
G1 X120.399 Y119.77 E.07038
G1 X120.399 Y124.495 E.14076
G1 X122.761 Y124.495 E.07038
G1 X122.761 Y128.675 E.12449
G1 X122.296 Y128.7 E.01388
G1 X122.079 Y128.73 E.00652
G1 X121.57 Y128.865 E.01569
G1 X121.091 Y129.085 E.0157
G1 X120.83 Y129.25 E.00919
G1 X120.486 Y129.51 E.01284
G1 X120.486 Y129.133 E.01123
G1 X118.124 Y129.133 E.07038
G1 X118.124 Y124.407 E.14076
G1 X115.761 Y124.407 E.07038
G1 X115.761 Y119.682 E.14076
G1 X113.398 Y119.682 E.07038
G1 X113.398 Y110.23 E.28152
G1 X111.035 Y110.23 E.07038
G1 X111.035 Y103.23 E.20852
G1 X115.673 Y103.23 E.13814
G1 X115.673 Y115.044 E.3519
G1 X115.254 Y115.463 F21000
G1 F3000
G1 X117.617 Y115.463 E.07038
G1 X117.617 Y120.189 E.14076
G1 X119.98 Y120.189 E.07038
G1 X119.98 Y124.914 E.14076
M73 P17 R3
G1 X122.342 Y124.914 E.07038
G1 X122.342 Y128.27 E.09997
G1 X122.004 Y128.318 E.01019
G1 X121.668 Y128.394 E.01025
G1 X121.426 Y128.472 E.00757
G1 X120.895 Y128.714 E.01737
G1 X118.543 Y128.714 E.07008
G1 X118.543 Y123.988 E.14076
G1 X116.18 Y123.988 E.07038
G1 X116.18 Y119.263 E.14076
G1 X113.817 Y119.263 E.07038
G1 X113.817 Y109.811 E.28152
G1 X111.454 Y109.811 E.07038
G1 X111.454 Y103.649 E.18356
G1 X115.254 Y103.649 E.11318
G1 X115.254 Y115.463 E.3519
G1 X114.835 Y115.882 F21000
G1 F3000
G1 X117.198 Y115.882 E.07038
G1 X117.198 Y120.608 E.14076
G1 X119.561 Y120.608 E.07038
G1 X119.561 Y125.333 E.14076
G1 X121.923 Y125.333 E.07038
G1 X121.923 Y127.906 E.07665
G1 X121.558 Y127.99 E.01118
M73 P18 R3
G1 X121.281 Y128.078 E.00863
G1 X120.793 Y128.295 E.01592
G1 X118.962 Y128.295 E.05456
G1 X118.962 Y123.569 E.14076
G1 X116.599 Y123.569 E.07038
G1 X116.599 Y118.844 E.14076
G1 X114.236 Y118.844 E.07038
G1 X114.236 Y109.392 E.28152
G1 X111.873 Y109.392 E.07038
G1 X111.873 Y104.068 E.1586
G1 X114.835 Y104.068 E.08822
G1 X114.835 Y115.882 E.3519
G1 X114.416 Y108.973 F21000
G1 F3000
G1 X112.292 Y108.973 E.06326
G1 X112.292 Y104.487 E.13364
G1 X114.416 Y104.487 E.06326
G1 X114.416 Y108.973 E.13364
G1 X113.997 Y108.554 F21000
G1 F3000
G1 X112.711 Y108.554 E.0383
G1 X112.711 Y104.906 E.10868
G1 X113.997 Y104.906 E.0383
G1 X113.997 Y108.554 E.10868
G1 X113.578 Y108.136 F21000
G1 F3000
G1 X113.13 Y108.136 E.01334
G1 X113.13 Y105.325 E.08372
M73 P19 R3
G1 X113.578 Y105.325 E.01334
G1 X113.578 Y108.136 E.08372
G1 X114.655 Y116.301 F21000
G1 F3000
G1 X116.779 Y116.301 E.06326
G1 X116.779 Y118.425 E.06326
G1 X114.655 Y118.425 E.06326
G1 X114.655 Y116.301 E.06326
G1 X115.074 Y116.72 F21000
G1 F3000
G1 X116.36 Y116.72 E.0383
G1 X116.36 Y118.006 E.0383
G1 X115.074 Y118.006 E.0383
G1 X115.074 Y116.72 E.0383
G1 X115.493 Y117.139 F21000
G1 F3000
G1 X115.941 Y117.139 E.01334
G1 X115.941 Y117.587 E.01334
G1 X115.493 Y117.587 E.01334
G1 X115.493 Y117.139 E.01334
G1 X117.018 Y121.027 F21000
G1 F3000
G1 X119.142 Y121.027 E.06326
G1 X119.142 Y123.15 E.06326
G1 X117.018 Y123.15 E.06326
G1 X117.018 Y121.027 E.06326
G1 X117.437 Y121.446 F21000
G1 F3000
G1 X118.723 Y121.446 E.0383
G1 X118.723 Y122.731 E.0383
G1 X117.437 Y122.731 E.0383
G1 X117.437 Y121.446 E.0383
G1 X117.856 Y121.865 F21000
G1 F3000
G1 X118.304 Y121.865 E.01334
G1 X118.304 Y122.313 E.01334
G1 X117.856 Y122.313 E.01334
G1 X117.856 Y121.865 E.01334
G1 X119.381 Y125.752 F21000
G1 F3000
G1 X121.504 Y125.752 E.06326
G1 X121.504 Y127.567 E.05405
G1 X121.137 Y127.684 E.01148
G1 X120.691 Y127.876 E.01447
G1 X119.381 Y127.876 E.03903
G1 X119.381 Y125.752 E.06326
G1 X119.8 Y126.171 F21000
M73 P20 R3
G1 F3000
G1 X121.085 Y126.171 E.0383
G1 X121.085 Y127.252 E.03219
G1 X120.592 Y127.457 E.01593
G1 X119.8 Y127.457 E.0236
G1 X119.8 Y126.171 E.0383
G1 X120.218 Y126.59 F21000
G1 F3000
G1 X120.666 Y126.59 E.01334
G1 X120.666 Y126.972 E.01138
G1 X120.508 Y127.038 E.00511
G1 X120.218 Y127.038 E.00863
G1 X120.218 Y126.59 E.01334
G1 E-.68 F3600
;WIPE_START
G1 F3000
G1 X120.218 Y127.038 E-.05376
G1 X120.508 Y127.038 E-.03476
G1 X120.666 Y126.972 E-.02058
G1 X120.666 Y126.881 E-.01091
;WIPE_END
G1 X122.785 Y131.598 Z.6 F21000
G1 Z.2
G1 E.8 F2700
;TYPE:Outer wall
;WIDTH:0.534645
G1 F3000
G1 X122.862 Y131.753 E.00674
G1 X122.813 Y131.958 E.00818
G1 X122.672 Y132.042 E.00638
G1 X122.505 Y132.022 E.00654
G1 X122.411 Y131.923 E.00532
G1 X122.372 Y131.719 E.00807
G1 X122.455 Y131.592 E.0059
G1 X122.627 Y131.534 E.00705
G1 X122.748 Y131.583 E.00506
; stop printing object 驾驶舱 - 控制杆1.STL id:0 copy 0
;LAYER_CHANGE
;Z:0.28
;HEIGHT:0.08
;BEFORE_LAYER_CHANGE
G92 E0
;0.28


G1 E-.68 F3600
;WIPE_START
G1 F3000
G1 X122.862 Y131.753 E-.02461
G1 X122.813 Y131.958 E-.02528
G1 X122.672 Y132.042 E-.01972
G1 X122.505 Y132.022 E-.0202
G1 X122.411 Y131.923 E-.01643
G1 X122.389 Y131.81 E-.01375
;WIPE_END
EXCLUDE_OBJECT_END NAME=驾驶舱_-_控制杆1.STL_id_0_copy_0
;AFTER_LAYER_CHANGE
;0.28
;_SET_FAN_SPEED_CHANGING_LAYER
SET_VELOCITY_LIMIT ACCEL=5000 ACCEL_TO_DECEL=2500
SET_VELOCITY_LIMIT SQUARE_CORNER_VELOCITY=9
M140 S70 ; set bed temperature
; printing object 驾驶舱 - 控制杆1.STL id:0 copy 0
EXCLUDE_OBJECT_START NAME=驾驶舱_-_控制杆1.STL_id_0_copy_0
G1 X122.805 Y131.706 Z.6 F21000
G1 Z.28
G1 E.8 F2700
SET_VELOCITY_LIMIT ACCEL=3000 ACCEL_TO_DECEL=1500 SQUARE_CORNER_VELOCITY=7
;TYPE:Inner wall
;WIDTH:0.404506
G1 F600
G1 X122.816 Y131.821 E.00142
G1 X122.736 Y131.944 E.0018
G1 X122.56 Y131.99 E.00222
G1 X122.437 Y131.857 E.00222
G1 X122.435 Y131.71 E.0018
G1 X122.544 Y131.611 E.0018
G1 X122.691 Y131.604 E.0018
G1 X122.805 Y131.706 E.00187
SET_VELOCITY_LIMIT ACCEL=5000 ACCEL_TO_DECEL=2500 SQUARE_CORNER_VELOCITY=9
G1 X123.133 Y131.495 F21000
SET_VELOCITY_LIMIT ACCEL=3000 ACCEL_TO_DECEL=1500 SQUARE_CORNER_VELOCITY=7
;TYPE:Outer wall
;WIDTH:0.399999
G1 F600
G1 X123.209 Y131.884 E.00479
G1 X123.088 Y132.16 E.00365
G1 X122.848 Y132.342 E.00364
G1 X122.541 Y132.385 E.00375
G1 X122.362 Y132.333 E.00225
G1 X122.127 Y132.131 E.00375
G1 X122.023 Y131.848 E.00365
G1 X122.071 Y131.55 E.00365
G1 X122.257 Y131.314 E.00363
G1 X122.535 Y131.198 E.00364
G1 X122.835 Y131.233 E.00365
G1 X122.957 Y131.321 E.00182
G1 X123.104 Y131.467 E.00251
; stop printing object 驾驶舱 - 控制杆1.STL id:0 copy 0
;LAYER_CHANGE
;Z:0.36
;HEIGHT:0.08
;BEFORE_LAYER_CHANGE
G92 E0
;0.36


G1 E-.68 F3600
;WIPE_START
G1 F2331.364
G1 X123.209 Y131.884 E-.05163
G1 X123.088 Y132.16 E-.03618
G1 X122.875 Y132.322 E-.03219
;WIPE_END
EXCLUDE_OBJECT_END NAME=驾驶舱_-_控制杆1.STL_id_0_copy_0
;AFTER_LAYER_CHANGE
;0.36
;_SET_FAN_SPEED_CHANGING_LAYER
; printing object 驾驶舱 - 控制杆1.STL id:0 copy 0
SET_VELOCITY_LIMIT ACCEL=5000 ACCEL_TO_DECEL=2500 SQUARE_CORNER_VELOCITY=9
EXCLUDE_OBJECT_START NAME=驾驶舱_-_控制杆1.STL_id_0_copy_0
G1 X122.819 Y131.624 Z.68 F21000
G1 Z.36
G1 E.8 F2700
SET_VELOCITY_LIMIT ACCEL=3000 ACCEL_TO_DECEL=1500 SQUARE_CORNER_VELOCITY=7
;TYPE:Inner wall
;WIDTH:0.537622
G1 F600
M106 S0
G1 X122.88 Y131.832 E.00356
G1 X122.795 Y131.986 E.0029
G1 X122.633 Y132.054 E.0029
G1 X122.466 Y132.006 E.00285
G1 X122.364 Y131.86 E.00294
G1 X122.376 Y131.684 E.0029
G1 X122.497 Y131.556 E.0029
G1 X122.67 Y131.535 E.00287
G1 X122.785 Y131.603 E.0022
