; HEADER_BLOCK_START
; generated by OrcaSlicer 2.1.1 on 2025-01-12 at 11:33:41
; total layer number: 492
; filament_density: 1.27
; filament_diameter: 1.75
; max_z_height: 39.00
; HEADER_BLOCK_END

; THUMBNAIL_BLOCK_START

;
; THUMBNAIL_BLOCK_END







; external perimeters extrusion width = 0.40mm
; perimeters extrusion width = 0.45mm
; infill extrusion width = 0.45mm
; solid infill extrusion width = 0.45mm
; top infill extrusion width = 0.38mm
; support material extrusion width = 0.38mm
; first layer extrusion width = 0.42mm

; EXECUTABLE_BLOCK_START
EXCLUDE_OBJECT_DEFINE NAME=驾驶舱_-_门框1_-_p1.STL_id_0_copy_0 CENTER=110.274,115 POLYGON=[[75.5243,113.5],[145.024,113.5],[145.024,116.5],[75.5243,116.5],[75.5243,113.5]]
M73 P0 R23
;TYPE:Custom
;ELEGOO NEPTUNE 4 PRO
M220 S100 ;Set the feed speed to 100%
M221 S100 ;Set the flow rate to 100%
M104 S140
M190 S70
G90
G28 ;home
G1 Z10 F300
G1 X67.5 Y0 F6000
G1 Z0 F300
M109 S240
G92 E0 ;Reset Extruder
G1 X67.5 Y0 Z0.4 F300 ;Move to start position
G1 X167.5 E30 F400 ;Draw the first line
G1 Z0.6 F120.0 ;Move to side a little
M73 P1 R23
G1 X162.5 F3000
G92 E0 ;Reset Extruder
G90
G21
M83 ; use relative distances for extrusion
; filament start gcode
M106 S0
;LAYER_CHANGE
;Z:0.2
;HEIGHT:0.2
;BEFORE_LAYER_CHANGE
G92 E0
;0.2


G1 E-.8 F3600
;AFTER_LAYER_CHANGE
;0.2
;_SET_FAN_SPEED_CHANGING_LAYER
SET_VELOCITY_LIMIT ACCEL=1000 ACCEL_TO_DECEL=500
SET_VELOCITY_LIMIT SQUARE_CORNER_VELOCITY=7
; printing object 驾驶舱 - 门框1 - p1.STL id:0 copy 0
EXCLUDE_OBJECT_START NAME=驾驶舱_-_门框1_-_p1.STL_id_0_copy_0
G1 X119.334 Y113.899 F21000
G1 Z.4
G1 Z.2
G1 E.8 F2700
;TYPE:Support
;WIDTH:0.42
G1 F3000
G1 X116.792 Y113.899 E.07571
G1 X116.464 Y114.227 E.01382
G1 X116.464 Y115.773 E.04603
G1 X116.792 Y116.101 E.01382
G1 X119.334 Y116.101 E.07571
G1 X119.334 Y119.334 E.09631
G1 X94.126 Y119.334 E.75086
G1 X94.126 Y116.101 E.09631
G1 X97.056 Y116.101 E.08728
G1 X97.384 Y115.773 E.01382
G1 X97.384 Y114.227 E.04603
G1 X97.056 Y113.899 E.01382
G1 X94.126 Y113.899 E.08728
G1 X94.126 Y110.666 E.09631
G1 X119.334 Y110.666 E.75086
G1 X119.334 Y113.843 E.09463
G1 E-.68 F3600
;WIPE_START
G1 F3000
G1 X119.334 Y112.843 E-.12
;WIPE_END
G1 X116.125 Y115.913 Z.6 F21000
G1 Z.2
G1 E.8 F2700
G1 F3000
G1 X116.652 Y116.44 E.02219
G1 X118.995 Y116.44 E.06979
G1 X118.995 Y118.995 E.07609
G1 X94.465 Y118.995 E.73065
G1 X94.465 Y116.44 E.07609
G1 X97.197 Y116.44 E.08136
G1 X97.724 Y115.913 E.02219
G1 X97.724 Y114.087 E.05441
G1 X97.197 Y113.56 E.02219
G1 X94.465 Y113.56 E.08136
G1 X94.465 Y111.005 E.07609
G1 X118.995 Y111.005 E.73065
G1 X118.995 Y113.56 E.07609
G1 X116.652 Y113.56 E.06979
G1 X116.125 Y114.087 E.02219
G1 X116.125 Y115.913 E.05441
G1 X115.706 Y116.087 F21000
G1 F3000
G1 X116.478 Y116.859 E.03253
G1 X118.576 Y116.859 E.06248
G1 X118.576 Y118.576 E.05114
G1 X94.884 Y118.576 E.70569
G1 X94.884 Y116.859 E.05114
G1 X97.37 Y116.859 E.07405
G1 X98.143 Y116.087 E.03253
G1 X98.143 Y113.913 E.06474
G1 X97.37 Y113.141 E.03253
G1 X94.884 Y113.141 E.07405
G1 X94.884 Y111.424 E.05114
G1 X118.576 Y111.424 E.70569
G1 X118.576 Y113.141 E.05114
G1 X116.478 Y113.141 E.06248
G1 X115.706 Y113.913 E.03253
G1 X115.706 Y116.087 E.06474
G1 X115.287 Y116.26 F21000
G1 F3000
G1 X116.305 Y117.278 E.04287
G1 X118.157 Y117.278 E.05517
G1 X118.157 Y118.157 E.02618
G1 X95.303 Y118.157 E.68073
G1 X95.303 Y117.278 E.02618
G1 X97.544 Y117.278 E.06674
G1 X98.562 Y116.26 E.04287
G1 X98.562 Y113.74 E.07508
G1 X97.544 Y112.722 E.04287
G1 X95.303 Y112.722 E.06674
G1 X95.303 Y111.843 E.02618
G1 X118.157 Y111.843 E.68073
G1 X118.157 Y112.722 E.02618
M73 P2 R23
G1 X116.305 Y112.722 E.05517
G1 X115.287 Y113.74 E.04287
G1 X115.287 Y116.26 E.07508
G1 X114.868 Y116.434 F21000
G1 F3000
G1 X116.172 Y117.738 E.05493
G1 X97.677 Y117.738 E.55091
G1 X98.981 Y116.434 E.05493
G1 X98.981 Y113.566 E.08542
G1 X97.677 Y112.262 E.05493
G1 X116.172 Y112.262 E.55091
G1 X114.868 Y113.566 E.05493
G1 X114.868 Y116.434 E.08542
G1 X114.449 Y116.607 F21000
G1 F3000
G1 X115.16 Y117.319 E.02997
G1 X98.688 Y117.319 E.49065
G1 X99.4 Y116.607 E.02997
G1 X99.4 Y113.393 E.09576
G1 X98.688 Y112.681 E.02997
G1 X115.16 Y112.681 E.49065
G1 X114.449 Y113.393 E.02997
G1 X114.449 Y116.607 E.09576
G1 X114.03 Y116.9 F21000
G1 F3000
G1 X99.819 Y116.9 E.42331
G1 X99.819 Y113.1 E.11318
G1 X114.03 Y113.1 E.42331
G1 X114.03 Y116.9 E.11318
G1 X113.611 Y116.481 F21000
G1 F3000
G1 X100.237 Y116.481 E.39835
G1 X100.237 Y113.519 E.08822
G1 X113.611 Y113.519 E.39835
G1 X113.611 Y116.481 E.08822
G1 X113.192 Y116.062 F21000
G1 F3000
G1 X100.656 Y116.062 E.37339
G1 X100.656 Y113.938 E.06326
G1 X113.192 Y113.938 E.37339
G1 X113.192 Y116.062 E.06326
G1 X112.773 Y115.643 F21000
G1 F3000
G1 X101.075 Y115.643 E.34843
G1 X101.075 Y114.357 E.0383
G1 X112.773 Y114.357 E.34843
G1 X112.773 Y115.643 E.0383
G1 X112.354 Y115.224 F21000
G1 F3000
G1 X101.494 Y115.224 E.32347
G1 X101.494 Y114.776 E.01334
G1 X112.354 Y114.776 E.32347
G1 X112.354 Y115.224 E.01334
G1 E-.68 F3600
;WIPE_START
G1 F3000
G1 X112.354 Y114.776 E-.05376
G1 X111.802 Y114.776 E-.06624
;WIPE_END
G1 X119.435 Y114.779 Z.6 F21000
G1 X144.693 Y114.79 Z.6
G1 Z.2
G1 E.8 F2700
;TYPE:Outer wall
;WIDTH:0.462198
G1 F3000
G1 X144.693 Y115.21 E.01389
G1 X117.355 Y115.21 E.90543
G1 X117.355 Y114.79 E.01389
G1 X144.653 Y114.79 E.9041
G1 E-.68 F3600
;WIPE_START
G1 F3000
G1 X144.693 Y115.21 E-.05054
G1 X144.114 Y115.21 E-.06946
;WIPE_END
G1 X136.482 Y115.21 Z.6 F21000
G1 X96.493 Y115.21 Z.6
G1 Z.2
G1 E.8 F2700
G1 F3000
G1 X75.855 Y115.21 E.68352
G1 X75.855 Y114.79 E.01389
G1 X96.493 Y114.79 E.68352
G1 X96.493 Y115.17 E.01256
; stop printing object 驾驶舱 - 门框1 - p1.STL id:0 copy 0
;LAYER_CHANGE
;Z:0.28
;HEIGHT:0.08
;BEFORE_LAYER_CHANGE
G92 E0
;0.28


G1 E-.68 F3600
;WIPE_START
G1 F3000
G1 X95.493 Y115.172 E-.12
;WIPE_END
EXCLUDE_OBJECT_END NAME=驾驶舱_-_门框1_-_p1.STL_id_0_copy_0
;AFTER_LAYER_CHANGE
;0.28
;_SET_FAN_SPEED_CHANGING_LAYER
SET_VELOCITY_LIMIT ACCEL=5000 ACCEL_TO_DECEL=2500
SET_VELOCITY_LIMIT SQUARE_CORNER_VELOCITY=9
M140 S70 ; set bed temperature
; printing object 驾驶舱 - 门框1 - p1.STL id:0 copy 0
EXCLUDE_OBJECT_START NAME=驾驶舱_-_门框1_-_p1.STL_id_0_copy_0
G1 X103.125 Y115.111 Z.6 F21000
G1 X144.418 Y114.785 Z.6
G1 Z.28
G1 E.8 F2700
SET_VELOCITY_LIMIT ACCEL=3000 ACCEL_TO_DECEL=1500 SQUARE_CORNER_VELOCITY=7
;TYPE:Inner wall
;WIDTH:0.447298
G1 F1577
G1 X144.418 Y115.215 E.00585
G1 X117.631 Y115.215 E.36406
G1 X117.631 Y114.785 E.00585
G1 X144.378 Y114.785 E.36352
SET_VELOCITY_LIMIT ACCEL=5000 ACCEL_TO_DECEL=2500 SQUARE_CORNER_VELOCITY=9
G1 X144.824 Y114.378 F21000
SET_VELOCITY_LIMIT ACCEL=3000 ACCEL_TO_DECEL=1500 SQUARE_CORNER_VELOCITY=7
;TYPE:Outer wall
;WIDTH:0.399999
G1 F1577
G1 X144.824 Y115.622 E.01505
G1 X143.943 Y115.622 E.01066
G1 X118.105 Y115.622 E.31255
G1 X117.224 Y115.622 E.01066
G1 X117.224 Y114.378 E.01505
G1 X118.105 Y114.378 E.01066
G1 X143.903 Y114.378 E.31206
G1 X144.784 Y114.378 E.01066
SET_VELOCITY_LIMIT ACCEL=5000 ACCEL_TO_DECEL=2500 SQUARE_CORNER_VELOCITY=9
M73 P3 R23
G1 E-.68 F3600
;WIPE_START
G1 F2030.302
G1 X144.816 Y115.378 E-.12
;WIPE_END
G1 X137.184 Y115.352 Z.68 F21000
G1 X96.218 Y115.215 Z.68
G1 Z.28
G1 E.8 F2700
SET_VELOCITY_LIMIT ACCEL=3000 ACCEL_TO_DECEL=1500 SQUARE_CORNER_VELOCITY=7
;TYPE:Inner wall
;WIDTH:0.447298
G1 F1577
M106 S0
G1 X76.131 Y115.215 E.273
G1 X76.131 Y114.785 E.00585
M73 P3 R22
G1 X96.218 Y114.785 E.273
G1 X96.218 Y115.175 E.0053
SET_VELOCITY_LIMIT ACCEL=5000 ACCEL_TO_DECEL=2500 SQUARE_CORNER_VELOCITY=9
G1 X96.624 Y115.622 F21000
SET_VELOCITY_LIMIT ACCEL=3000 ACCEL_TO_DECEL=1500 SQUARE_CORNER_VELOCITY=7
;TYPE:Outer wall
;WIDTH:0.399999
G1 F1577
G1 X95.743 Y115.622 E.01066
G1 X76.605 Y115.622 E.2315
G1 X75.724 Y115.622 E.01066
G1 X75.724 Y114.378 E.01505
G1 X76.605 Y114.378 E.01066
G1 X95.743 Y114.378 E.2315
G1 X96.624 Y114.378 E.01066
G1 X96.624 Y115.582 E.01456
; stop printing object 驾驶舱 - 门框1 - p1.STL id:0 copy 0
;LAYER_CHANGE
;Z:0.36
;HEIGHT:0.08
;BEFORE_LAYER_CHANGE
G92 E0
;0.36


G1 E-.68 F3600
;WIPE_START
G1 F2030.302
G1 X95.624 Y115.583 E-.12
;WIPE_END
EXCLUDE_OBJECT_END NAME=驾驶舱_-_门框1_-_p1.STL_id_0_copy_0
;AFTER_LAYER_CHANGE
;0.36
;_SET_FAN_SPEED_CHANGING_LAYER
; printing object 驾驶舱 - 门框1 - p1.STL id:0 copy 0
SET_VELOCITY_LIMIT ACCEL=5000 ACCEL_TO_DECEL=2500 SQUARE_CORNER_VELOCITY=9
EXCLUDE_OBJECT_START NAME=驾驶舱_-_门框1_-_p1.STL_id_0_copy_0
G1 X103.256 Y115.45 Z.68 F21000
G1 X144.366 Y114.734 Z.68
G1 Z.36
G1 E.8 F2700
SET_VELOCITY_LIMIT ACCEL=3000 ACCEL_TO_DECEL=1500 SQUARE_CORNER_VELOCITY=7
;TYPE:Inner wall
;WIDTH:0.550081
G1 F1582
M106 S0
G1 X144.366 Y115.266 E.00897
G1 X117.682 Y115.266 E.44932
G1 X117.682 Y114.734 E.00897
G1 X144.326 Y114.734 E.44865
SET_VELOCITY_LIMIT ACCEL=5000 ACCEL_TO_DECEL=2500 SQUARE_CORNER_VELOCITY=9
G1 X144.824 Y114.276 F21000
SET_VELOCITY_LIMIT ACCEL=3000 ACCEL_TO_DECEL=1500 SQUARE_CORNER_VELOCITY=7
;TYPE:Outer wall
;WIDTH:0.399999
G1 F1582
G1 X144.824 Y115.724 E.01752
G1 X144.121 Y115.724 E.0085
G1 X117.927 Y115.724 E.31685
G1 X117.224 Y115.724 E.0085
G1 X117.224 Y114.276 E.01752
G1 X117.927 Y114.276 E.0085
G1 X144.081 Y114.276 E.31637
G1 X144.784 Y114.276 E.0085
SET_VELOCITY_LIMIT ACCEL=5000 ACCEL_TO_DECEL=2500 SQUARE_CORNER_VELOCITY=9
G1 E-.68 F3600
;WIPE_START
G1 F7083.123
G1 X144.812 Y115.275 E-.12
;WIPE_END
G1 X137.179 Y115.274 Z.76 F21000
G1 X96.166 Y115.266 Z.76
G1 Z.36
G1 E.8 F2700
SET_VELOCITY_LIMIT ACCEL=3000 ACCEL_TO_DECEL=1500 SQUARE_CORNER_VELOCITY=7
;TYPE:Inner wall
;WIDTH:0.550082
G1 F1582
M106 S0
G1 X76.182 Y115.266 E.33651
G1 X76.182 Y114.734 E.00897
G1 X96.166 Y114.734 E.33651
G1 X96.166 Y115.226 E.0083
SET_VELOCITY_LIMIT ACCEL=5000 ACCEL_TO_DECEL=2500 SQUARE_CORNER_VELOCITY=9
G1 X96.624 Y115.724 F21000
SET_VELOCITY_LIMIT ACCEL=3000 ACCEL_TO_DECEL=1500 SQUARE_CORNER_VELOCITY=7
;TYPE:Outer wall
;WIDTH:0.399999
G1 F1582
G1 X95.921 Y115.724 E.0085
G1 X76.427 Y115.724 E.23581
G1 X75.724 Y115.724 E.0085
G1 X75.724 Y114.276 E.01752
G1 X76.427 Y114.276 E.0085
G1 X95.921 Y114.276 E.23581
G1 X96.624 Y114.276 E.0085
M106 S0
G1 X96.624 Y115.684 E.01703
; stop printing object 驾驶舱 - 门框1 - p1.STL id:0 copy 0
M106 S125
;LAYER_CHANGE
;Z:0.44
;HEIGHT:0.08
;BEFORE_LAYER_CHANGE
G92 E0
;0.44


G1 E-.68 F3600
;WIPE_START
G1 F7083.081
G1 X95.624 Y115.686 E-.12
;WIPE_END
EXCLUDE_OBJECT_END NAME=驾驶舱_-_门框1_-_p1.STL_id_0_copy_0
;AFTER_LAYER_CHANGE
;0.44
;_SET_FAN_SPEED_CHANGING_LAYER
; printing object 驾驶舱 - 门框1 - p1.STL id:0 copy 0
SET_VELOCITY_LIMIT ACCEL=5000 ACCEL_TO_DECEL=2500 SQUARE_CORNER_VELOCITY=9
EXCLUDE_OBJECT_START NAME=驾驶舱_-_门框1_-_p1.STL_id_0_copy_0
G1 X103.255 Y115.514 Z.76 F21000
G1 X144.416 Y114.584 Z.76
G1 Z.44
G1 E.8 F2700
SET_VELOCITY_LIMIT ACCEL=3000 ACCEL_TO_DECEL=1500 SQUARE_CORNER_VELOCITY=7
;TYPE:Inner wall
;WIDTH:0.449999
G1 F1962
G1 X144.416 Y115.416 E.01138
G1 X117.632 Y115.416 E.36631
G1 X117.632 Y114.584 E.01138
M73 P4 R22
G1 X144.376 Y114.584 E.36576
SET_VELOCITY_LIMIT ACCEL=5000 ACCEL_TO_DECEL=2500 SQUARE_CORNER_VELOCITY=9
G1 X144.824 Y114.176 F21000
SET_VELOCITY_LIMIT ACCEL=3000 ACCEL_TO_DECEL=1500 SQUARE_CORNER_VELOCITY=7
;TYPE:Outer wall
;WIDTH:0.399999
G1 F1962
G1 X144.824 Y115.824 E.01993
G1 X117.224 Y115.824 E.33386
G1 X117.224 Y114.176 E.01993
G1 X144.784 Y114.176 E.33338
SET_VELOCITY_LIMIT ACCEL=5000 ACCEL_TO_DECEL=2500 SQUARE_CORNER_VELOCITY=9
G1 E-.68 F3600
;WIPE_START
G1 F7200
G1 X144.809 Y115.176 E-.12
;WIPE_END
G1 X144 Y115 Z.84 F21000
G1 Z.44
G1 E.8 F2700
SET_VELOCITY_LIMIT ACCEL=3000 ACCEL_TO_DECEL=1500 SQUARE_CORNER_VELOCITY=7
;TYPE:Inner wall
;WIDTH:0.416556
G1 F1962
G1 X118.048 Y115 E.3275
SET_VELOCITY_LIMIT ACCEL=5000 ACCEL_TO_DECEL=2500 SQUARE_CORNER_VELOCITY=9
G1 E-.68 F3600
;WIPE_START
G1 F12000
G1 X119.048 Y115 E-.12
;WIPE_END
G1 X111.417 Y115.139 Z.84 F21000
G1 X96.216 Y115.416 Z.84
G1 Z.44
G1 E.8 F2700
SET_VELOCITY_LIMIT ACCEL=3000 ACCEL_TO_DECEL=1500 SQUARE_CORNER_VELOCITY=7
;WIDTH:0.449999
G1 F1962
G1 X76.132 Y115.416 E.27468
G1 X76.132 Y114.584 E.01138
G1 X96.216 Y114.584 E.27468
G1 X96.216 Y115.376 E.01083
SET_VELOCITY_LIMIT ACCEL=5000 ACCEL_TO_DECEL=2500 SQUARE_CORNER_VELOCITY=9
G1 X96.624 Y115.824 F21000
SET_VELOCITY_LIMIT ACCEL=3000 ACCEL_TO_DECEL=1500 SQUARE_CORNER_VELOCITY=7
;TYPE:Outer wall
;WIDTH:0.399999
G1 F1962
G1 X75.724 Y115.824 E.25281
G1 X75.724 Y114.176 E.01993
G1 X96.624 Y114.176 E.25281
G1 X96.624 Y115.784 E.01945
SET_VELOCITY_LIMIT ACCEL=5000 ACCEL_TO_DECEL=2500 SQUARE_CORNER_VELOCITY=9
G1 E-.68 F3600
;WIPE_START
G1 F7200
G1 X95.624 Y115.786 E-.12
;WIPE_END
G1 X95.8 Y115 Z.84 F21000
G1 Z.44
G1 E.8 F2700
SET_VELOCITY_LIMIT ACCEL=3000 ACCEL_TO_DECEL=1500 SQUARE_CORNER_VELOCITY=7
;TYPE:Inner wall
;WIDTH:0.416556
G1 F1962
G1 X76.548 Y115 E.24295
; stop printing object 驾驶舱 - 门框1 - p1.STL id:0 copy 0
;LAYER_CHANGE
;Z:0.48
;HEIGHT:0.04
;BEFORE_LAYER_CHANGE
G92 E0
;0.48


G1 E-.68 F3600
;WIPE_START
G1 F12000
G1 X77.548 Y115 E-.12
;WIPE_END
EXCLUDE_OBJECT_END NAME=驾驶舱_-_门框1_-_p1.STL_id_0_copy_0
;AFTER_LAYER_CHANGE
;0.48
;_SET_FAN_SPEED_CHANGING_LAYER
; printing object 驾驶舱 - 门框1 - p1.STL id:0 copy 0
SET_VELOCITY_LIMIT ACCEL=5000 ACCEL_TO_DECEL=2500 SQUARE_CORNER_VELOCITY=9
EXCLUDE_OBJECT_START NAME=驾驶舱_-_门框1_-_p1.STL_id_0_copy_0
G1 X85.119 Y114.036 Z.84 F21000
G1 X96.097 Y112.637 Z.84
G1 Z.48
G1 E.8 F2700
;TYPE:Support
;WIDTH:0.38
;HEIGHT:0.28
G1 F2528
G1 X117.363 Y112.637 E.75235
G1 X117.363 Y113.371 E.02596
G1 X116.804 Y113.371 E.01976
G1 X116.493 Y113.682 E.01558
G1 X116.493 Y115 E.04662
G1 X97.356 Y115 E.67705
G1 X97.356 Y116.318 E.04662
G1 X97.044 Y116.629 E.01558
G1 X96.097 Y116.629 E.03351
G1 X96.097 Y117.363 E.02596
G1 X117.363 Y117.363 E.75235
; stop printing object 驾驶舱 - 门框1 - p1.STL id:0 copy 0
;LAYER_CHANGE
;Z:0.52
;HEIGHT:0.04
;BEFORE_LAYER_CHANGE
G92 E0
;0.52


G1 E-.68 F3600
;WIPE_START
G1 X116.363 Y117.363 E-.12
;WIPE_END
EXCLUDE_OBJECT_END NAME=驾驶舱_-_门框1_-_p1.STL_id_0_copy_0
;AFTER_LAYER_CHANGE
;0.52
;_SET_FAN_SPEED_CHANGING_LAYER
; printing object 驾驶舱 - 门框1 - p1.STL id:0 copy 0
EXCLUDE_OBJECT_START NAME=驾驶舱_-_门框1_-_p1.STL_id_0_copy_0
G1 X123.956 Y116.591 Z.88 F21000
G1 X144.416 Y114.51 Z.88
G1 Z.52
G1 E.8 F2700
SET_VELOCITY_LIMIT ACCEL=3000 ACCEL_TO_DECEL=1500 SQUARE_CORNER_VELOCITY=7
;TYPE:Inner wall
;WIDTH:0.449999
;HEIGHT:0.08
G1 F2528
G1 X144.416 Y115.49 E.0134
G1 X117.632 Y115.49 E.36631
G1 X117.632 Y114.51 E.0134
G1 X144.376 Y114.51 E.36576
SET_VELOCITY_LIMIT ACCEL=5000 ACCEL_TO_DECEL=2500 SQUARE_CORNER_VELOCITY=9
G1 X144.824 Y114.102 F21000
SET_VELOCITY_LIMIT ACCEL=3000 ACCEL_TO_DECEL=1500 SQUARE_CORNER_VELOCITY=7
;TYPE:Outer wall
;WIDTH:0.399999
G1 F2528
G1 X144.824 Y115.898 E.02172
G1 X117.224 Y115.898 E.33386
G1 X117.224 Y114.102 E.02172
G1 X144.784 Y114.102 E.33338
SET_VELOCITY_LIMIT ACCEL=5000 ACCEL_TO_DECEL=2500 SQUARE_CORNER_VELOCITY=9
G1 E-.68 F3600
;WIPE_START
G1 F7200
G1 X144.807 Y115.102 E-.12
;WIPE_END
G1 X143.927 Y115 Z.92 F21000
G1 Z.52
G1 E.8 F2700
SET_VELOCITY_LIMIT ACCEL=3000 ACCEL_TO_DECEL=1500 SQUARE_CORNER_VELOCITY=7
;TYPE:Inner wall
;WIDTH:0.563846
G1 F2528
G1 X118.122 Y115 E.44574
SET_VELOCITY_LIMIT ACCEL=5000 ACCEL_TO_DECEL=2500 SQUARE_CORNER_VELOCITY=9
G1 E-.68 F3600
;WIPE_START
G1 F12000
G1 X119.122 Y115 E-.12
;WIPE_END
G1 X111.491 Y115.163 Z.92 F21000
G1 X96.216 Y115.49 Z.92
G1 Z.52
G1 E.8 F2700
SET_VELOCITY_LIMIT ACCEL=3000 ACCEL_TO_DECEL=1500 SQUARE_CORNER_VELOCITY=7
;WIDTH:0.449999
G1 F2528
G1 X76.132 Y115.49 E.27468
G1 X76.132 Y114.51 E.0134
M73 P5 R22
G1 X96.216 Y114.51 E.27468
G1 X96.216 Y115.45 E.01285
SET_VELOCITY_LIMIT ACCEL=5000 ACCEL_TO_DECEL=2500 SQUARE_CORNER_VELOCITY=9
G1 X96.624 Y115.898 F21000
SET_VELOCITY_LIMIT ACCEL=3000 ACCEL_TO_DECEL=1500 SQUARE_CORNER_VELOCITY=7
;TYPE:Outer wall
;WIDTH:0.399999
G1 F2528
G1 X75.724 Y115.898 E.25281
G1 X75.724 Y114.102 E.02172
G1 X96.624 Y114.102 E.25281
G1 X96.624 Y115.858 E.02123
SET_VELOCITY_LIMIT ACCEL=5000 ACCEL_TO_DECEL=2500 SQUARE_CORNER_VELOCITY=9
G1 E-.68 F3600
;WIPE_START
G1 F7200
G1 X95.624 Y115.859 E-.12
;WIPE_END
G1 X95.727 Y115 Z.92 F21000
G1 Z.52
G1 E.8 F2700
SET_VELOCITY_LIMIT ACCEL=3000 ACCEL_TO_DECEL=1500 SQUARE_CORNER_VELOCITY=7
;TYPE:Inner wall
;WIDTH:0.563846
G1 F2528
