; HEADER_BLOCK_START
; generated by OrcaSlicer 2.1.1 on 2025-01-10 at 23:46:23
; total layer number: 36
; filament_density: 1.27
; filament_diameter: 1.75
; max_z_height: 3.00
; HEADER_BLOCK_END

; THUMBNAIL_BLOCK_START

;
; THUMBNAIL_BLOCK_END







; external perimeters extrusion width = 0.40mm
; perimeters extrusion width = 0.45mm
; infill extrusion width = 0.45mm
; solid infill extrusion width = 0.45mm
; top infill extrusion width = 0.38mm
; support material extrusion width = 0.38mm
; first layer extrusion width = 0.42mm

; EXECUTABLE_BLOCK_START
EXCLUDE_OBJECT_DEFINE NAME=驾驶舱_-_控制杆3.STL_id_0_copy_0 CENTER=117.644,115 POLYGON=[[113.996,111.995],[114.033,111.245],[114.946,96.1204],[116.746,96.1204],[121.291,132.248],[121.293,132.502],[121.252,132.752],[121.169,132.992],[121.047,133.214],[120.889,133.412],[120.7,133.581],[120.485,133.716],[120.25,133.812],[120.003,133.867],[119.75,133.88],[119.498,133.849],[119.255,133.777],[119.028,133.664],[118.823,133.515],[118.646,133.333],[118.503,133.124],[118.397,132.894],[118.331,132.649],[114.192,114.233],[114.075,113.492],[114.009,112.745],[113.996,111.995]]
M73 P0 R3
;TYPE:Custom
;ELEGOO NEPTUNE 4 PRO
M220 S100 ;Set the feed speed to 100%
M221 S100 ;Set the flow rate to 100%
M104 S140
M190 S70
G90
G28 ;home
G1 Z10 F300
G1 X67.5 Y0 F6000
G1 Z0 F300
M109 S240
G92 E0 ;Reset Extruder
M73 P1 R3
G1 X67.5 Y0 Z0.4 F300 ;Move to start position
M73 P2 R3
G1 X167.5 E30 F400 ;Draw the first line
G1 Z0.6 F120.0 ;Move to side a little
M73 P8 R3
G1 X162.5 F3000
G92 E0 ;Reset Extruder
G90
G21
M83 ; use relative distances for extrusion
; filament start gcode
M106 S0
;LAYER_CHANGE
;Z:0.2
;HEIGHT:0.2
;BEFORE_LAYER_CHANGE
G92 E0
;0.2


G1 E-.8 F3600
;AFTER_LAYER_CHANGE
;0.2
;_SET_FAN_SPEED_CHANGING_LAYER
SET_VELOCITY_LIMIT ACCEL=1000 ACCEL_TO_DECEL=500
SET_VELOCITY_LIMIT SQUARE_CORNER_VELOCITY=7
; printing object 驾驶舱 - 控制杆3.STL id:0 copy 0
EXCLUDE_OBJECT_START NAME=驾驶舱_-_控制杆3.STL_id_0_copy_0
G1 X114.89 Y98.279 F21000
G1 Z.4
G1 Z.2
G1 E.8 F2700
;TYPE:Support
;WIDTH:0.42
G1 F3000
G1 X114.89 Y101.215 E.08745
G1 X118.036 Y101.215 E.09371
G1 X118.036 Y99.215 E.05957
G1 X119.616 Y99.215 E.04706
G1 X119.616 Y120.117 E.62262
M73 P9 R3
G1 X121.979 Y120.117 E.07038
G1 X121.979 Y133.063 E.38561
G1 X119.382 Y133.749 E.07999
G1 X119.513 Y133.511 E.00807
G1 X115.673 Y133.511 E.11437
G1 X115.673 Y128.785 E.14076
G1 X113.31 Y128.785 E.07038
G1 X113.31 Y119.334 E.28152
G1 X110.948 Y119.334 E.07038
G1 X110.948 Y96.489 E.68048
G1 X114.89 Y96.489 E.11744
G1 X114.89 Y98.222 E.05163
G1 E-.68 F3600
;WIPE_START
G1 F3000
G1 X114.89 Y97.222 E-.12
;WIPE_END
G1 X115.962 Y104.779 Z.6 F21000
M73 P10 R3
G1 X119.725 Y131.298 Z.6
G1 Z.2
G1 E.8 F2700
G1 F3000
G1 X119.411 Y131.368 E.00957
G1 X119.245 Y131.449 E.00551
G1 X119.095 Y131.557 E.00551
G1 X118.965 Y131.688 E.00551
G1 X118.859 Y131.84 E.00551
G1 X118.78 Y132.007 E.00551
G1 X118.731 Y132.186 E.00551
G1 X118.713 Y132.417 E.00692
G1 X118.734 Y132.601 E.00551
G1 X118.843 Y132.903 E.00957
G1 X118.944 Y133.058 E.00551
G1 X119.07 Y133.193 E.00551
G1 X119.217 Y133.305 E.00551
G1 X119.381 Y133.391 E.00551
G1 X119.557 Y133.448 E.00551
G1 X119.788 Y133.476 E.00692
G1 X119.972 Y133.462 E.00551
G1 X120.152 Y133.418 E.00551
G1 X120.438 Y133.271 E.00957
G1 X120.578 Y133.151 E.00551
G1 X120.697 Y133.009 E.00551
G1 X120.808 Y132.806 E.00692
G1 X120.865 Y132.63 E.00551
G1 X120.891 Y132.447 E.00551
G1 X120.885 Y132.262 E.00551
G1 X120.849 Y132.081 E.00551
G1 X120.715 Y131.789 E.00957
G1 X120.601 Y131.643 E.00551
G1 X120.425 Y131.491 E.00692
G1 X120.265 Y131.399 E.00551
G1 X120.091 Y131.335 E.00551
G1 X119.781 Y131.296 E.00931
G1 X113.65 Y118.995 F21000
G1 F3000
G1 X111.287 Y118.995 E.07038
G1 X111.287 Y96.828 E.66027
G1 X114.551 Y96.828 E.09722
G1 X114.551 Y101.554 E.14076
G1 X118.375 Y101.554 E.11392
G1 X118.375 Y99.554 E.05957
G1 X119.276 Y99.554 E.02684
G1 X119.276 Y120.457 E.62262
G1 X121.639 Y120.457 E.07038
M73 P11 R3
G1 X121.639 Y132.802 E.36771
G1 X121.121 Y132.938 E.01598
G1 X121.179 Y132.773 E.00522
G1 X121.224 Y132.535 E.00722
G1 X121.229 Y132.292 E.00722
G1 X121.193 Y132.053 E.00722
G1 X121.117 Y131.823 E.00722
G1 X121.002 Y131.609 E.00722
G1 X120.801 Y131.362 E.00949
G1 X120.613 Y131.208 E.00722
G1 X120.403 Y131.088 E.00722
G1 X120.248 Y131.027 E.00495
G1 X120.012 Y130.971 E.00722
G1 X119.694 Y130.96 E.00949
G1 X119.529 Y130.982 E.00495
G1 X119.296 Y131.049 E.00722
G1 X119.012 Y131.194 E.00949
G1 X118.822 Y131.345 E.00722
G1 X118.708 Y131.466 E.00495
G1 X118.532 Y131.731 E.00949
G1 X118.464 Y131.883 E.00495
G1 X118.398 Y132.116 E.00722
G1 X118.374 Y132.434 E.00949
G1 X118.389 Y132.6 E.00495
G1 X118.445 Y132.835 E.00722
G1 X118.541 Y133.058 E.00722
G1 X118.611 Y133.172 E.00398
G1 X116.013 Y133.172 E.0774
G1 X116.013 Y128.446 E.14076
G1 X113.65 Y128.446 E.07038
G1 X113.65 Y118.995 E.28152
G1 X114.069 Y118.576 F21000
G1 F3000
G1 X111.706 Y118.576 E.07038
G1 X111.706 Y97.247 E.63531
G1 X114.132 Y97.247 E.07226
G1 X114.132 Y101.973 E.14076
G1 X118.857 Y101.973 E.14076
G1 X118.857 Y120.876 E.56304
G1 X121.22 Y120.876 E.07038
M73 P12 R3
G1 X121.22 Y131.132 E.30551
G1 X120.673 Y130.754 E.01981
G1 X120.385 Y130.631 E.00934
G1 X120.08 Y130.558 E.00934
G1 X119.655 Y130.543 E.01266
G1 X119.346 Y130.594 E.00934
G1 X119.05 Y130.697 E.00934
G1 X118.775 Y130.849 E.00934
G1 X118.53 Y131.044 E.00934
G1 X118.322 Y131.279 E.00934
G1 X118.156 Y131.545 E.00934
G1 X118.037 Y131.835 E.00934
G1 X117.97 Y132.141 E.00934
G1 X117.955 Y132.455 E.00934
G1 X117.982 Y132.753 E.00892
G1 X116.432 Y132.753 E.04619
G1 X116.432 Y128.027 E.14076
G1 X114.069 Y128.027 E.07038
G1 X114.069 Y118.576 E.28152
G1 X114.488 Y118.157 F21000
G1 F3000
G1 X112.125 Y118.157 E.07038
G1 X112.125 Y97.666 E.61035
G1 X113.713 Y97.666 E.0473
G1 X113.713 Y102.392 E.14076
G1 X118.438 Y102.392 E.14076
G1 X118.438 Y121.295 E.56304
G1 X120.801 Y121.295 E.07038
M73 P13 R3
G1 X120.801 Y130.344 E.26957
G1 X120.38 Y130.192 E.01333
G1 X120.148 Y130.144 E.00707
G1 X119.764 Y130.118 E.01146
G1 X119.617 Y130.125 E.0044
G1 X119.237 Y130.189 E.01146
G1 X118.874 Y130.316 E.01146
G1 X118.663 Y130.425 E.00707
G1 X118.538 Y130.503 E.0044
G1 X118.238 Y130.744 E.01146
G1 X118.075 Y130.916 E.00707
G1 X117.851 Y131.229 E.01146
G1 X117.741 Y131.447 E.00727
G1 X117.636 Y131.715 E.00859
G1 X117.553 Y132.091 E.01146
G1 X117.535 Y132.334 E.00725
G1 X116.85 Y132.334 E.02038
G1 X116.85 Y127.608 E.14076
G1 X114.488 Y127.608 E.07038
G1 X114.488 Y118.157 E.28152
G1 X114.907 Y117.738 F21000
G1 F3000
G1 X112.544 Y117.738 E.07038
G1 X112.544 Y98.085 E.58539
G1 X113.294 Y98.085 E.02234
G1 X113.294 Y102.811 E.14076
G1 X118.02 Y102.811 E.14076
G1 X118.02 Y121.713 E.56304
G1 X120.382 Y121.713 E.07038
M73 P14 R3
G1 X120.382 Y129.75 E.23938
G1 X120.034 Y129.708 E.01046
G1 X119.578 Y129.707 E.01358
G1 X119.129 Y129.784 E.01358
G1 X118.699 Y129.935 E.01358
G1 X118.456 Y130.06 E.00813
G1 X118.082 Y130.321 E.01358
G1 X117.758 Y130.641 E.01358
G1 X117.537 Y130.945 E.01117
G1 X117.269 Y130.863 E.00834
G1 X117.269 Y127.189 E.10944
G1 X114.907 Y127.189 E.07038
G1 X114.907 Y117.738 E.28152
G1 X115.326 Y117.319 F21000
G1 F3000
G1 X112.963 Y117.319 E.07038
G1 X112.963 Y103.23 E.41967
G1 X117.601 Y103.23 E.13814
G1 X117.601 Y122.132 E.56304
G1 X119.963 Y122.132 E.07038
G1 X119.963 Y129.286 E.21309
G1 X119.539 Y129.29 E.01263
G1 X119.234 Y129.331 E.00919
G1 X118.726 Y129.471 E.0157
G1 X118.249 Y129.695 E.0157
G1 X118.063 Y129.811 E.00652
G1 X117.688 Y130.092 E.01395
G1 X117.688 Y126.77 E.09896
G1 X115.326 Y126.77 E.07038
M73 P15 R3
G1 X115.326 Y117.319 E.28152
G1 X115.745 Y116.9 F21000
G1 F3000
G1 X113.382 Y116.9 E.07038
G1 X113.382 Y103.649 E.39471
G1 X117.182 Y103.649 E.11318
G1 X117.182 Y122.551 E.56304
G1 X119.544 Y122.551 E.07038
G1 X119.544 Y128.866 E.1881
G1 X119.16 Y128.918 E.01156
G1 X118.912 Y128.974 E.00758
G1 X118.583 Y129.077 E.01025
G1 X118.107 Y129.272 E.01532
G1 X118.107 Y126.351 E.087
G1 X115.745 Y126.351 E.07038
G1 X115.745 Y116.9 E.28152
G1 X116.164 Y116.481 F21000
G1 F3000
G1 X113.801 Y116.481 E.07038
G1 X113.801 Y104.068 E.36975
G1 X116.763 Y104.068 E.08822
M73 P16 R3
G1 X116.763 Y122.97 E.56304
G1 X119.125 Y122.97 E.07038
G1 X119.125 Y128.497 E.16461
G1 X118.803 Y128.569 E.00984
G1 X118.526 Y128.656 E.00864
G1 X118.526 Y125.932 E.08112
G1 X116.164 Y125.932 E.07038
G1 X116.164 Y116.481 E.28152
G1 X116.583 Y123.389 F21000
G1 F3000
G1 X118.706 Y123.389 E.06326
G1 X118.706 Y125.513 E.06326
G1 X116.583 Y125.513 E.06326
G1 X116.583 Y123.389 E.06326
G1 X117.002 Y123.808 F21000
G1 F3000
G1 X118.287 Y123.808 E.0383
G1 X118.287 Y125.094 E.0383
G1 X117.002 Y125.094 E.0383
G1 X117.002 Y123.808 E.0383
G1 X117.42 Y124.227 F21000
G1 F3000
G1 X117.868 Y124.227 E.01334
G1 X117.868 Y124.675 E.01334
G1 X117.42 Y124.675 E.01334
G1 X117.42 Y124.227 E.01334
G1 X116.344 Y116.062 F21000
G1 F3000
G1 X114.22 Y116.062 E.06326
G1 X114.22 Y104.487 E.34479
M73 P17 R3
G1 X116.344 Y104.487 E.06326
G1 X116.344 Y116.062 E.34479
G1 X115.925 Y115.643 F21000
G1 F3000
G1 X114.639 Y115.643 E.0383
G1 X114.639 Y104.906 E.31983
G1 X115.925 Y104.906 E.0383
G1 X115.925 Y115.643 E.31983
G1 X115.506 Y115.224 F21000
G1 F3000
G1 X115.058 Y115.224 E.01334
G1 X115.058 Y105.325 E.29487
G1 X115.506 Y105.325 E.01334
G1 X115.506 Y115.224 E.29487
G1 E-.68 F3600
;WIPE_START
G1 F3000
G1 X115.506 Y114.224 E-.12
;WIPE_END
G1 X115.442 Y106.592 Z.6 F21000
G1 X115.393 Y100.823 Z.6
G1 Z.2
G1 E.8 F2700
;TYPE:Support interface
G1 F3000
G1 X115.393 Y96.097 E.14076
G1 X115.956 Y96.097 E.01676
M73 P18 R3
G1 X115.956 Y100.823 E.14076
G1 X116.519 Y100.823 E.01676
G1 X116.519 Y96.097 E.14076
G1 X117.082 Y96.097 E.01676
G1 X117.082 Y100.823 E.14076
G1 X117.644 Y100.823 E.01676
G1 X117.644 Y96.097 E.14076
G1 E-.68 F3600
;WIPE_START
G1 F3000
G1 X117.644 Y97.097 E-.12
;WIPE_END
G1 X118.065 Y104.718 Z.6 F21000
G1 X119.601 Y132.54 Z.6
G1 Z.2
G1 E.8 F2700
;TYPE:Outer wall
;WIDTH:0.534681
G1 F3000
G1 X119.551 Y132.333 E.00829
G1 X119.627 Y132.199 E.00597
G1 X119.816 Y132.128 E.00784
G1 X119.987 Y132.22 E.00754
G1 X120.055 Y132.353 E.00578
G1 X120.01 Y132.538 E.0074
G1 X119.876 Y132.633 E.00638
G1 X119.747 Y132.626 E.00501
G1 X119.636 Y132.56 E.00502
; stop printing object 驾驶舱 - 控制杆3.STL id:0 copy 0
;LAYER_CHANGE
;Z:0.28
;HEIGHT:0.08
;BEFORE_LAYER_CHANGE
G92 E0
;0.28


G1 E-.68 F3600
;WIPE_START
G1 F3000
G1 X119.551 Y132.333 E-.02917
G1 X119.627 Y132.199 E-.01845
G1 X119.816 Y132.128 E-.02423
G1 X119.987 Y132.22 E-.0233
G1 X120.055 Y132.353 E-.01785
G1 X120.042 Y132.409 E-.00701
;WIPE_END
EXCLUDE_OBJECT_END NAME=驾驶舱_-_控制杆3.STL_id_0_copy_0
;AFTER_LAYER_CHANGE
;0.28
;_SET_FAN_SPEED_CHANGING_LAYER
SET_VELOCITY_LIMIT ACCEL=5000 ACCEL_TO_DECEL=2500
SET_VELOCITY_LIMIT SQUARE_CORNER_VELOCITY=9
M140 S70 ; set bed temperature
; printing object 驾驶舱 - 控制杆3.STL id:0 copy 0
EXCLUDE_OBJECT_START NAME=驾驶舱_-_控制杆3.STL_id_0_copy_0
G1 X119.996 Y132.318 Z.6 F21000
G1 Z.28
G1 E.8 F2700
SET_VELOCITY_LIMIT ACCEL=3000 ACCEL_TO_DECEL=1500 SQUARE_CORNER_VELOCITY=7
;TYPE:Inner wall
;WIDTH:0.404521
G1 F600
G1 X119.972 Y132.479 E.00198
G1 X119.83 Y132.592 E.00222
G1 X119.664 Y132.521 E.00222
G1 X119.598 Y132.372 E.00199
G1 X119.641 Y132.278 E.00126
G1 X119.787 Y132.176 E.00218
G1 X119.883 Y132.199 E.00121
G1 X119.996 Y132.318 E.002
SET_VELOCITY_LIMIT ACCEL=5000 ACCEL_TO_DECEL=2500 SQUARE_CORNER_VELOCITY=9
G1 X119.28 Y132.672 F21000
SET_VELOCITY_LIMIT ACCEL=3000 ACCEL_TO_DECEL=1500 SQUARE_CORNER_VELOCITY=7
;TYPE:Outer wall
;WIDTH:0.399999
G1 F600
G1 X119.202 Y132.382 E.00363
G1 X119.232 Y132.198 E.00226
G1 X119.404 Y131.94 E.00375
G1 X119.756 Y131.791 E.00462
G1 X120.065 Y131.847 E.0038
G1 X120.182 Y131.948 E.00187
G1 X120.341 Y132.138 E.003
G1 X120.382 Y132.532 E.00479
G1 X120.237 Y132.797 E.00365
G1 X119.974 Y132.961 E.00375
G1 X119.79 Y132.986 E.00225
G1 X119.493 Y132.897 E.00375
G1 X119.304 Y132.703 E.00328
; stop printing object 驾驶舱 - 控制杆3.STL id:0 copy 0
;LAYER_CHANGE
;Z:0.36
;HEIGHT:0.08
;BEFORE_LAYER_CHANGE
G92 E0
;0.36


G1 E-.68 F3600
;WIPE_START
G1 F2179.57
G1 X119.202 Y132.382 E-.04045
G1 X119.232 Y132.198 E-.02239
G1 X119.404 Y131.94 E-.03716
G1 X119.558 Y131.875 E-.02
;WIPE_END
EXCLUDE_OBJECT_END NAME=驾驶舱_-_控制杆3.STL_id_0_copy_0
;AFTER_LAYER_CHANGE
;0.36
;_SET_FAN_SPEED_CHANGING_LAYER
; printing object 驾驶舱 - 控制杆3.STL id:0 copy 0
SET_VELOCITY_LIMIT ACCEL=5000 ACCEL_TO_DECEL=2500 SQUARE_CORNER_VELOCITY=9
EXCLUDE_OBJECT_START NAME=驾驶舱_-_控制杆3.STL_id_0_copy_0
G1 X119.554 Y132.475 Z.68 F21000
G1 Z.36
M73 P19 R3
G1 E.8 F2700
SET_VELOCITY_LIMIT ACCEL=3000 ACCEL_TO_DECEL=1500 SQUARE_CORNER_VELOCITY=7
;TYPE:Inner wall
;WIDTH:0.537883
G1 F600
M106 S0
G1 X119.553 Y132.299 E.0029
G1 X119.662 Y132.162 E.0029
G1 X119.834 Y132.127 E.00288
G1 X119.989 Y132.204 E.00285
G1 X120.066 Y132.406 E.00356
G1 X119.995 Y132.567 E.0029
G1 X119.838 Y132.647 E.0029
G1 X119.666 Y132.612 E.0029
G1 X119.579 Y132.506 E.00224
SET_VELOCITY_LIMIT ACCEL=5000 ACCEL_TO_DECEL=2500 SQUARE_CORNER_VELOCITY=9
G1 X119.122 Y132.627 F21000
SET_VELOCITY_LIMIT ACCEL=3000 ACCEL_TO_DECEL=1500 SQUARE_CORNER_VELOCITY=7
;TYPE:Outer wall
;WIDTH:0.399999
G1 F600
G1 X119.08 Y132.391 E.0029
G1 X119.12 Y132.15 E.00296
G1 X119.237 Y131.936 E.00295
G1 X119.419 Y131.773 E.00296
G1 X119.653 Y131.677 E.00306
G1 X119.888 Y131.679 E.00284
G1 X120.119 Y131.748 E.00292
G1 X120.313 Y131.889 E.0029
G1 X120.449 Y132.088 E.00292
G1 X120.523 Y132.442 E.00437
G1 X120.463 Y132.679 E.00296
G1 X120.328 Y132.882 E.00295
G1 X120.132 Y133.028 E.00296
G1 X119.899 Y133.102 E.00296
G1 X119.655 Y133.093 E.00295
G1 X119.428 Y133.004 E.00295
G1 X119.244 Y132.844 E.00295
G1 X119.14 Y132.662 E.00254
; stop printing object 驾驶舱 - 控制杆3.STL id:0 copy 0
M106 S127
;LAYER_CHANGE
;Z:0.44
;HEIGHT:0.08
;BEFORE_LAYER_CHANGE
G92 E0
;0.44


G1 E-.68 F3600
;WIPE_START
G1 F6432.502
G1 X119.08 Y132.391 E-.03334
G1 X119.12 Y132.15 E-.02931
G1 X119.237 Y131.936 E-.02931
G1 X119.412 Y131.78 E-.02805
;WIPE_END
EXCLUDE_OBJECT_END NAME=驾驶舱_-_控制杆3.STL_id_0_copy_0
;AFTER_LAYER_CHANGE
;0.44
;_SET_FAN_SPEED_CHANGING_LAYER
; printing object 驾驶舱 - 控制杆3.STL id:0 copy 0
SET_VELOCITY_LIMIT ACCEL=5000 ACCEL_TO_DECEL=2500 SQUARE_CORNER_VELOCITY=9
EXCLUDE_OBJECT_START NAME=驾驶舱_-_控制杆3.STL_id_0_copy_0
G1 X119.517 Y132.466 Z.76 F21000
G1 Z.44
G1 E.8 F2700
SET_VELOCITY_LIMIT ACCEL=3000 ACCEL_TO_DECEL=1500 SQUARE_CORNER_VELOCITY=7
;TYPE:Inner wall
;WIDTH:0.612831
G1 F600
M106 S127
G1 X119.494 Y132.34 E.0024
G1 X119.61 Y132.142 E.00433
G1 X119.808 Y132.081 E.0039
G1 X120.014 Y132.158 E.00413
G1 X120.11 Y132.429 E.00541
G1 X120.045 Y132.562 E.00279
G1 X119.877 Y132.687 E.00394
G1 X119.688 Y132.677 E.00357
G1 X119.53 Y132.54 E.00393
G1 X119.524 Y132.505 E.00068
SET_VELOCITY_LIMIT ACCEL=5000 ACCEL_TO_DECEL=2500 SQUARE_CORNER_VELOCITY=9
G1 X119.017 Y132.558 F21000
SET_VELOCITY_LIMIT ACCEL=3000 ACCEL_TO_DECEL=1500 SQUARE_CORNER_VELOCITY=7
;TYPE:Outer wall
;WIDTH:0.399999
G1 F600
G1 X119.006 Y132.528 E.00039
G1 X119.031 Y132.164 E.00442
G1 X119.268 Y131.779 E.00547
G1 X119.491 Y131.639 E.00319
G1 X119.824 Y131.581 E.00409
G1 X120.166 Y131.664 E.00425
G1 X120.379 Y131.819 E.00319
G1 X120.557 Y132.106 E.00409
G1 X120.608 Y132.454 E.00425
G1 X120.544 Y132.709 E.00319
G1 X120.343 Y132.981 E.00409
G1 X120.04 Y133.159 E.00425
G1 X119.774 Y133.195 E.00324
G1 X119.506 Y133.139 E.00331
G1 X119.272 Y132.997 E.00331
G1 X119.099 Y132.785 E.00331
G1 X119.03 Y132.596 E.00244
; stop printing object 驾驶舱 - 控制杆3.STL id:0 copy 0
M106 S125
;LAYER_CHANGE
;Z:0.52
;HEIGHT:0.08
;BEFORE_LAYER_CHANGE
G92 E0
;0.52


G1 E-.68 F3600
;WIPE_START
G1 F7200
G1 X119.006 Y132.528 E-.00866
G1 X119.031 Y132.164 E-.04384
G1 X119.268 Y131.779 E-.05422
G1 X119.362 Y131.72 E-.01328
;WIPE_END
EXCLUDE_OBJECT_END NAME=驾驶舱_-_控制杆3.STL_id_0_copy_0
;AFTER_LAYER_CHANGE
;0.52
;_SET_FAN_SPEED_CHANGING_LAYER
; printing object 驾驶舱 - 控制杆3.STL id:0 copy 0
SET_VELOCITY_LIMIT ACCEL=5000 ACCEL_TO_DECEL=2500 SQUARE_CORNER_VELOCITY=9
EXCLUDE_OBJECT_START NAME=驾驶舱_-_控制杆3.STL_id_0_copy_0
G1 X118.026 Y131.54 Z.84 F21000
G1 Z.52
G1 E.8 F2700
;TYPE:Support interface
;WIDTH:0.38
;HEIGHT:0.32
G1 F2268
G1 X117.644 Y131.54 E.01501
