; HEADER_BLOCK_START
; generated by OrcaSlicer 2.1.1 on 2025-01-10 at 23:45:55
; total layer number: 35
; filament_density: 1.27
; filament_diameter: 1.75
; max_z_height: 3.00
; HEADER_BLOCK_END

; THUMBNAIL_BLOCK_START

;
; THUMBNAIL_BLOCK_END







; external perimeters extrusion width = 0.40mm
; perimeters extrusion width = 0.45mm
; infill extrusion width = 0.45mm
; solid infill extrusion width = 0.45mm
; top infill extrusion width = 0.38mm
; support material extrusion width = 0.38mm
; first layer extrusion width = 0.42mm

; EXECUTABLE_BLOCK_START
EXCLUDE_OBJECT_DEFINE NAME=驾驶舱_-_控制杆2.STL_id_0_copy_0 CENTER=118.205,115 POLYGON=[[113.59,96.356],[115.39,96.356],[122.773,131.76],[122.818,132.009],[122.821,132.263],[122.78,132.513],[122.698,132.753],[122.577,132.975],[122.419,133.174],[122.23,133.343],[122.016,133.478],[121.781,133.575],[121.534,133.631],[121.281,133.644],[121.029,133.614],[120.786,133.542],[120.558,133.43],[120.353,133.281],[120.176,133.1],[120.032,132.891],[119.925,132.661],[114.159,114.555],[113.977,113.827],[113.847,113.089],[113.769,112.342],[113.74,111.593],[113.59,99.856],[113.59,96.356]]
M73 P0 R3
;TYPE:Custom
;ELEGOO NEPTUNE 4 PRO
M220 S100 ;Set the feed speed to 100%
M221 S100 ;Set the flow rate to 100%
M104 S140
M190 S70
G90
G28 ;home
G1 Z10 F300
G1 X67.5 Y0 F6000
G1 Z0 F300
M109 S240
G92 E0 ;Reset Extruder
M73 P1 R3
G1 X67.5 Y0 Z0.4 F300 ;Move to start position
M73 P2 R3
G1 X167.5 E30 F400 ;Draw the first line
G1 Z0.6 F120.0 ;Move to side a little
M73 P8 R3
G1 X162.5 F3000
G92 E0 ;Reset Extruder
G90
G21
M83 ; use relative distances for extrusion
; filament start gcode
M106 S0
;LAYER_CHANGE
;Z:0.2
;HEIGHT:0.2
;BEFORE_LAYER_CHANGE
G92 E0
;0.2


G1 E-.8 F3600
;AFTER_LAYER_CHANGE
;0.2
;_SET_FAN_SPEED_CHANGING_LAYER
SET_VELOCITY_LIMIT ACCEL=1000 ACCEL_TO_DECEL=500
SET_VELOCITY_LIMIT SQUARE_CORNER_VELOCITY=7
; printing object 驾驶舱 - 控制杆2.STL id:0 copy 0
EXCLUDE_OBJECT_START NAME=驾驶舱_-_控制杆2.STL_id_0_copy_0
G1 X113.48 Y96.528 F21000
G1 Z.4
G1 Z.2
G1 E.8 F2700
;TYPE:Support interface
;WIDTH:0.42
G1 F3000
G1 X113.48 Y96.097 E.01284
G1 X113.703 Y96.097 E.00664
G1 X113.703 Y100.823 E.14076
G1 X114.266 Y100.823 E.01676
G1 X114.266 Y96.097 E.14076
M73 P9 R3
G1 X114.828 Y96.097 E.01676
G1 X114.828 Y100.823 E.14076
G1 X115.391 Y100.823 E.01676
G1 X115.391 Y96.097 E.14076
G1 X115.843 Y96.097 E.01344
G1 X115.843 Y100.823 E.14076
G1 X115.573 Y100.823 E.00804
G1 E-.68 F3600
;WIPE_START
G1 F3000
G1 X115.843 Y100.823 E-.03239
G1 X115.843 Y100.093 E-.08761
;WIPE_END
G1 X113.088 Y101.215 Z.6 F21000
G1 Z.2
G1 E.8 F2700
;TYPE:Support
G1 F3000
G1 X116.234 Y101.215 E.0937
G1 X116.234 Y99.215 E.05957
G1 X117.814 Y99.215 E.04706
G1 X117.814 Y113.029 E.41148
G1 X120.177 Y113.029 E.07038
G1 X120.177 Y120.117 E.21114
G1 X122.539 Y120.117 E.07038
G1 X122.539 Y124.843 E.14076
G1 X124.902 Y124.843 E.07038
G1 X124.902 Y133.511 E.2582
G1 X116.234 Y133.511 E.2582
G1 X116.234 Y128.785 E.14076
M73 P10 R3
G1 X113.871 Y128.785 E.07038
G1 X113.871 Y121.697 E.21114
G1 X111.508 Y121.697 E.07038
G1 X111.508 Y99.215 E.66968
G1 X113.088 Y99.215 E.04706
G1 X113.088 Y101.158 E.05789
G1 X121.25 Y131.063 F21000
G1 F3000
G1 X121.067 Y131.092 E.00551
G1 X120.892 Y131.152 E.00551
G1 X120.62 Y131.323 E.00957
G1 X120.491 Y131.455 E.00551
G1 X120.385 Y131.607 E.00551
G1 X120.307 Y131.774 E.00551
G1 X120.258 Y131.952 E.00551
G1 X120.241 Y132.184 E.00692
G1 X120.262 Y132.368 E.00551
G1 X120.314 Y132.545 E.00551
G1 X120.396 Y132.711 E.00551
G1 X120.6 Y132.959 E.00957
G1 X120.788 Y133.095 E.00692
G1 X120.956 Y133.174 E.00551
G1 X121.134 Y133.222 E.00551
G1 X121.318 Y133.24 E.00551
G1 X121.502 Y133.226 E.00551
G1 X121.682 Y133.182 E.00551
G1 X121.967 Y133.034 E.00957
G1 X122.108 Y132.914 E.00551
G1 X122.226 Y132.771 E.00551
G1 X122.318 Y132.611 E.00551
G1 X122.393 Y132.391 E.00692
G1 X122.419 Y132.208 E.00551
G1 X122.413 Y132.024 E.00551
G1 X122.329 Y131.713 E.00957
G1 X122.241 Y131.551 E.00551
G1 X122.126 Y131.405 E.00551
G1 X121.951 Y131.254 E.00692
G1 X121.79 Y131.162 E.00551
G1 X121.617 Y131.098 E.00551
G1 X121.306 Y131.061 E.00931
G1 X117.474 Y113.368 F21000
G1 F3000
G1 X119.837 Y113.368 E.07038
G1 X119.837 Y120.457 E.21114
G1 X122.2 Y120.457 E.07038
G1 X122.2 Y125.182 E.14076
M73 P11 R3
G1 X124.563 Y125.182 E.07038
G1 X124.563 Y133.172 E.23798
G1 X122.328 Y133.172 E.06656
G1 X122.543 Y132.907 E.01015
G1 X122.653 Y132.691 E.00722
G1 X122.726 Y132.46 E.00722
G1 X122.758 Y132.22 E.00722
G1 X122.749 Y131.977 E.00722
G1 X122.7 Y131.74 E.00722
G1 X122.643 Y131.584 E.00495
G1 X122.485 Y131.307 E.00949
G1 X122.326 Y131.124 E.00722
G1 X122.138 Y130.97 E.00722
G1 X121.996 Y130.885 E.00495
G1 X121.772 Y130.79 E.00722
G1 X121.536 Y130.735 E.00722
G1 X121.294 Y130.721 E.00722
G1 X121.053 Y130.747 E.00722
G1 X120.82 Y130.814 E.00722
G1 X120.537 Y130.96 E.00949
G1 X120.348 Y131.112 E.00722
G1 X120.234 Y131.233 E.00495
G1 X120.094 Y131.431 E.00722
G1 X119.991 Y131.65 E.00722
G1 X119.913 Y131.959 E.00949
G1 X119.902 Y132.202 E.00722
G1 X119.931 Y132.442 E.00722
G1 X120 Y132.675 E.00722
G1 X120.07 Y132.825 E.00495
G1 X120.203 Y133.029 E.00722
G1 X120.333 Y133.172 E.00577
G1 X116.573 Y133.172 E.112
G1 X116.573 Y128.446 E.14076
G1 X114.211 Y128.446 E.07038
G1 X114.211 Y121.358 E.21114
G1 X111.848 Y121.358 E.07038
G1 X111.848 Y99.554 E.64946
G1 X112.749 Y99.554 E.02684
G1 X112.749 Y101.554 E.05957
G1 X116.573 Y101.554 E.11392
G1 X116.573 Y99.554 E.05957
G1 X117.474 Y99.554 E.02684
G1 X117.474 Y113.368 E.41148
G1 X117.055 Y113.787 F21000
M73 P12 R3
G1 F3000
G1 X119.418 Y113.787 E.07038
G1 X119.418 Y120.876 E.21114
G1 X121.781 Y120.876 E.07038
G1 X121.781 Y125.601 E.14076
G1 X124.144 Y125.601 E.07038
G1 X124.144 Y132.753 E.21302
G1 X123.103 Y132.753 E.03101
G1 X123.177 Y132.233 E.01563
G1 X123.165 Y131.92 E.00934
G1 X123.1 Y131.613 E.00934
G1 X123.031 Y131.424 E.00601
G1 X122.82 Y131.055 E.01266
G1 X122.613 Y130.819 E.00934
G1 X122.46 Y130.687 E.00601
G1 X122.197 Y130.517 E.00934
G1 X121.801 Y130.362 E.01266
G1 X121.603 Y130.321 E.00601
G1 X121.29 Y130.301 E.00934
G1 X120.978 Y130.335 E.00934
G1 X120.573 Y130.463 E.01266
G1 X120.299 Y130.615 E.00934
G1 X120.138 Y130.737 E.00601
G1 X119.847 Y131.046 E.01266
G1 X119.682 Y131.313 E.00934
G1 X119.6 Y131.498 E.00601
G1 X119.515 Y131.799 E.00934
G1 X119.483 Y132.223 E.01266
G1 X119.561 Y132.753 E.01594
G1 X116.992 Y132.753 E.07652
G1 X116.992 Y128.027 E.14076
G1 X114.63 Y128.027 E.07038
G1 X114.63 Y120.939 E.21114
G1 X112.267 Y120.939 E.07038
G1 X112.267 Y101.973 E.56492
G1 X117.055 Y101.973 E.14264
G1 X117.055 Y113.787 E.3519
M73 P13 R3
G1 X116.636 Y114.206 F21000
G1 F3000
G1 X118.999 Y114.206 E.07038
G1 X118.999 Y121.295 E.21114
G1 X121.362 Y121.295 E.07038
G1 X121.362 Y126.02 E.14076
G1 X123.725 Y126.02 E.07038
G1 X123.725 Y131.222 E.15494
G1 X123.429 Y131.287 E.00903
G1 X123.238 Y130.923 E.01223
G1 X123.004 Y130.619 E.01146
G1 X122.721 Y130.358 E.01146
G1 X122.601 Y130.271 E.0044
G1 X122.265 Y130.083 E.01146
G1 X121.903 Y129.955 E.01146
G1 X121.67 Y129.907 E.00707
G1 X121.286 Y129.882 E.01146
G1 X120.904 Y129.922 E.01146
G1 X120.533 Y130.026 E.01146
G1 X120.397 Y130.083 E.0044
G1 X120.061 Y130.27 E.01146
G1 X119.762 Y130.512 E.01146
G1 X119.507 Y130.8 E.01146
G1 X119.305 Y131.128 E.01146
G1 X119.162 Y131.485 E.01146
G1 X119.08 Y131.861 E.01146
G1 X119.065 Y132.334 E.0141
G1 X117.411 Y132.334 E.04925
G1 X117.411 Y127.608 E.14076
G1 X115.048 Y127.608 E.07038
G1 X115.048 Y120.52 E.21114
G1 X112.686 Y120.52 E.07038
G1 X112.686 Y102.392 E.53997
G1 X116.636 Y102.392 E.11768
G1 X116.636 Y114.206 E.3519
M73 P14 R3
G1 X116.218 Y114.625 F21000
G1 F3000
G1 X118.58 Y114.625 E.07038
G1 X118.58 Y121.713 E.21114
G1 X120.943 Y121.713 E.07038
G1 X120.943 Y126.439 E.14076
G1 X123.306 Y126.439 E.07038
G1 X123.306 Y130.31 E.11529
G1 X122.981 Y130.029 E.01278
G1 X122.599 Y129.781 E.01358
G1 X122.18 Y129.6 E.01358
G1 X122.005 Y129.548 E.00546
G1 X121.737 Y129.493 E.00814
G1 X121.282 Y129.463 E.01358
G1 X120.829 Y129.509 E.01358
G1 X120.39 Y129.632 E.01358
G1 X119.978 Y129.827 E.01358
G1 X119.605 Y130.089 E.01358
G1 X119.469 Y130.212 E.00546
G1 X119.168 Y130.554 E.01358
G1 X118.929 Y130.942 E.01358
G1 X118.819 Y131.192 E.00813
G1 X118.693 Y131.631 E.01358
G1 X118.647 Y131.915 E.00858
G1 X117.83 Y131.915 E.02434
G1 X117.83 Y127.189 E.14076
G1 X115.467 Y127.189 E.07038
G1 X115.467 Y120.101 E.21114
G1 X113.105 Y120.101 E.07038
G1 X113.105 Y102.811 E.51501
G1 X116.218 Y102.811 E.09272
G1 X116.218 Y114.625 E.3519
G1 X115.799 Y115.044 F21000
M73 P15 R3
G1 F3000
G1 X118.161 Y115.044 E.07038
G1 X118.161 Y122.132 E.21114
G1 X120.524 Y122.132 E.07038
G1 X120.524 Y126.858 E.14076
G1 X122.887 Y126.858 E.07038
G1 X122.887 Y129.455 E.07737
G1 X122.604 Y129.316 E.00941
G1 X122.316 Y129.204 E.00919
G1 X121.804 Y129.079 E.0157
G1 X121.278 Y129.043 E.01569
G1 X120.754 Y129.097 E.0157
G1 X120.541 Y129.145 E.00652
G1 X120.044 Y129.322 E.0157
G1 X119.585 Y129.58 E.01569
G1 X119.338 Y129.765 E.00919
G1 X119.176 Y129.912 E.00652
G1 X118.828 Y130.308 E.0157
G1 X118.533 Y130.794 E.01693
G1 X118.249 Y130.721 E.00872
G1 X118.249 Y126.77 E.11768
G1 X115.886 Y126.77 E.07038
G1 X115.886 Y119.682 E.21114
G1 X113.524 Y119.682 E.07038
G1 X113.524 Y103.23 E.49005
G1 X115.799 Y103.23 E.06776
G1 X115.799 Y115.044 E.3519
G1 X115.38 Y115.463 F21000
G1 F3000
G1 X117.742 Y115.463 E.07038
G1 X117.742 Y122.551 E.21114
G1 X120.105 Y122.551 E.07038
M73 P16 R3
G1 X120.105 Y127.277 E.14076
G1 X122.468 Y127.277 E.07038
G1 X122.468 Y128.812 E.04571
G1 X122.208 Y128.735 E.00807
G1 X121.871 Y128.665 E.01026
G1 X121.618 Y128.635 E.00758
G1 X121.274 Y128.624 E.01025
G1 X121.02 Y128.637 E.00758
G1 X120.679 Y128.684 E.01025
G1 X120.431 Y128.74 E.00758
G1 X120.103 Y128.844 E.01025
G1 X119.868 Y128.941 E.00758
G1 X119.562 Y129.099 E.01025
G1 X119.347 Y129.234 E.00758
G1 X119.072 Y129.442 E.01025
G1 X118.668 Y129.804 E.01615
G1 X118.668 Y126.351 E.10284
G1 X116.305 Y126.351 E.07038
G1 X116.305 Y119.263 E.21114
G1 X113.943 Y119.263 E.07038
G1 X113.943 Y103.649 E.46509
G1 X115.38 Y103.649 E.0428
G1 X115.38 Y115.463 E.3519
G1 X114.961 Y115.882 F21000
G1 F3000
G1 X117.323 Y115.882 E.07038
G1 X117.323 Y122.97 E.21114
G1 X119.686 Y122.97 E.07038
G1 X119.686 Y127.696 E.14076
G1 X122.049 Y127.696 E.07038
G1 X122.049 Y128.265 E.01693
M73 P17 R3
G1 X121.65 Y128.217 E.01197
G1 X121.27 Y128.205 E.01131
G1 X120.981 Y128.22 E.00864
G1 X120.605 Y128.272 E.01131
G1 X120.322 Y128.335 E.00864
G1 X119.96 Y128.45 E.01131
G1 X119.692 Y128.561 E.00864
G1 X119.087 Y128.873 E.02026
G1 X119.087 Y125.932 E.08758
G1 X116.724 Y125.932 E.07038
G1 X116.724 Y118.844 E.21114
G1 X114.362 Y118.844 E.07038
G1 X114.362 Y104.068 E.44013
G1 X114.961 Y104.068 E.01784
G1 X114.961 Y115.882 E.3519
G1 X117.143 Y123.389 F21000
G1 F3000
G1 X119.267 Y123.389 E.06326
G1 X119.267 Y125.513 E.06326
G1 X117.143 Y125.513 E.06326
G1 X117.143 Y123.389 E.06326
G1 X117.562 Y123.808 F21000
G1 F3000
G1 X118.848 Y123.808 E.0383
G1 X118.848 Y125.094 E.0383
G1 X117.562 Y125.094 E.0383
G1 X117.562 Y123.808 E.0383
G1 X117.981 Y124.227 F21000
G1 F3000
G1 X118.429 Y124.227 E.01334
G1 X118.429 Y124.675 E.01334
G1 X117.981 Y124.675 E.01334
G1 X117.981 Y124.227 E.01334
G1 X116.904 Y118.425 F21000
G1 F3000
G1 X114.781 Y118.425 E.06326
G1 X114.781 Y116.301 E.06326
M73 P18 R3
G1 X116.904 Y116.301 E.06326
G1 X116.904 Y118.425 E.06326
G1 X116.485 Y118.006 F21000
G1 F3000
G1 X115.2 Y118.006 E.0383
G1 X115.2 Y116.72 E.0383
G1 X116.485 Y116.72 E.0383
G1 X116.485 Y118.006 E.0383
G1 X116.066 Y117.587 F21000
G1 F3000
G1 X115.618 Y117.587 E.01334
G1 X115.618 Y117.139 E.01334
G1 X116.066 Y117.139 E.01334
G1 X116.066 Y117.587 E.01334
G1 E-.68 F3600
;WIPE_START
G1 F3000
G1 X116.066 Y117.139 E-.05376
G1 X115.618 Y117.139 E-.05376
G1 X115.618 Y117.243 E-.01248
;WIPE_END
G1 X118.451 Y124.33 Z.6 F21000
G1 X121.584 Y132.169 Z.6
G1 Z.2
G1 E.8 F2700
;TYPE:Outer wall
;WIDTH:0.534656
G1 F3000
G1 X121.486 Y132.356 E.00822
G1 X121.322 Y132.408 E.00669
G1 X121.17 Y132.351 E.00628
G1 X121.072 Y132.152 E.00862
G1 X121.16 Y131.961 E.00818
G1 X121.318 Y131.894 E.00665
G1 X121.481 Y131.944 E.00662
G1 X121.567 Y132.132 E.00803
; stop printing object 驾驶舱 - 控制杆2.STL id:0 copy 0
;LAYER_CHANGE
;Z:0.28
;HEIGHT:0.08
;BEFORE_LAYER_CHANGE
G92 E0
;0.28


G1 E-.68 F3600
;WIPE_START
G1 F3000
G1 X121.486 Y132.356 E-.02859
G1 X121.322 Y132.408 E-.02067
G1 X121.17 Y132.351 E-.01941
G1 X121.072 Y132.152 E-.02662
G1 X121.158 Y131.966 E-.0247
;WIPE_END
EXCLUDE_OBJECT_END NAME=驾驶舱_-_控制杆2.STL_id_0_copy_0
;AFTER_LAYER_CHANGE
;0.28
;_SET_FAN_SPEED_CHANGING_LAYER
SET_VELOCITY_LIMIT ACCEL=5000 ACCEL_TO_DECEL=2500
SET_VELOCITY_LIMIT SQUARE_CORNER_VELOCITY=9
M140 S70 ; set bed temperature
; printing object 驾驶舱 - 控制杆2.STL id:0 copy 0
EXCLUDE_OBJECT_START NAME=驾驶舱_-_控制杆2.STL_id_0_copy_0
G1 X121.521 Y132.181 Z.6 F21000
G1 Z.28
G1 E.8 F2700
SET_VELOCITY_LIMIT ACCEL=3000 ACCEL_TO_DECEL=1500 SQUARE_CORNER_VELOCITY=7
;TYPE:Inner wall
;WIDTH:0.404525
G1 F600
G1 X121.513 Y132.231 E.00062
G1 X121.394 Y132.351 E.00207
G1 X121.183 Y132.297 E.00266
G1 X121.137 Y132.168 E.00167
G1 X121.173 Y132.026 E.0018
G1 X121.337 Y131.946 E.00223
G1 X121.495 Y132.036 E.00223
G1 X121.521 Y132.181 E.0018
SET_VELOCITY_LIMIT ACCEL=5000 ACCEL_TO_DECEL=2500 SQUARE_CORNER_VELOCITY=9
G1 X121.926 Y132.094 F21000
SET_VELOCITY_LIMIT ACCEL=3000 ACCEL_TO_DECEL=1500 SQUARE_CORNER_VELOCITY=7
;TYPE:Outer wall
;WIDTH:0.399999
G1 F600
G1 X121.877 Y132.391 E.00364
G1 X121.752 Y132.549 E.00244
G1 X121.589 Y132.684 E.00256
G1 X121.319 Y132.75 E.00336
G1 X121.118 Y132.691 E.00253
G1 X120.931 Y132.589 E.00258
G1 X120.769 Y132.363 E.00336
G1 X120.74 Y132.055 E.00374
G1 X120.861 Y131.778 E.00366
G1 X121.105 Y131.595 E.00369
G1 X121.35 Y131.553 E.00301
G1 X121.592 Y131.611 E.00301
G1 X121.822 Y131.81 E.00368
G1 X121.912 Y132.056 E.00317
; stop printing object 驾驶舱 - 控制杆2.STL id:0 copy 0
;LAYER_CHANGE
;Z:0.36
;HEIGHT:0.08
;BEFORE_LAYER_CHANGE
G92 E0
;0.36


G1 E-.68 F3600
;WIPE_START
G1 F2179.612
G1 X121.877 Y132.391 E-.04044
G1 X121.752 Y132.549 E-.02414
G1 X121.589 Y132.684 E-.02547
G1 X121.346 Y132.743 E-.02996
;WIPE_END
EXCLUDE_OBJECT_END NAME=驾驶舱_-_控制杆2.STL_id_0_copy_0
;AFTER_LAYER_CHANGE
;0.36
;_SET_FAN_SPEED_CHANGING_LAYER
; printing object 驾驶舱 - 控制杆2.STL id:0 copy 0
SET_VELOCITY_LIMIT ACCEL=5000 ACCEL_TO_DECEL=2500 SQUARE_CORNER_VELOCITY=9
EXCLUDE_OBJECT_START NAME=驾驶舱_-_控制杆2.STL_id_0_copy_0
G1 X121.594 Y132.17 Z.68 F21000
G1 Z.36
G1 E.8 F2700
SET_VELOCITY_LIMIT ACCEL=3000 ACCEL_TO_DECEL=1500 SQUARE_CORNER_VELOCITY=7
;TYPE:Inner wall
;WIDTH:0.537881
G1 F600
M106 S0
G1 X121.523 Y132.331 E.0029
G1 X121.366 Y132.412 E.0029
G1 X121.194 Y132.376 E.0029
G1 X121.082 Y132.24 E.0029
G1 X121.08 Y132.064 E.0029
G1 X121.19 Y131.926 E.0029
G1 X121.361 Y131.891 E.00288
G1 X121.516 Y131.968 E.00285
M73 P19 R3
G1 X121.579 Y132.132 E.0029
SET_VELOCITY_LIMIT ACCEL=5000 ACCEL_TO_DECEL=2500 SQUARE_CORNER_VELOCITY=9
G1 X122.026 Y132.085 F21000
SET_VELOCITY_LIMIT ACCEL=3000 ACCEL_TO_DECEL=1500 SQUARE_CORNER_VELOCITY=7
;TYPE:Outer wall
;WIDTH:0.399999
G1 F600
G1 X122.051 Y132.204 E.00147
G1 X121.991 Y132.441 E.00296
G1 X121.857 Y132.645 E.00295
G1 X121.662 Y132.792 E.00295
G1 X121.429 Y132.866 E.00296
G1 X121.185 Y132.858 E.00295
G1 X120.957 Y132.769 E.00296
G1 X120.772 Y132.609 E.00296
G1 X120.651 Y132.397 E.00295
G1 X120.608 Y132.157 E.00295
G1 X120.647 Y131.916 E.00295
G1 X120.764 Y131.701 E.00296
G1 X120.946 Y131.538 E.00296
G1 X121.179 Y131.442 E.00305
G1 X121.414 Y131.443 E.00284
G1 X121.645 Y131.511 E.00291
G1 X121.84 Y131.652 E.00291
G1 X121.976 Y131.85 E.00291
M106 S0
G1 X122.017 Y132.046 E.00242
; stop printing object 驾驶舱 - 控制杆2.STL id:0 copy 0
M106 S127
;LAYER_CHANGE
;Z:0.44
;HEIGHT:0.08
;BEFORE_LAYER_CHANGE
G92 E0
;0.44


G1 E-.68 F3600
;WIPE_START
G1 F6867.501
G1 X122.051 Y132.204 E-.01944
G1 X121.991 Y132.441 E-.0293
G1 X121.857 Y132.645 E-.02931
G1 X121.662 Y132.792 E-.02931
G1 X121.561 Y132.824 E-.01264
;WIPE_END
EXCLUDE_OBJECT_END NAME=驾驶舱_-_控制杆2.STL_id_0_copy_0
;AFTER_LAYER_CHANGE
;0.44
;_SET_FAN_SPEED_CHANGING_LAYER
