; HEADER_BLOCK_START
; generated by OrcaSlicer 2.1.1 on 2025-01-10 at 23:43:40
; total layer number: 99
; filament_density: 1.27
; filament_diameter: 1.75
; max_z_height: 8.04
; HEADER_BLOCK_END

; THUMBNAIL_BLOCK_START

;
; THUMBNAIL_BLOCK_END







; external perimeters extrusion width = 0.40mm
; perimeters extrusion width = 0.45mm
; infill extrusion width = 0.45mm
; solid infill extrusion width = 0.45mm
; top infill extrusion width = 0.38mm
; first layer extrusion width = 0.42mm

; EXECUTABLE_BLOCK_START
EXCLUDE_OBJECT_DEFINE NAME=驾驶舱_-_底板.STL_id_0_copy_0 CENTER=117.5,115 POLYGON=[[93.5,102.5],[141.5,102.5],[141.5,127.5],[96.5,127.5],[93.5,124.3],[93.5,102.5]]
M73 P0 R27
;TYPE:Custom
;ELEGOO NEPTUNE 4 PRO
M220 S100 ;Set the feed speed to 100%
M221 S100 ;Set the flow rate to 100%
M104 S140
M190 S70
G90
G28 ;home
G1 Z10 F300
G1 X67.5 Y0 F6000
G1 Z0 F300
M109 S240
G92 E0 ;Reset Extruder
G1 X67.5 Y0 Z0.4 F300 ;Move to start position
G1 X167.5 E30 F400 ;Draw the first line
G1 Z0.6 F120.0 ;Move to side a little
M73 P1 R27
G1 X162.5 F3000
G92 E0 ;Reset Extruder
G90
G21
M83 ; use relative distances for extrusion
; filament start gcode
M106 S0
;LAYER_CHANGE
;Z:0.2
;HEIGHT:0.2
;BEFORE_LAYER_CHANGE
G92 E0
;0.2


G1 E-.8 F3600
;AFTER_LAYER_CHANGE
;0.2
;_SET_FAN_SPEED_CHANGING_LAYER
SET_VELOCITY_LIMIT ACCEL=1000 ACCEL_TO_DECEL=500
SET_VELOCITY_LIMIT SQUARE_CORNER_VELOCITY=7
; printing object 驾驶舱 - 底板.STL id:0 copy 0
EXCLUDE_OBJECT_START NAME=驾驶舱_-_底板.STL_id_0_copy_0
G1 X97.535 Y124.036 F21000
G1 Z.4
G1 Z.2
G1 E.8 F2700
;TYPE:Inner wall
;WIDTH:0.419999
G1 F3000
G1 X97.487 Y123.805 E.00704
G1 X97.294 Y123.517 E.01032
G1 X96.999 Y123.315 E.01066
G1 X96.621 Y123.236 E.01148
G1 X94.564 Y123.236 E.06128
G1 X94.564 Y103.564 E.58595
G1 X129 Y103.564 E1.02574
G1 X129.514 Y103.548 E.01532
G1 X129.455 Y103.893 E.01043
G1 X129.461 Y104.244 E.01046
G1 X129.627 Y104.861 E.01904
G1 X129.854 Y105.234 E.01301
G1 X130.066 Y105.475 E.00953
G1 X130.498 Y105.805 E.01622
G1 X130.996 Y105.997 E.01588
G1 X130.822 Y106.058 E.00548
G1 X130.338 Y106.293 E.01604
G1 X129.946 Y106.652 E.01584
G1 X129.741 Y106.939 E.0105
G1 X129.523 Y107.405 E.01532
G1 X129.444 Y107.928 E.01575
G1 X129.458 Y108.246 E.00949
G1 X129.584 Y108.769 E.01601
G1 X129.855 Y109.235 E.01608
G1 X130.066 Y109.475 E.00949
G1 X130.499 Y109.806 E.01625
G1 X130.996 Y109.996 E.01585
G1 X130.829 Y110.055 E.00528
G1 X130.338 Y110.293 E.01624
G1 X129.946 Y110.652 E.01585
G1 X129.742 Y110.936 E.0104
G1 X129.521 Y111.411 E.01561
G1 X129.444 Y111.928 E.01555
G1 X129.458 Y112.246 E.00949
G1 X129.584 Y112.768 E.016
G1 X129.855 Y113.235 E.01609
G1 X130.066 Y113.475 E.00949
G1 X130.499 Y113.806 E.01625
G1 X130.996 Y113.996 E.01585
G1 X130.829 Y114.055 E.00529
G1 X130.338 Y114.293 E.01624
G1 X129.946 Y114.652 E.01584
G1 X129.742 Y114.936 E.01041
G1 X129.515 Y115.436 E.01634
G1 X129.444 Y115.937 E.0151
G1 X129.462 Y116.268 E.00987
G1 X129.597 Y116.8 E.01635
G1 X129.855 Y117.235 E.01506
G1 X130.066 Y117.475 E.00949
G1 X130.48 Y117.795 E.01559
G1 X130.996 Y117.995 E.0165
G1 X131.31 Y118.048 E.00949
G1 X131.876 Y118.03 E.01687
G1 X132.361 Y117.868 E.01522
G1 X132.639 Y117.713 E.00949
G1 X133.064 Y117.348 E.01667
G1 X133.344 Y116.913 E.01542
G1 X133.463 Y116.617 E.00949
G1 X133.561 Y116.122 E.01502
G1 X133.508 Y115.552 E.01706
G1 X133.414 Y115.247 E.00949
G1 X133.181 Y114.802 E.01497
G1 X132.78 Y114.39 E.01713
G1 X132.516 Y114.211 E.0095
G1 X132.004 Y113.996 E.01654
G1 X132.361 Y113.868 E.0113
G1 X132.639 Y113.713 E.00949
G1 X133.025 Y113.391 E.01497
G1 X133.327 Y112.939 E.0162
G1 X133.453 Y112.657 E.00918
G1 X133.559 Y112.144 E.01562
G1 X133.508 Y111.552 E.0177
G1 X133.414 Y111.247 E.00949
G1 X133.181 Y110.802 E.01497
G1 X132.781 Y110.39 E.01712
G1 X132.517 Y110.211 E.00949
G1 X132.004 Y109.996 E.01655
G1 X132.501 Y109.806 E.01584
G1 X132.934 Y109.475 E.01625
G1 X133.153 Y109.222 E.00996
G1 X133.414 Y108.775 E.0154
G1 X133.552 Y108.196 E.01774
G1 X133.542 Y107.816 E.01132
G1 X133.434 Y107.289 E.01601
G1 X133.184 Y106.806 E.0162
G1 X132.781 Y106.39 E.01727
G1 X132.517 Y106.211 E.00949
G1 X132.004 Y105.996 E.01655
G1 X132.361 Y105.868 E.0113
G1 X132.642 Y105.71 E.0096
G1 X133.101 Y105.301 E.01831
G1 X133.401 Y104.803 E.0173
G1 X133.54 Y104.237 E.01738
G1 X133.499 Y103.559 E.02022
G1 X140.436 Y103.564 E.20663
G1 X140.436 Y126.436 E.68129
G1 X132 Y126.436 E.25129
G1 X131.483 Y126.452 E.01539
G1 X131.545 Y125.994 E.01378
G1 X131.513 Y125.589 E.0121
G1 X131.326 Y125.038 E.01731
G1 X131.021 Y124.617 E.0155
G1 X130.793 Y124.4 E.00937
G1 X130.357 Y124.122 E.01541
G1 X129.833 Y123.97 E.01625
G1 X129.508 Y123.943 E.0097
G1 X128.976 Y124.004 E.01594
G1 X128.481 Y124.213 E.01601
G1 X128.219 Y124.39 E.00942
G1 X127.856 Y124.752 E.01527
G1 X127.585 Y125.25 E.01688
G1 X127.492 Y125.564 E.00978
G1 X127.443 Y126.011 E.01338
G1 X127.519 Y126.452 E.01334
G1 X127 Y126.436 E.01547
G1 X108 Y126.436 E.56596
G1 X107.483 Y126.452 E.0154
G1 X107.545 Y125.994 E.01378
G1 X107.513 Y125.589 E.0121
G1 X107.405 Y125.225 E.01129
G1 X107.26 Y124.935 E.00967
G1 X106.906 Y124.489 E.01696
G1 X106.49 Y124.197 E.01515
G1 X106.2 Y124.065 E.00949
G1 X105.668 Y123.942 E.01625
G1 X105.119 Y123.98 E.0164
G1 X104.815 Y124.06 E.00935
G1 X104.292 Y124.327 E.0175
G1 X103.874 Y124.729 E.01727
G1 X103.585 Y125.25 E.01773
G1 X103.492 Y125.564 E.00978
G1 X103.448 Y125.94 E.01128
G1 X103.501 Y126.441 E.015
G1 X97.564 Y126.437 E.17685
G1 X97.564 Y124.179 E.06726
G1 X97.543 Y124.076 E.00313
G1 X97.187 Y124.157 F21000
G1 F3000
G1 X97.187 Y124.064 E.00275
G1 X97.057 Y123.817 E.00832
G1 X96.848 Y123.66 E.00778
G1 X96.621 Y123.613 E.00689
G1 X94.187 Y123.613 E.07251
G1 X94.187 Y103.187 E.60842
G1 X129.018 Y103.186 E1.0375
G1 X130.075 Y103.15 E.03148
G1 X129.892 Y103.581 E.01393
G1 X129.819 Y104.034 E.01367
G1 X129.906 Y104.533 E.01508
G1 X129.995 Y104.743 E.00682
G1 X130.302 Y105.181 E.01594
G1 X130.764 Y105.513 E.01694
;WIDTH:0.46831
G1 X130.946 Y105.59 E.00664
;WIDTH:0.516621
G1 X131.128 Y105.667 E.00739
;WIDTH:0.564932
G1 X131.31 Y105.744 E.00815
G1 X131.69 Y105.74 E.01564
;WIDTH:0.556541
G1 X131.742 Y105.715 E.00234
;WIDTH:0.521562
G1 X131.794 Y105.69 E.00218
;WIDTH:0.486583
G1 X131.846 Y105.666 E.00202
;WIDTH:0.451603
G1 X132.319 Y105.475 E.01647
;WIDTH:0.419999
G1 X132.754 Y105.127 E.01659
G1 X133.057 Y104.649 E.01685
G1 X133.171 Y104.161 E.01494
G1 X133.174 Y103.948 E.00633
G1 X133.11 Y103.587 E.01094
G1 X132.89 Y103.145 E.01469
G1 X133.499 Y103.182 E.01818
G1 X140.813 Y103.187 E.21786
G1 X140.813 Y126.813 E.70374
G1 X132.651 Y126.813 E.24312
G1 X130.927 Y126.849 E.05136
G1 X131.146 Y126.276 E.01829
G1 X131.152 Y125.696 E.01726
G1 X130.996 Y125.221 E.0149
G1 X130.678 Y124.794 E.01585
G1 X130.232 Y124.481 E.01623
G1 X129.738 Y124.335 E.01537
G1 X129.543 Y124.319 E.00582
G1 X128.972 Y124.404 E.0172
G1 X128.48 Y124.662 E.01654
G1 X128.092 Y125.08 E.01697
G1 X127.866 Y125.607 E.0171
G1 X127.819 Y126.043 E.01306
G1 X127.942 Y126.562 E.01587
G1 X128.08 Y126.839 E.00922
G1 X127 Y126.813 E.03218
G1 X108.651 Y126.813 E.54657
G1 X106.927 Y126.849 E.05136
G1 X107.146 Y126.276 E.01829
G1 X107.152 Y125.696 E.01726
G1 X107.001 Y125.23 E.01459
G1 X106.654 Y124.769 E.01719
G1 X106.237 Y124.484 E.01506
G1 X105.738 Y124.335 E.01553
G1 X105.543 Y124.319 E.00582
G1 X105.033 Y124.38 E.01528
G1 X104.563 Y124.597 E.01544
G1 X104.164 Y124.971 E.01629
G1 X103.923 Y125.419 E.01515
G1 X103.823 Y125.983 E.01708
G1 X103.84 Y126.201 E.0065
G1 X103.942 Y126.562 E.01116
G1 X104.08 Y126.839 E.00922
G1 X103.501 Y126.818 E.01727
G1 X97.187 Y126.813 E.18807
G1 X97.187 Y124.197 E.07794
G1 X96.81 Y124.179 F21000
;TYPE:Outer wall
G1 F3000
G1 X96.767 Y124.058 E.00381
G1 X96.621 Y123.99 E.00477
G1 X93.81 Y123.99 E.08374
G1 X93.81 Y102.81 E.63088
G1 X129.006 Y102.81 E1.04838
G1 X130.026 Y102.776 E.03039
G1 X130.528 Y102.713 E.01507
;WIDTH:0.458539
G1 X130.75 Y102.732 E.00732
;WIDTH:0.497079
G1 X130.972 Y102.751 E.008
;WIDTH:0.535618
G1 X131.195 Y102.771 E.00868
G1 X131.139 Y102.797 E.00239
;WIDTH:0.517156
G1 X130.835 Y103.003 E.01374
;WIDTH:0.468578
G1 X130.531 Y103.208 E.01234
;WIDTH:0.419999
G1 X130.288 Y103.578 E.0132
G1 X130.198 Y104.021 E.01345
G1 X130.275 Y104.456 E.01316
G1 X130.497 Y104.84 E.01321
G1 X130.834 Y105.126 E.01318
G1 X131.248 Y105.284 E.01317
G1 X131.69 Y105.294 E.01317
G1 X132.11 Y105.157 E.01317
G1 X132.465 Y104.883 E.01336
G1 X132.701 Y104.516 E.01299
G1 X132.801 Y104.085 E.01319
G1 X132.712 Y103.578 E.01532
G1 X132.463 Y103.204 E.0134
G1 X132.025 Y102.912 E.01567
;WIDTH:0.46412
G1 X131.835 Y102.835 E.00683
;WIDTH:0.50824
G1 X131.645 Y102.757 E.00754
G1 X132.066 Y102.735 E.01548
;WIDTH:0.46412
G1 X132.486 Y102.713 E.01401
;WIDTH:0.419999
G1 X132.988 Y102.777 E.01506
G1 X133.499 Y102.805 E.01526
G1 X141.19 Y102.81 E.22908
G1 X141.19 Y127.19 E.7262
G1 X132.651 Y127.19 E.25435
G1 X130.974 Y127.223 E.04994
G1 X130.472 Y127.285 E.01508
;WIDTH:0.462113
G1 X130.112 Y127.264 E.01193
;WIDTH:0.504226
G1 X129.753 Y127.243 E.01313
G1 X129.933 Y127.143 E.00751
;WIDTH:0.462113
G1 X130.113 Y127.042 E.00683
;WIDTH:0.419999
G1 X130.535 Y126.722 E.01578
G1 X130.752 Y126.316 E.01371
G1 X130.796 Y125.896 E.01259
G1 X130.682 Y125.441 E.01396
G1 X130.418 Y125.069 E.01359
G1 X130.067 Y124.821 E.01279
G1 X129.643 Y124.7 E.01316
G1 X129.189 Y124.731 E.01356
G1 X128.794 Y124.899 E.01279
G1 X128.468 Y125.197 E.01316
G1 X128.26 Y125.587 E.01318
G1 X128.198 Y126.026 E.01321
G1 X128.305 Y126.46 E.0133
G1 X128.465 Y126.721 E.00913
G1 X128.888 Y127.042 E.01581
;WIDTH:0.454574
G1 X129.008 Y127.106 E.00441
;WIDTH:0.489148
G1 X129.127 Y127.17 E.00478
;WIDTH:0.523722
G1 X129.247 Y127.234 E.00516
G1 X129.1 Y127.251 E.00562
;WIDTH:0.489148
G1 X128.953 Y127.268 E.00522
;WIDTH:0.454574
G1 X128.806 Y127.285 E.00482
;WIDTH:0.419999
G1 X127.716 Y127.213 E.03255
G1 X127 Y127.19 E.02132
G1 X108.651 Y127.19 E.54657
G1 X106.974 Y127.223 E.04994
G1 X106.472 Y127.285 E.01508
;WIDTH:0.462113
G1 X106.112 Y127.264 E.01193
;WIDTH:0.504226
G1 X105.753 Y127.243 E.01313
G1 X105.933 Y127.143 E.00751
;WIDTH:0.462113
G1 X106.113 Y127.042 E.00683
;WIDTH:0.419999
G1 X106.535 Y126.722 E.01578
G1 X106.752 Y126.316 E.01371
G1 X106.796 Y125.896 E.01259
G1 X106.682 Y125.441 E.01396
G1 X106.428 Y125.078 E.0132
G1 X106.068 Y124.821 E.01317
G1 X105.643 Y124.7 E.01317
G1 X105.189 Y124.731 E.01356
G1 X104.794 Y124.899 E.01279
G1 X104.468 Y125.197 E.01316
G1 X104.26 Y125.587 E.01318
G1 X104.198 Y126.026 E.01321
G1 X104.305 Y126.46 E.0133
G1 X104.465 Y126.721 E.00913
G1 X104.888 Y127.042 E.01581
;WIDTH:0.454575
G1 X105.008 Y127.106 E.00441
;WIDTH:0.489151
G1 X105.127 Y127.17 E.00478
;WIDTH:0.523726
G1 X105.247 Y127.234 E.00516
G1 X105.003 Y127.251 E.00931
;WIDTH:0.489151
G1 X104.758 Y127.268 E.00864
;WIDTH:0.454575
G1 X104.513 Y127.285 E.00797
;WIDTH:0.419999
G1 X104.012 Y127.222 E.01506
G1 X103.501 Y127.195 E.01525
G1 X96.81 Y127.19 E.19929
G1 X96.81 Y124.219 E.08851
M73 P2 R27
G1 E-.68 F3600
;WIPE_START
G1 F3000
G1 X96.767 Y124.058 E-.01995
G1 X96.621 Y123.99 E-.01923
G1 X95.948 Y123.99 E-.08082
;WIPE_END
G1 X103.572 Y123.638 Z.6 F21000
G1 X135.933 Y122.142 Z.6
G1 Z.2
G1 E.8 F2700
;TYPE:Inner wall
G1 F3000
G1 X135.759 Y121.92 E.00838
G1 X135.64 Y121.625 E.00949
G1 X135.587 Y121.223 E.01207
G1 X135.665 Y120.783 E.01331
G1 X135.895 Y120.368 E.01415
G1 X136.19 Y120.09 E.01208
G1 X136.594 Y119.895 E.01335
G1 X137.031 Y119.837 E.01311
G1 X137.432 Y119.907 E.01214
G1 X137.854 Y120.128 E.01417
G1 X138.128 Y120.413 E.01179
G1 X138.253 Y120.616 E.00711
G1 X138.407 Y121.15 E.01655
G1 X138.393 Y121.469 E.00949
G1 X138.241 Y121.92 E.0142
G1 X137.947 Y122.295 E.0142
G1 X137.601 Y122.529 E.01242
G1 X137.164 Y122.65 E.01352
G1 X136.765 Y122.635 E.01189
G1 X136.341 Y122.502 E.01322
G1 X136.053 Y122.295 E.01056
G1 X135.957 Y122.173 E.00463
G1 X136.28 Y121.972 F21000
G1 F3000
G1 X136.19 Y121.897 E.00351
G1 X136.009 Y121.545 E.01177
G1 X135.967 Y121.198 E.01041
G1 X136.044 Y120.857 E.01041
G1 X136.229 Y120.561 E.01041
G1 X136.503 Y120.343 E.01041
G1 X136.832 Y120.23 E.01038
G1 X137.183 Y120.232 E.01046
G1 X137.511 Y120.351 E.01038
G1 X137.807 Y120.611 E.01174
G1 X137.933 Y120.814 E.00711
G1 X138.033 Y121.198 E.01181
G1 X137.991 Y121.545 E.01041
G1 X137.836 Y121.858 E.01041
G1 X137.586 Y122.102 E.01038
G1 X137.375 Y122.209 E.00707
G1 X137.001 Y122.288 E.01137
G1 X136.513 Y122.166 E.01498
G1 X136.311 Y121.998 E.00783
G1 X136.516 Y121.688 F21000
;TYPE:Outer wall
G1 F3000
G1 X136.485 Y121.661 E.00123
G1 X136.378 Y121.466 E.00663
G1 X136.341 Y121.246 E.00663
G1 X136.38 Y121.027 E.00663
G1 X136.49 Y120.833 E.00663
G1 X136.658 Y120.687 E.00663
G1 X136.864 Y120.606 E.0066
G1 X137.088 Y120.597 E.00668
G1 X137.3 Y120.664 E.0066
G1 X137.486 Y120.81 E.00705
G1 X137.638 Y121.088 E.00945
G1 X137.656 Y121.31 E.00663
G1 X137.599 Y121.525 E.00663
G1 X137.473 Y121.709 E.00663
G1 X137.279 Y121.844 E.00705
G1 X136.954 Y121.905 E.00985
G1 X136.651 Y121.809 E.00945
G1 X136.546 Y121.715 E.00421
G1 E-.68 F3600
;WIPE_START
G1 F3000
G1 X136.485 Y121.661 E-.00976
G1 X136.378 Y121.466 E-.02672
G1 X136.341 Y121.246 E-.02672
G1 X136.38 Y121.027 E-.02672
G1 X136.49 Y120.833 E-.02672
G1 X136.511 Y120.815 E-.00336
;WIPE_END
G1 X130.964 Y126.057 Z.6 F21000
G1 X129.713 Y127.239 Z.6
G1 Z.2
G1 E.8 F2700
;WIDTH:0.523722
G1 F3000
G1 X129.247 Y127.234 E.0177
G1 E-.68 F3600
;WIPE_START
G1 F3000
G1 X129.713 Y127.239 E-.12
;WIPE_END
G1 X130.946 Y119.706 Z.6 F21000
G1 X131.828 Y114.318 Z.6
G1 Z.2
G1 E.8 F2700
;TYPE:Inner wall
;WIDTH:0.545773
G1 F3000
G1 X131.866 Y114.335 E.00164
;WIDTH:0.503849
G1 X132.03 Y114.407 E.00654
;WIDTH:0.461924
G1 X132.195 Y114.48 E.00595
;WIDTH:0.419999
G1 X132.519 Y114.662 E.01109
G1 X132.907 Y115.078 E.01695
G1 X133.134 Y115.6 E.01693
G1 X133.183 Y116.112 E.01535
G1 X133.054 Y116.656 E.01662
G1 X132.775 Y117.105 E.01577
G1 X132.368 Y117.445 E.0158
G1 X131.878 Y117.639 E.01569
G1 X131.69 Y117.671 E.00569
G1 X131.165 Y117.652 E.01563
G1 X130.669 Y117.469 E.01576
G1 X130.261 Y117.144 E.01554
G1 X129.977 Y116.715 E.01531
G1 X129.83 Y116.188 E.01628
G1 X129.819 Y115.984 E.0061
G1 X129.877 Y115.542 E.01329
G1 X130.093 Y115.078 E.01523
G1 X130.48 Y114.662 E.01693
G1 X130.984 Y114.399 E.01692
;WIDTH:0.468177
G1 X131.1 Y114.354 E.00418
;WIDTH:0.516355
G1 X131.216 Y114.309 E.00466
;WIDTH:0.564532
G1 X131.333 Y114.264 E.00513
G1 X131.701 Y114.263 E.0152
;WIDTH:0.545773
G1 X131.791 Y114.302 E.00391
G1 X131.639 Y114.699 F21000
;TYPE:Outer wall
;WIDTH:0.419999
G1 F3000
G1 X131.86 Y114.742 E.00671
G1 X132.258 Y114.934 E.01316
G1 X132.584 Y115.276 E.01406
G1 X132.76 Y115.648 E.01224
G1 X132.805 Y116.087 E.01317
G1 X132.702 Y116.517 E.01317
G1 X132.461 Y116.888 E.01317
G1 X132.11 Y117.157 E.01317
G1 X131.69 Y117.294 E.01317
G1 X131.248 Y117.284 E.01317
G1 X130.834 Y117.126 E.01317
G1 X130.497 Y116.84 E.01317
G1 X130.275 Y116.458 E.01316
G1 X130.193 Y116.03 E.01298
G1 X130.244 Y115.628 E.01208
G1 X130.468 Y115.197 E.01448
G1 X130.794 Y114.899 E.01317
G1 X131.201 Y114.726 E.01316
G1 X131.6 Y114.698 E.0119
G1 E-.68 F3600
;WIPE_START
G1 F3000
G1 X131.86 Y114.742 E-.03174
G1 X132.258 Y114.934 E-.05302
G1 X132.461 Y115.147 E-.03523
;WIPE_END
G1 X131.033 Y110.395 Z.6 F21000
G1 Z.2
G1 E.8 F2700
;TYPE:Inner wall
;WIDTH:0.516349
G1 F3000
G1 X131.072 Y110.378 E.0016
;WIDTH:0.564524
G1 X131.333 Y110.264 E.01169
G1 X131.701 Y110.263 E.0152
;WIDTH:0.545772
G1 X131.866 Y110.335 E.00713
;WIDTH:0.503848
G1 X132.03 Y110.407 E.00654
;WIDTH:0.461924
G1 X132.195 Y110.48 E.00594
;WIDTH:0.419999
G1 X132.52 Y110.662 E.0111
G1 X132.872 Y111.018 E.0149
G1 X133.103 Y111.475 E.01527
G1 X133.182 Y111.976 E.0151
G1 X133.094 Y112.537 E.01694
G1 X133.006 Y112.741 E.00661
G1 X132.698 Y113.181 E.01601
G1 X132.236 Y113.513 E.01693
;WIDTH:0.451597
G1 X131.846 Y113.666 E.01351
;WIDTH:0.486579
G1 X131.794 Y113.69 E.00202
;WIDTH:0.52156
G1 X131.742 Y113.715 E.00218
;WIDTH:0.556541
G1 X131.69 Y113.74 E.00234
;WIDTH:0.564532
G1 X131.31 Y113.744 E.01563
G1 X131.128 Y113.667 E.00814
;WIDTH:0.516355
G1 X130.946 Y113.59 E.00739
;WIDTH:0.468177
G1 X130.764 Y113.513 E.00664
;WIDTH:0.419999
