; HEADER_BLOCK_START
; generated by OrcaSlicer 2.1.1 on 2025-01-10 at 23:47:40
; total layer number: 42
; filament_density: 1.27
; filament_diameter: 1.75
; max_z_height: 3.48
; HEADER_BLOCK_END

; THUMBNAIL_BLOCK_START

;
; THUMBNAIL_BLOCK_END







; external perimeters extrusion width = 0.40mm
; perimeters extrusion width = 0.45mm
; infill extrusion width = 0.45mm
; solid infill extrusion width = 0.45mm
; top infill extrusion width = 0.38mm
; first layer extrusion width = 0.42mm

; EXECUTABLE_BLOCK_START
EXCLUDE_OBJECT_DEFINE NAME=驾驶舱_-_门框2.STL_id_0_copy_0 CENTER=117.5,115 POLYGON=[[96.5026,113.5],[137.003,113.5],[137.249,113.52],[137.49,113.581],[137.716,113.681],[137.924,113.816],[138.106,113.984],[138.258,114.18],[138.376,114.397],[138.457,114.632],[138.497,114.876],[138.497,115.124],[138.457,115.368],[138.376,115.603],[138.258,115.82],[138.106,116.016],[137.924,116.184],[137.716,116.319],[137.49,116.419],[137.249,116.48],[137.003,116.5],[96.5026,116.5],[96.5026,113.5]]
M73 P0 R6
;TYPE:Custom
;ELEGOO NEPTUNE 4 PRO
M220 S100 ;Set the feed speed to 100%
M221 S100 ;Set the flow rate to 100%
M104 S140
M190 S70
G90
G28 ;home
G1 Z10 F300
G1 X67.5 Y0 F6000
G1 Z0 F300
M109 S240
G92 E0 ;Reset Extruder
G1 X67.5 Y0 Z0.4 F300 ;Move to start position
M73 P1 R6
G1 X167.5 E30 F400 ;Draw the first line
G1 Z0.6 F120.0 ;Move to side a little
M73 P5 R6
G1 X162.5 F3000
G92 E0 ;Reset Extruder
G90
G21
M83 ; use relative distances for extrusion
; filament start gcode
M106 S0
;LAYER_CHANGE
;Z:0.2
;HEIGHT:0.2
;BEFORE_LAYER_CHANGE
G92 E0
;0.2


G1 E-.8 F3600
;AFTER_LAYER_CHANGE
;0.2
;_SET_FAN_SPEED_CHANGING_LAYER
SET_VELOCITY_LIMIT ACCEL=1000 ACCEL_TO_DECEL=500
SET_VELOCITY_LIMIT SQUARE_CORNER_VELOCITY=7
; printing object 驾驶舱 - 门框2.STL id:0 copy 0
EXCLUDE_OBJECT_START NAME=驾驶舱_-_门框2.STL_id_0_copy_0
G1 X97.567 Y114.564 F21000
G1 Z.4
G1 Z.2
G1 E.8 F2700
;TYPE:Inner wall
;WIDTH:0.419999
G1 F2634
G1 X136.884 Y114.564 E1.17112
G1 X137.14 Y114.601 E.00772
G1 X137.357 Y114.769 E.00817
G1 X137.416 Y114.959 E.00591
G1 X137.389 Y115.17 E.00633
G1 X137.203 Y115.372 E.00818
G1 X136.959 Y115.436 E.00754
G1 X97.567 Y115.436 E1.17335
G1 X97.567 Y114.604 E.02477
G1 X97.19 Y114.187 F21000
G1 F2634
G1 X136.884 Y114.187 E1.18235
G1 X137.132 Y114.217 E.00744
M73 P6 R6
G1 X137.381 Y114.302 E.00784
G1 X137.586 Y114.462 E.00776
G1 X137.729 Y114.679 E.00773
G1 X137.804 Y115.067 E.01179
G1 X137.739 Y115.323 E.00786
G1 X137.595 Y115.545 E.00789
G1 X137.385 Y115.708 E.0079
G1 X136.974 Y115.813 E.01264
G1 X97.19 Y115.813 E1.18504
G1 X97.19 Y114.227 E.04724
G1 X96.813 Y113.81 F21000
;TYPE:Outer wall
G1 F2634
G1 X136.884 Y113.81 E1.19358
G1 X137.388 Y113.877 E.01516
G1 X137.732 Y114.063 E.01163
G1 X137.996 Y114.351 E.01164
G1 X138.151 Y114.703 E.01145
G1 X138.185 Y115.098 E.01183
G1 X138.09 Y115.477 E.01163
G1 X137.876 Y115.804 E.01164
G1 X137.567 Y116.044 E.01165
G1 X137.382 Y116.108 E.00584
G1 X136.99 Y116.19 E.01193
G1 X96.813 Y116.19 E1.19674
G1 X96.813 Y113.85 E.0697
G1 E-.68 F3600
;WIPE_START
G1 F3000
G1 X97.813 Y113.849 E-.12
;WIPE_END
G1 X105.44 Y114.135 Z.6 F21000
M73 P7 R6
G1 X136.977 Y115.318 Z.6
G1 Z.2
G1 E.8 F2700
;TYPE:Bottom surface
;WIDTH:0.42138
G1 F2634
G1 X136.505 Y114.847 E.01993
G1 X135.97 Y114.847 E.016
M73 P7 R5
G1 X136.276 Y115.153 E.01294
G1 X135.741 Y115.153 E.016
G1 X135.435 Y114.847 E.01294
G1 X134.9 Y114.847 E.016
G1 X135.206 Y115.153 E.01294
G1 X134.67 Y115.153 E.016
G1 X134.364 Y114.847 E.01294
G1 X133.829 Y114.847 E.016
G1 X134.135 Y115.153 E.01294
G1 X133.6 Y115.153 E.016
G1 X133.294 Y114.847 E.01294
G1 X132.759 Y114.847 E.016
G1 X133.065 Y115.153 E.01294
G1 X132.53 Y115.153 E.016
G1 X132.223 Y114.847 E.01294
G1 X131.688 Y114.847 E.016
G1 X131.994 Y115.153 E.01294
G1 X131.459 Y115.153 E.016
G1 X131.153 Y114.847 E.01294
G1 X130.618 Y114.847 E.016
G1 X130.924 Y115.153 E.01294
G1 X130.389 Y115.153 E.016
G1 X130.083 Y114.847 E.01294
G1 X129.547 Y114.847 E.016
G1 X129.853 Y115.153 E.01294
G1 X129.318 Y115.153 E.016
G1 X129.012 Y114.847 E.01294
G1 X128.477 Y114.847 E.016
G1 X128.783 Y115.153 E.01294
G1 X128.248 Y115.153 E.016
G1 X127.942 Y114.847 E.01294
G1 X127.406 Y114.847 E.016
G1 X127.713 Y115.153 E.01294
G1 X127.177 Y115.153 E.016
G1 X126.871 Y114.847 E.01294
G1 X126.336 Y114.847 E.016
G1 X126.642 Y115.153 E.01294
G1 X126.107 Y115.153 E.016
G1 X125.801 Y114.847 E.01294
G1 X125.266 Y114.847 E.016
G1 X125.572 Y115.153 E.01294
G1 X125.036 Y115.153 E.016
G1 X124.73 Y114.847 E.01294
G1 X124.195 Y114.847 E.016
G1 X124.501 Y115.153 E.01294
G1 X123.966 Y115.153 E.016
G1 X123.66 Y114.847 E.01294
G1 X123.125 Y114.847 E.016
G1 X123.431 Y115.153 E.01294
G1 X122.896 Y115.153 E.016
G1 X122.589 Y114.847 E.01294
G1 X122.054 Y114.847 E.016
G1 X122.36 Y115.153 E.01294
G1 X121.825 Y115.153 E.016
G1 X121.519 Y114.847 E.01294
G1 X120.984 Y114.847 E.016
G1 X121.29 Y115.153 E.01294
G1 X120.755 Y115.153 E.016
G1 X120.449 Y114.847 E.01294
G1 X119.913 Y114.847 E.016
G1 X120.219 Y115.153 E.01294
G1 X119.684 Y115.153 E.016
G1 X119.378 Y114.847 E.01294
G1 X118.843 Y114.847 E.016
G1 X119.149 Y115.153 E.01294
G1 X118.614 Y115.153 E.016
G1 X118.308 Y114.847 E.01294
G1 X117.772 Y114.847 E.016
G1 X118.079 Y115.153 E.01294
G1 X117.543 Y115.153 E.016
G1 X117.237 Y114.847 E.01294
G1 X116.702 Y114.847 E.016
G1 X117.008 Y115.153 E.01294
G1 X116.473 Y115.153 E.016
G1 X116.167 Y114.847 E.01294
G1 X115.632 Y114.847 E.016
G1 X115.938 Y115.153 E.01294
G1 X115.402 Y115.153 E.016
G1 X115.096 Y114.847 E.01294
G1 X114.561 Y114.847 E.016
G1 X114.867 Y115.153 E.01294
G1 X114.332 Y115.153 E.016
G1 X114.026 Y114.847 E.01294
G1 X113.491 Y114.847 E.016
G1 X113.797 Y115.153 E.01294
G1 X113.262 Y115.153 E.016
G1 X112.955 Y114.847 E.01294
G1 X112.42 Y114.847 E.016
G1 X112.726 Y115.153 E.01294
G1 X112.191 Y115.153 E.016
G1 X111.885 Y114.847 E.01294
G1 X111.35 Y114.847 E.016
G1 X111.656 Y115.153 E.01294
G1 X111.121 Y115.153 E.016
G1 X110.815 Y114.847 E.01294
G1 X110.279 Y114.847 E.016
G1 X110.585 Y115.153 E.01294
G1 X110.05 Y115.153 E.016
G1 X109.744 Y114.847 E.01294
G1 X109.209 Y114.847 E.016
G1 X109.515 Y115.153 E.01294
G1 X108.98 Y115.153 E.016
G1 X108.674 Y114.847 E.01294
G1 X108.138 Y114.847 E.016
G1 X108.445 Y115.153 E.01294
G1 X107.909 Y115.153 E.016
G1 X107.603 Y114.847 E.01294
M73 P8 R5
G1 X107.068 Y114.847 E.016
G1 X107.374 Y115.153 E.01294
G1 X106.839 Y115.153 E.016
G1 X106.533 Y114.847 E.01294
G1 X105.998 Y114.847 E.016
G1 X106.304 Y115.153 E.01294
G1 X105.768 Y115.153 E.016
G1 X105.462 Y114.847 E.01294
G1 X104.927 Y114.847 E.016
G1 X105.233 Y115.153 E.01294
G1 X104.698 Y115.153 E.016
G1 X104.392 Y114.847 E.01294
G1 X103.857 Y114.847 E.016
G1 X104.163 Y115.153 E.01294
G1 X103.627 Y115.153 E.016
G1 X103.321 Y114.847 E.01294
G1 X102.786 Y114.847 E.016
G1 X103.092 Y115.153 E.01294
G1 X102.557 Y115.153 E.016
G1 X102.251 Y114.847 E.01294
G1 X101.716 Y114.847 E.016
G1 X102.022 Y115.153 E.01294
G1 X101.487 Y115.153 E.016
G1 X101.181 Y114.847 E.01294
G1 X100.645 Y114.847 E.016
G1 X100.951 Y115.153 E.01294
G1 X100.416 Y115.153 E.016
G1 X100.11 Y114.847 E.01294
G1 X99.575 Y114.847 E.016
G1 X99.881 Y115.153 E.01294
G1 X99.346 Y115.153 E.016
G1 X99.04 Y114.847 E.01294
G1 X98.504 Y114.847 E.016
G1 X98.81 Y115.153 E.01294
G1 X98.275 Y115.153 E.016
G1 X97.8 Y114.677 E.02011
; stop printing object 驾驶舱 - 门框2.STL id:0 copy 0
;LAYER_CHANGE
;Z:0.28
;HEIGHT:0.08
;BEFORE_LAYER_CHANGE
G92 E0
;0.28


G1 E-.68 F3600
;WIPE_START
G1 F4800
G1 X98.275 Y115.153 E-.08074
G1 X98.602 Y115.153 E-.03926
;WIPE_END
EXCLUDE_OBJECT_END NAME=驾驶舱_-_门框2.STL_id_0_copy_0
;AFTER_LAYER_CHANGE
;0.28
;_SET_FAN_SPEED_CHANGING_LAYER
SET_VELOCITY_LIMIT ACCEL=5000 ACCEL_TO_DECEL=2500
SET_VELOCITY_LIMIT SQUARE_CORNER_VELOCITY=9
M140 S70 ; set bed temperature
; printing object 驾驶舱 - 门框2.STL id:0 copy 0
EXCLUDE_OBJECT_START NAME=驾驶舱_-_门框2.STL_id_0_copy_0
G1 X97.543 Y114.541 Z.6 F21000
G1 Z.28
G1 E.8 F2700
SET_VELOCITY_LIMIT ACCEL=3000 ACCEL_TO_DECEL=1500 SQUARE_CORNER_VELOCITY=7
;TYPE:Inner wall
;WIDTH:0.449999
G1 F2226
G1 X136.879 Y114.541 E.53796
G1 X137.147 Y114.579 E.00371
G1 X137.376 Y114.758 E.00397
G1 X137.436 Y114.947 E.00271
G1 X137.41 Y115.179 E.00319
G1 X137.214 Y115.391 E.00395
G1 X136.96 Y115.459 E.00361
G1 X97.543 Y115.459 E.53907
G1 X97.543 Y114.581 E.01202
SET_VELOCITY_LIMIT ACCEL=5000 ACCEL_TO_DECEL=2500 SQUARE_CORNER_VELOCITY=9
G1 X97.11 Y114.108 F21000
SET_VELOCITY_LIMIT ACCEL=3000 ACCEL_TO_DECEL=1500 SQUARE_CORNER_VELOCITY=7
G1 F2226
G1 X136.879 Y114.108 E.54388
G1 X137.143 Y114.14 E.00365
M73 P9 R5
G1 X137.417 Y114.233 E.00395
G1 X137.643 Y114.409 E.00392
G1 X137.799 Y114.644 E.00386
G1 X137.883 Y115.075 E.00601
G1 X137.812 Y115.355 E.00394
G1 X137.653 Y115.599 E.00398
G1 X137.423 Y115.777 E.00398
G1 X136.977 Y115.892 E.0063
G1 X97.11 Y115.892 E.54523
G1 X97.11 Y114.148 E.02386
SET_VELOCITY_LIMIT ACCEL=5000 ACCEL_TO_DECEL=2500 SQUARE_CORNER_VELOCITY=9
G1 X96.703 Y113.7 F21000
SET_VELOCITY_LIMIT ACCEL=3000 ACCEL_TO_DECEL=1500 SQUARE_CORNER_VELOCITY=7
;TYPE:Outer wall
;WIDTH:0.399999
G1 F2226
G1 X136.879 Y113.7 E.48598
G1 X137.424 Y113.773 E.00665
G1 X137.799 Y113.976 E.00517
G1 X138.089 Y114.291 E.00517
G1 X138.255 Y114.667 E.00497
G1 X138.295 Y115.108 E.00536
G1 X138.191 Y115.521 E.00516
G1 X137.957 Y115.879 E.00517
G1 X137.62 Y116.141 E.00517
G1 X137.361 Y116.23 E.00331
G1 X136.994 Y116.3 E.00452
G1 X96.703 Y116.3 E.48738
G1 X96.703 Y113.74 E.03097
SET_VELOCITY_LIMIT ACCEL=5000 ACCEL_TO_DECEL=2500 SQUARE_CORNER_VELOCITY=9
M73 P10 R5
G1 E-.68 F3600
;WIPE_START
G1 F7200
G1 X97.703 Y113.739 E-.12
;WIPE_END
G1 X98.003 Y115 Z.68 F21000
G1 Z.28
G1 E.8 F2700
;TYPE:Internal solid infill
;WIDTH:0.503014
G1 F2226
G1 X136.809 Y115 E.59573
; stop printing object 驾驶舱 - 门框2.STL id:0 copy 0
;LAYER_CHANGE
;Z:0.36
;HEIGHT:0.08
;BEFORE_LAYER_CHANGE
G92 E0
;0.36


G1 E-.68 F3600
;WIPE_START
G1 F12000
G1 X135.809 Y115 E-.12
;WIPE_END
EXCLUDE_OBJECT_END NAME=驾驶舱_-_门框2.STL_id_0_copy_0
;AFTER_LAYER_CHANGE
;0.36
;_SET_FAN_SPEED_CHANGING_LAYER
; printing object 驾驶舱 - 门框2.STL id:0 copy 0
EXCLUDE_OBJECT_START NAME=驾驶舱_-_门框2.STL_id_0_copy_0
G1 X128.177 Y114.908 Z.68 F21000
G1 X97.543 Y114.541 Z.68
G1 Z.36
G1 E.8 F2700
SET_VELOCITY_LIMIT ACCEL=3000 ACCEL_TO_DECEL=1500 SQUARE_CORNER_VELOCITY=7
;TYPE:Inner wall
;WIDTH:0.449999
G1 F2252
G1 X136.879 Y114.541 E.53796
G1 X137.147 Y114.579 E.00371
G1 X137.375 Y114.757 E.00395
G1 X137.44 Y114.964 E.00297
G1 X137.41 Y115.179 E.00297
G1 X137.214 Y115.391 E.00395
G1 X136.96 Y115.459 E.00361
G1 X97.543 Y115.459 E.53907
G1 X97.543 Y114.581 E.01202
SET_VELOCITY_LIMIT ACCEL=5000 ACCEL_TO_DECEL=2500 SQUARE_CORNER_VELOCITY=9
M73 P11 R5
G1 X97.11 Y114.108 F21000
SET_VELOCITY_LIMIT ACCEL=3000 ACCEL_TO_DECEL=1500 SQUARE_CORNER_VELOCITY=7
G1 F2252
G1 X136.879 Y114.108 E.54388
G1 X137.146 Y114.14 E.00368
G1 X137.418 Y114.233 E.00393
G1 X137.644 Y114.41 E.00392
G1 X137.801 Y114.65 E.00393
G1 X137.883 Y115.073 E.0059
G1 X137.812 Y115.355 E.00398
G1 X137.653 Y115.599 E.00398
G1 X137.423 Y115.777 E.00398
G1 X136.977 Y115.892 E.0063
G1 X97.11 Y115.892 E.54523
G1 X97.11 Y114.148 E.02386
SET_VELOCITY_LIMIT ACCEL=5000 ACCEL_TO_DECEL=2500 SQUARE_CORNER_VELOCITY=9
G1 X96.703 Y113.7 F21000
SET_VELOCITY_LIMIT ACCEL=3000 ACCEL_TO_DECEL=1500 SQUARE_CORNER_VELOCITY=7
;TYPE:Outer wall
;WIDTH:0.399999
G1 F2252
G1 X136.879 Y113.7 E.48598
G1 X137.424 Y113.773 E.00665
G1 X137.799 Y113.976 E.00517
G1 X138.089 Y114.29 E.00517
M73 P12 R5
G1 X138.26 Y114.682 E.00517
G1 X138.295 Y115.107 E.00517
G1 X138.191 Y115.521 E.00517
G1 X137.957 Y115.879 E.00517
G1 X137.62 Y116.141 E.00517
G1 X137.361 Y116.23 E.00331
G1 X136.994 Y116.3 E.00452
G1 X96.703 Y116.3 E.48738
G1 X96.703 Y113.74 E.03097
SET_VELOCITY_LIMIT ACCEL=5000 ACCEL_TO_DECEL=2500 SQUARE_CORNER_VELOCITY=9
G1 E-.68 F3600
;WIPE_START
G1 F7200
G1 X97.703 Y113.739 E-.12
;WIPE_END
G1 X98.003 Y115 Z.76 F21000
G1 Z.36
G1 E.8 F2700
;TYPE:Internal solid infill
;WIDTH:0.503014
G1 F2252
G1 X136.809 Y115 E.59573
; stop printing object 驾驶舱 - 门框2.STL id:0 copy 0
M106 S125
;LAYER_CHANGE
;Z:0.44
;HEIGHT:0.08
;BEFORE_LAYER_CHANGE
G92 E0
;0.44


G1 E-.68 F3600
;WIPE_START
G1 F12000
G1 X135.809 Y115 E-.12
;WIPE_END
EXCLUDE_OBJECT_END NAME=驾驶舱_-_门框2.STL_id_0_copy_0
;AFTER_LAYER_CHANGE
;0.44
;_SET_FAN_SPEED_CHANGING_LAYER
; printing object 驾驶舱 - 门框2.STL id:0 copy 0
EXCLUDE_OBJECT_START NAME=驾驶舱_-_门框2.STL_id_0_copy_0
G1 X128.177 Y114.908 Z.76 F21000
G1 X97.543 Y114.541 Z.76
G1 Z.44
G1 E.8 F2700
SET_VELOCITY_LIMIT ACCEL=3000 ACCEL_TO_DECEL=1500 SQUARE_CORNER_VELOCITY=7
;TYPE:Inner wall
;WIDTH:0.449999
G1 F2252
G1 X136.879 Y114.541 E.53796
G1 X137.147 Y114.579 E.00371
G1 X137.377 Y114.759 E.00399
M73 P13 R5
G1 X137.434 Y114.935 E.00254
G1 X137.41 Y115.179 E.00335
G1 X137.214 Y115.391 E.00395
G1 X136.96 Y115.459 E.00361
G1 X97.543 Y115.459 E.53907
G1 X97.543 Y114.581 E.01202
SET_VELOCITY_LIMIT ACCEL=5000 ACCEL_TO_DECEL=2500 SQUARE_CORNER_VELOCITY=9
G1 X97.11 Y114.108 F21000
SET_VELOCITY_LIMIT ACCEL=3000 ACCEL_TO_DECEL=1500 SQUARE_CORNER_VELOCITY=7
G1 F2252
G1 X136.879 Y114.108 E.54388
G1 X137.142 Y114.139 E.00362
G1 X137.417 Y114.233 E.00397
G1 X137.643 Y114.408 E.00391
G1 X137.798 Y114.64 E.00382
G1 X137.882 Y115.077 E.00608
G1 X137.812 Y115.355 E.00392
G1 X137.653 Y115.599 E.00398
G1 X137.423 Y115.777 E.00398
G1 X136.977 Y115.892 E.0063
G1 X97.11 Y115.892 E.54523
G1 X97.11 Y114.148 E.02386
SET_VELOCITY_LIMIT ACCEL=5000 ACCEL_TO_DECEL=2500 SQUARE_CORNER_VELOCITY=9
G1 X96.703 Y113.7 F21000
SET_VELOCITY_LIMIT ACCEL=3000 ACCEL_TO_DECEL=1500 SQUARE_CORNER_VELOCITY=7
;TYPE:Outer wall
;WIDTH:0.399999
G1 F2252
G1 X136.879 Y113.7 E.48598
G1 X137.424 Y113.773 E.00665
M73 P14 R5
G1 X137.799 Y113.976 E.00517
G1 X138.089 Y114.291 E.00517
G1 X138.252 Y114.657 E.00484
G1 X138.295 Y115.108 E.00549
G1 X138.191 Y115.521 E.00515
G1 X137.957 Y115.879 E.00517
G1 X137.62 Y116.141 E.00517
G1 X137.361 Y116.23 E.00331
G1 X136.994 Y116.3 E.00452
G1 X96.703 Y116.3 E.48738
G1 X96.703 Y113.74 E.03097
SET_VELOCITY_LIMIT ACCEL=5000 ACCEL_TO_DECEL=2500 SQUARE_CORNER_VELOCITY=9
G1 E-.68 F3600
;WIPE_START
G1 F7200
G1 X97.703 Y113.739 E-.12
;WIPE_END
G1 X98.003 Y115 Z.84 F21000
G1 Z.44
G1 E.8 F2700
;TYPE:Internal solid infill
;WIDTH:0.503014
G1 F2252
G1 X136.809 Y115 E.59573
; stop printing object 驾驶舱 - 门框2.STL id:0 copy 0
;LAYER_CHANGE
;Z:0.52
;HEIGHT:0.08
;BEFORE_LAYER_CHANGE
G92 E0
;0.52


G1 E-.68 F3600
;WIPE_START
G1 F12000
G1 X135.809 Y115 E-.12
;WIPE_END
EXCLUDE_OBJECT_END NAME=驾驶舱_-_门框2.STL_id_0_copy_0
;AFTER_LAYER_CHANGE
;0.52
;_SET_FAN_SPEED_CHANGING_LAYER
; printing object 驾驶舱 - 门框2.STL id:0 copy 0
EXCLUDE_OBJECT_START NAME=驾驶舱_-_门框2.STL_id_0_copy_0
G1 X128.177 Y114.908 Z.84 F21000
G1 X97.543 Y114.541 Z.84
G1 Z.52
G1 E.8 F2700
SET_VELOCITY_LIMIT ACCEL=3000 ACCEL_TO_DECEL=1500 SQUARE_CORNER_VELOCITY=7
;TYPE:Inner wall
;WIDTH:0.449999
G1 F2252
G1 X136.879 Y114.541 E.53796
G1 X137.147 Y114.579 E.00371
M73 P15 R5
G1 X137.377 Y114.759 E.00399
G1 X137.433 Y114.93 E.00245
G1 X137.41 Y115.179 E.00342
G1 X137.214 Y115.391 E.00395
G1 X136.96 Y115.459 E.00361
G1 X97.543 Y115.459 E.53907
G1 X97.543 Y114.581 E.01202
SET_VELOCITY_LIMIT ACCEL=5000 ACCEL_TO_DECEL=2500 SQUARE_CORNER_VELOCITY=9
G1 X97.11 Y114.108 F21000
SET_VELOCITY_LIMIT ACCEL=3000 ACCEL_TO_DECEL=1500 SQUARE_CORNER_VELOCITY=7
G1 F2252
G1 X136.879 Y114.108 E.54388
G1 X137.141 Y114.139 E.00361
G1 X137.417 Y114.233 E.00398
G1 X137.642 Y114.408 E.00391
G1 X137.797 Y114.638 E.0038
G1 X137.882 Y115.078 E.00612
G1 X137.812 Y115.355 E.00391
G1 X137.653 Y115.599 E.00398
G1 X137.423 Y115.777 E.00398
G1 X136.977 Y115.892 E.0063
G1 X97.11 Y115.892 E.54523
G1 X97.11 Y114.148 E.02386
SET_VELOCITY_LIMIT ACCEL=5000 ACCEL_TO_DECEL=2500 SQUARE_CORNER_VELOCITY=9
M73 P16 R5
G1 X96.703 Y113.7 F21000
SET_VELOCITY_LIMIT ACCEL=3000 ACCEL_TO_DECEL=1500 SQUARE_CORNER_VELOCITY=7
;TYPE:Outer wall
;WIDTH:0.399999
G1 F2252
G1 X136.879 Y113.7 E.48598
G1 X137.424 Y113.773 E.00665
G1 X137.799 Y113.976 E.00516
G1 X138.089 Y114.291 E.00517
G1 X138.25 Y114.652 E.00478
G1 X138.295 Y115.109 E.00556
G1 X138.191 Y115.521 E.00515
G1 X137.957 Y115.879 E.00517
G1 X137.62 Y116.141 E.00517
