; HEADER_BLOCK_START
; generated by OrcaSlicer 2.1.1 on 2025-01-10 at 23:48:38
; total layer number: 615
; filament_density: 1.27
; filament_diameter: 1.75
; max_z_height: 48.52
; HEADER_BLOCK_END

; THUMBNAIL_BLOCK_START

;
; THUMBNAIL_BLOCK_END







; external perimeters extrusion width = 0.40mm
; perimeters extrusion width = 0.45mm
; infill extrusion width = 0.45mm
; solid infill extrusion width = 0.45mm
; top infill extrusion width = 0.38mm
; support material extrusion width = 0.38mm
; first layer extrusion width = 0.42mm

; EXECUTABLE_BLOCK_START
EXCLUDE_OBJECT_DEFINE NAME=驾驶舱_-_座椅.STL_id_0_copy_0 CENTER=117.5,117.128 POLYGON=[[107.5,109.128],[107.512,108.971],[107.549,108.819],[107.609,108.674],[107.691,108.54],[107.793,108.421],[107.912,108.319],[108.046,108.237],[108.191,108.177],[108.344,108.14],[108.5,108.128],[126.5,108.128],[126.656,108.14],[126.809,108.177],[126.954,108.237],[127.088,108.319],[127.207,108.421],[127.309,108.54],[127.391,108.674],[127.451,108.819],[127.488,108.971],[127.5,109.128],[127.5,125.128],[127.488,125.284],[127.451,125.437],[127.391,125.582],[127.309,125.715],[127.207,125.835],[127.088,125.937],[126.954,126.019],[126.809,126.079],[126.656,126.115],[126.5,126.128],[108.5,126.128],[108.344,126.115],[108.191,126.079],[108.046,126.019],[107.912,125.937],[107.793,125.835],[107.691,125.715],[107.609,125.582],[107.549,125.437],[107.512,125.284],[107.5,125.128],[107.5,109.128]]
M73 P0 R87
;TYPE:Custom
;ELEGOO NEPTUNE 4 PRO
M220 S100 ;Set the feed speed to 100%
M221 S100 ;Set the flow rate to 100%
M104 S140
M190 S70
G90
G28 ;home
G1 Z10 F300
G1 X67.5 Y0 F6000
G1 Z0 F300
M109 S240
G92 E0 ;Reset Extruder
G1 X67.5 Y0 Z0.4 F300 ;Move to start position
G1 X167.5 E30 F400 ;Draw the first line
G1 Z0.6 F120.0 ;Move to side a little
M73 P0 R86
G1 X162.5 F3000
G92 E0 ;Reset Extruder
G90
G21
M83 ; use relative distances for extrusion
; filament start gcode
M106 S0
;LAYER_CHANGE
;Z:0.2
;HEIGHT:0.2
;BEFORE_LAYER_CHANGE
G92 E0
;0.2


G1 E-.8 F3600
;AFTER_LAYER_CHANGE
;0.2
;_SET_FAN_SPEED_CHANGING_LAYER
SET_VELOCITY_LIMIT ACCEL=1000 ACCEL_TO_DECEL=500
SET_VELOCITY_LIMIT SQUARE_CORNER_VELOCITY=7
; printing object 驾驶舱 - 座椅.STL id:0 copy 0
EXCLUDE_OBJECT_START NAME=驾驶舱_-_座椅.STL_id_0_copy_0
G1 X131.285 Y128.55 F21000
G1 Z.4
G1 Z.2
G1 E.8 F2700
;TYPE:Support
;WIDTH:0.42
G1 F3000
G1 X103.715 Y128.55 E.82124
G1 X103.715 Y105.705 E.68048
G1 X131.285 Y105.705 E.82124
G1 X131.285 Y128.494 E.6788
G1 E-.68 F3600
;WIPE_START
G1 F3000
G1 X131.285 Y127.494 E-.12
;WIPE_END
G1 X125.725 Y122.265 Z.6 F21000
G1 X117.129 Y114.183 Z.6
G1 Z.2
G1 E.8 F2700
G1 F3000
G1 X116.353 Y114.318 E.02345
G1 X115.641 Y114.573 E.02253
G1 X115.022 Y114.919 E.02112
G1 X114.431 Y115.391 E.02253
G1 X113.928 Y115.956 E.02253
G1 X113.528 Y116.598 E.02253
G1 X113.242 Y117.299 E.02253
G1 X113.073 Y118.085 E.02394
G1 X113.045 Y118.841 E.02253
G1 X113.145 Y119.591 E.02253
G1 X113.37 Y120.313 E.02253
G1 X113.715 Y120.986 E.02253
G1 X114.136 Y121.556 E.02112
G1 X114.68 Y122.083 E.02253
G1 X115.346 Y122.533 E.02394
G1 X116.037 Y122.841 E.02253
G1 X116.77 Y123.027 E.02253
G1 X117.524 Y123.088 E.02253
G1 X118.277 Y123.019 E.02253
G1 X119.008 Y122.825 E.02253
G1 X119.654 Y122.533 E.02112
G1 X120.283 Y122.113 E.02253
G1 X120.832 Y121.592 E.02253
G1 X121.31 Y120.946 E.02394
G1 X121.647 Y120.268 E.02253
G1 X121.865 Y119.544 E.02253
G1 X121.957 Y118.793 E.02253
G1 X121.927 Y118.085 E.02112
G1 X121.771 Y117.344 E.02253
G1 X121.493 Y116.641 E.02253
G1 X121.1 Y115.995 E.02253
G1 X120.603 Y115.424 E.02253
G1 X120.017 Y114.946 E.02253
G1 X119.315 Y114.554 E.02394
G1 X118.601 Y114.306 E.02253
G1 X117.872 Y114.183 E.022
G1 X117.522 Y114.168 E.01045
G1 X117.185 Y114.181 E.01003
G1 X104.054 Y106.044 F21000
G1 F3000
G1 X130.946 Y106.044 E.80103
G1 X130.946 Y128.211 E.66027
G1 X104.054 Y128.211 E.80103
G1 X104.054 Y106.044 E.66027
G1 X104.473 Y106.463 F21000
G1 F3000
G1 X130.527 Y106.463 E.77607
G1 X130.527 Y127.792 E.63531
G1 X104.473 Y127.792 E.77607
G1 X104.473 Y106.463 E.63531
G1 X104.892 Y106.882 F21000
G1 F3000
G1 X130.108 Y106.882 E.75111
G1 X130.108 Y127.373 E.61035
G1 X104.892 Y127.373 E.75111
G1 X104.892 Y106.882 E.61035
G1 X105.311 Y107.301 F21000
G1 F3000
G1 X129.689 Y107.301 E.72615
G1 X129.689 Y126.954 E.58539
G1 X105.311 Y126.954 E.72615
G1 X105.311 Y107.301 E.58539
G1 X105.73 Y107.72 F21000
G1 F3000
G1 X129.27 Y107.72 E.70119
G1 X129.27 Y126.535 E.56043
G1 X105.73 Y126.535 E.70119
G1 X105.73 Y107.72 E.56043
G1 X106.149 Y108.139 F21000
G1 F3000
G1 X128.851 Y108.139 E.67623
G1 X128.851 Y126.116 E.53547
G1 X106.149 Y126.116 E.67623
G1 X106.149 Y108.139 E.53547
G1 X106.568 Y108.558 F21000
G1 F3000
G1 X128.432 Y108.558 E.65127
G1 X128.432 Y125.697 E.51051
G1 X120.304 Y125.697 E.24211
G1 X120.24 Y125.399 E.00907
G1 X120.94 Y125.083 E.02289
G1 X121.193 Y124.941 E.00864
G1 X121.981 Y124.409 E.02834
G1 X122.207 Y124.227 E.00864
G1 X122.894 Y123.568 E.02834
G1 X123.086 Y123.35 E.00864
G1 X123.651 Y122.585 E.02834
G1 X123.803 Y122.339 E.00864
G1 X124.232 Y121.489 E.02834
G1 X124.34 Y121.22 E.00864
G1 X124.619 Y120.31 E.02834
G1 X124.68 Y120.027 E.00864
G1 X124.8 Y119.083 E.02834
G1 X124.813 Y118.793 E.00864
G1 X124.772 Y117.843 E.02834
G1 X124.736 Y117.555 E.00864
G1 X124.535 Y116.625 E.02834
G1 X124.45 Y116.347 E.00864
G1 X124.095 Y115.465 E.02834
G1 X123.965 Y115.206 E.00864
G1 X123.466 Y114.395 E.02834
G1 X123.294 Y114.162 E.00864
G1 X122.665 Y113.448 E.02834
G1 X122.456 Y113.247 E.00864
G1 X121.715 Y112.65 E.02834
G1 X121.475 Y112.487 E.00864
G1 X120.644 Y112.023 E.02834
G1 X120.38 Y111.904 E.00864
G1 X119.483 Y111.587 E.02834
G1 X119.202 Y111.514 E.00864
G1 X118.3 Y111.359 E.02726
G1 X117.443 Y111.315 E.02558
G1 X116.702 Y111.359 E.02212
G1 X115.798 Y111.514 E.02732
G1 X115.517 Y111.587 E.00864
G1 X114.62 Y111.904 E.02834
G1 X114.356 Y112.023 E.00864
G1 X113.525 Y112.487 E.02834
G1 X113.285 Y112.65 E.00864
G1 X112.544 Y113.247 E.02834
G1 X112.335 Y113.448 E.00864
G1 X111.706 Y114.162 E.02834
G1 X111.534 Y114.395 E.00864
G1 X111.035 Y115.206 E.02834
G1 X110.905 Y115.465 E.00864
G1 X110.55 Y116.348 E.02834
G1 X110.465 Y116.625 E.00864
G1 X110.264 Y117.555 E.02834
G1 X110.228 Y117.843 E.00864
G1 X110.187 Y118.793 E.02834
G1 X110.2 Y119.083 E.00864
G1 X110.32 Y120.027 E.02834
G1 X110.381 Y120.31 E.00864
G1 X110.66 Y121.22 E.02835
G1 X110.768 Y121.489 E.00864
G1 X111.197 Y122.338 E.02834
G1 X111.349 Y122.585 E.00864
G1 X111.914 Y123.35 E.02834
G1 X112.106 Y123.568 E.00864
G1 X112.793 Y124.226 E.02834
G1 X113.019 Y124.409 E.00864
G1 X113.807 Y124.941 E.02834
G1 X114.06 Y125.083 E.00864
G1 X114.76 Y125.399 E.02289
G1 X114.696 Y125.697 E.00907
G1 X106.568 Y125.697 E.24211
G1 X106.568 Y108.558 E.51051
G1 X106.987 Y108.977 F21000
G1 F3000
G1 X128.013 Y108.977 E.62631
G1 X128.013 Y125.278 E.48555
G1 X121.92 Y125.278 E.18151
G1 X121.838 Y125.011 E.00831
G1 X122.231 Y124.746 E.01412
G1 X122.484 Y124.541 E.0097
G1 X123.197 Y123.858 E.0294
G1 X123.412 Y123.614 E.0097
G1 X123.999 Y122.82 E.0294
G1 X124.17 Y122.543 E.0097
G1 X124.614 Y121.662 E.0294
G1 X124.735 Y121.36 E.0097
G1 X125.024 Y120.416 E.0294
G1 X125.093 Y120.097 E.0097
G1 X125.218 Y119.118 E.0294
G1 X125.232 Y118.793 E.0097
G1 X125.19 Y117.807 E.0294
G1 X125.149 Y117.484 E.0097
G1 X124.941 Y116.519 E.0294
G1 X124.846 Y116.208 E.0097
G1 X124.478 Y115.292 E.0294
G1 X124.331 Y115.001 E.0097
G1 X123.813 Y114.161 E.0294
G1 X123.62 Y113.899 E.0097
G1 X122.968 Y113.158 E.0294
G1 X122.733 Y112.933 E.0097
G1 X121.965 Y112.313 E.0294
G1 X121.695 Y112.13 E.0097
G1 X120.833 Y111.649 E.0294
G1 X120.537 Y111.515 E.0097
G1 X119.606 Y111.186 E.0294
G1 X119.291 Y111.104 E.0097
G1 X118.358 Y110.944 E.02819
G1 X118.115 Y110.918 E.00727
G1 X117.435 Y110.896 E.02028
G1 X116.644 Y110.944 E.02359
G1 X115.709 Y111.104 E.02826
G1 X115.394 Y111.186 E.0097
G1 X114.463 Y111.515 E.0294
G1 X114.167 Y111.649 E.0097
G1 X113.305 Y112.13 E.0294
G1 X113.035 Y112.313 E.0097
G1 X112.267 Y112.933 E.0294
G1 X112.032 Y113.158 E.0097
G1 X111.38 Y113.899 E.0294
G1 X111.187 Y114.161 E.0097
G1 X110.669 Y115.001 E.0294
G1 X110.522 Y115.292 E.0097
G1 X110.154 Y116.208 E.0294
G1 X110.059 Y116.519 E.0097
G1 X109.851 Y117.484 E.0294
G1 X109.81 Y117.807 E.0097
G1 X109.768 Y118.793 E.0294
G1 X109.782 Y119.118 E.0097
G1 X109.907 Y120.097 E.0294
G1 X109.976 Y120.416 E.0097
G1 X110.265 Y121.36 E.02941
G1 X110.386 Y121.662 E.0097
G1 X110.83 Y122.543 E.0294
G1 X111.001 Y122.82 E.0097
G1 X111.588 Y123.614 E.0294
G1 X111.803 Y123.858 E.0097
G1 X112.516 Y124.541 E.0294
G1 X112.769 Y124.746 E.0097
G1 X113.162 Y125.011 E.01413
G1 X113.08 Y125.278 E.00831
G1 X106.987 Y125.278 E.18151
G1 X106.987 Y108.977 E.48555
G1 X107.406 Y109.396 F21000
G1 F3000
G1 X127.594 Y109.396 E.60135
G1 X127.594 Y124.859 E.46059
G1 X122.758 Y124.859 E.14405
G1 X123.5 Y124.148 E.03059
G1 X123.738 Y123.877 E.01076
G1 X124.346 Y123.055 E.03046
G1 X124.536 Y122.748 E.01076
G1 X124.996 Y121.834 E.03046
G1 X125.131 Y121.499 E.01076
G1 X125.43 Y120.521 E.03047
G1 X125.506 Y120.168 E.01076
G1 X125.636 Y119.154 E.03046
G1 X125.652 Y118.793 E.01076
G1 X125.608 Y117.771 E.03046
G1 X125.562 Y117.413 E.01076
G1 X125.347 Y116.413 E.03046
G1 X125.241 Y116.068 E.01076
G1 X124.86 Y115.119 E.03046
G1 X124.697 Y114.797 E.01076
G1 X124.161 Y113.926 E.03046
G1 X123.946 Y113.635 E.01076
G1 X123.27 Y112.868 E.03046
G1 X123.01 Y112.618 E.01076
G1 X122.214 Y111.975 E.03046
G1 X121.915 Y111.773 E.01076
G1 X121.022 Y111.274 E.03046
G1 X120.693 Y111.126 E.01076
G1 X119.729 Y110.785 E.03046
G1 X119.379 Y110.694 E.01076
G1 X118.416 Y110.529 E.02912
G1 X118.146 Y110.5 E.00807
G1 X117.427 Y110.477 E.02145
G1 X116.861 Y110.499 E.01685
G1 X116.587 Y110.528 E.00822
G1 X115.621 Y110.694 E.0292
G1 X115.271 Y110.785 E.01076
G1 X114.307 Y111.126 E.03046
G1 X113.978 Y111.274 E.01076
G1 X113.085 Y111.773 E.03046
G1 X112.786 Y111.975 E.01076
G1 X111.99 Y112.618 E.03046
G1 X111.73 Y112.868 E.01076
G1 X111.054 Y113.635 E.03046
G1 X110.839 Y113.926 E.01076
G1 X110.303 Y114.797 E.03046
G1 X110.14 Y115.119 E.01076
G1 X109.759 Y116.068 E.03046
G1 X109.653 Y116.414 E.01076
G1 X109.438 Y117.413 E.03046
G1 X109.392 Y117.771 E.01076
G1 X109.348 Y118.793 E.03046
G1 X109.364 Y119.154 E.01076
G1 X109.494 Y120.168 E.03046
G1 X109.57 Y120.521 E.01076
G1 X109.869 Y121.499 E.03047
G1 X110.004 Y121.835 E.01076
G1 X110.464 Y122.747 E.03045
G1 X110.654 Y123.055 E.01076
G1 X111.262 Y123.877 E.03046
G1 X111.5 Y124.148 E.01076
G1 X112.242 Y124.859 E.03059
G1 X107.406 Y124.859 E.14405
G1 X107.406 Y109.396 E.46059
G1 X118.746 Y110.16 F21000
G1 F3000
G1 X118.775 Y109.815 E.01032
G1 X127.175 Y109.815 E.25022
G1 X127.175 Y124.44 E.43563
G1 X123.843 Y124.44 E.09926
G1 X124.694 Y123.29 E.04261
G1 X124.902 Y122.952 E.01182
G1 X125.378 Y122.007 E.03152
G1 X125.526 Y121.639 E.01182
G1 X125.836 Y120.627 E.03153
G1 X125.92 Y120.239 E.01182
G1 X126.054 Y119.19 E.03152
G1 X126.071 Y118.793 E.01182
G1 X126.026 Y117.736 E.03152
G1 X125.976 Y117.342 E.01182
G1 X125.753 Y116.308 E.03152
G1 X125.636 Y115.928 E.01182
G1 X125.242 Y114.946 E.03152
G1 X125.063 Y114.592 E.01182
G1 X124.508 Y113.691 E.03152
G1 X124.272 Y113.372 E.01182
G1 X123.573 Y112.578 E.03152
G1 X123.287 Y112.303 E.01182
G1 X122.463 Y111.638 E.03152
G1 X122.135 Y111.416 E.01182
G1 X121.211 Y110.9 E.03152
G1 X120.849 Y110.737 E.01182
G1 X119.851 Y110.384 E.03152
G1 X119.468 Y110.284 E.01182
G1 X118.746 Y110.16 E.02182
G1 X126.403 Y119.761 F21000
G1 F3000
G1 X126.756 Y119.783 E.01054
G1 X126.756 Y124.021 E.12623
G1 X124.674 Y124.021 E.06202
G1 X125.041 Y123.525 E.01839
G1 X125.268 Y123.157 E.01288
G1 X125.76 Y122.18 E.03258
G1 X125.921 Y121.779 E.01288
G1 X126.242 Y120.733 E.03259
G1 X126.333 Y120.31 E.01288
G1 X126.403 Y119.761 E.0165
G1 X126.048 Y122.541 F21000
G1 F3000
G1 X126.337 Y122.61 E.00887
G1 X126.337 Y123.602 E.02956
G1 X125.512 Y123.602 E.02457
G1 X126.048 Y122.541 E.03541
G1 X126.419 Y117.412 F21000
G1 F3000
G1 X126.158 Y116.202 E.03687
G1 X126.032 Y115.789 E.01288
G1 X125.624 Y114.774 E.03258
G1 X125.429 Y114.388 E.01288
G1 X124.856 Y113.456 E.03258
G1 X124.599 Y113.108 E.01288
G1 X123.876 Y112.287 E.03258
G1 X123.564 Y111.988 E.01288
G1 X122.713 Y111.301 E.03258
G1 X122.355 Y111.059 E.01288
G1 X121.383 Y110.516 E.03315
G1 X121.456 Y110.234 E.00868
G1 X126.756 Y110.234 E.15787
G1 X126.756 Y117.376 E.21274
G1 X126.419 Y117.412 E.0101
G1 X126.048 Y114.683 F21000
G1 F3000
G1 X125.795 Y114.183 E.01668
G1 X125.203 Y113.221 E.03364
G1 X124.925 Y112.845 E.01394
G1 X124.179 Y111.997 E.03364
G1 X123.841 Y111.673 E.01394
G1 X122.889 Y110.905 E.03646
G1 X122.977 Y110.653 E.00794
G1 X126.337 Y110.653 E.10008
G1 X126.337 Y114.614 E.11799
G1 X126.048 Y114.683 E.00887
G1 X125.644 Y113.138 F21000
G1 F3000
G1 X125.251 Y112.582 E.0203
G1 X124.482 Y111.707 E.0347
G1 X123.819 Y111.072 E.02734
G1 X125.918 Y111.072 E.06254
G1 X125.918 Y113.061 E.05923
G1 X125.644 Y113.138 E.00849
G1 X125.499 Y112.23 F21000
G1 F3000
G1 X124.849 Y111.491 E.0293
G1 X125.499 Y111.491 E.01936
G1 X125.499 Y112.23 E.022
G1 X116.254 Y110.16 F21000
G1 F3000
G1 X115.532 Y110.284 E.02182
G1 X115.149 Y110.384 E.01182
G1 X114.151 Y110.737 E.03152
G1 X113.789 Y110.9 E.01182
G1 X112.865 Y111.416 E.03153
G1 X112.537 Y111.638 E.01182
G1 X111.713 Y112.303 E.03152
G1 X111.427 Y112.578 E.01182
G1 X110.728 Y113.372 E.03152
G1 X110.492 Y113.691 E.01182
G1 X109.937 Y114.592 E.03152
G1 X109.758 Y114.946 E.01182
G1 X109.364 Y115.928 E.03152
G1 X109.247 Y116.308 E.01182
G1 X109.024 Y117.342 E.03152
G1 X108.974 Y117.736 E.01182
G1 X108.929 Y118.793 E.03152
G1 X108.946 Y119.19 E.01182
G1 X109.08 Y120.239 E.03152
G1 X109.164 Y120.627 E.01182
G1 X109.474 Y121.639 E.03153
G1 X109.622 Y122.007 E.01182
G1 X110.098 Y122.952 E.03151
G1 X110.306 Y123.29 E.01182
G1 X111.157 Y124.44 E.04262
G1 X107.825 Y124.44 E.09926
G1 X107.825 Y109.815 E.43563
G1 X116.225 Y109.815 E.25022
G1 X116.254 Y110.16 E.01032
G1 X108.597 Y119.761 F21000
G1 F3000
G1 X108.667 Y120.31 E.0165
G1 X108.758 Y120.733 E.01288
G1 X109.079 Y121.779 E.03259
G1 X109.24 Y122.18 E.01288
G1 X109.732 Y123.156 E.03257
G1 X109.959 Y123.525 E.01288
G1 X110.326 Y124.021 E.01839
G1 X108.244 Y124.021 E.06202
G1 X108.244 Y119.783 E.12623
G1 X108.597 Y119.761 E.01054
G1 X108.952 Y122.541 F21000
G1 F3000
G1 X109.488 Y123.602 E.0354
G1 X108.663 Y123.602 E.02457
G1 X108.663 Y122.61 E.02956
G1 X108.952 Y122.541 E.00887
G1 X108.581 Y117.412 F21000
G1 F3000
G1 X108.244 Y117.376 E.0101
G1 X108.244 Y110.234 E.21274
G1 X113.544 Y110.234 E.15787
G1 X113.617 Y110.516 E.00868
G1 X112.645 Y111.059 E.03315
G1 X112.287 Y111.301 E.01288
G1 X111.436 Y111.988 E.03258
G1 X111.124 Y112.287 E.01288
G1 X110.401 Y113.109 E.03258
G1 X110.144 Y113.456 E.01288
G1 X109.571 Y114.388 E.03258
G1 X109.376 Y114.774 E.01288
G1 X108.968 Y115.789 E.03258
G1 X108.842 Y116.202 E.01288
G1 X108.581 Y117.412 E.03687
G1 X108.952 Y114.683 F21000
G1 F3000
G1 X108.663 Y114.614 E.00887
G1 X108.663 Y110.653 E.11799
G1 X112.023 Y110.653 E.10008
G1 X112.111 Y110.905 E.00794
G1 X111.159 Y111.673 E.03646
G1 X110.821 Y111.997 E.01394
G1 X110.075 Y112.845 E.03364
G1 X109.797 Y113.221 E.01394
G1 X109.205 Y114.183 E.03364
G1 X108.952 Y114.683 E.01668
G1 X109.356 Y113.138 F21000
G1 F3000
G1 X109.082 Y113.061 E.00849
G1 X109.082 Y111.072 E.05923
G1 X111.181 Y111.072 E.06254
G1 X110.519 Y111.707 E.02734
G1 X109.749 Y112.582 E.0347
G1 X109.356 Y113.138 E.02029
G1 X109.501 Y112.23 F21000
G1 F3000
G1 X109.501 Y111.491 E.022
G1 X110.151 Y111.491 E.01936
G1 X109.501 Y112.23 E.0293
G1 X112.033 Y114.426 F21000
G1 F3000
G1 X112.638 Y113.738 E.02728
G1 X112.821 Y113.562 E.00758
G1 X113.534 Y112.987 E.02728
G1 X113.745 Y112.844 E.00758
G1 X114.544 Y112.398 E.02728
G1 X114.776 Y112.293 E.00758
G1 X115.64 Y111.988 E.02728
G1 X115.886 Y111.924 E.00758
G1 X116.759 Y111.774 E.02639
G1 X117.451 Y111.734 E.02065
G1 X118.053 Y111.754 E.01794
G1 X119.114 Y111.924 E.03201
G1 X119.36 Y111.988 E.00758
G1 X120.224 Y112.293 E.02728
G1 X120.456 Y112.398 E.00758
G1 X121.255 Y112.844 E.02728
G1 X121.466 Y112.987 E.00758
G1 X122.179 Y113.562 E.02728
G1 X122.362 Y113.738 E.00758
