; HEADER_BLOCK_START
; generated by OrcaSlicer 2.1.1 on 2025-01-10 at 23:47:04
; total layer number: 42
; filament_density: 1.27
; filament_diameter: 1.75
; max_z_height: 3.00
; HEADER_BLOCK_END

; THUMBNAIL_BLOCK_START

;
; THUMBNAIL_BLOCK_END







; external perimeters extrusion width = 0.40mm
; perimeters extrusion width = 0.45mm
; infill extrusion width = 0.45mm
; solid infill extrusion width = 0.45mm
; top infill extrusion width = 0.38mm
; support material extrusion width = 0.38mm
; first layer extrusion width = 0.42mm

; EXECUTABLE_BLOCK_START
EXCLUDE_OBJECT_DEFINE NAME=驾驶舱_-_门框1.STL_id_0_copy_0 CENTER=117.5,114.988 POLYGON=[[96.5026,80.2382],[124.197,80.2382],[138.497,127.738],[138.497,149.738],[96.5026,149.738],[96.5026,80.2382]]
M73 P0 R12
;TYPE:Custom
;ELEGOO NEPTUNE 4 PRO
M220 S100 ;Set the feed speed to 100%
M221 S100 ;Set the flow rate to 100%
M104 S140
M190 S70
G90
G28 ;home
G1 Z10 F300
G1 X67.5 Y0 F6000
G1 Z0 F300
M109 S240
G92 E0 ;Reset Extruder
G1 X67.5 Y0 Z0.4 F300 ;Move to start position
M73 P0 R11
G1 X167.5 E30 F400 ;Draw the first line
G1 Z0.6 F120.0 ;Move to side a little
M73 P2 R11
G1 X162.5 F3000
G92 E0 ;Reset Extruder
G90
G21
M83 ; use relative distances for extrusion
; filament start gcode
M106 S0
;LAYER_CHANGE
;Z:0.2
;HEIGHT:0.2
;BEFORE_LAYER_CHANGE
G92 E0
;0.2


G1 E-.8 F3600
;AFTER_LAYER_CHANGE
;0.2
;_SET_FAN_SPEED_CHANGING_LAYER
SET_VELOCITY_LIMIT ACCEL=1000 ACCEL_TO_DECEL=500
SET_VELOCITY_LIMIT SQUARE_CORNER_VELOCITY=7
; printing object 驾驶舱 - 门框1.STL id:0 copy 0
EXCLUDE_OBJECT_START NAME=驾驶舱_-_门框1.STL_id_0_copy_0
G1 X96.908 Y107.339 F21000
G1 Z.4
G1 Z.2
G1 E.8 F2700
;TYPE:Support
;WIDTH:0.42
G1 F3000
G1 X96.908 Y108.47 E.0337
G1 X97.236 Y108.798 E.01382
G1 X99.137 Y108.798 E.05665
G1 X99.137 Y127.878 E.56833
G1 X97.236 Y127.878 E.05665
G1 X96.908 Y128.206 E.01382
G1 X96.908 Y129.338 E.0337
G1 X96.626 Y129.619 E.01187
G1 X96.626 Y107.057 E.67205
G1 X96.868 Y107.299 E.01018
M73 P3 R11
G1 E-.68 F3600
;WIPE_START
G1 F3000
G1 X96.626 Y107.057 E-.04101
G1 X96.626 Y107.715 E-.07899
;WIPE_END
G1 X98.798 Y109.138 Z.6 F21000
G1 Z.2
G1 E.8 F2700
G1 F3000
G1 X98.798 Y127.539 E.54811
G1 X97.095 Y127.539 E.05072
G1 X96.965 Y127.669 E.00547
G1 X96.965 Y109.008 E.55584
G1 X97.095 Y109.138 E.00547
G1 X98.798 Y109.138 E.05072
G1 X98.379 Y109.557 F21000
G1 F3000
G1 X98.379 Y127.12 E.52315
G1 X97.384 Y127.12 E.02963
G1 X97.384 Y109.557 E.52315
G1 X98.379 Y109.557 E.02963
G1 E-.68 F3600
;WIPE_START
G1 F3000
G1 X97.384 Y109.557 E-.11937
G1 X97.384 Y109.562 E-.00063
;WIPE_END
G1 X100.447 Y116.553 Z.6 F21000
G1 X105.294 Y127.62 Z.6
G1 Z.2
G1 E.8 F2700
G1 F3000
G1 X101.557 Y127.62 E.11131
G1 X101.557 Y83.798 E1.3053
G1 X105.294 Y83.798 E.11131
G1 X105.294 Y127.563 E1.30362
G1 X104.955 Y127.281 F21000
G1 F3000
G1 X101.897 Y127.281 E.09109
G1 X101.897 Y84.138 E1.28508
G1 X104.955 Y84.138 E.09109
G1 X104.955 Y127.281 E1.28508
G1 X104.536 Y126.862 F21000
G1 F3000
M73 P4 R11
G1 X102.316 Y126.862 E.06613
G1 X102.316 Y84.557 E1.26012
G1 X104.536 Y84.557 E.06613
G1 X104.536 Y126.862 E1.26012
G1 X104.117 Y126.443 F21000
G1 F3000
G1 X102.735 Y126.443 E.04117
G1 X102.735 Y84.976 E1.23516
G1 X104.117 Y84.976 E.04117
G1 X104.117 Y126.443 E1.23516
G1 X103.698 Y126.024 F21000
G1 F3000
G1 X103.154 Y126.024 E.01621
G1 X103.154 Y85.395 E1.2102
G1 X103.698 Y85.395 E.01621
G1 X103.698 Y126.024 E1.2102
G1 E-.68 F3600
;WIPE_START
G1 F3000
G1 X103.698 Y125.024 E-.12
;WIPE_END
G1 X104.142 Y132.643 Z.6 F21000
G1 X105.294 Y152.402 Z.6
G1 Z.2
G1 E.8 F2700
G1 F3000
G1 X96.626 Y152.402 E.2582
G1 X96.626 Y148.557 E.11452
G1 X96.908 Y148.839 E.01187
G1 X96.908 Y149.97 E.0337
G1 X97.236 Y150.298 E.01382
G1 X101.229 Y150.298 E.11896
G1 X101.557 Y149.97 E.01382
G1 X101.557 Y131.74 E.54301
G1 X105.294 Y131.74 E.11131
G1 X105.294 Y152.345 E.61377
M73 P5 R11
G1 X104.955 Y132.079 F21000
G1 F3000
G1 X104.955 Y152.063 E.59523
G1 X96.965 Y152.063 E.23798
G1 X96.965 Y150.508 E.04631
G1 X97.095 Y150.638 E.00547
G1 X101.37 Y150.638 E.12733
G1 X101.897 Y150.111 E.02219
G1 X101.897 Y132.079 E.53709
G1 X104.955 Y132.079 E.09109
G1 X104.536 Y132.498 F21000
G1 F3000
G1 X104.536 Y151.644 E.57027
G1 X97.384 Y151.644 E.21302
G1 X97.384 Y151.057 E.01749
G1 X101.544 Y151.057 E.12389
G1 X102.316 Y150.284 E.03253
G1 X102.316 Y132.498 E.52978
G1 X104.536 Y132.498 E.06613
G1 X104.117 Y132.917 F21000
G1 F3000
G1 X104.117 Y151.225 E.54531
G1 X101.968 Y151.225 E.06401
G1 X102.735 Y150.458 E.0323
G1 X102.735 Y132.917 E.52247
G1 X104.117 Y132.917 E.04117
G1 X103.698 Y133.336 F21000
G1 F3000
G1 X103.698 Y150.806 E.52035
G1 X103.154 Y150.806 E.01621
G1 X103.154 Y133.336 E.52035
G1 X103.698 Y133.336 E.01621
G1 E-.68 F3600
;WIPE_START
G1 F3000
G1 X103.154 Y133.336 E-.06532
G1 X103.154 Y133.792 E-.05468
;WIPE_END
G1 X110.645 Y132.328 Z.6 F21000
G1 X134.744 Y127.62 Z.6
G1 Z.2
G1 E.8 F2700
G1 F3000
G1 X132.069 Y127.62 E.07969
G1 X132.069 Y126.411 E.03602
G1 X129.706 Y126.411 E.07038
G1 X129.706 Y119.322 E.21114
G1 X127.343 Y119.322 E.07038
G1 X127.343 Y109.871 E.28152
G1 X124.98 Y109.871 E.07038
G1 X124.98 Y102.783 E.21114
G1 X122.617 Y102.783 E.07038
G1 X122.617 Y95.694 E.21114
G1 X120.254 Y95.694 E.07038
M73 P6 R11
G1 X120.254 Y86.243 E.28152
G1 X117.892 Y86.243 E.07038
G1 X117.892 Y83.798 E.07281
G1 X121.551 Y83.798 E.10901
G1 X134.728 Y127.566 E1.36149
G1 E-.68 F3600
;WIPE_START
G1 F3000
G1 X134.439 Y126.608 E-.12
;WIPE_END
G1 X130.844 Y119.876 Z.6 F21000
G1 X125.319 Y109.532 Z.6
G1 Z.2
G1 E.8 F2700
G1 F3000
G1 X125.319 Y102.443 E.21114
G1 X122.957 Y102.443 E.07038
G1 X122.957 Y95.355 E.21114
G1 X120.594 Y95.355 E.07038
G1 X120.594 Y85.903 E.28152
G1 X118.231 Y85.903 E.07038
G1 X118.231 Y84.138 E.0526
G1 X121.299 Y84.138 E.09139
G1 X134.287 Y127.281 E1.34206
G1 X132.408 Y127.281 E.05599
G1 X132.408 Y126.072 E.03602
G1 X130.045 Y126.072 E.07038
G1 X130.045 Y118.983 E.21114
G1 X127.682 Y118.983 E.07038
G1 X127.682 Y109.532 E.28152
G1 X125.319 Y109.532 E.07038
G1 X128.101 Y109.303 F21000
G1 F3000
G1 X128.423 Y109.255 E.0097
G1 X133.724 Y126.862 E.54768
G1 X132.827 Y126.862 E.02672
G1 X132.827 Y125.653 E.03602
G1 X130.464 Y125.653 E.07038
G1 X130.464 Y118.564 E.21114
G1 X128.101 Y118.564 E.07038
G1 X128.101 Y109.303 E.27586
G1 X130.883 Y119.996 F21000
G1 F3000
G1 X131.205 Y119.949 E.0097
G1 X132.796 Y125.234 E.16439
G1 X130.883 Y125.234 E.05698
G1 X130.883 Y119.996 E.15599
G1 X131.302 Y122.842 F21000
G1 F3000
G1 X131.624 Y122.794 E.0097
G1 X132.232 Y124.815 E.06285
G1 X131.302 Y124.815 E.02771
G1 X131.302 Y122.842 E.05877
G1 X130.662 Y118.145 F21000
G1 F3000
G1 X128.52 Y118.145 E.0638
G1 X128.52 Y112.148 E.17863
G1 X128.842 Y112.1 E.0097
M73 P7 R11
G1 X130.662 Y118.145 E.18803
G1 X130.098 Y117.726 F21000
G1 F3000
G1 X128.939 Y117.726 E.03453
G1 X128.939 Y114.993 E.08141
G1 X129.261 Y114.946 E.0097
G1 X130.098 Y117.726 E.08649
G1 X128.38 Y109.113 F21000
G1 F3000
G1 X125.738 Y109.113 E.0787
G1 X125.738 Y102.024 E.21114
G1 X123.376 Y102.024 E.07038
G1 X123.376 Y94.936 E.21114
G1 X121.013 Y94.936 E.07038
G1 X121.013 Y85.757 E.2734
G1 X121.335 Y85.71 E.0097
G1 X128.38 Y109.113 E.728
G1 X123.549 Y94.517 F21000
G1 F3000
G1 X121.432 Y94.517 E.06306
G1 X121.432 Y88.602 E.17617
G1 X121.754 Y88.555 E.0097
G1 X123.549 Y94.517 E.18546
G1 X122.985 Y94.098 F21000
G1 F3000
G1 X121.851 Y94.098 E.03379
G1 X121.851 Y91.447 E.07895
G1 X122.173 Y91.4 E.0097
G1 X122.985 Y94.098 E.08392
G1 X123.795 Y96.451 F21000
G1 F3000
G1 X124.117 Y96.403 E.0097
G1 X125.683 Y101.605 E.16182
G1 X123.795 Y101.605 E.05624
G1 X123.795 Y96.451 E.15353
G1 X124.213 Y99.296 F21000
G1 F3000
G1 X124.536 Y99.248 E.0097
G1 X125.119 Y101.186 E.06028
G1 X124.213 Y101.186 E.02697
G1 X124.213 Y99.296 E.05631
G1 X126.157 Y104.299 F21000
G1 F3000
G1 X126.479 Y104.252 E.0097
G1 X127.817 Y108.694 E.13817
G1 X126.157 Y108.694 E.04943
G1 X126.157 Y104.299 E.13089
G1 X126.576 Y107.144 F21000
G1 F3000
G1 X126.898 Y107.097 E.0097
G1 X127.253 Y108.275 E.03664
G1 X126.576 Y108.275 E.02016
G1 X126.576 Y107.144 E.03367
G1 X121.267 Y85.484 F21000
G1 F3000
G1 X118.65 Y85.484 E.07796
G1 X118.65 Y84.557 E.02764
G1 X120.988 Y84.557 E.06964
G1 X121.267 Y85.484 E.02886
G1 E-.68 F3600
;WIPE_START
G1 F3000
G1 X120.988 Y84.557 E-.11627
G1 X120.957 Y84.557 E-.00373
;WIPE_END
G1 X122.552 Y92.02 Z.6 F21000
G1 X134.937 Y149.97 Z.6
G1 Z.2
G1 E.8 F2700
G1 F3000
G1 X135.265 Y150.298 E.01382
G1 X138.729 Y150.298 E.10318
G1 X139.057 Y149.97 E.01382
G1 X139.057 Y146.097 E.11538
G1 X140.737 Y146.097 E.05002
G1 X140.737 Y152.402 E.18782
G1 X132.069 Y152.402 E.2582
G1 X132.069 Y131.74 E.61545
G1 X134.937 Y131.74 E.08546
G1 X134.937 Y149.914 E.54133
G1 X132.408 Y132.079 F21000
M73 P8 R11
G1 F3000
G1 X134.598 Y132.079 E.06524
G1 X134.598 Y150.111 E.53709
G1 X135.125 Y150.638 E.02219
G1 X138.87 Y150.638 E.11155
G1 X139.397 Y150.111 E.02219
G1 X139.397 Y146.436 E.10946
G1 X140.397 Y146.436 E.02981
G1 X140.397 Y152.063 E.1676
G1 X132.408 Y152.063 E.23798
G1 X132.408 Y132.079 E.59523
G1 X132.827 Y132.498 F21000
G1 F3000
G1 X134.179 Y132.498 E.04028
G1 X134.179 Y150.284 E.52978
G1 X134.951 Y151.057 E.03253
G1 X139.044 Y151.057 E.12189
G1 X139.978 Y150.122 E.03938
G1 X139.978 Y151.644 E.04534
G1 X132.827 Y151.644 E.21302
G1 X132.827 Y132.498 E.57027
G1 X133.246 Y132.917 F21000
G1 F3000
G1 X133.76 Y132.917 E.01532
G1 X133.76 Y150.458 E.52247
G1 X134.527 Y151.225 E.0323
G1 X133.246 Y151.225 E.03816
G1 X133.246 Y132.917 E.54531
G1 E-.68 F3600
;WIPE_START
G1 F3000
G1 X133.246 Y133.917 E-.12
;WIPE_END
G1 X127.25 Y129.195 Z.6 F21000
G1 X99.293 Y107.174 Z.6
G1 Z.2
G1 E.8 F2700
;TYPE:Inner wall
;WIDTH:0.419999
G1 F3000
G1 X98.532 Y107.174 E.02268
G1 X98.532 Y81.302 E.77063
G1 X123.406 Y81.302 E.74093
M73 P8 R10
G1 X137.433 Y127.895 E1.44936
G1 X137.433 Y148.674 E.61894
M73 P9 R10
G1 X136.562 Y148.674 E.02596
G1 X136.562 Y131.059 E.52471
G1 X136.453 Y130.619 E.01348
G1 X136.191 Y130.31 E.01208
G1 X135.965 Y130.182 E.00773
G1 X135.619 Y130.116 E.01051
G1 X133.829 Y130.116 E.05331
G1 X133.891 Y129.899 E.00673
G1 X133.903 Y129.57 E.00979
G1 X133.821 Y129.244 E.01001
G1 X135.619 Y129.244 E.05354
G1 X135.981 Y129.188 E.0109
G1 X136.21 Y129.068 E.00773
G1 X136.535 Y128.653 E.01568
G1 X136.604 Y128.301 E.01068
G1 X136.564 Y128.03 E.00818
G1 X122.961 Y82.845 E1.40556
G1 X122.62 Y82.36 E.01764
G1 X122.058 Y82.174 E.01764
G1 X100.752 Y82.174 E.63464
G1 X100.398 Y82.304 E.01121
G1 X100.084 Y82.605 E.01295
G1 X99.933 Y83.117 E.0159
G1 X99.933 Y107.288 E.71999
G1 X99.819 Y107.174 E.00482
G1 X99.333 Y107.174 E.01447
G1 X99.603 Y107.551 F21000
G1 F3000
G1 X98.155 Y107.551 E.04314
G1 X98.155 Y80.925 E.79309
G1 X123.687 Y80.925 E.76051
G1 X137.759 Y127.67 E1.45408
G1 X137.81 Y127.959 E.00876
G1 X137.81 Y149.051 E.62826
G1 X136.185 Y149.051 E.04843
G1 X136.185 Y131.059 E.53594
G1 X136.119 Y130.795 E.00809
G1 X135.962 Y130.609 E.00725
G1 X135.827 Y130.533 E.00464
G1 X135.619 Y130.493 E.0063
G1 X133.125 Y130.493 E.0743
G1 X133.391 Y130.191 E.012
G1 X133.522 Y129.819 E.01174
G1 X133.507 Y129.458 E.01078
G1 X133.303 Y129.039 E.01387
G1 X133.122 Y128.867 E.00743
G1 X135.698 Y128.867 E.07671
G1 X135.99 Y128.761 E.00928
G1 X136.186 Y128.513 E.00941
G1 X136.218 Y128.399 E.00351
G1 X136.202 Y128.138 E.00778
G1 X122.599 Y82.954 E1.40556
G1 X122.395 Y82.663 E.01059
M73 P10 R10
G1 X122.058 Y82.551 E.01059
G1 X100.876 Y82.551 E.63094
G1 X100.589 Y82.629 E.00885
G1 X100.401 Y82.81 E.00777
G1 X100.31 Y83.117 E.00954
G1 X100.31 Y108.043 E.74245
G1 X99.819 Y107.551 E.0207
G1 X99.643 Y107.551 E.00523
G1 E-.68 F3600
;WIPE_START
G1 F3000
G1 X98.643 Y107.551 E-.12
;WIPE_END
G1 X104.525 Y112.415 Z.6 F21000
G1 X125.928 Y130.116 Z.6
G1 Z.2
G1 E.8 F2700
G1 F3000
G1 X125.971 Y129.973 E.00446
G1 X126.004 Y129.579 E.01176
G1 X125.921 Y129.244 E.01029
G1 X131.165 Y129.244 E.15622
G1 X131.083 Y129.687 E.0134
G1 X131.167 Y130.116 E.01303
G1 X125.968 Y130.116 E.15488
G1 X125.423 Y130.266 F21000
G1 F3000
G1 X125.541 Y130.091 E.0063
G1 X125.61 Y129.863 E.00709
G1 X125.63 Y129.627 E.00705
G1 X125.53 Y129.244 E.01179
G1 X125.405 Y129.041 E.00711
G1 X125.222 Y128.867 E.00751
G1 X131.835 Y128.867 E.19699
G1 X131.726 Y128.991 E.00491
G1 X131.541 Y129.287 E.01041
G1 X131.465 Y129.629 E.01044
G1 X131.485 Y129.868 E.00714
G1 X131.671 Y130.302 E.01407
G1 X131.865 Y130.493 E.00811
G1 X125.23 Y130.493 E.19765
G1 X125.319 Y130.421 E.00342
G1 X125.401 Y130.3 E.00436
G1 E-.68 F3600
;WIPE_START
G1 F3000
G1 X125.541 Y130.091 E-.03018
G1 X125.61 Y129.863 E-.02856
G1 X125.63 Y129.627 E-.02842
G1 X125.561 Y129.363 E-.03284
;WIPE_END
G1 X132.683 Y130.358 Z.6 F21000
G1 Z.2
G1 E.8 F2700
;TYPE:Outer wall
;WIDTH:0.512988
G1 F3000
G1 X132.459 Y130.377 E.00836
;WIDTH:0.499406
G1 X132.235 Y130.314 E.00839
;WIDTH:0.474394
G1 X132.095 Y130.183 E.00653
;WIDTH:0.447197
G1 X131.954 Y130.053 E.00611
;WIDTH:0.419999
G1 X131.837 Y129.698 E.01113
G1 X131.878 Y129.457 E.00728
G1 X131.987 Y129.263 E.00663
;WIDTH:0.435893
G1 X132.167 Y129.104 E.00744
;WIDTH:0.466822
G1 X132.322 Y129.044 E.00559
;WIDTH:0.49775
G1 X132.478 Y128.983 E.006
;WIDTH:0.504559
G1 X132.635 Y128.993 E.00576
G1 X132.809 Y129.116 E.00776
;WIDTH:0.462279
G1 X132.983 Y129.239 E.00705
;WIDTH:0.419999
G1 X133.133 Y129.509 E.00922
G1 X133.153 Y129.74 E.00688
G1 X133.087 Y129.967 E.00705
;WIDTH:0.436512
G1 X132.89 Y130.219 E.00996
;WIDTH:0.47475
G1 X132.792 Y130.288 E.00408
;WIDTH:0.512988
G1 X132.718 Y130.34 E.00337
G1 E-.68 F3600
;WIPE_START
G1 F3000
G1 X132.459 Y130.377 E-.0314
G1 X132.235 Y130.314 E-.02793
G1 X132.095 Y130.183 E-.02297
G1 X131.954 Y130.053 E-.02297
G1 X131.916 Y129.936 E-.01472
;WIPE_END
G1 X124.286 Y129.751 Z.6 F21000
G1 X100.529 Y129.174 Z.6
G1 Z.2
G1 E.8 F2700
;TYPE:Inner wall
;WIDTH:0.419999
G1 F3000
G1 X100.876 Y129.244 E.01054
G1 X123.265 Y129.244 E.6669
G1 X123.183 Y129.687 E.0134
G1 X123.267 Y130.116 E.01303
G1 X100.806 Y130.116 E.66905
G1 X100.434 Y130.226 E.01154
G1 X100.199 Y130.402 E.00875
G1 X100.03 Y130.642 E.00874
G1 X99.933 Y131.059 E.01275
G1 X99.933 Y148.674 E.52471
G1 X98.532 Y148.674 E.04174
G1 X98.532 Y129.502 E.57106
G1 X99.819 Y129.502 E.03834
G1 X100.107 Y129.457 E.0087
G1 X100.26 Y129.393 E.00495
G1 X100.498 Y129.199 E.00912
G1 X100.381 Y128.569 F21000
G1 F3000
G1 X100.648 Y128.819 E.0109
G1 X100.876 Y128.867 E.00694
G1 X123.977 Y128.867 E.68809
G1 X123.861 Y128.961 E.00443
G1 X123.641 Y129.287 E.01173
G1 X123.565 Y129.629 E.01044
G1 X123.585 Y129.868 E.00714
G1 X123.771 Y130.302 E.01407
G1 X123.965 Y130.493 E.00811
G1 X100.876 Y130.493 E.68775
G1 X100.702 Y130.52 E.00525
M73 P11 R10
G1 X100.47 Y130.665 E.00813
G1 X100.369 Y130.808 E.00524
G1 X100.31 Y131.059 E.00765
G1 X100.31 Y149.051 E.53594
G1 X98.155 Y149.051 E.06421
G1 X98.155 Y129.125 E.59352
G1 X99.819 Y129.125 E.04957
G1 X100.084 Y129.059 E.00813
G1 X100.26 Y128.914 E.0068
G1 X100.368 Y128.607 E.00971
G1 E-.68 F3600
;WIPE_START
G1 F3000
G1 X100.648 Y128.819 E-.04219
G1 X100.876 Y128.867 E-.02794
G1 X101.292 Y128.867 E-.04987
;WIPE_END
G1 X108.914 Y129.252 Z.6 F21000
G1 X125.122 Y130.07 Z.6
G1 Z.2
G1 E.8 F2700
;TYPE:Outer wall
;WIDTH:0.447453
G1 F3000
G1 X125.001 Y130.183 E.00527
;WIDTH:0.474906
G1 X124.86 Y130.314 E.00656
;WIDTH:0.499407
G1 X124.636 Y130.377 E.0084
;WIDTH:0.51299
G1 X124.4 Y130.357 E.00878
G1 X124.28 Y130.264 E.00564
;WIDTH:0.466495
G1 X124.159 Y130.172 E.00508
;WIDTH:0.419999
G1 X124.016 Y129.984 E.00704
G1 X123.939 Y129.677 E.00943
G1 X123.978 Y129.457 E.00666
G1 X124.099 Y129.254 E.00705
;WIDTH:0.460391
G1 X124.35 Y129.048 E.01072
;WIDTH:0.49775
G1 X124.578 Y128.983 E.00849
;WIDTH:0.504559
G1 X124.735 Y128.993 E.00576
G1 X124.91 Y129.116 E.00778
;WIDTH:0.462279
G1 X125.084 Y129.24 E.00707
;WIDTH:0.419999
G1 X125.236 Y129.518 E.00945
G1 X125.249 Y129.754 E.00704
G1 X125.146 Y130.039 E.00905
G1 E-.68 F3600
;WIPE_START
G1 F3000
G1 X125.001 Y130.183 E-.02445
G1 X124.86 Y130.314 E-.02309
G1 X124.636 Y130.377 E-.02794
G1 X124.4 Y130.357 E-.02837
G1 X124.294 Y130.275 E-.01615
;WIPE_END
G1 X118.657 Y125.129 Z.6 F21000
G1 X99.819 Y107.928 Z.6
G1 Z.2
G1 E.8 F2700
G1 F3000
G1 X97.778 Y107.928 E.0608
G1 X97.778 Y80.548 E.81556
G1 X123.967 Y80.548 E.78009
