;FLAVOR:Marlin
;TIME:9114
;Filament used: 4.03964m
;Layer height: 0.2
;MINX:95.1
;MINY:111
;MINZ:0.2
;MAXX:204.9
;MAXY:189
;MAXZ:10.4
;Generated with Creality Slicer 4.8.2-191
M140 S50
M105
M190 S50
M104 S200
M105
M109 S200
M82 ;absolute extrusion mode

G28 ;Home

G92 E0 ;Reset Extruder
G1 Z2.0 F3000 ;Move Z Axis up
G1 X10.1 Y20 Z0.28 F5000.0 ;Move to start position
G1 X10.1 Y200.0 Z0.28 F1500.0 E15 ;Draw the first line
G1 X10.4 Y200.0 Z0.28 F5000.0 ;Move to side a little
G1 X10.4 Y20 Z0.28 F1500.0 E30 ;Draw the second line
G92 E0 ;Reset Extruder
G1 Z2.0 F3000 ;Move Z Axis up

G92 E0
G92 E0
G1 F2700 E-5
;LAYER_COUNT:52
;LAYER:0
M107
G0 F6000 X98.986 Y113.627 Z0.2
;TYPE:SKIRT
G1 F2700 E0
G1 F1200 X99.726 Y113.051 E0.03119
G1 X100.512 Y112.539 E0.06239
G1 X101.339 Y112.097 E0.09358
G1 X102.201 Y111.727 E0.12478
G1 X103.091 Y111.431 E0.15597
G1 X104.003 Y111.213 E0.18716
G1 X104.93 Y111.072 E0.21835
G1 X105.801 Y111.013 E0.24738
G1 X106.122 Y111.004 E0.25806
G1 X106.43 Y111 E0.26831
G1 X193.193 Y111 E3.15406
G1 X194.049 Y111.011 E3.18253
G1 X194.985 Y111.065 E3.21371
G1 X195.913 Y111.197 E3.24489
G1 X196.827 Y111.409 E3.2761
G1 X197.719 Y111.698 E3.30728
G1 X198.584 Y112.061 E3.33848
G1 X199.414 Y112.497 E3.36967
G1 X200.205 Y113.002 E3.40088
G1 X200.949 Y113.573 E3.43207
G1 X201.642 Y114.205 E3.46327
G1 X202.279 Y114.893 E3.49445
G1 X202.854 Y115.634 E3.52565
G1 X203.365 Y116.42 E3.55683
G1 X203.807 Y117.248 E3.58805
G1 X204.176 Y118.11 E3.61924
G1 X204.471 Y119 E3.65042
G1 X204.689 Y119.912 E3.68161
G1 X204.829 Y120.84 E3.71282
G1 X204.887 Y121.701 E3.74153
G1 X204.896 Y122.021 E3.75217
G1 X204.9 Y122.33 E3.76245
G1 X204.899 Y177.4 E5.59409
G1 X204.89 Y178.127 E5.61827
G1 X204.839 Y179.064 E5.64948
G1 X204.707 Y179.992 E5.68066
G1 X204.498 Y180.906 E5.71184
G1 X204.211 Y181.799 E5.74304
G1 X203.849 Y182.665 E5.77426
G1 X203.415 Y183.496 E5.80544
G1 X202.911 Y184.287 E5.83663
G1 X202.342 Y185.032 E5.86781
G1 X201.711 Y185.727 E5.89903
G1 X201.024 Y186.365 E5.93022
G1 X200.285 Y186.942 E5.9614
G1 X199.499 Y187.454 E5.9926
G1 X198.673 Y187.897 E6.02378
G1 X197.811 Y188.269 E6.055
G1 X196.922 Y188.565 E6.08617
G1 X196.01 Y188.785 E6.11737
G1 X195.083 Y188.926 E6.14856
G1 X194.199 Y188.987 E6.17803
G1 X193.878 Y188.996 E6.18871
G1 X193.57 Y189 E6.19895
G1 X106.665 Y188.999 E9.08943
G1 X105.967 Y188.99 E9.11264
G1 X105.031 Y188.938 E9.14382
G1 X104.102 Y188.806 E9.17503
G1 X103.188 Y188.596 E9.20622
G1 X102.295 Y188.309 E9.23742
G1 X101.43 Y187.946 E9.26862
G1 X100.599 Y187.512 E9.2998
G1 X99.808 Y187.008 E9.331
G1 X99.063 Y186.438 E9.3622
G1 X98.369 Y185.807 E9.39339
G1 X97.732 Y185.12 E9.42456
G1 X97.155 Y184.38 E9.45577
G1 X96.643 Y183.594 E9.48697
G1 X96.2 Y182.767 E9.51817
G1 X95.829 Y181.906 E9.54935
G1 X95.533 Y181.016 E9.58055
G1 X95.314 Y180.104 E9.61174
G1 X95.173 Y179.177 E9.64293
G1 X95.113 Y178.288 E9.67257
G1 X95.104 Y177.955 E9.68364
G1 X95.1 Y177.658 E9.69352
G1 X95.101 Y122.525 E11.52726
G1 X95.11 Y121.86 E11.54938
G1 X95.163 Y120.924 E11.58056
G1 X95.295 Y119.995 E11.61177
G1 X95.506 Y119.081 E11.64296
G1 X95.794 Y118.189 E11.67414
G1 X96.157 Y117.324 E11.70534
G1 X96.592 Y116.493 E11.73654
G1 X97.096 Y115.703 E11.76771
G1 X97.666 Y114.958 E11.79891
G1 X98.298 Y114.264 E11.83012
G1 X98.986 Y113.627 E11.86131
G0 F6000 X99.374 Y113.823
G1 F1200 X100.11 Y113.27 E11.89193
G1 X100.891 Y112.782 E11.92256
G1 X101.711 Y112.364 E11.95317
G1 X102.565 Y112.019 E11.98381
G1 X103.445 Y111.749 E12.01442
G1 X104.345 Y111.557 E12.04503
G1 X105.259 Y111.443 E12.07566
G1 X105.812 Y111.413 E12.09408
G1 X106.133 Y111.404 E12.10477
G1 X106.43 Y111.4 E12.11464
G1 X193.193 Y111.4 E15.00039
G1 X194.043 Y111.411 E15.02867
G1 X194.962 Y111.464 E15.05928
G1 X195.873 Y111.597 E15.08991
G1 X196.769 Y111.808 E15.12052
G1 X197.643 Y112.096 E15.15113
G1 X198.49 Y112.459 E15.18178
G1 X199.301 Y112.894 E15.21239
G1 X200.071 Y113.398 E15.243
G1 X200.795 Y113.967 E15.27362
G1 X201.467 Y114.597 E15.30426
G1 X202.082 Y115.282 E15.33488
G1 X202.635 Y116.018 E15.3655
G1 X203.122 Y116.799 E15.39611
G1 X203.539 Y117.62 E15.42674
G1 X203.884 Y118.474 E15.45737
G1 X204.153 Y119.354 E15.48798
G1 X204.345 Y120.255 E15.51862
G1 X204.458 Y121.168 E15.54922
G1 X204.487 Y121.712 E15.56733
G1 X204.496 Y122.032 E15.57798
G1 X204.5 Y122.33 E15.58789
G1 X204.499 Y177.395 E17.41936
G1 X204.49 Y178.122 E17.44355
G1 X204.439 Y179.041 E17.47416
G1 X204.308 Y179.953 E17.5048
G1 X204.098 Y180.849 E17.53541
G1 X203.812 Y181.724 E17.56603
G1 X203.451 Y182.571 E17.59665
G1 X203.017 Y183.383 E17.62728
G1 X202.515 Y184.155 E17.6579
G1 X201.947 Y184.88 E17.68854
G1 X201.319 Y185.553 E17.71915
G1 X200.635 Y186.169 E17.74977
G1 X199.9 Y186.723 E17.78038
G1 X199.12 Y187.212 E17.811
G1 X198.3 Y187.631 E17.84163
G1 X197.447 Y187.977 E17.87224
G1 X196.567 Y188.248 E17.90287
G1 X195.667 Y188.441 E17.93348
G1 X194.753 Y188.556 E17.96412
G1 X194.188 Y188.587 E17.98294
G1 X193.867 Y188.596 E17.99362
G1 X193.57 Y188.6 E18.0035
G1 X106.67 Y188.599 E20.89381
G1 X105.972 Y188.59 E20.91703
G1 X105.053 Y188.538 E20.94764
G1 X104.142 Y188.407 E20.97825
G1 X103.246 Y188.197 E21.00886
G1 X102.371 Y187.91 E21.03949
G1 X101.524 Y187.548 E21.07013
G1 X100.712 Y187.114 E21.10075
G1 X99.941 Y186.612 E21.13135
G1 X99.216 Y186.044 E21.16198
G1 X98.543 Y185.415 E21.19262
G1 X97.928 Y184.731 E21.22321
G1 X97.374 Y183.996 E21.25383
G1 X96.886 Y183.215 E21.28446
G1 X96.467 Y182.395 E21.31509
G1 X96.121 Y181.542 E21.3457
G1 X95.851 Y180.662 E21.37632
G1 X95.658 Y179.761 E21.40696
G1 X95.544 Y178.848 E21.43757
G1 X95.513 Y178.277 E21.45659
G1 X95.504 Y177.944 E21.46767
G1 X95.5 Y177.658 E21.47718
G1 X95.501 Y122.531 E23.31071
G1 X95.51 Y121.866 E23.33283
G1 X95.562 Y120.946 E23.36348
G1 X95.694 Y120.035 E23.39409
G1 X95.905 Y119.139 E23.42471
G1 X96.192 Y118.264 E23.45534
G1 X96.555 Y117.418 E23.48596
G1 X96.989 Y116.606 E23.51658
G1 X97.492 Y115.835 E23.5472
G1 X98.061 Y115.111 E23.57783
G1 X98.689 Y114.439 E23.60842
G1 X99.374 Y113.823 E23.63906
G0 F6000 X99.762 Y114.024
G1 F1200 X100.494 Y113.494 E23.66912
G1 X101.269 Y113.031 E23.69914
G1 X102.082 Y112.638 E23.72918
G1 X102.927 Y112.318 E23.75923
G1 X103.796 Y112.075 E23.78924
G1 X104.684 Y111.909 E23.81929
G1 X105.823 Y111.813 E23.85731
G1 X106.144 Y111.804 E23.86799
G1 X106.43 Y111.8 E23.8775
G1 X193.193 Y111.8 E26.76325
G1 X194.037 Y111.811 E26.79132
G1 X194.939 Y111.864 E26.82137
G1 X195.832 Y111.996 E26.8514
G1 X196.71 Y112.207 E26.88143
G1 X197.566 Y112.495 E26.91147
G1 X198.393 Y112.857 E26.9415
G1 X199.185 Y113.292 E26.97155
G1 X199.936 Y113.794 E27.0016
G1 X200.639 Y114.361 E27.03164
G1 X201.289 Y114.988 E27.06167
G1 X201.881 Y115.67 E27.09171
G1 X202.411 Y116.401 E27.12174
G1 X202.873 Y117.177 E27.15178
G1 X203.266 Y117.99 E27.18181
G1 X203.584 Y118.835 E27.21184
G1 X203.827 Y119.705 E27.24189
G1 X203.992 Y120.593 E27.27193
G1 X204.087 Y121.723 E27.30964
G1 X204.096 Y122.043 E27.32029
G1 X204.1 Y122.33 E27.32984
G1 X204.099 Y177.39 E29.16114
G1 X204.09 Y178.117 E29.18532
G1 X204.039 Y179.019 E29.21537
G1 X203.908 Y179.913 E29.24542
G1 X203.699 Y180.791 E29.27544
G1 X203.413 Y181.648 E29.30549
G1 X203.052 Y182.476 E29.33553
G1 X202.62 Y183.268 E29.36554
G1 X202.119 Y184.02 E29.39559
G1 X201.553 Y184.724 E29.42564
G1 X200.928 Y185.375 E29.45565
G1 X200.247 Y185.969 E29.48571
G1 X199.516 Y186.5 E29.51576
G1 X198.742 Y186.964 E29.54578
G1 X197.929 Y187.358 E29.57582
G1 X197.085 Y187.678 E29.60585
G1 X196.215 Y187.923 E29.63591
G1 X195.328 Y188.089 E29.66592
G1 X194.177 Y188.187 E29.70434
G1 X193.856 Y188.196 E29.71502
G1 X193.57 Y188.2 E29.72454
G1 X106.675 Y188.199 E32.61468
G1 X105.977 Y188.19 E32.63789
G1 X105.076 Y188.139 E32.66791
G1 X104.182 Y188.007 E32.69797
G1 X103.304 Y187.798 E32.72798
G1 X102.447 Y187.511 E32.75804
G1 X101.62 Y187.15 E32.78806
G1 X100.827 Y186.717 E32.81811
G1 X100.076 Y186.216 E32.84813
G1 X99.372 Y185.65 E32.87818
G1 X98.721 Y185.024 E32.90822
G1 X98.128 Y184.343 E32.93825
G1 X97.598 Y183.612 E32.96828
G1 X97.134 Y182.837 E32.99832
G1 X96.74 Y182.024 E33.02837
G1 X96.42 Y181.18 E33.0584
G1 X96.176 Y180.31 E33.08845
G1 X96.01 Y179.422 E33.11849
G1 X95.913 Y178.267 E33.15705
G1 X95.904 Y177.934 E33.16812
G1 X95.9 Y177.658 E33.17731
G1 X95.901 Y122.536 E35.01067
G1 X95.91 Y121.871 E35.03279
G1 X95.962 Y120.969 E35.06284
G1 X96.094 Y120.076 E35.09287
G1 X96.304 Y119.198 E35.12289
G1 X96.591 Y118.341 E35.15295
G1 X96.953 Y117.514 E35.18298
G1 X97.386 Y116.722 E35.213
G1 X97.888 Y115.971 E35.24304
G1 X98.455 Y115.267 E35.27311
G1 X99.081 Y114.617 E35.30312
G1 X99.762 Y114.024 E35.33316
G1 F2700 E30.33316
;MESH:?????????????????????.STL
G0 F6000 X114.565 Y166.736
G0 X113.13 Y166.736
G0 X113.3 Y170.8
;TYPE:WALL-INNER
G1 F2700 E35.33316
G1 F1200 X186.7 Y170.8 E37.77445
G1 X186.7 Y129.2 E39.15807
G1 X113.3 Y129.2 E41.59937
G1 X113.3 Y170.8 E42.98299
G0 F6000 X113.7 Y170.4
;TYPE:WALL-OUTER
G1 F1200 X186.3 Y170.4 E45.39767
G1 X186.3 Y129.6 E46.75469
G1 X113.7 Y129.6 E49.16937
G1 X113.7 Y170.4 E50.52639
G1 F2700 E45.52639
G0 F6000 X113.4 Y170.4
G0 X120.663 Y170.97
G0 X120.663 Y169.535
G0 X186.89 Y178.665
G0 X186.89 Y177.19
G0 X193.3 Y177.4
;TYPE:WALL-INNER
G1 F2700 E50.52639
G1 F1200 X106.7 Y177.4 E53.40672
G1 X106.7 Y122.6 E55.22937
G1 X193.3 Y122.6 E58.1097
G1 X193.3 Y177.4 E59.93235
G0 F6000 X193.7 Y177.8
;TYPE:WALL-OUTER
G1 F1200 X106.3 Y177.8 E62.83929
G1 X106.3 Y122.2 E64.68855
G1 X193.7 Y122.2 E67.59549
G1 X193.7 Y177.8 E69.44475
G0 F6000 X193.43 Y177.53
G0 X193.19 Y177.01
G0 X192.91 Y177.01
;TYPE:SKIN
G1 F1200 X107.09 Y177.01 E72.29914
G1 X107.09 Y122.99 E74.09585
G1 X192.91 Y122.99 E76.95023
G1 X192.91 Y177.01 E78.74695
G1 F2700 E73.74695
G0 F6000 X193.19 Y177.01
G0 X193.09 Y170.94
G0 X194.565 Y170.94
G0 X185.447 Y169.547
G0 X186.89 Y170.94
G0 X187.09 Y171.19
G1 F2700 E78.74695
G1 F1200 X187.09 Y128.81 E80.15651
G1 X112.91 Y128.81 E82.62375
G1 X112.91 Y171.19 E84.03331
G1 X187.09 Y171.19 E86.50055
G1 F2700 E81.50055
G0 F6000 X186.81 Y170.94
G0 X186.87 Y165.319
G0 X185.435 Y165.319
G0 X194.565 Y129.01
G0 X193.09 Y129.01
G0 X193.19 Y123.735
G0 X192.749 Y123.735
G1 F2700 E86.50055
G1 F1200 X192.164 Y123.15 E86.52807
G0 F6000 X191.598 Y123.15
G1 F1200 X192.749 Y124.301 E86.58221
G0 F6000 X192.749 Y124.867
G1 F1200 X191.032 Y123.15 E86.66297
G0 F6000 X190.466 Y123.15
G1 F1200 X192.749 Y125.432 E86.77033
G0 F6000 X192.749 Y125.998
G1 F1200 X189.901 Y123.15 E86.90429
G0 F6000 X189.335 Y123.15
G1 F1200 X192.749 Y126.564 E87.06488
G0 F6000 X192.749 Y127.13
G1 F1200 X188.769 Y123.15 E87.25208
G0 F6000 X188.204 Y123.15
G1 F1200 X192.749 Y127.695 E87.46586
G0 F6000 X192.749 Y128.261
G1 F1200 X187.638 Y123.15 E87.70627
G0 F6000 X187.072 Y123.15
G1 F1200 X192.749 Y128.827 E87.9733
G0 F6000 X192.749 Y129.392
G1 F1200 X186.507 Y123.15 E88.2669
G0 F6000 X185.941 Y123.15
G1 F1200 X192.749 Y129.958 E88.58713
G0 F6000 X192.749 Y130.524
G1 F1200 X185.375 Y123.15 E88.93398
G0 F6000 X184.81 Y123.15
G1 F1200 X192.749 Y131.089 E89.30741
G0 F6000 X192.749 Y131.655
G1 F1200 X184.244 Y123.15 E89.70746
G0 F6000 X183.678 Y123.15
G1 F1200 X192.749 Y132.221 E90.13413
G0 F6000 X192.749 Y132.786
G1 F1200 X183.113 Y123.15 E90.58738
G0 F6000 X182.547 Y123.15
G1 F1200 X192.749 Y133.352 E91.06725
G0 F6000 X192.749 Y133.918
G1 F1200 X181.981 Y123.15 E91.57374
G0 F6000 X181.416 Y123.15
G1 F1200 X186.915 Y128.649 E91.8324
G0 F6000 X187.248 Y128.983
G1 F1200 X192.749 Y134.483 E92.09112
G0 F6000 X192.749 Y135.049
G1 F1200 X187.248 Y129.549 E92.34985
G0 F6000 X187.248 Y130.114
G1 F1200 X192.749 Y135.615 E92.6086
G0 F6000 X192.749 Y136.18
G1 F1200 X187.248 Y130.68 E92.86733
G0 F6000 X187.248 Y131.246
G1 F1200 X192.749 Y136.746 E93.12605
G0 F6000 X192.749 Y137.312
G1 F1200 X187.248 Y131.811 E93.3848
G0 F6000 X187.248 Y132.377
G1 F1200 X192.749 Y137.878 E93.64355
G0 F6000 X192.749 Y138.443
G1 F1200 X187.248 Y132.943 E93.90228
G0 F6000 X187.248 Y133.508
G1 F1200 X192.749 Y139.009 E94.16103
G0 F6000 X192.749 Y139.575
G1 F1200 X187.248 Y134.074 E94.41978
G0 F6000 X187.248 Y134.64
G1 F1200 X192.749 Y140.14 E94.67851
G0 F6000 X192.749 Y140.706
G1 F1200 X187.248 Y135.205 E94.93726
G0 F6000 X187.248 Y135.771
G1 F1200 X192.749 Y141.272 E95.19601
G0 F6000 X192.749 Y141.837
G1 F1200 X187.248 Y136.337 E95.45474
G0 F6000 X187.248 Y136.902
G1 F1200 X192.749 Y142.403 E95.71349
G0 F6000 X192.749 Y142.969
G1 F1200 X187.248 Y137.468 E95.97224
G0 F6000 X187.248 Y138.034
G1 F1200 X192.749 Y143.534 E96.23096
G0 F6000 X192.749 Y144.1
G1 F1200 X187.248 Y138.6 E96.48969
G0 F6000 X187.248 Y139.165
G1 F1200 X192.749 Y144.666 E96.74844
G0 F6000 X192.749 Y145.231
G1 F1200 X187.248 Y139.731 E97.00717
G0 F6000 X187.248 Y140.297
G1 F1200 X192.749 Y145.797 E97.26589
G0 F6000 X192.749 Y146.363
G1 F1200 X187.248 Y140.862 E97.52464
G0 F6000 X187.248 Y141.428
G1 F1200 X192.749 Y146.929 E97.78339
G0 F6000 X192.749 Y147.494
G1 F1200 X187.248 Y141.994 E98.04212
G0 F6000 X187.248 Y142.559
G1 F1200 X192.749 Y148.06 E98.30087
G0 F6000 X192.749 Y148.626
G1 F1200 X187.248 Y143.125 E98.55962
G0 F6000 X187.248 Y143.691
G1 F1200 X192.749 Y149.191 E98.81835
G0 F6000 X192.749 Y149.757
G1 F1200 X187.248 Y144.256 E99.0771
G0 F6000 X187.248 Y144.822
G1 F1200 X192.749 Y150.323 E99.33585
G0 F6000 X192.749 Y150.888
G1 F1200 X187.248 Y145.388 E99.59457
G0 F6000 X187.248 Y145.953
G1 F1200 X192.749 Y151.454 E99.85332
G0 F6000 X192.749 Y152.02
G1 F1200 X187.248 Y146.519 E100.11207
G0 F6000 X187.248 Y147.085
G1 F1200 X192.749 Y152.585 E100.3708
G0 F6000 X192.749 Y153.151
G1 F1200 X187.248 Y147.65 E100.62955
G0 F6000 X187.248 Y148.216
G1 F1200 X192.749 Y153.717 E100.8883
G0 F6000 X192.749 Y154.282
G1 F1200 X187.248 Y148.782 E101.14703
G0 F6000 X187.248 Y149.348
G1 F1200 X192.749 Y154.848 E101.40575
G0 F6000 X192.749 Y155.414
G1 F1200 X187.248 Y149.913 E101.6645
G0 F6000 X187.248 Y150.479
G1 F1200 X192.749 Y155.979 E101.92323
G0 F6000 X192.749 Y156.545
G1 F1200 X187.248 Y151.045 E102.18196
G0 F6000 X187.248 Y151.61
G1 F1200 X192.749 Y157.111 E102.44071
G0 F6000 X192.749 Y157.677
G1 F1200 X187.248 Y152.176 E102.69946
G0 F6000 X187.248 Y152.742
G1 F1200 X192.749 Y158.242 E102.95818
G0 F6000 X192.749 Y158.808
G1 F1200 X187.248 Y153.307 E103.21693
G0 F6000 X187.248 Y153.873
G1 F1200 X192.749 Y159.374 E103.47569
G0 F6000 X192.749 Y159.939
G1 F1200 X187.248 Y154.439 E103.73441
G0 F6000 X187.248 Y155.004
G1 F1200 X192.749 Y160.505 E103.99316
G0 F6000 X192.749 Y161.071
G1 F1200 X187.248 Y155.57 E104.25191
G0 F6000 X187.248 Y156.136
G1 F1200 X192.749 Y161.636 E104.51064
G0 F6000 X192.749 Y162.202
G1 F1200 X187.248 Y156.701 E104.76939
G0 F6000 X187.248 Y157.267
G1 F1200 X192.749 Y162.768 E105.02814
G0 F6000 X192.749 Y163.333
G1 F1200 X187.248 Y157.833 E105.28687
G0 F6000 X187.248 Y158.398
G1 F1200 X192.749 Y163.899 E105.54562
G0 F6000 X192.749 Y164.465
G1 F1200 X187.248 Y158.964 E105.80437
G0 F6000 X187.248 Y159.53
G1 F1200 X192.749 Y165.03 E106.06309
G0 F6000 X192.749 Y165.596
G1 F1200 X187.248 Y160.096 E106.32182
G0 F6000 X187.248 Y160.661
G1 F1200 X192.749 Y166.162 E106.58057
G0 F6000 X192.749 Y166.728
G1 F1200 X187.248 Y161.227 E106.83932
G0 F6000 X187.248 Y161.793
G1 F1200 X192.749 Y167.293 E107.09805
G0 F6000 X192.749 Y167.859
G1 F1200 X187.248 Y162.358 E107.3568
G0 F6000 X187.248 Y162.924
G1 F1200 X192.749 Y168.425 E107.61555
G0 F6000 X192.749 Y168.99
G1 F1200 X187.248 Y163.49 E107.87427
G0 F6000 X187.248 Y164.055
G1 F1200 X192.749 Y169.556 E108.13302
G0 F6000 X192.749 Y170.122
G1 F1200 X187.248 Y164.621 E108.39177
G0 F6000 X187.248 Y165.187
G1 F1200 X192.749 Y170.687 E108.6505
G0 F6000 X192.749 Y171.253
G1 F1200 X187.248 Y165.752 E108.90925
G0 F6000 X187.248 Y166.318
G1 F1200 X192.749 Y171.819 E109.168
G0 F6000 X192.749 Y172.384
G1 F1200 X187.248 Y166.884 E109.42673
G0 F6000 X187.248 Y167.449
G1 F1200 X192.749 Y172.95 E109.68548
G0 F6000 X192.749 Y173.516
G1 F1200 X187.248 Y168.015 E109.94423
G0 F6000 X187.248 Y168.581
G1 F1200 X192.749 Y174.081 E110.20295
G0 F6000 X192.749 Y174.647
G1 F1200 X187.248 Y169.147 E110.46168
G0 F6000 X187.248 Y169.712
G1 F1200 X192.749 Y175.213 E110.72043
