;FLAVOR:Marlin
;TIME:1159
;Filament used:0.28451m
;Layer height: 0.15
;MINX:101.33
;MINY:101.33
;MINZ:0.15
;MAXX:118.67
;MAXY:118.67
;MAXZ:3.6
                                
;Creality Print GCode Generated by CXEngine:NO_MAGE_VERSION_GIT_HEAD_BRANCH
;CXEngine Release Time:2022-09-30 09:53:04
;Gcode Generated Time:2023-03-05 03:35:10
;----------Machine Config--------------
;Machine Name:Creality Ender-3
;Machine Height:250
;Machine Width:220
;Machine Depth:220
;Material name:PLA
;Number of Extruders:1
;ExtruderParams[0] Nozzle Diameter1000
;----------Profile Config---------------
;Engine Version:275f99b
;Engine Release Time:2022-09-30 09:42:18
;Layer Height:0.15
;Wall Thickness:0.8
;Top/Bottom Thickness:1
;Out Wall Line Width:0.4
;Inner Wall Line Width:0.4
;Inital Layer Height:150
;Wall Line Count:2
;Infill Line Distance:4
;Infill Pattern:grid
;Infill Sparse Density:20
;Infill Wipe Distance:0
;Print Temperature:200
;Bed Temperature:60
;Support Enable:true
;Support Density:30
;Support Angle:60
;Adhesion Type:none
;machine is belt:false
;machine belt offset:10
;machine belt offset Y:0
;Raft Base Line Spacing:1.6
;Wait Heatup Sync:true
;----------Shell Config----------------
;Outer Wall Wipe Distance:200
;Outer Inset First:false
;Infill Before Walls:false
;Infill Overlap:0.16
;Fill Gaps Between Walls:everywhere
;Minimum Infill Area:1
;Top Surface Skin Layer:0
;Top Layers:4
;Z Seam Alignment:sharpest_corner
;Seam Corner Preference:z_seam_corner_inner
;Z Seam X:110
;Z Seam Y:110
;Horizontal Expansion:0
;Top/Bottom Pattern:zigzag
;Ironing Pattern:zigzag
;Vase Model:false
;----------Support Config----------------
;Support Type:everywhere
;Support Pattern:zigzag
;Support Infill Layer Thickness:0.15
;Minimum Support Area:5
;Enable Support Roof:false
;Support Roof Thickness:0.8
;Support Roof Pattern:lines
;Connect Support Lines:0
;Connect Support ZigZags:1
;Minimum Support X/Y Distance:0.2
;Support Line Distance:1.33
; ---------PrintSpeed & Travel----------
;Enable Print Cool:true
;Avoid Printed Parts Traveling:true
;Enable Retraction:true
;Retraction Distance:8
;Retraction Speed:100
;Retraction Prime Speed:100
;Maximum Retraction Count:100
;Minimum Extrusion Distance Window:1
;Z Hop When Retracted:false
;Z Hop Height:0.2
;Retract Before Outer Wall:true
;Print Speed:50
;Infill Speed:50

;Prime Tower Speed:50
;Travel Speed:120
;Initial Layer Speed:25
;Skirt/Brim Speed:25
;Combing Mode:infill
; --------SpecialModel&Mesh Fixes--------
;Union Overlapping Volum:true
;Remove All Holes:false
;Maximum Travel Resolution:0.6
;Maximum Deviation:0.05
;Maximum Model Angle:0.872665
;IS Mold Print:false
;Make Overhang Printable:false
;Enable Coasting:false
;Coasting Volumes:0.06
;Coasting Speed:0.9
;Raft AirGap:0.25
;Layer0 ZOverLap:0.13
;---------------------End of Head--------------------------
M140 S60
M105
M104 S200
M105
M109 S200
M105
M190 S60
M82 ;absolute extrusion mode
M220 S100 ;Reset Feedrate
M221 S100 ;Reset Flowrate

G28 ;Home

G92 E0 ;Reset Extruder
G1 Z2.0 F3000 ;Move Z Axis up
G1 X10.1 Y20 Z0.28 F5000.0 ;Move to start position
G1 X10.1 Y145.0 Z0.28 F1500.0 E15 ;Draw the first line
G1 X10.4 Y145.0 Z0.28 F5000.0 ;Move to side a little
G1 X10.4 Y20 Z0.28 F1500.0 E30 ;Draw the second line
G92 E0  ;Reset Extruder
G1 E-1.0000 F1800 ;Retract a bit
G1 Z2.0 F3000 ;Move Z Axis up
G1 E0.0000 F1800 

G92 E0
G92 E0
G1 F6000 E-8

;LAYER_COUNT:24

;LAYER:0
M107
G0 F3600 X110.162 Y109.823 Z0.15
;TYPE:SUPPORT
G1 F6000 E0
G1 F1500 X110.238 Y109.962 E0.00348
G1 X110.203 Y110.131 E0.00727
G1 X110.075 Y110.228 E0.01079
G1 X109.928 Y110.231 E0.01402
G1 X109.775 Y110.09 E0.01859
G1 X109.773 Y109.922 E0.02227
G1 X109.87 Y109.798 E0.02573
G1 X110.021 Y109.76 E0.02915
G1 X110.162 Y109.823 E0.03254
G0 F3600 X110.442 Y109.529
G1 F1500 X110.579 Y109.713 E0.03757
G1 X110.64 Y109.907 E0.04204
G1 X110.632 Y110.135 E0.04705
G1 X110.55 Y110.342 E0.05193
G1 X110.417 Y110.494 E0.05637
G1 X110.212 Y110.61 E0.06154
G1 X109.995 Y110.648 E0.06637
G1 X109.793 Y110.613 E0.07087
G1 X109.594 Y110.502 E0.07588
G1 X109.404 Y110.267 E0.08251
G1 X109.355 Y110.036 E0.08769
G1 X109.385 Y109.804 E0.09283
G1 X109.475 Y109.626 E0.09721
G1 X109.642 Y109.462 E0.10235
G1 X109.829 Y109.377 E0.10686
G1 X110.053 Y109.356 E0.11179
G1 X110.266 Y109.411 E0.11662
G1 X110.442 Y109.529 E0.12127
G0 F3600 X110.723 Y109.236
G1 F1500 X110.941 Y109.529 E0.12929
G1 X111.043 Y109.853 E0.13675
G1 X111.029 Y110.216 E0.14472
G1 X110.897 Y110.553 E0.15267
G1 X110.672 Y110.809 E0.16015
G1 X110.349 Y110.992 E0.1683
G1 X109.995 Y111.054 E0.17619
G1 X109.658 Y110.995 E0.1837
G1 X109.341 Y110.818 E0.19167
G1 X109.104 Y110.555 E0.19944
G1 X109.024 Y110.402 E0.20323
G1 X108.95 Y110.052 E0.21108
G1 X108.996 Y109.687 E0.21916
G1 X109.148 Y109.385 E0.22658
G1 X109.412 Y109.127 E0.23468
G1 X109.723 Y108.985 E0.24219
G1 X110.087 Y108.951 E0.25021
G1 X110.432 Y109.041 E0.25804
G1 X110.723 Y109.236 E0.26573
;;retract;;
G1 F6000 E-7.73427
;MESH:
G0 F3600 X113.905 Y106.074
G0 X105.888 Y105.954
G0 X104.087 Y105.034
;TYPE:WALL-INNER
G1 F6000 E0.26573
G1 F600 X104.715 Y104.749 E0.28465
G1 X104.718 Y104.748 E0.28474
G1 X104.724 Y104.736 E0.28511
G1 X105.028 Y104.132 E0.30366
G1 X104.884 Y103.457 E0.3226
G1 X104.408 Y103.074 E0.33936
G1 X104.117 Y102.999 E0.34761
G1 X104.091 Y102.993 E0.34834
G1 X104.052 Y102.999 E0.34943
G1 X103.495 Y103.096 E0.36494
G1 X103.038 Y103.614 E0.38389
G1 X103.014 Y104.181 E0.39947
G1 X103.009 Y104.303 E0.40282
G1 X103.013 Y104.308 E0.40299
G1 X103.419 Y104.857 E0.42173
G1 X104.087 Y105.034 E0.44069
G0 F3600 X104.052 Y104.611
;TYPE:WALL-OUTER
G1 F600 X104.424 Y104.442 E0.4519
G1 X104.607 Y104.078 E0.46308
G1 X104.522 Y103.679 E0.47428
G1 X104.225 Y103.44 E0.48474
G1 X104.075 Y103.402 E0.48898
G1 X103.702 Y103.466 E0.49937
G1 X103.432 Y103.772 E0.51056
G1 X103.415 Y104.179 E0.52174
G1 X103.657 Y104.506 E0.5329
G1 X104.052 Y104.611 E0.54412
G0 F3600 X104.234 Y104.529
G0 X104.415 Y104.93
G0 X104.978 Y105.044
;TYPE:WALL-INNER
G1 F600 X104.968 Y105.052 E0.54447
G1 X104.931 Y105.082 E0.54577
G1 X104.929 Y105.085 E0.54587
G1 X104.688 Y105.493 E0.55887
G1 X104.592 Y105.958 E0.5719
G1 X104.66 Y106.429 E0.58496
G1 X104.879 Y106.852 E0.59803
G1 X105.227 Y107.177 E0.61109
G1 X105.663 Y107.367 E0.62414
G1 X106.137 Y107.401 E0.63718
G1 X106.597 Y107.276 E0.65026
G1 X106.988 Y107.004 E0.66333
G1 X107.264 Y106.618 E0.67635
G1 X107.399 Y106.162 E0.6894
G1 X107.372 Y105.683 E0.70257
G1 X107.189 Y105.248 E0.71552
G1 X106.873 Y104.894 E0.72854
G1 X106.474 Y104.678 E0.74099
G1 X106.192 Y104.61 E0.74895
G1 X105.744 Y104.617 E0.76124
G1 X105.3 Y104.78 E0.77422
G1 X104.978 Y105.044 E0.78564
G0 F3600 X105.239 Y105.347
;TYPE:WALL-OUTER
G1 F600 X105.066 Y105.639 E0.79496
G1 X104.998 Y105.97 E0.80423
G1 X105.046 Y106.305 E0.81352
G1 X105.202 Y106.607 E0.82284
G1 X105.45 Y106.838 E0.83214
G1 X105.76 Y106.973 E0.84142
G1 X106.098 Y106.997 E0.85072
G1 X106.425 Y106.908 E0.86002
G1 X106.703 Y106.715 E0.8693
G1 X106.9 Y106.44 E0.87859
G1 X106.996 Y106.115 E0.88788
G1 X106.977 Y105.775 E0.89723
G1 X106.846 Y105.465 E0.90646
G1 X106.621 Y105.213 E0.91573
G1 X106.329 Y105.055 E0.92484
G1 X106.147 Y105.011 E0.92998
G1 X105.818 Y105.016 E0.93901
G1 X105.501 Y105.132 E0.94827
G1 X105.239 Y105.347 E0.95757
G0 F3600 X105.137 Y105.519
G0 X104.759 Y105.295
;;retract;;
G1 F6000 E-7.04243
G0 F3600 X105.888 Y105.954
G0 X115.966 Y118.67
G0 X115.966 Y117.002
;TYPE:WALL-INNER
G1 F6000 E0.95757
G1 F600 X116.087 Y117.034 E0.96101
G1 X116.156 Y117.003 E0.96308
G1 X116.718 Y116.748 E0.98002
G1 X117.003 Y116.182 E0.99741
G1 X117.028 Y116.132 E0.99894
G1 X117.002 Y116.008 E1.00242
G1 X116.884 Y115.457 E1.01788
G1 X116.408 Y115.074 E1.03464
G1 X116.091 Y114.993 E1.04362
G1 X115.495 Y115.096 E1.06022
G1 X115.038 Y115.614 E1.07917
G1 X115.009 Y116.303 E1.09809
G1 X115.419 Y116.857 E1.11701
G1 X115.966 Y117.002 E1.13253
G0 F3600 X116.052 Y116.611
;TYPE:WALL-OUTER
G1 F600 X116.424 Y116.442 E1.14374
G1 X116.607 Y116.078 E1.15492
G1 X116.522 Y115.679 E1.16612
G1 X116.225 Y115.44 E1.17658
G1 X116.075 Y115.402 E1.18082
G1 X115.702 Y115.466 E1.19121
G1 X115.432 Y115.772 E1.20241
G1 X115.415 Y116.179 E1.21358
G1 X115.657 Y116.506 E1.22475
G1 X116.052 Y116.611 E1.23596
G0 F3600 X116.234 Y116.529
G0 X116.415 Y116.93
;;retract;;
G1 F6000 E-6.76404
G0 F3600 X116.415 Y118.67
G0 X113.907 Y113.922
G0 X112.931 Y113.082
;TYPE:WALL-INNER
G1 F6000 E1.23596
G1 F600 X112.688 Y113.493 E1.24906
G1 X112.592 Y113.958 E1.26209
G1 X112.66 Y114.429 E1.27515
G1 X112.879 Y114.852 E1.28822
G1 X113.227 Y115.177 E1.30129
G1 X113.663 Y115.367 E1.31434
G1 X114.137 Y115.401 E1.32738
G1 X114.597 Y115.276 E1.34046
G1 X114.988 Y115.004 E1.35353
G1 X115.264 Y114.618 E1.36655
G1 X115.399 Y114.162 E1.3796
G1 X115.372 Y113.683 E1.39276
G1 X115.189 Y113.248 E1.40571
G1 X114.873 Y112.894 E1.41873
G1 X114.474 Y112.678 E1.43118
G1 X114.192 Y112.61 E1.43914
G1 X113.744 Y112.617 E1.45143
G1 X113.3 Y112.78 E1.46441
G1 X112.931 Y113.082 E1.4775
G0 F3600 X113.239 Y113.347
;TYPE:WALL-OUTER
G1 F600 X113.066 Y113.639 E1.48681
G1 X112.998 Y113.97 E1.49608
G1 X113.046 Y114.305 E1.50537
G1 X113.202 Y114.607 E1.5147
G1 X113.45 Y114.838 E1.52399
G1 X113.76 Y114.973 E1.53327
G1 X114.098 Y114.997 E1.54257
G1 X114.425 Y114.908 E1.55187
G1 X114.703 Y114.715 E1.56116
G1 X114.9 Y114.44 E1.57044
G1 X114.996 Y114.115 E1.57974
G1 X114.977 Y113.775 E1.58908
G1 X114.846 Y113.465 E1.59832
G1 X114.621 Y113.213 E1.60759
G1 X114.329 Y113.055 E1.6167
G1 X114.147 Y113.011 E1.62183
G1 X113.818 Y113.016 E1.63086
G1 X113.501 Y113.132 E1.64013
G1 X113.239 Y113.347 E1.64942
G0 F3600 X113.137 Y113.519
G0 X112.759 Y113.295
;;retract;;
G1 F6000 E-6.35058
G0 F3600 X113.888 Y113.954
G0 X103.966 Y118.67
G0 X103.966 Y117.002
;TYPE:WALL-INNER
G1 F6000 E1.64942
G1 F600 X104.087 Y117.034 E1.65286
G1 X104.156 Y117.003 E1.65493
G1 X104.718 Y116.748 E1.67187
G1 X105.028 Y116.132 E1.69079
G1 X104.884 Y115.457 E1.70973
G1 X104.408 Y115.074 E1.72649
G1 X104.091 Y114.993 E1.73547
G1 X103.495 Y115.096 E1.75207
G1 X103.038 Y115.614 E1.77102
G1 X103.009 Y116.303 E1.78995
G1 X103.419 Y116.857 E1.80886
G1 X103.966 Y117.002 E1.82439
G0 F3600 X104.052 Y116.611
;TYPE:WALL-OUTER
G1 F600 X104.424 Y116.442 E1.8356
G1 X104.607 Y116.078 E1.84678
G1 X104.522 Y115.679 E1.85797
G1 X104.225 Y115.44 E1.86843
G1 X104.075 Y115.402 E1.87268
G1 X103.702 Y115.466 E1.88306
G1 X103.432 Y115.772 E1.89426
G1 X103.415 Y116.179 E1.90544
G1 X103.657 Y116.506 E1.9166
G1 X104.052 Y116.611 E1.92781
G0 F3600 X104.234 Y116.529
G0 X104.415 Y116.93
;;retract;;
G1 F6000 E-6.07219
G0 F3600 X104.415 Y118.67
G0 X105.888 Y113.954
G0 X104.931 Y113.082
;TYPE:WALL-INNER
G1 F6000 E1.92781
G1 F600 X104.688 Y113.493 E1.94092
G1 X104.592 Y113.958 E1.95394
G1 X104.66 Y114.429 E1.967
G1 X104.879 Y114.852 E1.98007
G1 X105.227 Y115.177 E1.99314
G1 X105.663 Y115.367 E2.00619
G1 X106.137 Y115.401 E2.01923
G1 X106.597 Y115.276 E2.03231
G1 X106.988 Y115.004 E2.04538
G1 X107.264 Y114.618 E2.0584
G1 X107.399 Y114.162 E2.07145
G1 X107.372 Y113.683 E2.08461
G1 X107.189 Y113.248 E2.09756
G1 X106.873 Y112.894 E2.11058
G1 X106.474 Y112.678 E2.12303
G1 X106.192 Y112.61 E2.13099
G1 X105.744 Y112.617 E2.14329
G1 X105.3 Y112.78 E2.15627
G1 X104.931 Y113.082 E2.16935
G0 F3600 X105.239 Y113.347
;TYPE:WALL-OUTER
G1 F600 X105.066 Y113.639 E2.17866
G1 X104.998 Y113.97 E2.18793
G1 X105.046 Y114.305 E2.19722
G1 X105.202 Y114.607 E2.20655
G1 X105.45 Y114.838 E2.21585
G1 X105.76 Y114.973 E2.22513
G1 X106.098 Y114.997 E2.23442
G1 X106.425 Y114.908 E2.24372
G1 X106.703 Y114.715 E2.25301
G1 X106.9 Y114.44 E2.26229
G1 X106.996 Y114.115 E2.27159
G1 X106.977 Y113.775 E2.28093
G1 X106.846 Y113.465 E2.29017
G1 X106.621 Y113.213 E2.29944
G1 X106.329 Y113.055 E2.30855
G1 X106.147 Y113.011 E2.31369
G1 X105.818 Y113.016 E2.32271
G1 X105.501 Y113.132 E2.33198
G1 X105.239 Y113.347 E2.34128
G0 F3600 X105.137 Y113.519
G0 X104.759 Y113.295
G0 X107.101 Y110.136
;TYPE:WALL-INNER
G1 F723.8 X107.167 Y110.626 E2.35484
G1 X107.313 Y111.096 E2.36835
G1 X107.537 Y111.533 E2.38182
G1 X107.831 Y111.928 E2.39533
G1 X108.188 Y112.265 E2.40881
G1 X108.596 Y112.54 E2.42231
G1 X109.047 Y112.741 E2.43586
G1 X109.522 Y112.862 E2.44931
G1 X110.002 Y112.903 E2.46252
G1 X110.505 Y112.857 E2.47638
G1 X110.979 Y112.731 E2.48984
G1 X111.428 Y112.527 E2.50337
G1 X111.834 Y112.248 E2.51689
G1 X112.187 Y111.907 E2.53036
G1 X112.479 Y111.509 E2.5439
G1 X112.697 Y111.068 E2.5574
G1 X112.838 Y110.599 E2.57084
G1 X112.9 Y110.111 E2.58434
G1 X112.876 Y109.617 E2.59791
G1 X112.77 Y109.138 E2.61137
G1 X112.585 Y108.682 E2.62488
G1 X112.324 Y108.263 E2.63842
G1 X111.996 Y107.896 E2.65193
G1 X111.613 Y107.588 E2.66541
G1 X111.181 Y107.35 E2.67895
G1 X110.718 Y107.189 E2.6924
G1 X110.232 Y107.108 E2.70592
G1 X109.74 Y107.11 E2.71942
G1 X109.255 Y107.196 E2.73293
G1 X108.793 Y107.361 E2.74639
G1 X108.363 Y107.604 E2.75995
G1 X107.983 Y107.916 E2.77344
G1 X107.659 Y108.286 E2.78693
G1 X107.402 Y108.707 E2.80047
G1 X107.222 Y109.165 E2.81397
G1 X107.122 Y109.644 E2.8274
G1 X107.101 Y110.136 E2.84091
G0 F3600 X107.502 Y110.118
;TYPE:WALL-OUTER
G1 F623.5 X107.559 Y110.539 E2.85257
G1 X107.685 Y110.944 E2.86421
G1 X107.878 Y111.321 E2.87583
G1 X108.131 Y111.661 E2.88746
G1 X108.439 Y111.952 E2.89908
G1 X108.791 Y112.189 E2.91073
G1 X109.179 Y112.362 E2.92238
G1 X109.589 Y112.466 E2.93399
G1 X110.001 Y112.501 E2.94534
G1 X110.435 Y112.462 E2.95729
G1 X110.844 Y112.353 E2.96891
G1 X111.23 Y112.177 E2.98055
G1 X111.58 Y111.937 E2.99219
G1 X111.885 Y111.643 E3.00382
G1 X112.136 Y111.3 E3.01548
G1 X112.324 Y110.921 E3.02709
G1 X112.445 Y110.516 E3.03869
G1 X112.499 Y110.095 E3.05033
G1 X112.478 Y109.67 E3.06201
G1 X112.387 Y109.257 E3.07362
G1 X112.227 Y108.864 E3.08526
G1 X112.003 Y108.504 E3.09689
G1 X111.72 Y108.187 E3.10855
G1 X111.39 Y107.922 E3.12017
G1 X111.018 Y107.717 E3.13182
G1 X110.619 Y107.578 E3.14342
G1 X110.2 Y107.508 E3.15507
G1 X109.776 Y107.51 E3.16671
G1 X109.358 Y107.584 E3.17835
G1 X108.96 Y107.726 E3.18995
G1 X108.59 Y107.935 E3.20161
G1 X108.262 Y108.204 E3.21325
G1 X107.983 Y108.523 E3.22488
G1 X107.762 Y108.886 E3.23654
G1 X107.607 Y109.28 E3.24816
G1 X107.52 Y109.694 E3.25977
G1 X107.502 Y110.118 E3.27141
G0 F3600 X107.528 Y110.316
G0 X107.092 Y110.375
;;retract;;
G1 F6000 E-4.72859
G0 F3600 X106.031 Y113.88
G0 X113.888 Y105.954
G0 X112.931 Y105.082
;TYPE:WALL-INNER
G1 F6000 E3.27141
G1 F600 X112.688 Y105.493 E3.28451
G1 X112.592 Y105.958 E3.29754
G1 X112.66 Y106.429 E3.3106
G1 X112.879 Y106.852 E3.32367
G1 X113.227 Y107.177 E3.33673
G1 X113.663 Y107.367 E3.34978
G1 X114.137 Y107.401 E3.36282
G1 X114.597 Y107.276 E3.3759
G1 X114.988 Y107.004 E3.38897
G1 X115.264 Y106.618 E3.40199
G1 X115.399 Y106.162 E3.41504
G1 X115.372 Y105.683 E3.42821
G1 X115.189 Y105.248 E3.44116
G1 X114.873 Y104.894 E3.45418
G1 X114.474 Y104.678 E3.46663
G1 X114.192 Y104.61 E3.47459
G1 X113.744 Y104.617 E3.48688
G1 X113.3 Y104.78 E3.49986
G1 X112.931 Y105.082 E3.51294
G0 F3600 X113.239 Y105.347
;TYPE:WALL-OUTER
G1 F600 X113.066 Y105.639 E3.52226
G1 X112.998 Y105.97 E3.53153
G1 X113.046 Y106.305 E3.54082
G1 X113.202 Y106.607 E3.55014
G1 X113.45 Y106.838 E3.55944
G1 X113.76 Y106.973 E3.56872
G1 X114.098 Y106.997 E3.57802
G1 X114.425 Y106.908 E3.58732
G1 X114.703 Y106.715 E3.5966
G1 X114.9 Y106.44 E3.60589
G1 X114.996 Y106.115 E3.61519
G1 X114.977 Y105.775 E3.62453
G1 X114.846 Y105.465 E3.63376
G1 X114.621 Y105.213 E3.64303
G1 X114.329 Y105.055 E3.65214
G1 X114.147 Y105.011 E3.65728
G1 X113.818 Y105.016 E3.66631
G1 X113.501 Y105.132 E3.67557
G1 X113.239 Y105.347 E3.68487
G0 F3600 X113.137 Y105.519
G0 X112.759 Y105.295
G0 X116.087 Y105.034
;TYPE:WALL-INNER
G1 F600 X116.718 Y104.748 E3.70388
G1 X117.003 Y104.182 E3.72127
G1 X117.028 Y104.132 E3.72281
G1 X117.002 Y104.008 E3.72628
G1 X116.884 Y103.457 E3.74174
G1 X116.408 Y103.074 E3.75851
G1 X116.172 Y103.013 E3.7652
G1 X116.091 Y102.993 E3.76749
G1 X115.972 Y103.013 E3.7708
G1 X115.495 Y103.096 E3.78408
G1 X115.038 Y103.614 E3.80304
G1 X115.009 Y104.303 E3.82196
G1 X115.419 Y104.857 E3.84087
