;FLAVOR:Marlin
;TIME:3270
;Filament used:0.477826m
;Layer height: 0.15
;MINX:104.346
;MINY:106.034
;MINZ:0.15
;MAXX:115.67
;MAXY:113.966
;MAXZ:57.9
                           
;Creality Print GCode Generated by CXEngine:NO_MAGE_VERSION_GIT_HEAD_BRANCH
;CXEngine Release Time:2022-09-30 09:53:04
;Gcode Generated Time:2023-03-05 03:38:24
;----------Machine Config--------------
;Machine Name:Creality Ender-3
;Machine Height:250
;Machine Width:220
;Machine Depth:220
;Material name:PLA
;Number of Extruders:1
;ExtruderParams[0] Nozzle Diameter1000
;----------Profile Config---------------
;Engine Version:275f99b
;Engine Release Time:2022-09-30 09:42:18
;Layer Height:0.15
;Wall Thickness:0.8
;Top/Bottom Thickness:1
;Out Wall Line Width:0.4
;Inner Wall Line Width:0.4
;Inital Layer Height:150
;Wall Line Count:2
;Infill Line Distance:4
;Infill Pattern:grid
;Infill Sparse Density:20
;Infill Wipe Distance:0
;Print Temperature:200
;Bed Temperature:60
;Support Enable:true
;Support Density:30
;Support Angle:60
;Adhesion Type:none
;machine is belt:false
;machine belt offset:10
;machine belt offset Y:0
;Raft Base Line Spacing:1.6
;Wait Heatup Sync:true
;----------Shell Config----------------
;Outer Wall Wipe Distance:200
;Outer Inset First:false
;Infill Before Walls:false
;Infill Overlap:0.16
;Fill Gaps Between Walls:everywhere
;Minimum Infill Area:1
;Top Surface Skin Layer:0
;Top Layers:4
;Z Seam Alignment:sharpest_corner
;Seam Corner Preference:z_seam_corner_inner
;Z Seam X:110
;Z Seam Y:110
;Horizontal Expansion:0
;Top/Bottom Pattern:zigzag
;Ironing Pattern:zigzag
;Vase Model:false
;----------Support Config----------------
;Support Type:everywhere
;Support Pattern:zigzag
;Support Infill Layer Thickness:0.15
;Minimum Support Area:5
;Enable Support Roof:false
;Support Roof Thickness:0.8
;Support Roof Pattern:lines
;Connect Support Lines:0
;Connect Support ZigZags:1
;Minimum Support X/Y Distance:0.2
;Support Line Distance:1.33
; ---------PrintSpeed & Travel----------
;Enable Print Cool:true
;Avoid Printed Parts Traveling:true
;Enable Retraction:true
;Retraction Distance:8
;Retraction Speed:100
;Retraction Prime Speed:100
;Maximum Retraction Count:100
;Minimum Extrusion Distance Window:1
;Z Hop When Retracted:false
;Z Hop Height:0.2
;Retract Before Outer Wall:true
;Print Speed:50
;Infill Speed:50

;Prime Tower Speed:50
;Travel Speed:120
;Initial Layer Speed:25
;Skirt/Brim Speed:25
;Combing Mode:infill
; --------SpecialModel&Mesh Fixes--------
;Union Overlapping Volum:true
;Remove All Holes:false
;Maximum Travel Resolution:0.6
;Maximum Deviation:0.05
;Maximum Model Angle:0.872665
;IS Mold Print:false
;Make Overhang Printable:false
;Enable Coasting:false
;Coasting Volumes:0.06
;Coasting Speed:0.9
;Raft AirGap:0.25
;Layer0 ZOverLap:0.13
;---------------------End of Head--------------------------
M140 S60
M105
M104 S200
M105
M109 S200
M105
M190 S60
M82 ;absolute extrusion mode
M220 S100 ;Reset Feedrate
M221 S100 ;Reset Flowrate

G28 ;Home

G92 E0 ;Reset Extruder
G1 Z2.0 F3000 ;Move Z Axis up
G1 X10.1 Y20 Z0.28 F5000.0 ;Move to start position
G1 X10.1 Y145.0 Z0.28 F1500.0 E15 ;Draw the first line
G1 X10.4 Y145.0 Z0.28 F5000.0 ;Move to side a little
G1 X10.4 Y20 Z0.28 F1500.0 E30 ;Draw the second line
G92 E0  ;Reset Extruder
G1 E-1.0000 F1800 ;Retract a bit
G1 Z2.0 F3000 ;Move Z Axis up
G1 E0.0000 F1800 

G92 E0
G92 E0
G1 F6000 E-8

;LAYER_COUNT:386

;LAYER:0
M107
G0 F3600 X105.76 Y107.55 Z0.15
;TYPE:SUPPORT
G1 F6000 E0
G1 F1500 X105.76 Y112.45 E0.10756
G1 X105.44 Y112.537 E0.11484
G1 X105.44 Y107.463 E0.22623
G1 X105.76 Y107.55 E0.23351
;;retract;;
G1 F6000 E-7.76649
G0 F3600 X105.997 Y106.467
G0 X104.346 Y106.034
G0 X104.346 Y113.966
G0 X111.459 Y113.67
G0 X111.459 Y110
G0 X110.997 Y110
G1 F6000 E0.23351
G1 F1500 X110.501 Y109.14 E0.2553
G1 X109.499 Y109.14 E0.27729
G1 X109.003 Y110 E0.29909
G1 X109.499 Y110.86 E0.32088
G1 X110.501 Y110.86 E0.34288
G1 X110.997 Y110 E0.36467
G0 F3600 X110.269 Y109.54
G1 F1500 X110.535 Y110 E0.37633
G1 X110.269 Y110.46 E0.388
G1 X109.731 Y110.46 E0.39981
G1 X109.465 Y110 E0.41147
G1 X109.731 Y109.54 E0.42314
G1 X110.269 Y109.54 E0.43495
G0 F3600 X110.073 Y110
G1 F1500 X110.039 Y109.94 E0.43646
G1 X109.961 Y109.94 E0.43817
G1 X109.927 Y110 E0.43969
G1 X109.961 Y110.06 E0.4412
G1 X110.039 Y110.06 E0.44291
G1 X110.073 Y110 E0.44443
G0 F3600 X110.731 Y108.74
G1 F1500 X111.459 Y110 E0.47637
G1 X110.731 Y111.26 E0.50832
G1 X109.269 Y111.26 E0.54041
G1 X108.541 Y110 E0.57235
G1 X109.269 Y108.74 E0.6043
G1 X110.731 Y108.74 E0.63639
;;retract;;
G1 F6000 E-7.36361
G0 F3600 X110.731 Y106.33
G0 X113.148 Y106.125
G0 X115.654 Y106.034
G0 X115.67 Y112.533
G0 X114.56 Y112.533
;;retract;;
G0 X115.67 Y112.533
G0 X115.67 Y107.467
G0 X114.56 Y107.467
G1 F6000 E0.63639
G1 F1500 X114.56 Y112.533 E0.7476
G1 X114.24 Y112.446 E0.75488
G1 X114.24 Y107.554 E0.86226
G1 X114.56 Y107.467 E0.86954
;MESH:
G0 F3600 X112.4 Y107.958
;TYPE:WALL-INNER
G1 F600 X112.245 Y107.69 E0.87804
G1 X112.193 Y107.6 E0.88089
G1 X112.4 Y107.6 E0.88366
G1 X112.4 Y107.958 E0.88662
;;retract;;
G1 F6000 E-7.11338
G0 F3600 X112.4 Y106.33
G0 X107.807 Y106.33
G0 X107.807 Y107.6
G1 F6000 E0.88662
G1 F600 X107.756 Y107.689 E0.88944
G1 X107.6 Y107.958 E0.89797
G1 X107.6 Y107.6 E0.90092
G1 X107.807 Y107.6 E0.90371
;;retract;;
G1 F6000 E-7.09629
G0 F3600 X107.807 Y106.33
G0 X115.654 Y106.034
G0 X115.67 Y109.45
G0 X112.8 Y109.45
;TYPE:WALL-OUTER
G1 F6000 E0.90371
G1 F723.3 X112.427 Y108.804 E0.92417
G1 X111.687 Y107.524 E0.96474
G1 X111.558 Y107.3 E0.97184
G1 X108.442 Y107.3 E1.05734
G1 X108.313 Y107.524 E1.06443
G1 X107.573 Y108.804 E1.105
G1 X107.2 Y109.45 E1.12547
G1 X107.2 Y108.705 E1.13603
G1 X107.2 Y108.704 E1.13606
G1 X107.2 Y107.2 E1.17733
G1 X108.183 Y107.2 E1.2043
G1 X108.442 Y107.2 E1.20911
G1 X111.558 Y107.2 E1.23048
G1 X111.817 Y107.2 E1.23528
G1 X112.8 Y107.2 E1.26226
G1 X112.8 Y108.704 E1.30353
G1 X112.8 Y108.705 E1.30355
G1 X112.8 Y109.45 E1.31412
G0 F3600 X112.7 Y109.277
;;retract;;
G1 F6000 E-6.68588
G0 F3600 X112.7 Y106.33
G0 X115.654 Y106.034
G0 X115.654 Y113.966
G0 X107.807 Y113.67
G0 X107.807 Y112.4
;TYPE:WALL-INNER
G1 F6000 E1.31412
G1 F600 X107.6 Y112.4 E1.3198
G1 X107.6 Y112.042 E1.32962
G1 X107.755 Y112.31 E1.33125
G1 X107.807 Y112.4
;;retract;;
G1 F6000 E-6.66875
G0 F3600 X107.807 Y113.67
G0 X112.4 Y113.67
G0 X112.4 Y112.042
G1 F6000 E1.33125
G1 F600 X112.4 Y112.4 E1.34107
G1 X112.193 Y112.4 E1.34675
G1 X112.244 Y112.311
G1 X112.4 Y112.042 E1.34839
;;retract;;
G1 F6000 E-6.65161
G0 F3600 X112.8 Y110.55
;TYPE:WALL-OUTER
G1 F6000 E1.34839
G1 F723.3 X112.8 Y111.295 E1.36883
G1 X112.8 Y111.296 E1.36886
G1 X112.8 Y112.8 E1.41013
G1 X111.817 Y112.8 E1.4371
G1 X111.558 Y112.8 E1.44421
G1 X108.442 Y112.8 E1.52971
G1 X108.183 Y112.8 E1.53682
G1 X107.2 Y112.8 E1.56379
G1 X107.2 Y111.296 E1.60506
G1 X107.2 Y111.295 E1.60509
G1 X107.2 Y110.55 E1.62553
G1 X107.573 Y111.196 E1.63611
G1 X108.313 Y112.476 E1.67668
G1 X108.442 Y112.7 E1.68146
G1 X111.558 Y112.7 E1.70284
G1 X111.687 Y112.476 E1.70762
G1 X112.427 Y111.196 E1.74819
G1 X112.8 Y110.55 E1.75877
G0 F3600 X112.8 Y110.75
;;retract;;
G1 F6000 E-6.24123
;MESH:NONMESH
G0 F600 X112.8 Y110.75 Z0.3
G0 F3600 X112.8 Y113.67
G0 X104.346 Y113.966
G0 X104.346 Y106.034
G0 X105.426 Y106.31
G0 X105.2 Y107.149
;TIME_ELAPSED:19.256719

;LAYER:1
M140 S60
M106 S127.5
;TYPE:SUPPORT
G1 F6000 E1.75877
G1 F2250 X106 Y107.366 E1.77531
G1 X106 Y112.634 E1.88044
G1 X105.2 Y112.851 E1.89698
G1 X105.2 Y107.149 E2.01077
;;retract;;
G1 F6000 E-5.98923
G0 F5400 X105.426 Y106.31
G0 X106.709 Y106.144
G0 X109.06 Y106.33
G0 X109.06 Y108.628
G1 F6000 E2.01077
G1 F2250 X108.268 Y110 E2.04238
G1 X109.06 Y111.371 E2.07398
G1 X109.06 Y108.628 E2.12872
G1 X109.134 Y108.5 E2.13167
G1 X110.39 Y108.5 E2.15673
G1 X110.39 Y111.5 E2.2166
G1 X110.866 Y111.5 E2.2261
G1 X111.72 Y110.021 E2.26018
G1 X111.732 Y110 E2.26067
G1 X111.72 Y109.98 E2.26113
G0 F5400 X114.38 Y107.262
G1 F2250 X114 Y107.366 E2.26899
G1 X114 Y112.634 E2.37412
G1 X114.38 Y112.737 E2.38198
G1 X114.8 Y112.851 E2.39066
G1 X114.8 Y107.149 E2.50445
G1 X114.38 Y107.262 E2.51313
G1 X114.38 Y112.737 E2.62239
;;retract;;
G1 F6000 E-5.37761
;MESH:
G0 F5400 X114.003 Y113.533
G0 X115.654 Y113.966
G0 X115.654 Y106.034
G0 X113.148 Y106.125
G0 X112.4 Y106.33
G0 X112.4 Y107.958
;TYPE:WALL-INNER
G1 F6000 E2.62239
G1 F600 X112.245 Y107.69 E2.63012
G1 X112.193 Y107.6 E2.63271
G1 X112.4 Y107.6 E2.63522
G1 X112.4 Y107.958 E2.63792
;;retract;;
G1 F6000 E-5.36208
G0 F5400 X112.4 Y106.33
G0 X107.807 Y106.33
G0 X107.807 Y107.6
G1 F6000 E2.63792
G1 F600 X107.756 Y107.689 E2.64048
G1 X107.6 Y107.958 E2.64824
G1 X107.6 Y107.6 E2.65092
G1 X107.807 Y107.6 E2.65345
;;retract;;
G1 F6000 E-5.34655
G0 F5400 X107.807 Y106.33
G0 X115.654 Y106.034
G0 X115.67 Y109.45
G0 X112.8 Y109.45
;TYPE:WALL-OUTER
G1 F6000 E2.65345
G1 F723.3 X112.427 Y108.804 E2.67206
G1 X111.687 Y107.524 E2.70894
G1 X111.558 Y107.3 E2.71539
G1 X108.442 Y107.3 E2.79312
G1 X108.313 Y107.524 E2.79956
G1 X107.573 Y108.804 E2.83645
G1 X107.2 Y109.45 E2.85505
G1 X107.2 Y108.705 E2.86466
G1 X107.2 Y108.704 E2.86468
G1 X107.2 Y107.2 E2.9022
G1 X108.183 Y107.2 E2.92672
G1 X108.442 Y107.2 E2.93109
G1 X111.558 Y107.2 E2.95052
G1 X111.817 Y107.2 E2.95488
G1 X112.8 Y107.2 E2.97941
G1 X112.8 Y108.704 E3.01692
G1 X112.8 Y108.705 E3.01695
G1 X112.8 Y109.45 E3.02655
G0 F5400 X112.7 Y109.277
;;retract;;
G1 F6000 E-4.97345
G0 F5400 X112.7 Y106.33
G0 X115.654 Y106.034
G0 X115.654 Y113.966
G0 X107.807 Y113.67
G0 X107.807 Y112.4
;TYPE:WALL-INNER
G1 F6000 E3.02655
G1 F600 X107.6 Y112.4 E3.03172
G1 X107.6 Y112.042 E3.04065
G1 X107.755 Y112.31 E3.04213
G1 X107.807 Y112.4
;;retract;;
G1 F6000 E-4.95787
G0 F5400 X107.807 Y113.67
G0 X112.4 Y113.67
G0 X112.4 Y112.042
G1 F6000 E3.04213
G1 F600 X112.4 Y112.4 E3.05106
G1 X112.193 Y112.4 E3.05622
G1 X112.244 Y112.311
G1 X112.4 Y112.042 E3.05771
;;retract;;
G1 F6000 E-4.94229
G0 F5400 X112.8 Y110.55
;TYPE:WALL-OUTER
G1 F6000 E3.05771
G1 F723.3 X112.8 Y111.295 E3.07629
G1 X112.8 Y111.296 E3.07632
G1 X112.8 Y112.8 E3.11383
G1 X111.817 Y112.8 E3.13836
G1 X111.558 Y112.8 E3.14482
G1 X108.442 Y112.8 E3.22254
G1 X108.183 Y112.8 E3.22901
G1 X107.2 Y112.8 E3.25353
G1 X107.2 Y111.296 E3.29104
G1 X107.2 Y111.295 E3.29107
G1 X107.2 Y110.55 E3.30965
G1 X107.573 Y111.196 E3.31927
G1 X108.313 Y112.476 E3.35615
G1 X108.442 Y112.7 E3.3605
G1 X111.558 Y112.7 E3.37993
G1 X111.687 Y112.476 E3.38428
G1 X112.427 Y111.196 E3.42116
G1 X112.8 Y110.55 E3.43078
G0 F5400 X112.8 Y110.75
;;retract;;
G1 F6000 E-4.56922
;MESH:NONMESH
G0 F600 X112.8 Y110.75 Z0.45
G0 F5400 X112.8 Y113.67
G0 X104.346 Y113.966
G0 X104.346 Y106.034
G0 X105.426 Y106.31
G0 X105.2 Y107.149
;TIME_ELAPSED:32.508863

;LAYER:2
M106 S255
;TYPE:SUPPORT
G1 F6000 E3.43078
G1 F3000 X106 Y107.366 E3.44732
G1 X106 Y112.634 E3.55245
G1 X105.2 Y112.851 E3.56899
G1 X105.2 Y107.149 E3.68278
;;retract;;
G1 F6000 E-4.31722
G0 F7200 X105.426 Y106.31
G0 X106.709 Y106.144
G0 X109.06 Y106.33
G0 X109.06 Y108.628
G1 F6000 E3.68278
G1 F3000 X108.268 Y110 E3.71439
G1 X109.06 Y111.371 E3.74599
G1 X109.06 Y108.628 E3.80073
G1 X109.134 Y108.5 E3.80368
G1 X110.39 Y108.5 E3.82875
G1 X110.39 Y111.5 E3.88861
G1 X110.866 Y111.5 E3.89811
G1 X111.72 Y110.021 E3.9322
G1 X111.732 Y110 E3.93268
G1 X111.72 Y109.98 E3.93314
G0 F7200 X114.38 Y107.262
G1 F3000 X114 Y107.366 E3.94101
G1 X114 Y112.634 E4.04613
G1 X114.38 Y112.737 E4.05399
G1 X114.8 Y112.851 E4.06268
G1 X114.8 Y107.149 E4.17647
G1 X114.38 Y107.262 E4.18515
G1 X114.38 Y112.737 E4.29441
;;retract;;
G1 F6000 E-3.70559
;MESH:
G0 F7200 X114.003 Y113.533
G0 X115.654 Y113.966
G0 X115.654 Y106.034
G0 X113.148 Y106.125
G0 X112.4 Y106.33
G0 X112.4 Y107.958
;TYPE:WALL-INNER
G1 F6000 E4.29441
G1 F600 X112.245 Y107.69 E4.30213
G1 X112.193 Y107.6 E4.30472
G1 X112.4 Y107.6 E4.30723
G1 X112.4 Y107.958 E4.30993
;;retract;;
G1 F6000 E-3.69007
G0 F7200 X112.4 Y106.33
G0 X107.807 Y106.33
G0 X107.807 Y107.6
G1 F6000 E4.30993
G1 F600 X107.756 Y107.689 E4.31249
G1 X107.6 Y107.958 E4.32025
G1 X107.6 Y107.6 E4.32293
G1 X107.807 Y107.6 E4.32546
;;retract;;
G1 F6000 E-3.67454
G0 F7200 X107.807 Y106.33
G0 X115.654 Y106.034
G0 X115.67 Y109.45
G0 X112.8 Y109.45
;TYPE:WALL-OUTER
G1 F6000 E4.32546
G1 F723.3 X112.427 Y108.804 E4.34407
G1 X111.687 Y107.524 E4.38095
G1 X111.558 Y107.3 E4.3874
G1 X108.442 Y107.3 E4.46513
G1 X108.313 Y107.524 E4.47158
G1 X107.573 Y108.804 E4.50846
G1 X107.2 Y109.45 E4.52707
G1 X107.2 Y108.705 E4.53667
G1 X107.2 Y108.704 E4.53669
G1 X107.2 Y107.2 E4.57421
G1 X108.183 Y107.2 E4.59873
G1 X108.442 Y107.2 E4.6031
G1 X111.558 Y107.2 E4.62253
G1 X111.817 Y107.2 E4.6269
G1 X112.8 Y107.2 E4.65142
G1 X112.8 Y108.704 E4.68893
G1 X112.8 Y108.705 E4.68896
G1 X112.8 Y109.45 E4.69856
G0 F7200 X112.7 Y109.277
;;retract;;
G1 F6000 E-3.30144
G0 F7200 X112.7 Y106.33
G0 X115.654 Y106.034
G0 X115.654 Y113.966
G0 X107.807 Y113.67
G0 X107.807 Y112.4
;TYPE:WALL-INNER
G1 F6000 E4.69856
G1 F600 X107.6 Y112.4 E4.70373
G1 X107.6 Y112.042 E4.71266
G1 X107.755 Y112.31 E4.71414
G1 X107.807 Y112.4
;;retract;;
G1 F6000 E-3.28586
G0 F7200 X107.807 Y113.67
G0 X112.4 Y113.67
G0 X112.4 Y112.042
G1 F6000 E4.71414
G1 F600 X112.4 Y112.4 E4.72307
G1 X112.193 Y112.4 E4.72823
G1 X112.244 Y112.311
G1 X112.4 Y112.042 E4.72972
;;retract;;
G1 F6000 E-3.27028
G0 F7200 X112.8 Y110.55
;TYPE:WALL-OUTER
G1 F6000 E4.72972
G1 F723.3 X112.8 Y111.295 E4.7483
G1 X112.8 Y111.296 E4.74833
G1 X112.8 Y112.8 E4.78585
G1 X111.817 Y112.8 E4.81037
G1 X111.558 Y112.8 E4.81683
G1 X108.442 Y112.8 E4.89456
G1 X108.183 Y112.8 E4.90102
G1 X107.2 Y112.8 E4.92554
G1 X107.2 Y111.296 E4.96306
G1 X107.2 Y111.295 E4.96308
G1 X107.2 Y110.55 E4.98166
G1 X107.573 Y111.196 E4.99128
G1 X108.313 Y112.476 E5.02816
G1 X108.442 Y112.7 E5.03251
G1 X111.558 Y112.7 E5.05194
G1 X111.687 Y112.476 E5.05629
G1 X112.427 Y111.196 E5.09317
G1 X112.8 Y110.55 E5.10279
G0 F7200 X112.8 Y110.75
;;retract;;
G1 F6000 E-2.89721
;MESH:NONMESH
G0 F600 X112.8 Y110.75 Z0.6
G0 F7200 X112.8 Y113.67
G0 X104.346 Y113.966
G0 X104.346 Y106.034
G0 X105.426 Y106.31
G0 X105.2 Y107.149
;TIME_ELAPSED:45.691573

;LAYER:3
;TYPE:SUPPORT
G1 F6000 E5.10279
G1 F3000 X106 Y107.366 E5.11933
G1 X106 Y112.634 E5.22446
G1 X105.2 Y112.851 E5.241
G1 X105.2 Y107.149 E5.35479
;;retract;;
G1 F6000 E-2.64521
G0 F7200 X105.426 Y106.31
G0 X106.709 Y106.144
G0 X109.06 Y106.33
G0 X109.06 Y108.628
G1 F6000 E5.35479
G1 F3000 X108.268 Y110 E5.38641
G1 X109.06 Y111.371 E5.418
G1 X109.06 Y108.628 E5.47274
G1 X109.134 Y108.5 E5.47569
G1 X110.39 Y108.5 E5.50076
G1 X110.39 Y111.5 E5.56063
G1 X110.866 Y111.5 E5.57012
G1 X111.72 Y110.021 E5.60421
G1 X111.732 Y110 E5.60469
G1 X111.72 Y109.98 E5.60516
G0 F7200 X114.38 Y107.262
G1 F3000 X114 Y107.366 E5.61302
G1 X114 Y112.634 E5.71815
G1 X114.38 Y112.737 E5.726
G1 X114.8 Y112.851 E5.73469
G1 X114.8 Y107.149 E5.84848
G1 X114.38 Y107.262 E5.85716
G1 X114.38 Y112.737 E5.96642
;;retract;;
G1 F6000 E-2.03358
;MESH:
G0 F7200 X114.003 Y113.533
G0 X115.654 Y113.966
G0 X115.654 Y106.034
G0 X113.148 Y106.125
G0 X112.4 Y106.33
G0 X112.4 Y107.958
;TYPE:WALL-INNER
G1 F6000 E5.96642
G1 F600 X112.245 Y107.69 E5.97414
G1 X112.193 Y107.6 E5.97673
G1 X112.4 Y107.6 E5.97924
G1 X112.4 Y107.958 E5.98194
;;retract;;
G1 F6000 E-2.01806
G0 F7200 X112.4 Y106.33
G0 X107.807 Y106.33
G0 X107.807 Y107.6
G1 F6000 E5.98194
G1 F600 X107.756 Y107.689 E5.9845
G1 X107.6 Y107.958 E5.99226
G1 X107.6 Y107.6 E5.99494
G1 X107.807 Y107.6 E5.99747
;;retract;;
G1 F6000 E-2.00253
G0 F7200 X107.807 Y106.33
G0 X115.654 Y106.034
G0 X115.67 Y109.45
G0 X112.8 Y109.45
;TYPE:WALL-OUTER
G1 F6000 E5.99747
G1 F723.3 X112.427 Y108.804 E6.01608
G1 X111.687 Y107.524 E6.05296
G1 X111.558 Y107.3 E6.05941
G1 X108.442 Y107.3 E6.13714
G1 X108.313 Y107.524 E6.14359
G1 X107.573 Y108.804 E6.18047
G1 X107.2 Y109.45 E6.19908
G1 X107.2 Y108.705 E6.20868
G1 X107.2 Y108.704 E6.20871
G1 X107.2 Y107.2 E6.24622
G1 X108.183 Y107.2 E6.27074
G1 X108.442 Y107.2 E6.27511
G1 X111.558 Y107.2 E6.29454
G1 X111.817 Y107.2 E6.29891
G1 X112.8 Y107.2 E6.32343
G1 X112.8 Y108.704 E6.36095
G1 X112.8 Y108.705 E6.36097
