;FLAVOR:Marlin
;TIME:162
;Filament used:0.0350721m
;Layer height: 0.15
;MINX:104.33
;MINY:104.33
;MINZ:0.15
;MAXX:115.67
;MAXY:115.67
;MAXZ:0.9
                               
;Creality Print GCode Generated by CXEngine:NO_MAGE_VERSION_GIT_HEAD_BRANCH
;CXEngine Release Time:2022-09-30 09:53:04
;Gcode Generated Time:2023-03-05 03:35:57
;----------Machine Config--------------
;Machine Name:Creality Ender-3
;Machine Height:250
;Machine Width:220
;Machine Depth:220
;Material name:PLA
;Number of Extruders:1
;ExtruderParams[0] Nozzle Diameter1000
;----------Profile Config---------------
;Engine Version:275f99b
;Engine Release Time:2022-09-30 09:42:18
;Layer Height:0.15
;Wall Thickness:0.8
;Top/Bottom Thickness:1
;Out Wall Line Width:0.4
;Inner Wall Line Width:0.4
;Inital Layer Height:150
;Wall Line Count:2
;Infill Line Distance:4
;Infill Pattern:grid
;Infill Sparse Density:20
;Infill Wipe Distance:0
;Print Temperature:200
;Bed Temperature:60
;Support Enable:true
;Support Density:30
;Support Angle:60
;Adhesion Type:none
;machine is belt:false
;machine belt offset:10
;machine belt offset Y:0
;Raft Base Line Spacing:1.6
;Wait Heatup Sync:true
;----------Shell Config----------------
;Outer Wall Wipe Distance:200
;Outer Inset First:false
;Infill Before Walls:false
;Infill Overlap:0.16
;Fill Gaps Between Walls:everywhere
;Minimum Infill Area:1
;Top Surface Skin Layer:0
;Top Layers:4
;Z Seam Alignment:sharpest_corner
;Seam Corner Preference:z_seam_corner_inner
;Z Seam X:110
;Z Seam Y:110
;Horizontal Expansion:0
;Top/Bottom Pattern:zigzag
;Ironing Pattern:zigzag
;Vase Model:false
;----------Support Config----------------
;Support Type:everywhere
;Support Pattern:zigzag
;Support Infill Layer Thickness:0.15
;Minimum Support Area:5
;Enable Support Roof:false
;Support Roof Thickness:0.8
;Support Roof Pattern:lines
;Connect Support Lines:0
;Connect Support ZigZags:1
;Minimum Support X/Y Distance:0.2
;Support Line Distance:1.33
; ---------PrintSpeed & Travel----------
;Enable Print Cool:true
;Avoid Printed Parts Traveling:true
;Enable Retraction:true
;Retraction Distance:8
;Retraction Speed:100
;Retraction Prime Speed:100
;Maximum Retraction Count:100
;Minimum Extrusion Distance Window:1
;Z Hop When Retracted:false
;Z Hop Height:0.2
;Retract Before Outer Wall:true
;Print Speed:50
;Infill Speed:50

;Prime Tower Speed:50
;Travel Speed:120
;Initial Layer Speed:25
;Skirt/Brim Speed:25
;Combing Mode:infill
; --------SpecialModel&Mesh Fixes--------
;Union Overlapping Volum:true
;Remove All Holes:false
;Maximum Travel Resolution:0.6
;Maximum Deviation:0.05
;Maximum Model Angle:0.872665
;IS Mold Print:false
;Make Overhang Printable:false
;Enable Coasting:false
;Coasting Volumes:0.06
;Coasting Speed:0.9
;Raft AirGap:0.25
;Layer0 ZOverLap:0.13
;---------------------End of Head--------------------------
M140 S60
M105
M104 S200
M105
M109 S200
M105
M190 S60
M82 ;absolute extrusion mode
M220 S100 ;Reset Feedrate
M221 S100 ;Reset Flowrate

G28 ;Home

G92 E0 ;Reset Extruder
G1 Z2.0 F3000 ;Move Z Axis up
G1 X10.1 Y20 Z0.28 F5000.0 ;Move to start position
G1 X10.1 Y145.0 Z0.28 F1500.0 E15 ;Draw the first line
G1 X10.4 Y145.0 Z0.28 F5000.0 ;Move to side a little
G1 X10.4 Y20 Z0.28 F1500.0 E30 ;Draw the second line
G92 E0  ;Reset Extruder
G1 E-1.0000 F1800 ;Retract a bit
G1 Z2.0 F3000 ;Move Z Axis up
G1 E0.0000 F1800 

G92 E0
G92 E0
G1 F6000 E-8

;LAYER_COUNT:6

;LAYER:0
M107
;MESH:
G0 F3600 X114.581 Y114.8 Z0.15
;TYPE:WALL-OUTER
G1 F6000 E0
G1 F600 X114.703 Y114.715 E0.00408
G1 X114.8 Y114.58 E0.00864
G1 X114.8 Y114.715 E0.0089
G1 X114.8 Y114.8 E0.0095
G1 X114.703 Y114.8 E0.01015
G1 X114.581 Y114.8 E0.01034
G0 F3600 X114.703 Y114.715
G0 X114.733 Y114.673
;;retract;;
G1 F6000 E-7.98966
G0 F3600 X114.164 Y113.992
G0 X114.164 Y105.991
G0 X114.8 Y105.413
G1 F6000 E0.01034
G1 F600 X114.694 Y105.302 E0.01455
G1 X114.597 Y105.2 E0.01841
G1 X114.8 Y105.2 E0.02044
G1 X114.8 Y105.413 E0.02248
G0 F3600 X114.694 Y105.302
G0 X114.662 Y105.268
;;retract;;
G1 F6000 E-7.97752
G0 F3600 X114.009 Y105.827
G0 X106.007 Y105.824
G0 X105.2 Y105.413
G1 F6000 E0.02248
G1 F600 X105.2 Y105.2 E0.02832
G1 X105.418 Y105.2 E0.03431
G1 X105.307 Y105.308 E0.03469
G1 X105.2 Y105.413 E0.03506
G0 F3600 X105.2 Y105.213
;;retract;;
G1 F6000 E-7.96494
G0 F3600 X105.909 Y105.936
G0 X109.328 Y109.969
G0 X108.042 Y109.917
;TYPE:WALL-INNER
G1 F6000 E0.03506
G1 F600 X108.127 Y110.574 E0.05324
G1 X108.426 Y111.166 E0.07143
G1 X108.903 Y111.622 E0.08954
G1 X109.495 Y111.89 E0.10737
G1 X110.015 Y111.956 E0.12176
G1 X110.527 Y111.882 E0.13595
G1 X111.098 Y111.622 E0.15317
G1 X111.574 Y111.166 E0.17125
G1 X111.873 Y110.574 E0.18945
G1 X111.958 Y109.917 E0.20763
G1 X111.817 Y109.269 E0.22583
G1 X111.47 Y108.706 E0.24397
G1 X110.955 Y108.29 E0.26214
G1 X110.331 Y108.069 E0.2803
G1 X109.669 Y108.069 E0.29847
G1 X109.045 Y108.29 E0.31663
G1 X108.53 Y108.706 E0.3348
G1 X108.183 Y109.269 E0.35295
G1 X108.042 Y109.917 E0.37114
G0 F3600 X108.448 Y109.934
;TYPE:WALL-OUTER
G1 F600 X108.515 Y110.455 E0.38556
G1 X108.752 Y110.924 E0.39998
G1 X109.13 Y111.286 E0.41434
G1 X109.605 Y111.501 E0.42864
G1 X110.011 Y111.552 E0.43987
G1 X110.413 Y111.494 E0.45102
G1 X110.87 Y111.286 E0.4648
G1 X111.248 Y110.924 E0.47916
G1 X111.485 Y110.455 E0.49358
G1 X111.552 Y109.934 E0.50799
G1 X111.441 Y109.421 E0.52239
G1 X111.165 Y108.974 E0.53681
G1 X110.757 Y108.644 E0.55121
G1 X110.262 Y108.469 E0.56561
G1 X109.738 Y108.469 E0.57999
G1 X109.243 Y108.644 E0.5944
G1 X108.835 Y108.974 E0.6088
G1 X108.559 Y109.421 E0.62321
G1 X108.448 Y109.934 E0.63761
G0 F3600 X108.473 Y110.132
G0 X108.037 Y110.187
;;retract;;
G1 F6000 E-7.36239
G0 F3600 X109.357 Y110.193
G0 X106.12 Y114.013
G0 X107.329 Y114.4
;TYPE:WALL-INNER
G1 F6000 E0.63761
G1 F1500 X107.399 Y114.162 E0.64442
G1 X107.372 Y113.683 E0.65759
G1 X107.189 Y113.248 E0.67053
G1 X106.873 Y112.894 E0.68356
G1 X106.474 Y112.678 E0.69601
G1 X106.192 Y112.61 E0.70397
G1 X105.873 Y112.615 E0.71272
G1 X105.744 Y112.617 E0.71626
G1 X105.6 Y112.67 E0.72047
G1 X105.6 Y112.617
G1 X105.6 Y112.488 E0.72321
G1 X105.602 Y107.563 E0.85835
G1 X105.602 Y107.562 E0.85838
G1 X105.602 Y107.34 E0.86447
G1 X105.823 Y107.365 E0.86829
G1 X106.137 Y107.401 E0.87697
G1 X106.597 Y107.276 E0.89005
G1 X106.988 Y107.004 E0.90312
G1 X107.264 Y106.618 E0.91614
G1 X107.399 Y106.162 E0.92919
G1 X107.381 Y105.85 E0.93776
G1 X107.372 Y105.683 E0.94235
G1 X107.337 Y105.6 E0.94482
G1 X107.372 Y105.6
G1 X107.539 Y105.6 E0.94809
G1 X112.592 Y105.6 E1.08674
G1 X112.666 Y105.6 E1.08877
G1 X112.592 Y105.958 E1.09587
G1 X112.66 Y106.429 E1.10893
G1 X112.879 Y106.852 E1.122
G1 X113.227 Y107.177 E1.13507
G1 X113.663 Y107.367 E1.14812
G1 X114.137 Y107.401 E1.16116
G1 X114.4 Y107.33 E1.16863
G1 X114.4 Y107.401
G1 X114.4 Y112.61 E1.31156
G1 X114.4 Y112.66 E1.31294
G1 X114.192 Y112.61 E1.31646
G1 X113.744 Y112.617 E1.32876
G1 X113.3 Y112.78 E1.34174
G1 X112.931 Y113.082 E1.35482
G1 X112.688 Y113.493 E1.36792
G1 X112.592 Y113.958 E1.38095
G1 X112.623 Y114.173 E1.38691
G1 X112.656 Y114.4 E1.3932
G1 X112.427 Y114.4 E1.39711
G1 X112.426 Y114.4 E1.39714
G1 X107.399 Y114.4 E1.53299
G1 X107.329 Y114.4
;;retract;;
G1 F6000 E-6.46701
G0 F3600 X106.581 Y114.8
;TYPE:WALL-OUTER
G1 F6000 E1.53299
G1 F1500 X106.703 Y114.715 E1.53707
G1 X106.9 Y114.44 E1.54635
G1 X106.907 Y114.415 E1.54707
G1 X106.996 Y114.115 E1.55565
G1 X106.977 Y113.775 E1.565
G1 X106.846 Y113.465 E1.57423
G1 X106.621 Y113.213 E1.5835
G1 X106.329 Y113.055 E1.59261
G1 X106.147 Y113.011 E1.59775
G1 X105.818 Y113.016 E1.60678
G1 X105.566 Y113.108 E1.61414
G1 X105.501 Y113.132 E1.61604
G1 X105.239 Y113.347 E1.62534
G1 X105.2 Y113.413 E1.62744
G1 X105.2 Y113.347
G1 X105.2 Y113.132 E1.62938
G1 X105.2 Y113.062 E1.6311
G1 X105.201 Y106.953 E1.79873
G1 X105.201 Y106.838 E1.80189
G1 X105.202 Y106.607 E1.80823
G1 X105.45 Y106.838 E1.81257
G1 X105.555 Y106.883 E1.81521
G1 X105.76 Y106.973 E1.82135
G1 X106.098 Y106.997 E1.83065
G1 X106.425 Y106.908 E1.83995
G1 X106.703 Y106.715 E1.84924
G1 X106.9 Y106.44 E1.85852
G1 X106.996 Y106.115 E1.86782
G1 X106.977 Y105.775 E1.87716
G1 X106.885 Y105.558 E1.88363
G1 X106.846 Y105.465 E1.8864
G1 X106.597 Y105.2 E1.89637
G1 X106.846 Y105.2 E1.89803
G1 X106.947 Y105.2 E1.90041
G1 X113.018 Y105.2 E2.067
G1 X113.239 Y105.2 E2.07306
G1 X113.418 Y105.2 E2.07797
G1 X113.239 Y105.347 E2.07999
G1 X113.127 Y105.537 E2.08437
G1 X113.066 Y105.639 E2.08763
G1 X112.998 Y105.97 E2.0969
G1 X113.046 Y106.305 E2.10619
G1 X113.202 Y106.607 E2.11552
G1 X113.45 Y106.838 E2.12482
G1 X113.76 Y106.973 E2.1341
G1 X114.098 Y106.997 E2.14339
G1 X114.41 Y106.912 E2.15227
G1 X114.425 Y106.908 E2.15269
G1 X114.703 Y106.715 E2.16198
G1 X114.8 Y106.58 E2.16654
G1 X114.8 Y106.715 E2.1668
G1 X114.8 Y106.908 E2.16942
G1 X114.8 Y106.924 E2.16985
G1 X114.8 Y113.028 E2.33734
G1 X114.8 Y113.213 E2.34242
G1 X114.8 Y113.413 E2.3479
G1 X114.621 Y113.213 E2.3506
G1 X114.459 Y113.125 E2.35445
G1 X114.329 Y113.055 E2.3585
G1 X114.147 Y113.011 E2.36364
G1 X113.818 Y113.016 E2.37267
G1 X113.501 Y113.132 E2.38193
G1 X113.239 Y113.347 E2.39123
G1 X113.066 Y113.639 E2.40055
G1 X112.998 Y113.97 E2.40982
G1 X113.046 Y114.305 E2.4191
G1 X113.125 Y114.457 E2.4238
G1 X113.202 Y114.607 E2.42843
G1 X113.409 Y114.8 E2.4362
G1 X113.202 Y114.8 E2.43713
G1 X113.033 Y114.8 E2.44075
G1 X106.926 Y114.8 E2.60832
G1 X106.9 Y114.8
G1 X106.703 Y114.8 E2.6108
G1 X106.581 Y114.8 E2.61099
G0 F3600 X106.703 Y114.715
G0 X106.733 Y114.673
;;retract;;
G1 F6000 E-5.38901
G0 F3600 X105.298 Y114.695
G1 F6000 E2.61099
G1 F600 X105.409 Y114.8 E2.61518
G1 X105.2 Y114.8 E2.61713
G1 X105.2 Y114.603 E2.62002
G1 X105.298 Y114.695 E2.62026
G0 F3600 X105.409 Y114.8
G0 X105.361 Y114.8
G0 X105.84 Y112.375
;TYPE:SKIN
G1 F600 X106.148 Y112.37 E2.62871
G1 X105.84 Y112.062 E2.64066
G0 F3600 X106.218 Y112.369
G1 F600 X106.559 Y112.451 E2.65029
G1 X107.024 Y112.702 E2.66479
G1 X107.393 Y113.117 E2.68002
G1 X107.609 Y113.627 E2.69522
G1 X107.62 Y113.843 E2.70116
G1 X107.937 Y114.159 E2.71344
G1 X108.502 Y114.159 E2.72894
G1 X105.84 Y111.497 E2.83224
G1 X105.84 Y110.931 E2.84777
G1 X109.068 Y114.159 E2.97304
G1 X109.634 Y114.159 E2.98857
G1 X105.84 Y110.365 E3.1358
G1 X105.841 Y109.8 E3.1513
G1 F1500 X110.199 Y114.159 E3.32043
G1 F600 X110.765 Y114.159 E3.33596
G1 F1500 X105.841 Y109.235 E3.52704
G1 F600 X105.841 Y108.669 E3.54257
G1 X107.973 Y110.802 E3.62533
G1 X107.894 Y110.645 E3.63015
G1 X107.821 Y110.084 E3.64567
G1 X105.841 Y108.103 E3.72253
G1 X105.841 Y107.608 E3.73611
G1 X105.92 Y107.617 E3.73829
G1 X107.871 Y109.569 E3.81402
G1 X107.956 Y109.177 E3.82503
G1 X107.991 Y109.122 E3.82681
G1 X106.437 Y107.568 E3.88712
G1 X106.7 Y107.496 E3.8946
G1 X106.836 Y107.402 E3.89914
G1 X108.207 Y108.772 E3.95232
G1 X108.347 Y108.544 E3.95966
G1 X108.456 Y108.456 E3.9635
G1 X107.166 Y107.166 E4.01356
G1 X107.401 Y106.836 E4.02468
G1 X108.768 Y108.202 E4.07771
G1 X108.924 Y108.077 E4.08319
G1 X109.134 Y108.002 E4.08931
G1 X107.567 Y106.435 E4.15012
G1 X107.64 Y106.189 E4.15716
G1 X107.625 Y105.928 E4.16433
G1 X109.552 Y107.854 E4.23909
G1 X109.627 Y107.828 E4.24127
G1 X110.091 Y107.828 E4.254
G1 X108.102 Y105.839 E4.33119
G1 X108.668 Y105.839 E4.34672
G1 X110.814 Y107.985 E4.42999
G0 F3600 X111.073 Y108.077
G1 F600 X111.65 Y108.545 E4.45038
G1 X112.041 Y109.177 E4.47077
G1 X112.051 Y109.223 E4.47206
G1 X112.201 Y109.906 E4.49125
G1 X112.197 Y109.934 E4.49203
G1 X114.159 Y111.896 E4.56817
G1 X114.159 Y112.37 E4.58117
G1 X114.069 Y112.371 E4.58364
G1 X112.132 Y110.435 E4.65879
G1 X112.105 Y110.645 E4.6646
G1 X111.995 Y110.863 E4.6713
G1 X113.559 Y112.428 E4.73201
G1 X113.178 Y112.568 E4.74315
G1 X113.153 Y112.587 E4.74401
G1 X111.804 Y111.239 E4.79634
G1 X111.769 Y111.311 E4.79853
G1 X111.535 Y111.535 E4.80742
G1 X112.842 Y112.842 E4.85814
G1 X112.746 Y112.922 E4.86157
G1 X112.601 Y113.167 E4.86938
G1 X111.246 Y111.812 E4.92196
G1 X111.234 Y111.823 E4.92241
G1 X110.861 Y111.992 E4.93365
G1 X112.429 Y113.56 E4.99449
G1 X112.347 Y113.95 E5.00543
G1 X112.364 Y114.061 E5.00851
G1 X110.439 Y112.136 E5.08321
G1 X110.016 Y112.197 E5.09494
G1 X109.923 Y112.186 E5.09751
G1 X111.896 Y114.159 E5.17407
G1 X111.331 Y114.159 E5.18957
G1 X109.184 Y112.012 E5.27289
G0 F3600 X108.765 Y111.823
G1 F600 X108.229 Y111.309 E5.29327
G1 X107.973 Y110.802 E5.30885
;;retract;;
G1 F6000 E-2.69115
G0 F3600 X109.464 Y110.404
G0 X106.118 Y113.973
G0 X107.638 Y114.159
G1 F6000 E5.30885
G1 F600 X107.937 Y114.159 E5.31706
;;retract;;
G1 F6000 E-2.68294
G0 F3600 X107.937 Y115.67
G0 X110.624 Y109.751
G0 X112.051 Y109.223
G1 F6000 E5.31706
G1 F600 X114.159 Y111.331 E5.39886
G1 X114.159 Y110.765 E5.41439
G1 F1500 X109.233 Y105.839 E5.60555
G1 F600 X109.799 Y105.839 E5.62108
G1 F1500 X114.159 Y110.199 E5.79027
G1 F600 X114.159 Y109.634 E5.80577
G1 X110.365 Y105.839 E5.95302
G1 X110.93 Y105.839 E5.96852
G1 X114.159 Y109.068 E6.09383
G1 X114.159 Y108.502 E6.10936
G1 X111.496 Y105.839 E6.21269
G1 X112.062 Y105.839 E6.22823
G1 X112.37 Y105.839 E6.23668
G1 X112.347 Y105.95 E6.23979
G0 F3600 X112.062 Y105.839
G1 F600 X112.376 Y106.154 E6.25199
G1 X112.427 Y106.503 E6.26167
G1 X112.683 Y107 E6.27701
G1 X113.093 Y107.381 E6.29237
G1 X113.604 Y107.602 E6.30765
G0 F3600 X114.159 Y107.642
G1 F600 X113.842 Y107.62 E6.31636
G1 X114.159 Y107.937 E6.32867
G0 F3600 X112.523 Y106.017
G0 X112.354 Y105.848
;TYPE:SKIN
G1 F600 X112.507 Y105.719 E6.33771
G0 F3600 X112.288 Y106.066
G1 F600 X112.235 Y106.012 E6.33875
;;retract;;
G1 F6000 E-1.66125
;MESH:NONMESH
G0 F600 X112.235 Y106.012 Z0.3
G0 F3600 X112.235 Y104.33
G0 X106.007 Y105.824
G0 X105.2 Y105.411
;TIME_ELAPSED:30.875256

;LAYER:1
M140 S60
M106 S127.5
;TYPE:WALL-OUTER
;MESH:
G1 F6000 E6.33875
G1 F600 X105.2 Y105.2 E6.34401
G1 X105.418 Y105.2 E6.34945
G1 X105.306 Y105.308 E6.34981
G1 X105.2 Y105.411 E6.35013
G0 F5400 X105.2 Y105.211
;;retract;;
G1 F6000 E-1.64987
G0 F5400 X106.009 Y105.822
G0 X114.011 Y105.823
G0 X114.8 Y105.409
G1 F6000 E6.35013
G1 F600 X114.696 Y105.3 E6.35389
G1 X114.601 Y105.2 E6.35733
G1 X114.8 Y105.2 E6.35912
G1 X114.8 Y105.409 E6.36092
G0 F5400 X114.696 Y105.3
G0 X114.662 Y105.264
;;retract;;
G1 F6000 E-1.63908
G0 F5400 X114.161 Y105.985
G0 X114.082 Y114.088
G0 X114.579 Y114.8
G1 F6000 E6.36092
G1 F600 X114.72 Y114.696 E6.36529
G1 X114.8 Y114.577 E6.36887
G1 X114.8 Y114.696 E6.36902
G1 X114.8 Y114.8 E6.36966
G1 X114.72 Y114.8 E6.37014
G1 X114.579 Y114.8 E6.3704
G0 F5400 X114.72 Y114.696
G0 X114.733 Y114.676
;;retract;;
G1 F6000 E-1.6296
G0 F5400 X114.082 Y114.088
G0 X110.465 Y110.484
G0 X111.355 Y111.415
;TYPE:WALL-INNER
G1 F6000 E6.3704
G1 F600 X111.748 Y110.882 E6.38692
G1 X111.943 Y110.249 E6.40344
G1 X111.915 Y109.588 E6.41995
G1 X111.669 Y108.973 E6.43647
G1 X111.23 Y108.476 E6.45301
G1 X110.668 Y108.161 E6.46908
G1 X110.241 Y108.065 E6.48
G1 X109.667 Y108.07 E6.49432
G1 X109.045 Y108.29 E6.51078
G1 X108.543 Y108.695 E6.52687
G1 X108.293 Y109.054 E6.53778
G1 X108.085 Y109.591 E6.55214
G1 X108.057 Y110.249 E6.56857
G1 X108.252 Y110.882 E6.5851
G1 X108.645 Y111.415 E6.60162
G1 X109.194 Y111.785 E6.61813
G1 X109.819 Y111.948 E6.63424
G1 X110.255 Y111.933 E6.64512
G1 X110.809 Y111.783 E6.65944
G1 X111.355 Y111.415 E6.67587
G0 F5400 X111.074 Y111.122
;TYPE:WALL-OUTER
G1 F600 X111.386 Y110.699 E6.68898
G1 X111.54 Y110.197 E6.70208
G1 X111.518 Y109.673 E6.71516
G1 X111.323 Y109.186 E6.72825
G1 X110.975 Y108.792 E6.74136
G1 X110.523 Y108.538 E6.75429
G1 X110.198 Y108.465 E6.7626
G1 X109.737 Y108.469 E6.7741
G1 X109.243 Y108.644 E6.78717
G1 X108.839 Y108.97 E6.80012
G1 X108.649 Y109.243 E6.80842
G1 X108.482 Y109.674 E6.81995
G1 X108.46 Y110.197 E6.83301
G1 X108.614 Y110.699 E6.84611
G1 X108.926 Y111.122 E6.85922
G1 X109.361 Y111.415 E6.8723
G1 X109.864 Y111.546 E6.88527
G1 X110.195 Y111.535 E6.89353
G1 X110.64 Y111.414 E6.90503
G1 X111.074 Y111.122 E6.91808
G0 F5400 X111.192 Y110.961
G0 X111.546 Y111.223
;;retract;;
G1 F6000 E-1.08192
G0 F5400 X110.465 Y110.484
G0 X106.12 Y114.01
G0 X107.327 Y114.4
;TYPE:WALL-INNER
G1 F6000 E6.91808
G1 F1500 X107.401 Y114.126 E6.92516
G1 X107.363 Y113.652 E6.93702
