;FLAVOR:Marlin
;TIME:3199
;Filament used:1.61026m
;Layer height: 0.15
;MINX:104.33
;MINY:104.33
;MINZ:0.15
;MAXX:115.67
;MAXY:115.67
;MAXZ:54
                                 
;Creality Print GCode Generated by CXEngine:NO_MAGE_VERSION_GIT_HEAD_BRANCH
;CXEngine Release Time:2022-09-30 09:53:04
;Gcode Generated Time:2023-03-05 03:36:48
;----------Machine Config--------------
;Machine Name:Creality Ender-3
;Machine Height:250
;Machine Width:220
;Machine Depth:220
;Material name:PLA
;Number of Extruders:1
;ExtruderParams[0] Nozzle Diameter1000
;----------Profile Config---------------
;Engine Version:275f99b
;Engine Release Time:2022-09-30 09:42:18
;Layer Height:0.15
;Wall Thickness:0.8
;Top/Bottom Thickness:1
;Out Wall Line Width:0.4
;Inner Wall Line Width:0.4
;Inital Layer Height:150
;Wall Line Count:2
;Infill Line Distance:4
;Infill Pattern:grid
;Infill Sparse Density:20
;Infill Wipe Distance:0
;Print Temperature:200
;Bed Temperature:60
;Support Enable:true
;Support Density:30
;Support Angle:60
;Adhesion Type:none
;machine is belt:false
;machine belt offset:10
;machine belt offset Y:0
;Raft Base Line Spacing:1.6
;Wait Heatup Sync:true
;----------Shell Config----------------
;Outer Wall Wipe Distance:200
;Outer Inset First:false
;Infill Before Walls:false
;Infill Overlap:0.16
;Fill Gaps Between Walls:everywhere
;Minimum Infill Area:1
;Top Surface Skin Layer:0
;Top Layers:4
;Z Seam Alignment:sharpest_corner
;Seam Corner Preference:z_seam_corner_inner
;Z Seam X:110
;Z Seam Y:110
;Horizontal Expansion:0
;Top/Bottom Pattern:zigzag
;Ironing Pattern:zigzag
;Vase Model:false
;----------Support Config----------------
;Support Type:everywhere
;Support Pattern:zigzag
;Support Infill Layer Thickness:0.15
;Minimum Support Area:5
;Enable Support Roof:false
;Support Roof Thickness:0.8
;Support Roof Pattern:lines
;Connect Support Lines:0
;Connect Support ZigZags:1
;Minimum Support X/Y Distance:0.2
;Support Line Distance:1.33
; ---------PrintSpeed & Travel----------
;Enable Print Cool:true
;Avoid Printed Parts Traveling:true
;Enable Retraction:true
;Retraction Distance:8
;Retraction Speed:100
;Retraction Prime Speed:100
;Maximum Retraction Count:100
;Minimum Extrusion Distance Window:1
;Z Hop When Retracted:false
;Z Hop Height:0.2
;Retract Before Outer Wall:true
;Print Speed:50
;Infill Speed:50

;Prime Tower Speed:50
;Travel Speed:120
;Initial Layer Speed:25
;Skirt/Brim Speed:25
;Combing Mode:infill
; --------SpecialModel&Mesh Fixes--------
;Union Overlapping Volum:true
;Remove All Holes:false
;Maximum Travel Resolution:0.6
;Maximum Deviation:0.05
;Maximum Model Angle:0.872665
;IS Mold Print:false
;Make Overhang Printable:false
;Enable Coasting:false
;Coasting Volumes:0.06
;Coasting Speed:0.9
;Raft AirGap:0.25
;Layer0 ZOverLap:0.13
;---------------------End of Head--------------------------
M140 S60
M105
M104 S200
M105
M109 S200
M105
M190 S60
M82 ;absolute extrusion mode
M220 S100 ;Reset Feedrate
M221 S100 ;Reset Flowrate

G28 ;Home

G92 E0 ;Reset Extruder
G1 Z2.0 F3000 ;Move Z Axis up
G1 X10.1 Y20 Z0.28 F5000.0 ;Move to start position
G1 X10.1 Y145.0 Z0.28 F1500.0 E15 ;Draw the first line
G1 X10.4 Y145.0 Z0.28 F5000.0 ;Move to side a little
G1 X10.4 Y20 Z0.28 F1500.0 E30 ;Draw the second line
G92 E0  ;Reset Extruder
G1 E-1.0000 F1800 ;Retract a bit
G1 Z2.0 F3000 ;Move Z Axis up
G1 E0.0000 F1800 

G92 E0
G92 E0
G1 F6000 E-8

;LAYER_COUNT:360

;LAYER:0
M107
;MESH:
G0 F3600 X106.7 Y106.7 Z0.15
;TYPE:WALL-INNER
G1 F6000 E0
G1 F1500 X106.7 Y113.3 E0.1811
G1 X113.3 Y113.3 E0.3622
G1 X113.3 Y106.7 E0.5433
G1 X106.7 Y106.7 E0.72441
G0 F3600 X107.1 Y107.1
;TYPE:WALL-OUTER
G1 F1500 X107.1 Y112.9 E0.88356
G1 X112.9 Y112.9 E1.04271
G1 X112.9 Y107.1 E1.20186
G1 X107.1 Y107.1 E1.361
G0 F3600 X107.1 Y107.3
G0 X106.66 Y107.3
;;retract;;
G1 F6000 E-6.639
G0 F3600 X107.958 Y107.958
G0 X115.659 Y114.4
G0 X114.389 Y114.399
;TYPE:WALL-INNER
G1 F6000 E1.361
G1 F1500 X105.6 Y114.388 E1.60217
G1 X105.602 Y105.6 E1.84331
G1 X114.201 Y105.6 E2.07926
G1 X114.4 Y105.6 E2.08472
G1 X114.4 Y105.799 E2.08826
G1 X114.389 Y114.399 E2.32424
G0 F3600 X114.788 Y114.8
;TYPE:WALL-OUTER
G1 F1500 X114.588 Y114.8 E2.32973
G1 X105.2 Y114.788 E2.58733
G1 X105.202 Y105.2 E2.85042
G1 X114.6 Y105.2 E3.1083
G1 X114.8 Y105.2 E3.11379
G1 X114.8 Y105.4 E3.11734
G1 X114.788 Y114.6 E3.36978
G1 X114.788 Y114.8 E3.37334
G0 F3600 X114.588 Y114.8
G0 X114.349 Y114.36
;;retract;;
G1 F6000 E-4.62666
G0 F3600 X114.348 Y115.67
G0 X105.839 Y115.66
G0 X105.84 Y114.147
;TYPE:SKIN
G1 F6000 E3.37334
G1 F1500 X106.227 Y114.147 E3.38396
G1 X105.84 Y113.76 E3.39897
G1 X105.84 Y113.194 E3.41451
G1 X106.794 Y114.148 E3.45153
G1 X107.36 Y114.148 E3.46706
G1 X106.751 Y113.539 E3.49069
G1 X107.316 Y113.539 E3.50619
G1 X107.927 Y114.15 E3.5299
G1 X108.494 Y114.151 E3.54546
G1 X107.882 Y113.539 E3.56921
G1 X108.448 Y113.539 E3.58474
G1 X109.06 Y114.151 E3.60849
G1 X109.627 Y114.152 E3.62405
G1 X109.013 Y113.539 E3.64786
G1 X109.579 Y113.539 E3.66339
G1 X110.193 Y114.153 E3.68721
G1 X110.759 Y114.153 E3.70274
G1 X110.145 Y113.539 E3.72657
G1 X110.711 Y113.539 E3.7421
G1 X111.326 Y114.154 E3.76597
G1 X111.892 Y114.155 E3.7815
G1 X111.276 Y113.539 E3.8054
G1 X111.842 Y113.539 E3.82093
G1 X112.458 Y114.156 E3.84486
G1 X113.025 Y114.156 E3.86041
G1 X112.408 Y113.539 E3.88436
G1 X112.973 Y113.539 E3.89986
G1 X113.591 Y114.157 E3.92384
G1 X114.148 Y114.158 E3.93913
G1 X114.149 Y114.149 E3.93937
G1 X113.539 Y113.539 E3.96305
G1 X113.539 Y112.973 E3.97858
G1 X114.15 Y113.584 E4.00229
G1 X114.151 Y113.019 E4.01779
G1 X113.539 Y112.408 E4.04152
G1 X113.539 Y111.842 E4.05705
G1 X114.151 Y112.454 E4.0808
G1 X114.152 Y111.889 E4.0963
G1 X113.539 Y111.276 E4.12009
G1 X113.539 Y110.711 E4.13559
G1 X114.153 Y111.324 E4.1594
G1 X114.153 Y110.759 E4.1749
G1 X113.539 Y110.145 E4.19873
G1 X113.539 Y109.579 E4.21426
G1 X114.154 Y110.194 E4.23813
G1 X114.155 Y109.629 E4.25363
G1 X113.539 Y109.013 E4.27753
G1 X113.539 Y108.448 E4.29304
G1 X114.156 Y109.064 E4.31696
G1 X114.156 Y108.499 E4.33246
G1 X113.539 Y107.882 E4.35641
G1 X113.539 Y107.316 E4.37194
G1 X114.157 Y107.934 E4.39592
G1 X114.158 Y107.369 E4.41142
G1 X113.539 Y106.751 E4.43543
G1 X113.539 Y106.459 E4.44344
;;retract;;
G1 F6000 E-3.55656
G0 F3600 X112.042 Y107.958
G0 X105.841 Y104.33
G0 X105.841 Y105.839
G1 F6000 E4.44344
G1 F1500 X106.405 Y105.839 E4.45891
G1 X107.025 Y106.459 E4.48297
G1 X107.591 Y106.459 E4.4985
G1 X106.971 Y105.839 E4.52256
G1 X107.536 Y105.839 E4.53807
G1 X108.156 Y106.459 E4.56213
G1 X108.722 Y106.459 E4.57766
G1 X108.102 Y105.839 E4.60172
G1 X108.668 Y105.839 E4.61725
G1 X109.288 Y106.459 E4.64131
G1 X109.853 Y106.459 E4.65681
G1 X109.233 Y105.839 E4.68087
G1 X109.799 Y105.839 E4.6964
G1 X110.419 Y106.459 E4.72046
G1 X110.985 Y106.459 E4.73599
G1 X110.365 Y105.839 E4.76005
G1 X110.93 Y105.839 E4.77555
G1 X111.551 Y106.459 E4.79963
G1 X112.116 Y106.459 E4.81514
G1 X111.496 Y105.839 E4.83919
G1 X112.062 Y105.839 E4.85473
G1 X112.682 Y106.459 E4.87878
G1 X113.248 Y106.459 E4.89432
G1 X112.627 Y105.839 E4.91839
G1 X113.193 Y105.839 E4.93393
G1 X114.158 Y106.804 E4.97137
G1 X114.159 Y106.239 E4.98688
G1 X113.759 Y105.839 E5.0024
G1 X114.159 Y105.839 E5.01337
;;retract;;
G1 F6000 E-2.98663
G0 F3600 X114.159 Y104.33
G0 X105.84 Y104.33
G0 X105.84 Y105.84
G1 F6000 E5.01337
G1 F1500 X106.459 Y106.459 E5.03739
G1 X106.459 Y107.025 E5.05293
G1 X105.84 Y106.406 E5.07695
G1 X105.84 Y106.971 E5.09245
G1 X106.459 Y107.591 E5.11649
G1 X106.459 Y108.156 E5.13199
G1 X105.84 Y107.537 E5.15601
G1 X105.84 Y108.103 E5.17154
G1 X106.459 Y108.722 E5.19556
G1 X106.459 Y109.288 E5.2111
G1 X105.84 Y108.668 E5.23514
G1 X105.84 Y109.234 E5.25067
G1 X106.459 Y109.853 E5.27469
G1 X106.459 Y110.419 E5.29022
G1 X105.84 Y109.8 E5.31424
G1 X105.84 Y110.365 E5.32974
G1 X106.459 Y110.985 E5.35378
G1 X106.459 Y111.551 E5.36931
G1 X105.84 Y110.931 E5.39335
G1 X105.84 Y111.497 E5.40888
G1 X106.459 Y112.116 E5.4329
G1 X106.459 Y112.682 E5.44843
G1 X105.84 Y112.062 E5.47247
G1 X105.84 Y112.628 E5.48801
G1 X106.459 Y113.248 E5.51205
G1 X106.459 Y113.539 E5.52003
;;retract;;
G1 F6000 E-2.47997
;MESH:NONMESH
G0 F600 X106.459 Y113.539 Z0.3
G0 F3600 X107.958 Y112.042
G0 X107.958 Y107.958
G0 X106.7 Y106.7
;TIME_ELAPSED:20.009215

;LAYER:1
M140 S60
M106 S127.5
;TYPE:WALL-INNER
;MESH:
G1 F6000 E5.52003
G1 F1500 X106.7 Y113.3 E5.68467
G1 X113.3 Y113.3 E5.84931
G1 X113.3 Y106.7 E6.01394
G1 X106.7 Y106.7 E6.17858
G0 F5400 X107.1 Y107.1
;TYPE:WALL-OUTER
G1 F1500 X107.1 Y112.9 E6.32326
G1 X112.9 Y112.9 E6.46794
G1 X112.9 Y107.1 E6.61263
G1 X107.1 Y107.1 E6.75731
G0 F5400 X107.1 Y107.3
G0 X106.66 Y107.3
;;retract;;
G1 F6000 E-1.24269
G0 F5400 X107.958 Y107.958
G0 X115.67 Y114.4
G0 X114.4 Y114.4
;TYPE:WALL-INNER
G1 F6000 E6.75731
G1 F1500 X105.799 Y114.4 E6.97186
G1 X105.6 Y114.4 E6.97682
G1 X105.6 Y114.201 E6.98004
G1 X105.607 Y105.6 E7.19459
G1 X114.4 Y105.6 E7.41393
G1 X114.4 Y114.4 E7.63345
G0 F5400 X114.8 Y114.8
;TYPE:WALL-OUTER
G1 F1500 X105.4 Y114.8 E7.86793
G1 X105.2 Y114.8 E7.87292
G1 X105.2 Y114.6 E7.87615
G1 X105.207 Y105.2 E8.11064
G1 X114.8 Y105.2 E8.34993
G1 X114.8 Y114.8 E8.58941
G0 F5400 X114.6 Y114.8
G0 X114.36 Y114.36
G0 X114.159 Y114.159
;TYPE:SKIN
G1 F1500 X114.159 Y113.811 E8.59809
G1 X114.159 Y113.245 E8.61221
G1 X113.245 Y114.159 E8.64445
G1 X112.68 Y114.159 E8.65854
G1 X113.3 Y113.539 E8.68042
G1 X112.734 Y113.539 E8.69454
G1 X112.114 Y114.159 E8.71641
G1 X111.548 Y114.159 E8.73053
G1 X112.169 Y113.539 E8.75242
G1 X111.603 Y113.539 E8.76654
G1 X110.983 Y114.159 E8.78841
G1 X110.417 Y114.159 E8.80253
G1 X111.037 Y113.539 E8.8244
G1 X110.471 Y113.539 E8.83852
G1 X109.851 Y114.159 E8.86039
G1 X109.286 Y114.159 E8.87448
G1 X109.906 Y113.539 E8.89636
G1 X109.34 Y113.539 E8.91047
G1 X108.72 Y114.159 E8.93235
G1 X108.154 Y114.159 E8.94647
G1 X108.774 Y113.539 E8.96834
G1 X108.209 Y113.539 E8.98243
G1 X107.589 Y114.159 E9.0043
G1 X107.023 Y114.159 E9.01842
G1 X107.643 Y113.539 E9.0403
G1 X107.077 Y113.539 E9.05441
G1 X106.457 Y114.159 E9.07629
G1 X105.892 Y114.159 E9.09038
G1 X106.512 Y113.539 E9.11225
G1 X106.459 Y113.539 E9.11357
G1 X106.459 Y113.026 E9.12637
G1 X105.84 Y113.645 E9.14821
G1 X105.841 Y113.079 E9.16233
G1 X106.459 Y112.46 E9.18415
G1 X106.459 Y111.894 E9.19827
G1 X105.841 Y112.513 E9.22008
G1 X105.841 Y111.947 E9.2342
G1 X106.459 Y111.329 E9.25601
G1 X106.459 Y110.763 E9.27012
G1 X105.842 Y111.38 E9.29189
G1 X105.842 Y110.814 E9.30601
G1 X106.459 Y110.197 E9.32778
G1 X106.459 Y109.631 E9.34189
G1 X105.843 Y110.248 E9.36364
G1 X105.843 Y109.682 E9.37776
G1 X106.459 Y109.066 E9.39949
G1 X106.459 Y108.5 E9.41361
G1 X105.843 Y109.116 E9.43534
G1 X105.844 Y108.55 E9.44946
G1 X106.459 Y107.934 E9.47118
G1 X106.459 Y107.369 E9.48527
G1 X105.844 Y107.984 E9.50697
G1 X105.845 Y107.418 E9.52108
G1 X106.459 Y106.803 E9.54276
G0 F5400 X106.459 Y106.459
G1 F1500 X106.803 Y106.459 E9.55134
G1 X107.369 Y106.459 E9.56546
G1 X107.989 Y105.839 E9.58734
G1 X108.555 Y105.839 E9.60145
G1 X107.934 Y106.459 E9.62334
G1 X108.5 Y106.459 E9.63746
G1 X109.12 Y105.839 E9.65934
G1 X109.686 Y105.839 E9.67345
G1 X109.066 Y106.459 E9.69533
G1 X109.631 Y106.459 E9.70942
G1 X110.252 Y105.839 E9.73131
G1 X110.817 Y105.839 E9.7454
G1 X110.197 Y106.459 E9.76728
G1 X110.763 Y106.459 E9.78139
G1 X111.383 Y105.839 E9.80327
G1 X111.949 Y105.839 E9.81739
G1 X111.329 Y106.459 E9.83926
G1 X111.894 Y106.459 E9.85335
G1 X112.514 Y105.839 E9.87522
G1 X113.08 Y105.839 E9.88934
G1 X112.46 Y106.459 E9.91122
G1 X113.026 Y106.459 E9.92533
G1 X113.646 Y105.839 E9.94721
G1 X114.159 Y105.839 E9.96
G1 X114.159 Y105.892 E9.96133
G1 X113.539 Y106.512 E9.9832
G1 X113.539 Y107.077 E9.99729
G1 X114.159 Y106.457 E10.01916
G1 X114.159 Y107.023 E10.03328
G1 X113.539 Y107.643 E10.05516
G1 X113.539 Y108.209 E10.06927
G1 X114.159 Y107.589 E10.09115
G1 X114.159 Y108.154 E10.10524
G1 X113.539 Y108.774 E10.12711
G1 X113.539 Y109.34 E10.14123
G1 X114.159 Y108.72 E10.1631
G1 X114.159 Y109.286 E10.17722
G1 X113.539 Y109.906 E10.19909
G1 X113.539 Y110.471 E10.21319
G1 X114.159 Y109.851 E10.23506
G1 X114.159 Y110.417 E10.24918
G1 X113.539 Y111.037 E10.27105
G1 X113.539 Y111.603 E10.28517
G1 X114.159 Y110.983 E10.30704
G1 X114.159 Y111.548 E10.32114
G1 X113.539 Y112.169 E10.34303
G1 X113.539 Y112.734 E10.35712
G1 X114.159 Y112.114 E10.37899
G1 X114.159 Y112.68 E10.39311
G1 X113.539 Y113.3 E10.41498
G0 F5400 X113.539 Y113.539
G1 F1500 X113.3 Y113.539 E10.42095
G0 F5400 X113.811 Y114.159
G1 F1500 X114.159 Y113.811 E10.43322
;;retract;;
G1 F6000 E2.43322
G0 F5400 X115.67 Y113.811
G0 X107.958 Y107.958
G0 X106.803 Y106.459
G1 F6000 E10.43322
G1 F1500 X107.423 Y105.839 E10.45509
G1 X106.857 Y105.839 E10.46921
G1 X105.845 Y106.852 E10.50493
G1 X105.846 Y106.285 E10.51908
G1 X105.846 Y105.84 E10.53018
G0 F5400 X106.292 Y105.839
G1 F1500 X105.846 Y106.285 E10.54591
;MESH:NONMESH
G0 F600 X105.846 Y106.285 Z0.45
G0 F5400 X106.7 Y106.7
;TIME_ELAPSED:33.149911

;LAYER:2
M106 S255
;TYPE:WALL-INNER
;MESH:
G1 F1500 X106.7 Y113.3 E10.71055
G1 X113.3 Y113.3 E10.87519
G1 X113.3 Y106.7 E11.03982
G1 X106.7 Y106.7 E11.20446
G0 F7200 X107.1 Y107.1
;TYPE:WALL-OUTER
G1 F1500 X107.1 Y112.9 E11.34914
G1 X112.9 Y112.9 E11.49382
G1 X112.9 Y107.1 E11.63851
G1 X107.1 Y107.1 E11.78319
G0 F7200 X107.1 Y107.3
G0 X106.66 Y107.3
;;retract;;
G1 F6000 E3.78319
G0 F7200 X107.958 Y107.958
G0 X115.67 Y114.4
G0 X114.4 Y114.4
;TYPE:WALL-INNER
G1 F6000 E11.78319
G1 F1500 X105.799 Y114.4 E11.99774
G1 X105.6 Y114.4 E12.0027
G1 X105.6 Y114.201 E12.00592
G1 X105.611 Y105.6 E12.22047
G1 X114.4 Y105.6 E12.43971
G1 X114.4 Y114.4 E12.65923
G0 F7200 X114.8 Y114.8
;TYPE:WALL-OUTER
G1 F1500 X105.4 Y114.8 E12.89371
G1 X105.2 Y114.8 E12.8987
G1 X105.2 Y114.6 E12.90193
G1 X105.211 Y105.2 E13.13642
G1 X114.8 Y105.2 E13.37561
G1 X114.8 Y114.8 E13.61509
G0 F7200 X114.6 Y114.8
G0 X114.36 Y114.36
G0 X113.539 Y113.539
;TYPE:SKIN
G1 F1500 X113.539 Y112.973 E13.62921
G1 X114.159 Y113.593 E13.65108
G1 X114.159 Y113.028 E13.66517
G1 X113.539 Y112.408 E13.68704
G1 X113.539 Y111.842 E13.70116
G1 X114.159 Y112.462 E13.72304
G1 X114.159 Y111.896 E13.73715
G1 X113.539 Y111.276 E13.75903
G1 X113.539 Y110.711 E13.77312
G1 X114.159 Y111.331 E13.79499
G1 X114.159 Y110.765 E13.80911
G1 X113.539 Y110.145 E13.83098
G1 X113.539 Y109.579 E13.8451
G1 X114.159 Y110.199 E13.86698
G1 X114.159 Y109.634 E13.88107
G1 X113.539 Y109.013 E13.90296
G1 X113.539 Y108.448 E13.91705
G1 X114.159 Y109.068 E13.93893
G1 X114.159 Y108.502 E13.95304
G1 X113.539 Y107.882 E13.97492
G1 X113.539 Y107.316 E13.98904
G1 X114.159 Y107.937 E14.01093
G1 X114.159 Y107.371 E14.02504
G1 X113.539 Y106.751 E14.04692
G1 X113.539 Y106.459 E14.0542
;;retract;;
G1 F6000 E6.0542
G0 F7200 X112.042 Y107.958
G0 X112.042 Y112.042
G0 X113.539 Y113.539
G1 F6000 E14.0542
G1 F1500 X114.159 Y114.159 E14.07607
G1 X113.593 Y114.159 E14.09019
G1 X112.973 Y113.539 E14.11206
G1 X112.408 Y113.539 E14.12616
G1 X113.028 Y114.159 E14.14803
G1 X112.462 Y114.159 E14.16215
G1 X111.842 Y113.539 E14.18402
G1 X111.276 Y113.539 E14.19814
G1 X111.896 Y114.159 E14.22001
G1 X111.331 Y114.159 E14.23411
G1 X110.711 Y113.539 E14.25598
G1 X110.145 Y113.539 E14.2701
G1 X110.765 Y114.159 E14.29197
G1 X110.199 Y114.159 E14.30609
G1 X109.579 Y113.539 E14.32796
G1 X109.013 Y113.539 E14.34208
G1 X109.634 Y114.159 E14.36397
G1 X109.068 Y114.159 E14.37809
G1 X108.448 Y113.539 E14.39996
G1 X107.882 Y113.539 E14.41408
G1 X108.502 Y114.159 E14.43595
G1 X107.937 Y114.159 E14.45005
G1 X107.316 Y113.539 E14.47194
G1 X106.751 Y113.539 E14.48603
G1 X107.371 Y114.159 E14.5079
G1 X106.805 Y114.159 E14.52202
G1 X105.84 Y113.194 E14.55606
G1 X105.839 Y113.759 E14.57016
G1 X106.239 Y114.159 E14.58427
G1 X105.839 Y114.159 E14.59425
G0 F7200 X106.459 Y113.539
G1 F1500 X106.459 Y113.248 E14.60151
G1 X105.841 Y112.629 E14.62332
G1 X105.841 Y112.064 E14.63742
G1 X106.459 Y112.682 E14.65922
G1 X106.459 Y112.116 E14.67334
G1 X105.842 Y111.499 E14.69511
G1 X105.843 Y110.934 E14.7092
G1 X106.459 Y111.551 E14.73095
G1 X106.459 Y110.985 E14.74507
G1 X105.843 Y110.369 E14.7668
