;FLAVOR:Marlin
;TIME:573
;Filament used:0.0562861m
;Layer height: 0.1
;MINX:106.33
;MINY:106.349
;MINZ:0.1
;MAXX:113.672
;MAXY:113.672
;MAXZ:10.5
                            
;Creality Print GCode Generated by CXEngine:NO_MAGE_VERSION_GIT_HEAD_BRANCH
;CXEngine Release Time:2022-09-30 09:53:04
;Gcode Generated Time:2023-03-05 03:34:22
;----------Machine Config--------------
;Machine Name:Creality Ender-3
;Machine Height:250
;Machine Width:220
;Machine Depth:220
;Material name:PLA
;Number of Extruders:1
;ExtruderParams[0] Nozzle Diameter1000
;----------Profile Config---------------
;Engine Version:275f99b
;Engine Release Time:2022-09-30 09:42:18
;Layer Height:0.1
;Wall Thickness:0.8
;Top/Bottom Thickness:0.5
;Out Wall Line Width:0.4
;Inner Wall Line Width:0.4
;Inital Layer Height:100
;Wall Line Count:2
;Infill Line Distance:4
;Infill Pattern:grid
;Infill Sparse Density:20
;Infill Wipe Distance:0
;Print Temperature:200
;Bed Temperature:60
;Support Enable:true
;Support Density:0
;Support Angle:60
;Adhesion Type:none
;machine is belt:false
;machine belt offset:10
;machine belt offset Y:0
;Raft Base Line Spacing:1.6
;Wait Heatup Sync:true
;----------Shell Config----------------
;Outer Wall Wipe Distance:200
;Outer Inset First:false
;Infill Before Walls:false
;Infill Overlap:0.16
;Fill Gaps Between Walls:everywhere
;Minimum Infill Area:1
;Top Surface Skin Layer:0
;Top Layers:4
;Z Seam Alignment:sharpest_corner
;Seam Corner Preference:z_seam_corner_inner
;Z Seam X:110
;Z Seam Y:110
;Horizontal Expansion:0
;Top/Bottom Pattern:zigzag
;Ironing Pattern:zigzag
;Vase Model:false
;----------Support Config----------------
;Support Type:everywhere
;Support Pattern:zigzag
;Support Infill Layer Thickness:0.1
;Minimum Support Area:5
;Enable Support Roof:true
;Support Roof Thickness:0.8
;Support Roof Pattern:lines
;Connect Support Lines:0
;Connect Support ZigZags:0
;Minimum Support X/Y Distance:0.2
;Support Line Distance:0
; ---------PrintSpeed & Travel----------
;Enable Print Cool:true
;Avoid Printed Parts Traveling:true
;Enable Retraction:true
;Retraction Distance:8
;Retraction Speed:100
;Retraction Prime Speed:100
;Maximum Retraction Count:100
;Minimum Extrusion Distance Window:1
;Z Hop When Retracted:false
;Z Hop Height:0.2
;Retract Before Outer Wall:true
;Print Speed:50
;Infill Speed:50

;Prime Tower Speed:50
;Travel Speed:120
;Initial Layer Speed:25
;Skirt/Brim Speed:25
;Combing Mode:infill
; --------SpecialModel&Mesh Fixes--------
;Union Overlapping Volum:true
;Remove All Holes:false
;Maximum Travel Resolution:0.6
;Maximum Deviation:0.05
;Maximum Model Angle:0.872665
;IS Mold Print:false
;Make Overhang Printable:false
;Enable Coasting:false
;Coasting Volumes:0.06
;Coasting Speed:0.9
;Raft AirGap:0.25
;Layer0 ZOverLap:0.13
;---------------------End of Head--------------------------
M140 S60
M105
M104 S200
M105
M109 S200
M105
M190 S60
M82 ;absolute extrusion mode
M220 S100 ;Reset Feedrate
M221 S100 ;Reset Flowrate

G28 ;Home

G92 E0 ;Reset Extruder
G1 Z2.0 F3000 ;Move Z Axis up
G1 X10.1 Y20 Z0.28 F5000.0 ;Move to start position
G1 X10.1 Y145.0 Z0.28 F1500.0 E15 ;Draw the first line
G1 X10.4 Y145.0 Z0.28 F5000.0 ;Move to side a little
G1 X10.4 Y20 Z0.28 F1500.0 E30 ;Draw the second line
G92 E0  ;Reset Extruder
G1 E-1.0000 F1800 ;Retract a bit
G1 Z2.0 F3000 ;Move Z Axis up
G1 E0.0000 F1800 

G92 E0
G92 E0
G1 F6000 E-8

;LAYER_COUNT:105

;LAYER:0
M107
G0 F3600 X109.867 Y108.947 Z0.1
;TYPE:SUPPORT
G1 F6000 E0
G1 F1500 X110.207 Y108.947 E0.00498
G1 X110.542 Y109.604 E0.01577
G1 X111.302 Y109.825 E0.02735
G1 X111.349 Y110.194 E0.03279
G1 X110.4 Y110.527 E0.04751
G1 X110.182 Y111.3 E0.05927
G1 X109.811 Y111.275 E0.06471
G1 X109.484 Y110.437 E0.07787
G1 X109.013 Y110.092 E0.08642
G1 X109.805 Y109.104 E0.10495
G1 X109.867 Y108.947 E0.10742
;;retract;;
G1 F6000 E-7.89258
;MESH:
G0 F3600 X108.753 Y107.599
;TYPE:WALL-OUTER
G1 F6000 E0.10742
G1 F1500 X108.67 Y107.63 E0.10904
G1 X108.67 Y107.679 E0.10994
G1 X108.67 Y107.858 E0.11321
G1 X108.67 Y108.67 E0.12806
G1 X107.942 Y108.672 E0.14138
G1 X107.629 Y108.672 E0.14711
G1 X107.402 Y109.292 E0.15919
G1 X107.372 Y109.374 E0.16078
G1 X107.308 Y109.927 E0.17097
G1 X107.299 Y110.002 E0.17235
G1 X107.365 Y110.564 E0.1827
G1 X107.373 Y110.63 E0.18392
G1 X107.57 Y111.168 E0.1944
G1 X107.63 Y111.33 E0.19756
G1 X107.933 Y111.33 E0.2031
G1 X108.67 Y111.33 E0.21658
G1 X108.672 Y112.07 E0.23012
G1 X108.672 Y112.371 E0.23562
G1 X108.911 Y112.458 E0.24028
G1 X109.374 Y112.628 E0.2493
G1 X109.51 Y112.643 E0.2518
G1 X109.85 Y112.683 E0.25806
G1 X110.002 Y112.701 E0.26086
G1 X110.488 Y112.644 E0.26982
G1 X110.63 Y112.627 E0.27243
G1 X110.778 Y112.573 E0.27531
G1 X111.33 Y112.37 E0.28607
G1 X111.33 Y112.224 E0.28874
G1 X111.33 Y112.189 E0.28938
G1 X111.33 Y111.33 E0.3051
G1 X112.068 Y111.328 E0.3186
G1 X112.371 Y111.328 E0.32414
G1 X112.429 Y111.169 E0.32724
G1 X112.628 Y110.626 E0.33782
G1 X112.635 Y110.565 E0.33894
G1 X112.701 Y109.998 E0.34938
G1 X112.693 Y109.928 E0.35067
G1 X112.627 Y109.37 E0.36095
G1 X112.599 Y109.293 E0.36245
G1 X112.37 Y108.67 E0.37459
G1 X112.058 Y108.67 E0.3803
G1 X111.33 Y108.67 E0.39362
G1 X111.33 Y107.939 E0.40699
G1 X111.33 Y107.63 E0.41264
G1 X111.248 Y107.6 E0.41424
G1 X110.933 Y107.485 E0.42037
G1 X110.626 Y107.372 E0.42636
G1 X110.321 Y107.337 E0.43197
G1 X109.998 Y107.299 E0.43792
G1 X109.68 Y107.336 E0.44378
G1 X109.37 Y107.373 E0.44949
G1 X108.753 Y107.599 E0.46151
G0 F3600 X108.67 Y107.63
G0 X108.67 Y107.679
G0 X108.67 Y107.742
G0 X108.72 Y107.51
G1 F697.4 X109.341 Y107.279 E0.46445
G1 X109.352 Y107.277 E0.46466
G1 X109.666 Y107.22 E0.46626
G1 X109.998 Y107.22 E0.46783
G1 X110.334 Y107.22 E0.46942
G1 X110.644 Y107.295 E0.47093
G1 X110.973 Y107.375 E0.47253
G1 X111.28 Y107.51 E0.47421
G1 X111.369 Y107.57 E0.47477
G1 X111.625 Y107.742 E0.47836
G1 X111.825 Y107.877 E0.48278
G1 X112.064 Y108.108 E0.48886
G1 X112.252 Y108.37 E0.49476
G1 X112.434 Y108.623 E0.49842
G1 X112.45 Y108.646 E0.49873
G1 X112.699 Y109.256 E0.50153
G1 X112.714 Y109.356 E0.50212
G1 X112.799 Y109.915 E0.50465
G1 X112.791 Y110.006 E0.5052
G1 X112.74 Y110.577 E0.50778
G1 X112.714 Y110.655 E0.5083
G1 X112.527 Y111.204 E0.51087
G1 X112.427 Y111.363 E0.51174
G1 X112.266 Y111.619 E0.51525
G1 X112.176 Y111.762 E0.51834
G1 X111.725 Y112.2 E0.52984
G1 X111.7 Y112.224 E0.53042
G1 X111.422 Y112.412 E0.53492
G1 X111.361 Y112.439 E0.53505
G1 X110.817 Y112.678 E0.53764
G1 X110.653 Y112.718 E0.53851
G1 X110.502 Y112.755 E0.53932
G1 X110.008 Y112.784 E0.54155
G1 X109.838 Y112.795 E0.54243
G1 X109.498 Y112.755 E0.5442
G1 X109.35 Y112.71 E0.54502
G1 X108.873 Y112.563 E0.5473
G1 X108.636 Y112.442 E0.54855
G1 X108.578 Y112.412
G1 X108.339 Y112.23 E0.55221
G1 X108.052 Y112.011 E0.55881
G1 X107.824 Y111.762 E0.56499
G1 X107.736 Y111.622 E0.56801
G1 X107.575 Y111.366 E0.57152
G1 X107.473 Y111.204 E0.5724
G1 X107.288 Y110.659 E0.57494
G1 X107.26 Y110.577 E0.57546
G1 X107.21 Y110.01 E0.57801
G1 X107.201 Y109.915 E0.57858
G1 X107.285 Y109.361 E0.58109
G1 X107.301 Y109.256 E0.5817
G1 X107.55 Y108.646 E0.5846
G1 X107.564 Y108.626 E0.58487
G1 X107.746 Y108.372 E0.58854
G1 X107.936 Y108.108 E0.59449
G1 X108.3 Y107.795 E0.60327
G1 X108.435 Y107.679 E0.60592
G1 X108.63 Y107.564 E0.60864
G1 X108.72 Y107.51 E0.60916
G0 F3600 X108.907 Y107.441
G0 X108.492 Y107.926
;TYPE:SKIN
G1 F697.4 X108.416 Y108.133 E0.61742
G0 F3600 X108.067 Y108.067
G1 F697.4 X108.614 Y108.614 E0.6245
G0 F3600 X108.129 Y108.412
G1 F697.4 X107.929 Y108.495 E0.6328
G0 F3600 X108.048 Y108.614
G0 X107.99 Y111.384
G1 F697.4 X108.615 Y112.009 E0.64088
G0 F3600 X108.518 Y112.195
G1 F697.4 X107.797 Y111.473 E0.65022
G0 F3600 X108.443 Y111.555
G1 F697.4 X108.585 Y111.414 E0.65542
G0 F3600 X108.555 Y111.384
G0 X111.384 Y111.384
G1 F697.4 X111.926 Y111.926 E0.66243
G0 F3600 X111.868 Y111.585
G1 F697.4 X112.072 Y111.506 E0.66621
G1 X111.583 Y111.866 E0.67669
G1 X111.509 Y112.075 E0.68052
;;retract;;
G1 F6000 E-7.31948
G0 F3600 X112.281 Y112.868
G0 X112.846 Y112.323
G0 X113.311 Y111.593
G0 X113.592 Y110.771
G0 X113.672 Y109.903
G0 X113.545 Y109.038
G0 X113.284 Y108.39
G0 X112.898 Y107.781
G0 X111.726 Y108.615
G1 F6000 E0.68052
G1 F697.4 X111.384 Y108.272 E0.68495
G0 F3600 X111.384 Y107.99
G1 F697.4 X112.009 Y108.615 E0.69303
G0 F3600 X112.195 Y108.518
G1 F697.4 X111.478 Y107.801 E0.70231
G0 F3600 X111.384 Y108.555
G1 F697.4 X111.443 Y108.615 E0.70308
;MESH:NONMESH
G0 F600 X111.443 Y108.615 Z0.2
G0 F3600 X109.867 Y108.956
;TIME_ELAPSED:11.165957

;LAYER:1
M140 S60
M106 S127.5
;TYPE:SUPPORT
G1 F1935.5 X110.209 Y108.956 E0.70763
G1 X110.542 Y109.604 E0.71732
G1 X111.293 Y109.825 E0.72773
G1 X111.34 Y110.194 E0.73268
G1 X110.4 Y110.527 E0.74595
G1 X110.183 Y111.291 E0.75652
G1 X109.81 Y111.265 E0.76149
G1 X109.484 Y110.438 E0.77332
G1 X109.021 Y110.092 E0.78101
G1 X109.804 Y109.105 E0.79777
G1 X109.867 Y108.956 E0.79992
;;retract;;
G1 F6000 E-7.20008
;MESH:
G0 F5400 X108.754 Y107.6
;TYPE:WALL-OUTER
G1 F6000 E0.79992
G1 F1290.4 X108.67 Y107.631 E0.80141
G1 X108.67 Y107.679 E0.80221
G1 X108.67 Y107.858 E0.80519
G1 X108.67 Y108.671 E0.81871
G1 X107.94 Y108.676 E0.83085
G1 X107.627 Y108.677 E0.83605
G1 X107.403 Y109.293 E0.84695
G1 X107.371 Y109.38 E0.84849
G1 X107.309 Y109.927 E0.85765
G1 X107.299 Y110.008 E0.85901
G1 X107.365 Y110.564 E0.86832
G1 X107.374 Y110.634 E0.86949
G1 X107.571 Y111.167 E0.87894
G1 X107.631 Y111.33 E0.88183
G1 X107.933 Y111.33 E0.88685
G1 X108.671 Y111.33 E0.89912
G1 X108.676 Y112.074 E0.9115
G1 X108.677 Y112.373 E0.91647
G1 X108.911 Y112.458 E0.92061
G1 X109.38 Y112.629 E0.92891
G1 X109.51 Y112.643 E0.93109
G1 X109.85 Y112.682 E0.93678
G1 X110.008 Y112.701 E0.93942
G1 X110.487 Y112.644 E0.94745
G1 X110.634 Y112.626 E0.94991
G1 X110.778 Y112.573 E0.95246
G1 X111.33 Y112.369 E0.96225
G1 X111.33 Y112.224 E0.96466
G1 X111.33 Y112.189 E0.96524
G1 X111.33 Y111.329 E0.97954
G1 X112.069 Y111.324 E0.99183
G1 X112.373 Y111.323 E0.99689
G1 X112.429 Y111.169 E0.99961
G1 X112.629 Y110.62 E1.00933
G1 X112.635 Y110.565 E1.01025
G1 X112.701 Y109.992 E1.01984
G1 X112.694 Y109.928 E1.02091
G1 X112.626 Y109.366 E1.03033
G1 X112.6 Y109.293 E1.03162
G1 X112.369 Y108.67 E1.04266
G1 X112.057 Y108.67 E1.04785
G1 X111.33 Y108.67 E1.05994
G1 X111.33 Y107.939 E1.0721
G1 X111.33 Y107.63 E1.07724
G1 X111.248 Y107.601 E1.07869
G1 X110.933 Y107.486 E1.08426
G1 X110.62 Y107.371 E1.08981
G1 X110.321 Y107.337 E1.09481
G1 X109.992 Y107.299 E1.10032
G1 X109.68 Y107.336 E1.10554
G1 X109.366 Y107.374 E1.1108
G1 X108.754 Y107.6 E1.12165
G0 F5400 X108.67 Y107.631
G0 X108.67 Y107.679
G0 X108.67 Y107.742
G0 X108.72 Y107.51
G1 F600 X109.331 Y107.283 E1.12426
G1 X109.341 Y107.279
G1 X109.666 Y107.22 E1.12582
G1 X109.992 Y107.22 E1.12722
G1 X110.334 Y107.22 E1.12869
G1 X110.638 Y107.293 E1.13004
G1 X110.973 Y107.375 E1.13153
G1 X111.28 Y107.51 E1.13307
G1 X111.369 Y107.57 E1.13358
G1 X111.625 Y107.742 E1.13685
G1 X111.825 Y107.877 E1.14086
G1 X112.064 Y108.108 E1.14639
G1 X112.252 Y108.37 E1.15175
G1 X112.433 Y108.623 E1.15508
G1 X112.45 Y108.646 E1.15555
G1 X112.699 Y109.256 E1.1581
G1 X112.713 Y109.352 E1.15862
G1 X112.799 Y109.915 E1.16092
G1 X112.792 Y110 E1.1614
G1 X112.74 Y110.577 E1.16378
G1 X112.716 Y110.649 E1.16421
G1 X112.527 Y111.204 E1.1666
G1 X112.43 Y111.358 E1.16738
G1 X112.269 Y111.615 E1.17058
G1 X112.176 Y111.762 E1.17347
G1 X111.725 Y112.2 E1.18393
G1 X111.7 Y112.224 E1.18445
G1 X111.422 Y112.412 E1.18855
G1 X111.361 Y112.438 E1.18868
G1 X110.817 Y112.678 E1.19103
G1 X110.657 Y112.717 E1.1918
G1 X110.501 Y112.755 E1.19255
G1 X110.014 Y112.784 E1.19455
G1 X109.838 Y112.795 E1.19539
G1 X109.498 Y112.755 E1.197
G1 X109.355 Y112.712 E1.19774
G1 X108.873 Y112.563 E1.19984
G1 X108.641 Y112.445 E1.20095
G1 X108.578 Y112.412
G1 X108.341 Y112.231 E1.20427
G1 X108.052 Y112.011 E1.21031
G1 X107.824 Y111.762 E1.21592
G1 X107.736 Y111.622 E1.21867
G1 X107.575 Y111.366 E1.22186
G1 X107.473 Y111.204 E1.22267
G1 X107.29 Y110.663 E1.22496
G1 X107.26 Y110.577 E1.22547
G1 X107.21 Y110.016 E1.22776
G1 X107.201 Y109.915 E1.2283
G1 X107.284 Y109.367 E1.23057
G1 X107.301 Y109.256 E1.23116
G1 X107.55 Y108.646 E1.23379
G1 X107.561 Y108.63 E1.23398
G1 X107.743 Y108.376 E1.23733
G1 X107.936 Y108.108 E1.24282
G1 X108.3 Y107.795 E1.25081
G1 X108.435 Y107.679 E1.25321
G1 X108.629 Y107.564 E1.25568
G1 X108.72 Y107.51 E1.25616
G0 F5400 X108.907 Y107.441
G0 X108.558 Y107.816
;TYPE:SKIN
G1 F600 X107.818 Y108.556 E1.26487
G0 F5400 X108.038 Y108.619
G1 F600 X108.614 Y108.043 E1.27164
G0 F5400 X108.614 Y108.325
G1 F600 X108.323 Y108.617 E1.27507
;;retract;;
G1 F6000 E-6.72493
G0 F5400 X108.384 Y111.384
G1 F6000 E1.27507
G1 F600 X107.951 Y111.817 E1.28016
G0 F5400 X108.086 Y111.965
G1 F600 X108.616 Y111.435 E1.28639
G0 F5400 X108.43 Y111.902
G1 F600 X108.512 Y112.104 E1.28928
G1 X107.963 Y111.522 E1.2999
;;retract;;
G1 F6000 E-6.7001
G0 F5400 X107.132 Y112.289
G0 X108.104 Y113.143
G0 X109.307 Y113.606
G0 X110.619 Y113.619
G0 X111.834 Y113.181
G0 X111.582 Y111.579
G1 F6000 E1.2999
G1 F600 X111.44 Y111.438 E1.30589
G0 F5400 X111.384 Y112.06
G1 F600 X112.066 Y111.379 E1.3139
G0 F5400 X112.224 Y111.504
G1 F600 X111.5 Y112.227 E1.32241
;;retract;;
G1 F6000 E-6.67759
G0 F5400 X112.241 Y112.908
G0 X112.846 Y112.323
G0 X113.311 Y111.593
G0 X113.592 Y110.771
G0 X113.672 Y109.903
G0 X113.545 Y109.038
G0 X113.284 Y108.39
G0 X112.8 Y107.644
G0 X111.436 Y108.615
G1 F6000 E1.32241
G1 F600 X111.963 Y108.087 E1.32861
G0 F5400 X111.602 Y108.166
G1 F600 X111.52 Y107.964 E1.33244
G1 X111.905 Y108.428 E1.34302
G0 F5400 X112.002 Y108.615
G1 F600 X112.209 Y108.407 E1.34546
;MESH:NONMESH
G0 X112.209 Y108.407 Z0.3
G0 F5400 X109.866 Y108.964
;TIME_ELAPSED:18.935617

;LAYER:2
M106 S255
;TYPE:SUPPORT
G1 F2581 X110.234 Y108.964 E1.35036
G1 X110.893 Y109.822 E1.36475
G1 X111.288 Y109.855 E1.37002
G1 X111.332 Y110.195 E1.37458
G1 X110.4 Y110.527 E1.38775
G1 X110.183 Y111.283 E1.39821
G1 X109.81 Y111.256 E1.40319
G1 X109.484 Y110.438 E1.4149
G1 X109.028 Y110.093 E1.42251
G1 X109.802 Y109.106 E1.4392
G1 X109.866 Y108.964 E1.44127
;;retract;;
G1 F6000 E-6.55873
;MESH:
G0 F7200 X108.754 Y107.6
;TYPE:WALL-OUTER
G1 F6000 E1.44127
G1 F1290.5 X108.67 Y107.631 E1.44276
G1 X108.67 Y107.679 E1.44355
G1 X108.67 Y107.858 E1.44653
G1 X108.67 Y108.672 E1.46007
G1 X107.938 Y108.679 E1.47224
G1 X107.624 Y108.681 E1.47746
G1 X107.403 Y109.292 E1.48827
G1 X107.37 Y109.384 E1.48989
G1 X107.31 Y109.927 E1.49898
G1 X107.3 Y110.012 E1.5004
G1 X107.366 Y110.564 E1.50965
G1 X107.375 Y110.639 E1.5109
G1 X107.57 Y111.167 E1.52026
G1 X107.631 Y111.33 E1.52316
G1 X107.933 Y111.33 E1.52818
G1 X108.672 Y111.33 E1.54047
G1 X108.679 Y112.079 E1.55293
G1 X108.681 Y112.376 E1.55787
G1 X108.91 Y112.458 E1.56191
G1 X109.384 Y112.63 E1.5703
G1 X109.51 Y112.644 E1.57241
G1 X109.85 Y112.682 E1.5781
G1 X110.012 Y112.7 E1.58081
G1 X110.487 Y112.644 E1.58876
G1 X110.639 Y112.625 E1.59131
G1 X110.778 Y112.574 E1.59377
G1 X111.33 Y112.369 E1.60356
G1 X111.33 Y112.068 E1.60857
G1 X111.33 Y111.328 E1.62087
G1 X112.134 Y111.321 E1.63424
G1 X112.376 Y111.319 E1.63827
G1 X112.545 Y110.851 E1.64654
G1 X112.63 Y110.616 E1.6507
G1 X112.636 Y110.554 E1.65174
G1 X112.7 Y109.988 E1.66121
G1 X112.693 Y109.925 E1.66226
G1 X112.625 Y109.361 E1.67171
G1 X112.6 Y109.293 E1.67291
G1 X112.369 Y108.67 E1.68396
G1 X112.057 Y108.67 E1.68915
G1 X111.33 Y108.67 E1.70124
G1 X111.33 Y107.939 E1.7134
G1 X111.33 Y107.63 E1.71854
G1 X111.248 Y107.601 E1.71999
G1 X110.933 Y107.486 E1.72556
G1 X110.616 Y107.37 E1.73118
G1 X110.311 Y107.336 E1.73628
G1 X109.988 Y107.3 E1.74168
G1 X109.678 Y107.337 E1.74688
G1 X109.361 Y107.375 E1.75219
G1 X108.754 Y107.6 E1.76295
G0 F7200 X108.67 Y107.631
G0 X108.67 Y107.679
G0 X108.67 Y107.742
G0 X108.72 Y107.51
G1 F600 X109.327 Y107.285 E1.76553
G1 X109.341 Y107.279
G1 X109.664 Y107.221 E1.76705
G1 X109.987 Y107.221 E1.76843
G1 X110.324 Y107.219 E1.76989
G1 X110.634 Y107.293 E1.77127
G1 X110.973 Y107.375 E1.77276
G1 X111.28 Y107.51 E1.7743
G1 X111.369 Y107.57 E1.77482
G1 X111.625 Y107.742 E1.77808
G1 X111.825 Y107.877 E1.7821
G1 X112.064 Y108.108 E1.78762
