;FLAVOR:Marlin
;TIME:1648
;Filament used: 0.853251m
;Layer height: 0.2
;MINX:129.012
;MINY:129.016
;MINZ:0.2
;MAXX:170.98
;MAXY:170.982
;MAXZ:16.2
;Generated with Creality Slicer 4.8.2-191
M140 S50
M105
M190 S50
M104 S200
M105
M109 S200
M82 ;absolute extrusion mode

G28 ;Home

G92 E0 ;Reset Extruder
G1 Z2.0 F3000 ;Move Z Axis up
G1 X10.1 Y20 Z0.28 F5000.0 ;Move to start position
G1 X10.1 Y200.0 Z0.28 F1500.0 E15 ;Draw the first line
G1 X10.4 Y200.0 Z0.28 F5000.0 ;Move to side a little
G1 X10.4 Y20 Z0.28 F1500.0 E30 ;Draw the second line
G92 E0 ;Reset Extruder
G1 Z2.0 F3000 ;Move Z Axis up

G92 E0
G92 E0
G1 F2700 E-5
;LAYER_COUNT:81
;LAYER:0
M107
G0 F6000 X135.407 Y134.906 Z0.2
;TYPE:SKIRT
G1 F2700 E0
G1 F1200 X136.118 Y134.249 E0.0322
G1 X136.565 Y133.871 E0.05167
G1 X136.774 Y133.699 E0.06067
G1 X137.142 Y133.403 E0.07638
G1 X137.908 Y132.839 E0.10802
G1 X138.388 Y132.517 E0.12724
G1 X138.661 Y132.34 E0.13806
G1 X139.197 Y132.003 E0.15912
G1 X139.663 Y131.725 E0.17717
G1 X139.768 Y131.666 E0.18118
G1 X140.103 Y131.486 E0.19382
G1 X140.393 Y131.336 E0.20468
G1 X140.624 Y131.22 E0.21328
G1 X141.159 Y130.959 E0.23308
G1 X141.698 Y130.713 E0.25279
G1 X142.043 Y130.573 E0.26517
G1 X142.39 Y130.438 E0.27755
G1 X142.664 Y130.335 E0.28729
G1 X143.202 Y130.142 E0.3063
G1 X143.677 Y129.984 E0.32295
G1 X143.862 Y129.927 E0.32939
G1 X144.277 Y129.808 E0.34375
G1 X144.74 Y129.685 E0.35968
G1 X145.015 Y129.615 E0.36912
G1 X145.439 Y129.514 E0.38362
G1 X146.364 Y129.336 E0.41495
G1 X147.034 Y129.236 E0.43748
G1 X147.372 Y129.19 E0.44882
G1 X147.992 Y129.117 E0.46959
G1 X148.555 Y129.066 E0.48839
G1 X148.798 Y129.05 E0.49649
G1 X149.364 Y129.027 E0.51533
G1 X150.136 Y129.016 E0.54101
G1 X151.067 Y129.042 E0.57199
G1 X151.563 Y129.077 E0.58852
G1 X151.85 Y129.101 E0.5981
G1 X152.407 Y129.155 E0.61672
G1 X153.051 Y129.237 E0.63831
G1 X153.435 Y129.301 E0.65126
G1 X153.876 Y129.382 E0.66617
G1 X154.146 Y129.435 E0.67532
G1 X154.666 Y129.544 E0.69299
G1 X155.192 Y129.668 E0.71097
G1 X155.594 Y129.779 E0.72484
G1 X156.047 Y129.913 E0.74055
G1 X156.362 Y130.011 E0.75152
G1 X156.937 Y130.2 E0.77165
G1 X157.404 Y130.365 E0.78813
G1 X157.846 Y130.541 E0.80395
G1 X158.307 Y130.736 E0.8206
G1 X158.561 Y130.847 E0.82982
G1 X159.082 Y131.083 E0.84884
G1 X159.638 Y131.354 E0.86941
G1 X159.793 Y131.435 E0.87523
G1 X160.058 Y131.578 E0.88525
G1 X160.454 Y131.802 E0.90038
G1 X160.983 Y132.113 E0.92079
G1 X161.794 Y132.639 E0.95294
G1 X162.32 Y133.014 E0.97442
G1 X162.576 Y133.203 E0.98501
G1 X162.976 Y133.506 E1.0017
G1 X163.393 Y133.838 E1.01943
G1 X163.491 Y133.92 E1.02368
G1 X163.799 Y134.187 E1.03723
G1 X164.074 Y134.435 E1.04955
G1 X164.248 Y134.596 E1.05743
G1 X164.625 Y134.951 E1.07466
G1 X165.277 Y135.619 E1.1057
G1 X165.724 Y136.118 E1.12799
G1 X165.949 Y136.377 E1.1394
G1 X166.341 Y136.843 E1.15965
G1 X166.918 Y137.593 E1.19112
G1 X167.215 Y138.015 E1.20829
G1 X167.376 Y138.25 E1.21776
G1 X167.639 Y138.645 E1.23355
G1 X168.015 Y139.251 E1.25727
G1 X168.231 Y139.626 E1.27166
G1 X168.42 Y139.968 E1.28466
G1 X168.76 Y140.61 E1.30882
G1 X169.162 Y141.455 E1.33994
G1 X169.355 Y141.909 E1.35635
G1 X169.469 Y142.186 E1.36631
G1 X169.657 Y142.664 E1.3834
G1 X169.965 Y143.559 E1.41488
G1 X170.131 Y144.118 E1.43427
G1 X170.211 Y144.403 E1.44412
G1 X170.395 Y145.09 E1.46777
G1 X170.539 Y145.694 E1.48842
G1 X170.605 Y146.027 E1.49972
G1 X170.663 Y146.348 E1.51057
G1 X170.709 Y146.622 E1.51981
G1 X170.791 Y147.152 E1.53764
G1 X170.894 Y148.084 E1.56883
G1 X170.932 Y148.64 E1.58737
G1 X170.949 Y148.953 E1.59779
G1 X170.972 Y149.532 E1.61707
G1 X170.98 Y150.14 E1.63729
G1 X170.978 Y150.269 E1.64158
G1 X170.968 Y150.587 E1.65216
G1 X170.953 Y150.924 E1.66338
G1 X170.939 Y151.175 E1.67174
G1 X170.894 Y151.842 E1.69398
G1 X170.79 Y152.78 E1.72537
G1 X170.704 Y153.337 E1.74411
G1 X170.656 Y153.625 E1.75382
G1 X170.557 Y154.17 E1.77225
G1 X170.419 Y154.817 E1.79425
G1 X170.309 Y155.255 E1.80927
G1 X170.255 Y155.455 E1.81616
G1 X170.185 Y155.702 E1.8247
G1 X170.002 Y156.322 E1.8462
G1 X169.847 Y156.806 E1.8631
G1 X169.681 Y157.262 E1.87924
G1 X169.524 Y157.667 E1.89369
G1 X169.411 Y157.948 E1.90376
G1 X169.181 Y158.496 E1.92353
G1 X168.951 Y159.007 E1.94217
G1 X168.755 Y159.401 E1.95681
G1 X168.569 Y159.758 E1.9702
G1 X168.434 Y160.009 E1.97967
G1 X168.159 Y160.505 E1.99854
G1 X167.654 Y161.329 E2.03068
G1 X167.275 Y161.89 E2.0532
G1 X167.089 Y162.156 E2.06399
G1 X166.889 Y162.434 E2.07539
G1 X166.468 Y162.983 E2.0984
G1 X165.9 Y163.676 E2.1282
G1 X165.657 Y163.962 E2.14068
G1 X165.491 Y164.151 E2.14905
G1 X164.799 Y164.87 E2.18224
G1 X164.149 Y165.487 E2.21205
G1 X163.828 Y165.78 E2.2265
G1 X163.617 Y165.965 E2.23583
G1 X163.188 Y166.323 E2.25442
G1 X163.016 Y166.459 E2.26171
G1 X162.621 Y166.758 E2.27819
G1 X162.41 Y166.913 E2.2869
G1 X161.858 Y167.306 E2.30943
G1 X161.368 Y167.635 E2.32906
G1 X161.215 Y167.732 E2.33509
G1 X160.928 Y167.908 E2.34629
G1 X160.705 Y168.04 E2.35491
G1 X160.486 Y168.166 E2.36331
G1 X159.882 Y168.505 E2.38635
G1 X159.028 Y168.937 E2.41818
G1 X158.446 Y169.2 E2.43942
G1 X158.152 Y169.328 E2.45009
G1 X157.735 Y169.502 E2.46511
G1 X156.909 Y169.808 E2.49441
G1 X156.406 Y169.972 E2.51201
G1 X156.106 Y170.065 E2.52245
G1 X155.519 Y170.238 E2.54281
G1 X154.676 Y170.451 E2.57173
G1 X154.168 Y170.558 E2.58899
G1 X153.795 Y170.63 E2.60163
G1 X153.223 Y170.73 E2.62094
G1 X152.592 Y170.821 E2.64215
G1 X152.192 Y170.866 E2.65554
G1 X151.764 Y170.904 E2.66983
G1 X151.132 Y170.95 E2.6909
G1 X150.463 Y170.978 E2.71317
G1 X150.023 Y170.982 E2.72781
G1 X149.578 Y170.977 E2.74261
G1 X148.864 Y170.957 E2.76637
G1 X147.89 Y170.886 E2.79885
G1 X147.45 Y170.832 E2.81359
G1 X147.043 Y170.775 E2.82726
G1 X146.779 Y170.734 E2.83615
G1 X146.106 Y170.623 E2.85883
G1 X145.2 Y170.435 E2.88961
G1 X144.753 Y170.322 E2.90494
G1 X144.475 Y170.247 E2.91452
G1 X144.037 Y170.124 E2.92965
G1 X143.471 Y169.949 E2.94936
G1 X143.168 Y169.846 E2.96
G1 X142.706 Y169.677 E2.97636
G1 X142.002 Y169.402 E3.0015
G1 X141.474 Y169.18 E3.02055
G1 X141.37 Y169.133 E3.02435
G1 X141.044 Y168.979 E3.03634
G1 X140.672 Y168.796 E3.05013
G1 X140.403 Y168.659 E3.06017
G1 X139.856 Y168.371 E3.08073
G1 X139.373 Y168.101 E3.09913
G1 X139.018 Y167.884 E3.11297
G1 X138.66 Y167.656 E3.12709
G1 X138.406 Y167.489 E3.1372
G1 X137.893 Y167.142 E3.1578
G1 X137.456 Y166.831 E3.17564
G1 X137.368 Y166.765 E3.1793
G1 X137.067 Y166.531 E3.19198
G1 X136.748 Y166.274 E3.2056
G1 X136.547 Y166.108 E3.21427
G1 X136.12 Y165.747 E3.23287
G1 X135.86 Y165.521 E3.24433
G1 X135.377 Y165.064 E3.26644
G1 X135.075 Y164.761 E3.28067
G1 X134.89 Y164.571 E3.28949
G1 X134.494 Y164.154 E3.30862
G1 X133.857 Y163.421 E3.34092
G1 X133.494 Y162.964 E3.36033
G1 X133.319 Y162.738 E3.36984
G1 X132.981 Y162.289 E3.38853
G1 X132.588 Y161.732 E3.4112
G1 X132.4 Y161.442 E3.4227
G1 X132.212 Y161.144 E3.43442
G1 X132.059 Y160.895 E3.44414
G1 X131.766 Y160.402 E3.46321
G1 X131.476 Y159.883 E3.48299
G1 X131.279 Y159.497 E3.4974
G1 X131.101 Y159.132 E3.51091
G1 X130.968 Y158.849 E3.52131
G1 X130.708 Y158.275 E3.54227
G1 X130.507 Y157.802 E3.55936
G1 X130.47 Y157.709 E3.56269
G1 X130.325 Y157.324 E3.57637
G1 X130.178 Y156.91 E3.59098
G1 X130.091 Y156.656 E3.59991
G1 X129.911 Y156.107 E3.61913
G1 X129.646 Y155.153 E3.65206
G1 X129.478 Y154.425 E3.67691
G1 X129.292 Y153.398 E3.71162
G1 X129.151 Y152.335 E3.74729
G1 X129.105 Y151.939 E3.76055
G1 X129.068 Y151.553 E3.77345
G1 X129.019 Y150.661 E3.80316
G1 X129.012 Y150.173 E3.81939
G1 X129.012 Y149.85 E3.83014
G1 X129.017 Y149.516 E3.84125
G1 X129.047 Y148.851 E3.86339
G1 X129.106 Y148.071 E3.8894
G1 X129.158 Y147.553 E3.90672
G1 X129.22 Y147.051 E3.92354
G1 X129.309 Y146.461 E3.94339
G1 X129.378 Y146.097 E3.95571
G1 X129.464 Y145.677 E3.96997
G1 X129.533 Y145.364 E3.98063
G1 X129.674 Y144.765 E4.0011
G1 X129.921 Y143.88 E4.03166
G1 X130.089 Y143.364 E4.04971
G1 X130.183 Y143.088 E4.0594
G1 X130.362 Y142.584 E4.07719
G1 X130.724 Y141.692 E4.10921
G1 X130.98 Y141.132 E4.12969
G1 X131.119 Y140.839 E4.14048
G1 X131.376 Y140.318 E4.1598
G1 X131.831 Y139.487 E4.19131
G1 X132.098 Y139.046 E4.20846
G1 X132.241 Y138.817 E4.21743
G1 X132.523 Y138.376 E4.23485
G1 X132.894 Y137.832 E4.25675
G1 X133.102 Y137.546 E4.26851
G1 X133.383 Y137.176 E4.28396
G1 X133.826 Y136.618 E4.30766
G1 X134.216 Y136.154 E4.32782
G1 X134.461 Y135.884 E4.33994
G1 X134.763 Y135.562 E4.35463
G1 X134.972 Y135.345 E4.36465
G1 X135.407 Y134.906 E4.3852
G0 F6000 X135.691 Y135.187
G1 F1200 X136.376 Y134.554 E4.41622
G1 X136.823 Y134.176 E4.43569
G1 X137.024 Y134.01 E4.44437
G1 X137.392 Y133.714 E4.46007
G1 X138.131 Y133.171 E4.49057
G1 X138.611 Y132.849 E4.5098
G1 X138.874 Y132.678 E4.52023
G1 X139.41 Y132.341 E4.54129
G1 X139.859 Y132.074 E4.55867
G1 X139.964 Y132.015 E4.56267
G1 X140.287 Y131.841 E4.57487
G1 X140.577 Y131.691 E4.58573
G1 X140.799 Y131.579 E4.594
G1 X141.334 Y131.318 E4.6138
G1 X141.855 Y131.081 E4.63284
G1 X142.188 Y130.945 E4.6448
G1 X142.535 Y130.81 E4.65719
G1 X142.799 Y130.712 E4.66655
G1 X143.337 Y130.519 E4.68556
G1 X143.795 Y130.366 E4.70162
G1 X143.98 Y130.309 E4.70806
G1 X144.379 Y130.194 E4.72187
G1 X144.842 Y130.071 E4.73781
G1 X145.108 Y130.005 E4.74692
G1 X145.532 Y129.904 E4.76142
G1 X146.423 Y129.731 E4.79161
G1 X147.093 Y129.631 E4.81414
G1 X147.418 Y129.588 E4.82504
G1 X148.038 Y129.515 E4.84581
G1 X148.582 Y129.465 E4.86398
G1 X148.825 Y129.449 E4.87208
G1 X149.37 Y129.427 E4.89022
G1 X150.142 Y129.416 E4.9159
G1 X151.039 Y129.441 E4.94574
G1 X151.535 Y129.476 E4.96228
G1 X151.812 Y129.499 E4.97153
G1 X152.369 Y129.553 E4.99014
G1 X152.989 Y129.632 E5.01093
G1 X153.363 Y129.694 E5.02354
G1 X153.804 Y129.775 E5.03845
G1 X154.064 Y129.826 E5.04726
G1 X154.584 Y129.935 E5.06493
G1 X155.156 Y130.072 E5.0845
G1 X155.481 Y130.162 E5.09571
G1 X155.934 Y130.296 E5.11142
G1 X156.237 Y130.391 E5.12199
G1 X156.812 Y130.58 E5.14212
G1 X157.264 Y130.74 E5.15806
G1 X157.69 Y130.909 E5.17331
G1 X158.151 Y131.104 E5.18996
G1 X158.396 Y131.211 E5.19885
G1 X158.917 Y131.447 E5.21787
G1 X159.452 Y131.708 E5.23767
G1 X159.607 Y131.789 E5.24349
G1 X160.044 Y132.029 E5.26007
G1 X160.251 Y132.147 E5.26799
G1 X160.78 Y132.458 E5.2884
G1 X161.561 Y132.965 E5.31937
G1 X162.087 Y133.34 E5.34086
G1 X162.334 Y133.522 E5.35106
G1 X162.734 Y133.825 E5.36775
G1 X163.136 Y134.144 E5.38482
G1 X163.234 Y134.226 E5.38907
G1 X163.531 Y134.484 E5.40216
G1 X163.806 Y134.732 E5.41447
G1 X163.974 Y134.887 E5.42208
G1 X164.351 Y135.242 E5.4393
G1 X164.979 Y135.886 E5.46922
G1 X165.426 Y136.385 E5.4915
G1 X165.643 Y136.634 E5.50249
G1 X166.035 Y137.1 E5.52274
G1 X166.591 Y137.823 E5.55307
G1 X166.888 Y138.245 E5.57024
G1 X167.043 Y138.471 E5.57935
G1 X167.306 Y138.866 E5.59514
G1 X167.668 Y139.45 E5.61799
G1 X167.884 Y139.825 E5.63238
G1 X168.066 Y140.155 E5.64492
G1 X168.406 Y140.797 E5.66908
G1 X168.794 Y141.611 E5.69907
G1 X168.987 Y142.065 E5.71548
G1 X169.096 Y142.332 E5.72507
G1 X169.284 Y142.81 E5.74216
G1 X169.581 Y143.672 E5.77248
G1 X169.747 Y144.231 E5.79187
G1 X169.825 Y144.507 E5.80141
G1 X170.009 Y145.194 E5.82507
G1 X170.148 Y145.777 E5.845
G1 X170.211 Y146.098 E5.85588
G1 X170.269 Y146.419 E5.86673
G1 X170.313 Y146.683 E5.87563
G1 X170.395 Y147.213 E5.89347
G1 X170.495 Y148.111 E5.92352
G1 X170.533 Y148.667 E5.94206
G1 X170.55 Y148.969 E5.95212
G1 X170.573 Y149.548 E5.97139
G1 X170.58 Y150.133 E5.99085
G1 X170.569 Y150.569 E6.00536
G1 X170.554 Y150.906 E6.01658
G1 X170.54 Y151.149 E6.02467
G1 X170.495 Y151.816 E6.04691
G1 X170.395 Y152.719 E6.07713
G1 X170.309 Y153.276 E6.09587
G1 X170.262 Y153.554 E6.10525
G1 X170.163 Y154.099 E6.12367
G1 X170.031 Y154.722 E6.14485
G1 X169.923 Y155.151 E6.15957
G1 X169.801 Y155.589 E6.17469
G1 X169.618 Y156.209 E6.19619
G1 X169.469 Y156.675 E6.21246
G1 X169.308 Y157.117 E6.22811
G1 X169.151 Y157.522 E6.24256
G1 X169.042 Y157.793 E6.25227
G1 X168.812 Y158.341 E6.27204
G1 X168.59 Y158.834 E6.29002
G1 X168.401 Y159.216 E6.3042
G1 X168.215 Y159.573 E6.31758
G1 X168.084 Y159.815 E6.32674
G1 X167.809 Y160.311 E6.3456
G1 X167.322 Y161.105 E6.37658
G1 X166.943 Y161.666 E6.3991
G1 X166.765 Y161.922 E6.40947
G1 X166.565 Y162.2 E6.42086
G1 X166.158 Y162.729 E6.44306
G1 X165.59 Y163.422 E6.47286
G1 X165.356 Y163.698 E6.4849
G1 X165.19 Y163.887 E6.49326
G1 X164.524 Y164.58 E6.52523
G1 X163.874 Y165.197 E6.55504
G1 X163.564 Y165.479 E6.56898
G1 X163.353 Y165.664 E6.57831
G1 X162.939 Y166.009 E6.59623
G1 X162.767 Y166.145 E6.60353
G1 X162.545 Y166.316 E6.61285
G1 X162.178 Y166.587 E6.62802
G1 X161.626 Y166.98 E6.65056
G1 X161.154 Y167.297 E6.66947
G1 X161.001 Y167.394 E6.6755
G1 X160.724 Y167.564 E6.6863
G1 X160.29 Y167.818 E6.70303
G1 X159.686 Y168.157 E6.72607
G1 X158.863 Y168.573 E6.75674
G1 X158.281 Y168.836 E6.77798
G1 X157.998 Y168.959 E6.78824
G1 X157.581 Y169.133 E6.80327
G1 X156.785 Y169.428 E6.83151
G1 X156.282 Y169.592 E6.8491
G1 X155.993 Y169.682 E6.85917
G1 X155.406 Y169.855 E6.87952
G1 X154.594 Y170.059 E6.90737
G1 X154.086 Y170.166 E6.92464
G1 X153.726 Y170.236 E6.93684
G1 X153.154 Y170.336 E6.95615
G1 X152.546 Y170.424 E6.97658
G1 X152.153 Y170.468 E6.98974
G1 X151.988 Y170.484 E6.99525
G1 X151.734 Y170.505 E7.00373
G1 X151.102 Y170.551 E7.0248
G1 X150.459 Y170.578 E7.04621
G1 X150.025 Y170.582 E7.06064
G1 X149.589 Y170.577 E7.07514
G1 X148.875 Y170.557 E7.0989
G1 X147.937 Y170.489 E7.13018
G1 X147.506 Y170.436 E7.14462
G1 X147.099 Y170.379 E7.15829
G1 X146.844 Y170.34 E7.16687
G1 X146.171 Y170.229 E7.18956
G1 X145.298 Y170.047 E7.21922
G1 X144.851 Y169.934 E7.23456
G1 X144.583 Y169.862 E7.24379
G1 X144.145 Y169.739 E7.25892
G1 X143.599 Y169.57 E7.27793
G1 X143.296 Y169.467 E7.28857
G1 X142.851 Y169.304 E7.30433
G1 X142.147 Y169.029 E7.32947
G1 X141.639 Y168.815 E7.34781
G1 X141.221 Y168.62 E7.36315
G1 X140.849 Y168.437 E7.37694
G1 X140.59 Y168.305 E7.3866
G1 X140.043 Y168.017 E7.40717
G1 X139.577 Y167.757 E7.42491
G1 X139.233 Y167.547 E7.43832
G1 X138.875 Y167.319 E7.45244
G1 X138.63 Y167.158 E7.46219
G1 X138.117 Y166.811 E7.48279
G1 X137.696 Y166.511 E7.49998
G1 X137.608 Y166.445 E7.50364
G1 X137.318 Y166.219 E7.51587
G1 X136.805 Y165.803 E7.53783
G1 X136.378 Y165.442 E7.55643
G1 X136.126 Y165.222 E7.56756
G1 X135.66 Y164.782 E7.58887
G1 X135.358 Y164.479 E7.6031
G1 X135.18 Y164.295 E7.61162
G1 X134.784 Y163.878 E7.63074
G1 X134.17 Y163.172 E7.66186
G1 X133.807 Y162.715 E7.68128
G1 X133.638 Y162.497 E7.69045
G1 X133.3 Y162.048 E7.70914
G1 X132.922 Y161.512 E7.73096
G1 X132.738 Y161.229 E7.74218
G1 X132.55 Y160.931 E7.7539
G1 X132.403 Y160.691 E7.76326
G1 X132.11 Y160.198 E7.78234
G1 X131.83 Y159.697 E7.80143
G1 X131.774 Y159.59 E7.80544
G1 X131.639 Y159.321 E7.81546
G1 X131.461 Y158.956 E7.82896
G1 X131.332 Y158.684 E7.83897
G1 X131.072 Y158.11 E7.85993
G1 X130.879 Y157.654 E7.8764
G1 X130.842 Y157.561 E7.87973
G1 X130.702 Y157.19 E7.89292
G1 X130.555 Y156.776 E7.90753
G1 X130.472 Y156.531 E7.91614
G1 X130.292 Y155.982 E7.93535
G1 X130.035 Y155.064 E7.96706
G1 X129.867 Y154.336 E7.99191
G1 X129.688 Y153.346 E8.02537
G1 X129.547 Y152.283 E8.06103
G1 X129.503 Y151.9 E8.07386
G1 X129.466 Y151.514 E8.08675
G1 X129.419 Y150.655 E8.11537
G1 X129.412 Y150.167 E8.1316
G1 X129.412 Y149.856 E8.14194
G1 X129.417 Y149.522 E8.15305
G1 X129.446 Y148.881 E8.1744
G1 X129.505 Y148.101 E8.20041
G1 X129.555 Y147.602 E8.21709
G1 X129.617 Y147.1 E8.23392
G1 X129.703 Y146.532 E8.25302
G1 X129.769 Y146.178 E8.265
G1 X129.855 Y145.758 E8.27926
G1 X129.922 Y145.455 E8.28958
G1 X130.063 Y144.856 E8.31005
G1 X130.302 Y144.003 E8.33951
G1 X130.47 Y143.487 E8.35756
G1 X130.56 Y143.221 E8.3669
G1 X130.739 Y142.717 E8.38469
G1 X131.088 Y141.858 E8.41553
G1 X131.344 Y141.298 E8.43601
G1 X131.478 Y141.016 E8.44639
G1 X131.735 Y140.495 E8.46571
G1 X132.173 Y139.694 E8.49608
G1 X132.44 Y139.253 E8.51322
G1 X132.578 Y139.032 E8.52189
G1 X132.86 Y138.591 E8.5393
G1 X133.217 Y138.067 E8.56039
G1 X133.425 Y137.781 E8.57215
G1 X133.696 Y137.425 E8.58703
G1 X134.139 Y136.867 E8.61073
G1 X134.517 Y136.417 E8.63028
G1 X134.752 Y136.158 E8.64191
G1 X135.054 Y135.836 E8.65659
