;FLAVOR:Marlin
;TIME:2178
;Filament used: 0.969736m
;Layer height: 0.2
;MINX:126.511
;MINY:126.515
;MINZ:0.2
;MAXX:173.491
;MAXY:173.485
;MAXZ:11.6
;Generated with Creality Slicer 4.8.2-191
M140 S50
M105
M190 S50
M104 S200
M105
M109 S200
M82 ;absolute extrusion mode

G28 ;Home

G92 E0 ;Reset Extruder
G1 Z2.0 F3000 ;Move Z Axis up
G1 X10.1 Y20 Z0.28 F5000.0 ;Move to start position
G1 X10.1 Y200.0 Z0.28 F1500.0 E15 ;Draw the first line
G1 X10.4 Y200.0 Z0.28 F5000.0 ;Move to side a little
G1 X10.4 Y20 Z0.28 F1500.0 E30 ;Draw the second line
G92 E0 ;Reset Extruder
G1 Z2.0 F3000 ;Move Z Axis up

G92 E0
G92 E0
G1 F2700 E-5
;LAYER_COUNT:58
;LAYER:0
M107
G0 F6000 X133.312 Y133.475 Z0.2
;TYPE:SKIRT
G1 F2700 E0
G1 F1200 X133.748 Y133.043 E0.02041
G1 X133.955 Y132.849 E0.02985
G1 X134.171 Y132.652 E0.03957
G1 X134.587 Y132.285 E0.05802
G1 X135.126 Y131.826 E0.08157
G1 X135.8 Y131.296 E0.11009
G1 X136.437 Y130.834 E0.13626
G1 X136.692 Y130.655 E0.14662
G1 X137.168 Y130.33 E0.16579
G1 X137.943 Y129.847 E0.19617
G1 X138.574 Y129.489 E0.2203
G1 X138.791 Y129.369 E0.22854
G1 X139.332 Y129.078 E0.24898
G1 X139.846 Y128.818 E0.26813
G1 X139.954 Y128.767 E0.27211
G1 X140.259 Y128.629 E0.28324
G1 X140.716 Y128.43 E0.29982
G1 X140.967 Y128.324 E0.30888
G1 X141.629 Y128.055 E0.33265
G1 X142.258 Y127.822 E0.35496
G1 X142.583 Y127.715 E0.36634
G1 X143.057 Y127.567 E0.38285
G1 X143.367 Y127.475 E0.39361
G1 X144.052 Y127.283 E0.41727
G1 X144.583 Y127.149 E0.43549
G1 X144.803 Y127.099 E0.44299
G1 X145.146 Y127.026 E0.45465
G1 X145.615 Y126.935 E0.47054
G1 X145.848 Y126.893 E0.47842
G1 X146.564 Y126.77 E0.50258
G1 X147.175 Y126.682 E0.52311
G1 X147.599 Y126.637 E0.53729
G1 X147.952 Y126.605 E0.54908
G1 X148.211 Y126.585 E0.55772
G1 X148.899 Y126.539 E0.58066
G1 X149.797 Y126.515 E0.61053
G1 X150.535 Y126.526 E0.63508
G1 X150.869 Y126.536 E0.6462
G1 X151.443 Y126.562 E0.66531
G1 X152.135 Y126.616 E0.68839
G1 X152.778 Y126.688 E0.70991
G1 X153.301 Y126.759 E0.72747
G1 X153.996 Y126.861 E0.75083
G1 X154.578 Y126.962 E0.77048
G1 X154.968 Y127.045 E0.78374
G1 X155.427 Y127.151 E0.79941
G1 X155.737 Y127.228 E0.81003
G1 X156.375 Y127.395 E0.83197
G1 X156.941 Y127.559 E0.85157
G1 X157.138 Y127.622 E0.85845
G1 X157.42 Y127.716 E0.86833
G1 X157.783 Y127.843 E0.88112
G1 X158.019 Y127.929 E0.88948
G1 X158.711 Y128.189 E0.91407
G1 X159.302 Y128.431 E0.93531
G1 X159.698 Y128.611 E0.94977
G1 X160.189 Y128.845 E0.96786
G1 X160.389 Y128.943 E0.97527
G1 X161.003 Y129.251 E0.99812
G1 X161.764 Y129.671 E1.02703
G1 X162.352 Y130.028 E1.04991
G1 X162.639 Y130.209 E1.06119
G1 X163.188 Y130.565 E1.08296
G1 X163.713 Y130.927 E1.10417
G1 X164.059 Y131.185 E1.11852
G1 X164.377 Y131.43 E1.13187
G1 X164.603 Y131.609 E1.14146
G1 X165.159 Y132.061 E1.1653
G1 X165.61 Y132.448 E1.18506
G1 X165.782 Y132.604 E1.19278
G1 X166.016 Y132.822 E1.20342
G1 X166.275 Y133.071 E1.21537
G1 X166.958 Y133.752 E1.24745
G1 X167.379 Y134.197 E1.26783
G1 X167.523 Y134.358 E1.27501
G1 X167.736 Y134.603 E1.28581
G1 X168.009 Y134.927 E1.2999
G1 X168.161 Y135.112 E1.30786
G1 X168.589 Y135.643 E1.33055
G1 X168.904 Y136.052 E1.34772
G1 X169.174 Y136.433 E1.36325
G1 X169.501 Y136.916 E1.38265
G1 X169.668 Y137.17 E1.39276
G1 X170.032 Y137.741 E1.41528
G1 X170.337 Y138.25 E1.43502
G1 X170.5 Y138.539 E1.44605
G1 X170.669 Y138.849 E1.4578
G1 X170.864 Y139.225 E1.47188
G1 X171.182 Y139.854 E1.49533
G1 X171.468 Y140.467 E1.51782
G1 X171.625 Y140.837 E1.53119
G1 X171.773 Y141.203 E1.54432
G1 X171.865 Y141.44 E1.55278
G1 X172.12 Y142.115 E1.57678
G1 X172.392 Y142.93 E1.60536
G1 X172.643 Y143.793 E1.63525
G1 X172.735 Y144.129 E1.64683
G1 X172.867 Y144.643 E1.66449
G1 X172.993 Y145.192 E1.68322
G1 X173.035 Y145.399 E1.69024
G1 X173.102 Y145.76 E1.70246
G1 X173.202 Y146.363 E1.72279
G1 X173.302 Y147.034 E1.74535
G1 X173.363 Y147.518 E1.76158
G1 X173.408 Y148.037 E1.7789
G1 X173.444 Y148.606 E1.79787
G1 X173.458 Y148.874 E1.80679
G1 X173.486 Y149.595 E1.83079
G1 X173.491 Y150.272 E1.85331
G1 X173.48 Y150.673 E1.86665
G1 X173.465 Y151.02 E1.8782
G1 X173.451 Y151.273 E1.88663
G1 X173.404 Y151.982 E1.91026
G1 X173.317 Y152.816 E1.93815
G1 X173.206 Y153.59 E1.96416
G1 X173.152 Y153.927 E1.97551
G1 X173.05 Y154.509 E1.99516
G1 X172.943 Y155.04 E2.01318
G1 X172.902 Y155.221 E2.01935
G1 X172.807 Y155.607 E2.03257
G1 X172.622 Y156.3 E2.05643
G1 X172.433 Y156.958 E2.0792
G1 X172.27 Y157.476 E2.09726
G1 X172.228 Y157.599 E2.10158
G1 X172.097 Y157.962 E2.11442
G1 X171.951 Y158.345 E2.12805
G1 X171.862 Y158.571 E2.13613
G1 X171.57 Y159.289 E2.16191
G1 X171.321 Y159.854 E2.18245
G1 X171.204 Y160.101 E2.19154
G1 X171.059 Y160.396 E2.20247
G1 X170.798 Y160.903 E2.22144
G1 X170.483 Y161.492 E2.24365
G1 X170.156 Y162.062 E2.26551
G1 X169.94 Y162.408 E2.27908
G1 X169.678 Y162.814 E2.29515
G1 X169.518 Y163.054 E2.30474
G1 X169.1 Y163.666 E2.32939
G1 X168.736 Y164.169 E2.35004
G1 X168.466 Y164.514 E2.36461
G1 X168.185 Y164.86 E2.37944
G1 X168.015 Y165.064 E2.38827
G1 X167.545 Y165.615 E2.41236
G1 X167.151 Y166.052 E2.43193
G1 X166.846 Y166.367 E2.44651
G1 X166.55 Y166.662 E2.46041
G1 X166.359 Y166.848 E2.46928
G1 X165.845 Y167.336 E2.49285
G1 X165.37 Y167.762 E2.51407
G1 X165.034 Y168.041 E2.5286
G1 X164.611 Y168.38 E2.54663
G1 X164.39 Y168.552 E2.55594
G1 X163.839 Y168.971 E2.57897
G1 X163.348 Y169.324 E2.59908
G1 X163.156 Y169.454 E2.60679
G1 X162.892 Y169.627 E2.61729
G1 X162.502 Y169.875 E2.63266
G1 X162.301 Y170 E2.64053
G1 X161.722 Y170.351 E2.66305
G1 X161.217 Y170.639 E2.68239
G1 X160.833 Y170.839 E2.69679
G1 X160.41 Y171.05 E2.71251
G1 X160.147 Y171.177 E2.72223
G1 X159.514 Y171.472 E2.74545
G1 X158.967 Y171.709 E2.76528
G1 X158.733 Y171.803 E2.77367
G1 X158.434 Y171.918 E2.78432
G1 X157.881 Y172.12 E2.8039
G1 X157.198 Y172.358 E2.82796
G1 X156.522 Y172.57 E2.85152
G1 X156.152 Y172.67 E2.86427
G1 X155.901 Y172.734 E2.87289
G1 X155.611 Y172.804 E2.88281
G1 X154.714 Y173.007 E2.9134
G1 X154.094 Y173.128 E2.93441
G1 X153.92 Y173.157 E2.94028
G1 X153.582 Y173.208 E2.95165
G1 X152.88 Y173.301 E2.9752
G1 X152.206 Y173.379 E2.99777
G1 X151.593 Y173.433 E3.01823
G1 X151.29 Y173.451 E3.02833
G1 X150.905 Y173.467 E3.04114
G1 X150.702 Y173.472 E3.0479
G1 X149.786 Y173.485 E3.07837
G1 X149.148 Y173.475 E3.09959
G1 X148.77 Y173.456 E3.11218
G1 X148.358 Y173.428 E3.12591
G1 X148.06 Y173.403 E3.13586
G1 X147.368 Y173.337 E3.15898
G1 X146.756 Y173.262 E3.17949
G1 X146.513 Y173.225 E3.18766
G1 X146.203 Y173.173 E3.19812
G1 X145.746 Y173.09 E3.21357
G1 X144.826 Y172.906 E3.24477
G1 X144.233 Y172.769 E3.26501
G1 X143.896 Y172.678 E3.27662
G1 X143.377 Y172.529 E3.29458
G1 X143.07 Y172.436 E3.30525
G1 X142.446 Y172.237 E3.32704
G1 X141.877 Y172.038 E3.34709
G1 X141.693 Y171.968 E3.35363
G1 X141.412 Y171.857 E3.36368
G1 X140.968 Y171.674 E3.37966
G1 X140.74 Y171.577 E3.3879
G1 X140.095 Y171.294 E3.41132
G1 X139.531 Y171.027 E3.43208
G1 X139.203 Y170.856 E3.44438
G1 X138.633 Y170.545 E3.46598
G1 X138.35 Y170.386 E3.47677
G1 X137.897 Y170.126 E3.49415
G1 X137.375 Y169.807 E3.51449
G1 X137 Y169.558 E3.52946
G1 X136.538 Y169.239 E3.54814
G1 X136.32 Y169.084 E3.55703
G1 X135.767 Y168.682 E3.57977
G1 X135.273 Y168.301 E3.60052
G1 X135.136 Y168.189 E3.60641
G1 X134.9 Y167.991 E3.61665
G1 X134.573 Y167.708 E3.63104
G1 X134.372 Y167.53 E3.63997
G1 X133.856 Y167.061 E3.66316
G1 X133.258 Y166.474 E3.69103
G1 X132.884 Y166.078 E3.70915
G1 X132.674 Y165.849 E3.71948
G1 X132.16 Y165.273 E3.74516
G1 X131.746 Y164.782 E3.76652
G1 X131.483 Y164.445 E3.78074
G1 X131.245 Y164.13 E3.79387
G1 X131.098 Y163.93 E3.80212
G1 X130.662 Y163.325 E3.82693
G1 X130.292 Y162.777 E3.84892
G1 X130.024 Y162.349 E3.86572
G1 X129.828 Y162.021 E3.87842
G1 X129.372 Y161.228 E3.90885
G1 X129.078 Y160.679 E3.92956
G1 X128.914 Y160.343 E3.942
G1 X128.68 Y159.843 E3.96036
G1 X128.556 Y159.568 E3.97039
G1 X128.278 Y158.929 E3.99357
G1 X128.058 Y158.382 E4.01318
G1 X127.885 Y157.906 E4.03002
G1 X127.729 Y157.445 E4.04621
G1 X127.646 Y157.188 E4.05519
G1 X127.42 Y156.462 E4.08048
G1 X127.201 Y155.648 E4.10852
G1 X127.073 Y155.089 E4.12759
G1 X127.009 Y154.791 E4.13773
G1 X126.885 Y154.171 E4.15876
G1 X126.783 Y153.579 E4.17874
G1 X126.759 Y153.412 E4.18435
G1 X126.719 Y153.1 E4.19481
G1 X126.672 Y152.69 E4.20854
G1 X126.646 Y152.44 E4.2169
G1 X126.569 Y151.599 E4.24499
G1 X126.536 Y151.14 E4.2603
G1 X126.519 Y150.677 E4.27571
G1 X126.511 Y150.152 E4.29317
G1 X126.511 Y149.824 E4.30408
G1 X126.517 Y149.412 E4.31778
G1 X126.526 Y149.094 E4.32836
G1 X126.533 Y148.933 E4.33372
G1 X126.583 Y148.262 E4.3561
G1 X126.681 Y147.329 E4.38731
G1 X126.722 Y146.989 E4.3987
G1 X126.809 Y146.352 E4.42008
G1 X126.918 Y145.703 E4.44197
G1 X127.064 Y144.966 E4.46696
G1 X127.146 Y144.586 E4.47989
G1 X127.237 Y144.199 E4.49311
G1 X127.464 Y143.378 E4.52144
G1 X127.659 Y142.766 E4.5428
G1 X127.765 Y142.45 E4.55389
G1 X128 Y141.783 E4.57741
G1 X128.231 Y141.184 E4.59876
G1 X128.402 Y140.78 E4.61335
G1 X128.511 Y140.533 E4.62233
G1 X128.627 Y140.279 E4.63162
G1 X128.981 Y139.529 E4.65921
G1 X129.255 Y138.988 E4.67938
G1 X129.373 Y138.77 E4.68762
G1 X129.537 Y138.477 E4.69879
G1 X129.807 Y138.016 E4.71656
G1 X130.178 Y137.402 E4.74042
G1 X130.554 Y136.823 E4.76338
G1 X130.785 Y136.494 E4.77675
G1 X131.06 Y136.115 E4.79232
G1 X131.235 Y135.88 E4.80207
G1 X131.663 Y135.322 E4.82546
G1 X132.2 Y134.675 E4.85343
G1 X132.598 Y134.231 E4.87326
G1 X132.831 Y133.979 E4.88467
G1 X133.312 Y133.475 E4.90784
G0 F6000 X133.602 Y133.751
G1 F1200 X134.021 Y133.335 E4.92748
G1 X134.228 Y133.141 E4.93692
G1 X134.437 Y132.951 E4.94631
G1 X134.679 Y132.736 E4.95708
G1 X134.847 Y132.59 E4.96448
G1 X135.386 Y132.131 E4.98803
G1 X136.035 Y131.62 E5.0155
G1 X136.672 Y131.158 E5.04168
G1 X136.918 Y130.985 E5.05168
G1 X137.394 Y130.66 E5.07085
G1 X138.14 Y130.194 E5.1001
G1 X138.771 Y129.836 E5.12423
G1 X139.522 Y129.43 E5.15263
G1 X140.017 Y129.18 E5.17107
G1 X140.419 Y128.995 E5.18579
G1 X140.876 Y128.796 E5.20237
G1 X141.118 Y128.695 E5.21109
G1 X141.78 Y128.426 E5.23486
G1 X142.385 Y128.201 E5.25633
G1 X142.703 Y128.097 E5.26745
G1 X143.177 Y127.949 E5.28397
G1 X143.475 Y127.86 E5.29431
G1 X144.16 Y127.668 E5.31798
G1 X144.672 Y127.539 E5.33554
G1 X144.892 Y127.489 E5.34304
G1 X145.222 Y127.419 E5.35426
G1 X145.691 Y127.328 E5.37015
G1 X145.915 Y127.287 E5.37773
G1 X146.631 Y127.164 E5.40189
G1 X147.221 Y127.08 E5.42171
G1 X147.635 Y127.035 E5.43556
G1 X147.988 Y127.003 E5.44735
G1 X148.238 Y126.984 E5.45569
G1 X148.926 Y126.938 E5.47862
G1 X149.791 Y126.915 E5.5074
G1 X150.529 Y126.926 E5.53195
G1 X150.851 Y126.936 E5.54267
G1 X151.425 Y126.962 E5.56178
G1 X152.092 Y127.013 E5.58403
G1 X152.487 Y127.056 E5.59724
G1 X152.726 Y127.085 E5.60525
G1 X153.243 Y127.154 E5.6226
G1 X153.938 Y127.256 E5.64596
G1 X154.499 Y127.354 E5.6649
G1 X154.878 Y127.435 E5.67779
G1 X155.337 Y127.541 E5.69346
G1 X155.636 Y127.614 E5.7037
G1 X156.274 Y127.781 E5.72563
G1 X156.819 Y127.94 E5.74452
G1 X157.016 Y128.003 E5.75139
G1 X157.287 Y128.094 E5.7609
G1 X157.878 Y128.303 E5.78175
G1 X158.57 Y128.563 E5.80634
G1 X159.14 Y128.796 E5.82682
G1 X159.526 Y128.972 E5.84093
G1 X160.21 Y129.3 E5.86616
G1 X160.824 Y129.608 E5.88901
G1 X161.557 Y130.013 E5.91686
G1 X162.141 Y130.367 E5.93957
G1 X162.421 Y130.544 E5.95059
G1 X162.97 Y130.9 E5.97236
G1 X163.477 Y131.25 E5.99285
G1 X163.815 Y131.502 E6.00687
G1 X164.133 Y131.747 E6.02022
G1 X164.351 Y131.919 E6.02946
G1 X164.907 Y132.371 E6.05329
G1 X165.341 Y132.744 E6.07232
G1 X165.513 Y132.9 E6.08005
G1 X165.738 Y133.111 E6.0903
G1 X166.146 Y133.506 E6.10919
G1 X166.675 Y134.035 E6.13407
G1 X167.081 Y134.463 E6.1537
G1 X167.225 Y134.624 E6.16088
G1 X167.43 Y134.861 E6.1713
G1 X167.703 Y135.185 E6.18539
G1 X167.85 Y135.363 E6.19307
G1 X168.278 Y135.894 E6.21576
G1 X168.583 Y136.291 E6.23241
G1 X168.843 Y136.657 E6.24734
G1 X169.17 Y137.14 E6.26674
G1 X169.33 Y137.385 E6.27647
G1 X169.694 Y137.956 E6.29899
G1 X169.989 Y138.447 E6.31805
G1 X170.152 Y138.736 E6.32908
G1 X170.314 Y139.035 E6.34039
G1 X170.507 Y139.405 E6.35427
G1 X170.825 Y140.034 E6.37771
G1 X171.101 Y140.625 E6.39941
G1 X171.254 Y140.987 E6.41248
G1 X171.402 Y141.353 E6.42561
G1 X171.491 Y141.581 E6.43375
G1 X171.746 Y142.256 E6.45775
G1 X172.008 Y143.042 E6.48531
G1 X172.259 Y143.905 E6.5152
G1 X172.348 Y144.228 E6.52634
G1 X172.48 Y144.742 E6.54399
G1 X172.601 Y145.271 E6.56204
G1 X172.643 Y145.478 E6.56907
G1 X172.708 Y145.826 E6.58084
G1 X172.775 Y146.224 E6.59427
G1 X172.906 Y147.093 E6.6235
G1 X172.965 Y147.56 E6.63915
G1 X173.009 Y148.063 E6.65595
G1 X173.045 Y148.632 E6.67491
G1 X173.058 Y148.89 E6.6835
G1 X173.086 Y149.611 E6.7075
G1 X173.091 Y150.263 E6.72919
G1 X173.08 Y150.656 E6.74226
G1 X173.065 Y151.003 E6.75381
G1 X173.052 Y151.246 E6.76191
G1 X173.005 Y151.955 E6.78554
G1 X172.921 Y152.759 E6.81243
G1 X172.81 Y153.533 E6.83843
G1 X172.758 Y153.858 E6.84938
G1 X172.656 Y154.44 E6.86903
G1 X172.553 Y154.952 E6.8864
G1 X172.512 Y155.133 E6.89258
G1 X172.421 Y155.505 E6.90531
G1 X172.296 Y155.977 E6.92155
G1 X172.048 Y156.847 E6.95164
G1 X171.891 Y157.346 E6.96904
G1 X171.849 Y157.469 E6.97337
G1 X171.723 Y157.82 E6.98577
G1 X171.577 Y158.203 E6.9994
G1 X171.491 Y158.42 E7.00717
G1 X171.199 Y159.138 E7.03295
G1 X170.96 Y159.683 E7.05274
G1 X170.843 Y159.93 E7.06183
G1 X170.703 Y160.214 E7.07236
G1 X170.538 Y160.537 E7.08442
G1 X170.13 Y161.303 E7.11329
G1 X169.815 Y161.852 E7.13434
G1 X169.603 Y162.192 E7.14767
G1 X169.341 Y162.598 E7.16374
G1 X169.188 Y162.828 E7.17293
G1 X168.77 Y163.44 E7.19758
G1 X168.419 Y163.925 E7.21749
G1 X168.329 Y164.042 E7.2224
G1 X168.155 Y164.261 E7.2317
G1 X167.874 Y164.607 E7.24653
G1 X167.711 Y164.804 E7.25503
G1 X167.241 Y165.355 E7.27912
G1 X166.861 Y165.777 E7.29801
G1 X166.564 Y166.084 E7.31221
G1 X166.268 Y166.379 E7.32611
G1 X166.083 Y166.558 E7.33468
G1 X165.569 Y167.046 E7.35825
G1 X165.112 Y167.456 E7.37867
G1 X164.784 Y167.728 E7.39284
G1 X164.361 Y168.067 E7.41087
G1 X164.148 Y168.234 E7.41987
G1 X163.597 Y168.653 E7.4429
G1 X163.124 Y168.992 E7.46225
G1 X162.932 Y169.122 E7.46996
G1 X162.677 Y169.29 E7.48012
G1 X162.287 Y169.538 E7.49549
G1 X161.515 Y170.008 E7.52555
G1 X161.028 Y170.286 E7.54421
G1 X160.654 Y170.481 E7.55823
G1 X160.231 Y170.692 E7.57396
G1 X159.978 Y170.815 E7.58331
G1 X159.345 Y171.11 E7.60654
G1 X158.818 Y171.338 E7.62564
G1 X158.584 Y171.432 E7.63403
G1 X158.296 Y171.543 E7.64429
G1 X157.749 Y171.743 E7.66366
G1 X157.066 Y171.981 E7.68772
G1 X156.415 Y172.184 E7.7104
G1 X156.053 Y172.282 E7.72287
G1 X155.802 Y172.346 E7.73149
G1 X155.523 Y172.414 E7.74104
G1 X154.626 Y172.617 E7.77163
G1 X154.029 Y172.734 E7.79186
G1 X153.855 Y172.763 E7.79773
G1 X153.528 Y172.812 E7.80873
G1 X152.834 Y172.904 E7.83201
G1 X152.16 Y172.982 E7.85458
G1 X151.57 Y173.033 E7.87428
G1 X151.267 Y173.051 E7.88437
G1 X150.891 Y173.067 E7.89689
G1 X150.696 Y173.072 E7.90338
G1 X149.78 Y173.085 E7.93385
G1 X149.166 Y173.076 E7.95427
G1 X148.797 Y173.057 E7.96656
G1 X148.385 Y173.029 E7.98029
G1 X148.098 Y173.005 E7.98987
G1 X147.406 Y172.939 E8.01299
G1 X146.816 Y172.866 E8.03277
G1 X146.573 Y172.829 E8.04094
G1 X146.275 Y172.779 E8.05099
G1 X145.613 Y172.657 E8.07338
G1 X144.905 Y172.514 E8.0974
G1 X144.334 Y172.382 E8.1169
G1 X144.006 Y172.293 E8.1282
G1 X143.487 Y172.144 E8.14616
G1 X143.191 Y172.055 E8.15644
G1 X142.567 Y171.856 E8.17822
G1 X142.019 Y171.664 E8.19754
G1 X141.835 Y171.594 E8.20408
G1 X141.565 Y171.487 E8.21374
G1 X141.121 Y171.304 E8.22972
G1 X140.901 Y171.211 E8.23766
G1 X140.256 Y170.928 E8.26109
G1 X139.713 Y170.671 E8.28107
G1 X139.394 Y170.504 E8.29305
G1 X138.829 Y170.196 E8.31445
G1 X138.549 Y170.039 E8.32512
G1 X138.096 Y169.779 E8.3425
G1 X137.594 Y169.472 E8.36207
G1 X137.227 Y169.229 E8.37671
G1 X136.765 Y168.91 E8.39538
G1 X136.555 Y168.761 E8.40395
G1 X136.002 Y168.359 E8.42668
G1 X135.526 Y167.992 E8.44668
G1 X135.389 Y167.88 E8.45256
G1 X135.161 Y167.688 E8.46248
G1 X134.834 Y167.405 E8.47686
G1 X134.641 Y167.234 E8.48544
G1 X134.125 Y166.765 E8.50863
G1 X133.549 Y166.199 E8.53549
G1 X133.175 Y165.803 E8.5536
G1 X132.972 Y165.583 E8.56356
