;FLAVOR:Marlin
;TIME:1086
;Filament used: 0.372082m
;Layer height: 0.2
;MINX:129.5
;MINY:127.25
;MINZ:0.2
;MAXX:170.5
;MAXY:172.75
;MAXZ:15
;Generated with Creality Slicer 4.8.2-191
M140 S50
M105
M190 S50
M104 S200
M105
M109 S200
M82 ;absolute extrusion mode

G28 ;Home

G92 E0 ;Reset Extruder
G1 Z2.0 F3000 ;Move Z Axis up
G1 X10.1 Y20 Z0.28 F5000.0 ;Move to start position
G1 X10.1 Y200.0 Z0.28 F1500.0 E15 ;Draw the first line
G1 X10.4 Y200.0 Z0.28 F5000.0 ;Move to side a little
G1 X10.4 Y20 Z0.28 F1500.0 E30 ;Draw the second line
G92 E0 ;Reset Extruder
G1 Z2.0 F3000 ;Move Z Axis up

G92 E0
G92 E0
G1 F2700 E-5
;LAYER_COUNT:75
;LAYER:0
M107
G0 F6000 X132.698 Y130.514 Z0.2
;TYPE:SKIRT
G1 F2700 E0
G1 F1200 X133.386 Y129.877 E0.03119
G1 X134.126 Y129.301 E0.06237
G1 X134.912 Y128.789 E0.09357
G1 X135.739 Y128.347 E0.12476
G1 X136.601 Y127.977 E0.15596
G1 X137.491 Y127.681 E0.18716
G1 X138.403 Y127.463 E0.21835
G1 X139.33 Y127.322 E0.24953
G1 X140.201 Y127.263 E0.27857
G1 X140.522 Y127.254 E0.28925
G1 X140.83 Y127.25 E0.29949
G1 X158.793 Y127.25 E0.89695
G1 X159.649 Y127.261 E0.92542
G1 X160.585 Y127.315 E0.9566
G1 X161.513 Y127.447 E0.98778
G1 X162.427 Y127.659 E1.01899
G1 X163.319 Y127.948 E1.05017
G1 X164.184 Y128.311 E1.08137
G1 X165.014 Y128.747 E1.11256
G1 X165.805 Y129.252 E1.14377
G1 X166.549 Y129.823 E1.17496
G1 X167.242 Y130.455 E1.20616
G1 X167.879 Y131.143 E1.23734
G1 X168.454 Y131.884 E1.26854
G1 X168.965 Y132.67 E1.29972
G1 X169.407 Y133.498 E1.33094
G1 X169.776 Y134.36 E1.36212
G1 X170.071 Y135.25 E1.39331
G1 X170.289 Y136.162 E1.4245
G1 X170.429 Y137.09 E1.45571
G1 X170.487 Y137.951 E1.48441
G1 X170.496 Y138.271 E1.49506
G1 X170.5 Y138.58 E1.50534
G1 X170.499 Y161.15 E2.25602
G1 X170.49 Y161.877 E2.2802
G1 X170.439 Y162.814 E2.31141
G1 X170.307 Y163.742 E2.34259
G1 X170.098 Y164.656 E2.37377
G1 X169.811 Y165.549 E2.40497
G1 X169.449 Y166.415 E2.43619
G1 X169.015 Y167.246 E2.46737
G1 X168.511 Y168.037 E2.49857
G1 X167.942 Y168.782 E2.52975
G1 X167.311 Y169.477 E2.56097
G1 X166.624 Y170.115 E2.59215
G1 X165.885 Y170.692 E2.62333
G1 X165.099 Y171.204 E2.65453
G1 X164.273 Y171.647 E2.68571
G1 X163.411 Y172.019 E2.71693
G1 X162.522 Y172.315 E2.7481
G1 X161.61 Y172.535 E2.7793
G1 X160.683 Y172.676 E2.81049
G1 X159.799 Y172.737 E2.83996
G1 X159.478 Y172.746 E2.85064
G1 X159.17 Y172.75 E2.86089
G1 X141.065 Y172.749 E3.46306
G1 X140.367 Y172.74 E3.48628
G1 X139.431 Y172.688 E3.51746
G1 X138.502 Y172.556 E3.54867
G1 X137.588 Y172.346 E3.57986
G1 X136.695 Y172.059 E3.61106
G1 X135.83 Y171.696 E3.64226
G1 X134.999 Y171.262 E3.67344
G1 X134.208 Y170.758 E3.70463
G1 X133.463 Y170.188 E3.73583
G1 X132.769 Y169.557 E3.76703
G1 X132.132 Y168.87 E3.79819
G1 X131.555 Y168.13 E3.8294
G1 X131.043 Y167.344 E3.8606
G1 X130.6 Y166.517 E3.89181
G1 X130.229 Y165.656 E3.92299
G1 X129.933 Y164.766 E3.95418
G1 X129.714 Y163.854 E3.98538
G1 X129.573 Y162.927 E4.01657
G1 X129.513 Y162.038 E4.0462
G1 X129.504 Y161.705 E4.05728
G1 X129.5 Y161.408 E4.06716
G1 X129.501 Y138.775 E4.81994
G1 X129.51 Y138.11 E4.84206
G1 X129.563 Y137.174 E4.87324
G1 X129.695 Y136.245 E4.90445
G1 X129.906 Y135.331 E4.93565
G1 X130.194 Y134.439 E4.96682
G1 X130.557 Y133.574 E4.99802
G1 X130.992 Y132.743 E5.02922
G1 X131.496 Y131.953 E5.06039
G1 X132.066 Y131.208 E5.09159
G1 X132.698 Y130.514 E5.12281
G0 F6000 X133.089 Y130.689
G1 F1200 X133.774 Y130.073 E5.15345
G1 X134.51 Y129.52 E5.18407
G1 X135.291 Y129.032 E5.2147
G1 X136.111 Y128.614 E5.24531
G1 X136.965 Y128.269 E5.27594
G1 X137.845 Y127.999 E5.30656
G1 X138.745 Y127.807 E5.33717
G1 X139.659 Y127.693 E5.3678
G1 X140.212 Y127.663 E5.38622
G1 X140.533 Y127.654 E5.3969
G1 X140.83 Y127.65 E5.40678
G1 X158.793 Y127.65 E6.00423
G1 X159.643 Y127.661 E6.03251
G1 X160.562 Y127.714 E6.06312
G1 X161.473 Y127.847 E6.09375
G1 X162.369 Y128.058 E6.12436
G1 X163.243 Y128.346 E6.15497
G1 X164.09 Y128.709 E6.18562
G1 X164.901 Y129.144 E6.21623
G1 X165.671 Y129.648 E6.24684
G1 X166.395 Y130.217 E6.27746
G1 X167.067 Y130.847 E6.3081
G1 X167.682 Y131.532 E6.33872
G1 X168.235 Y132.268 E6.36934
G1 X168.722 Y133.049 E6.39995
G1 X169.139 Y133.87 E6.43058
G1 X169.484 Y134.724 E6.46121
G1 X169.753 Y135.604 E6.49182
G1 X169.945 Y136.505 E6.52246
G1 X170.058 Y137.418 E6.55306
G1 X170.087 Y137.962 E6.57117
G1 X170.096 Y138.282 E6.58182
G1 X170.1 Y138.58 E6.59173
G1 X170.099 Y161.145 E7.34225
G1 X170.09 Y161.872 E7.36643
G1 X170.039 Y162.791 E7.39704
G1 X169.908 Y163.703 E7.42769
G1 X169.698 Y164.599 E7.4583
G1 X169.412 Y165.474 E7.48892
G1 X169.051 Y166.321 E7.51954
G1 X168.617 Y167.133 E7.55016
G1 X168.115 Y167.905 E7.58079
G1 X167.547 Y168.63 E7.61142
G1 X166.919 Y169.303 E7.64204
G1 X166.235 Y169.919 E7.67265
G1 X165.5 Y170.473 E7.70327
G1 X164.72 Y170.962 E7.73389
G1 X163.9 Y171.381 E7.76451
G1 X163.047 Y171.727 E7.79513
G1 X162.167 Y171.998 E7.82576
G1 X161.267 Y172.191 E7.85637
G1 X160.353 Y172.306 E7.88701
G1 X159.788 Y172.337 E7.90583
G1 X159.467 Y172.346 E7.91651
G1 X159.17 Y172.35 E7.92639
G1 X141.07 Y172.349 E8.5284
G1 X140.372 Y172.34 E8.55162
G1 X139.453 Y172.288 E8.58223
G1 X138.542 Y172.157 E8.61284
G1 X137.646 Y171.947 E8.64345
G1 X136.771 Y171.66 E8.67408
G1 X135.924 Y171.298 E8.70472
G1 X135.112 Y170.864 E8.73534
G1 X134.341 Y170.362 E8.76594
G1 X133.616 Y169.794 E8.79657
G1 X132.943 Y169.165 E8.82721
G1 X132.328 Y168.481 E8.8578
G1 X131.774 Y167.746 E8.88842
G1 X131.286 Y166.965 E8.91905
G1 X130.867 Y166.145 E8.94967
G1 X130.521 Y165.292 E8.98029
G1 X130.251 Y164.412 E9.0109
G1 X130.058 Y163.511 E9.04155
G1 X129.944 Y162.598 E9.07215
G1 X129.913 Y162.027 E9.09117
G1 X129.904 Y161.694 E9.10225
G1 X129.9 Y161.408 E9.11177
G1 X129.901 Y138.781 E9.86434
G1 X129.91 Y138.116 E9.88646
G1 X129.962 Y137.196 E9.91711
G1 X130.094 Y136.285 E9.94773
G1 X130.305 Y135.389 E9.97834
G1 X130.592 Y134.514 E10.00897
G1 X130.955 Y133.668 E10.03959
G1 X131.389 Y132.856 E10.07021
G1 X131.892 Y132.085 E10.10083
G1 X132.461 Y131.361 E10.13146
G1 X133.089 Y130.689 E10.16205
G0 F6000 X133.481 Y130.867
G1 F1200 X134.162 Y130.274 E10.19209
G1 X134.894 Y129.744 E10.22214
G1 X135.669 Y129.281 E10.25217
G1 X136.482 Y128.888 E10.2822
G1 X137.327 Y128.568 E10.31226
G1 X138.196 Y128.325 E10.34227
G1 X139.084 Y128.159 E10.37232
G1 X140.223 Y128.063 E10.41033
G1 X140.544 Y128.054 E10.42101
G1 X140.83 Y128.05 E10.43053
G1 X158.793 Y128.05 E11.02798
G1 X159.637 Y128.061 E11.05605
G1 X160.539 Y128.114 E11.0861
G1 X161.432 Y128.246 E11.11613
G1 X162.31 Y128.457 E11.14616
G1 X163.166 Y128.745 E11.1762
G1 X163.993 Y129.107 E11.20623
G1 X164.785 Y129.542 E11.23628
G1 X165.536 Y130.044 E11.26633
G1 X166.239 Y130.611 E11.29637
G1 X166.889 Y131.238 E11.3264
G1 X167.481 Y131.92 E11.35644
G1 X168.011 Y132.651 E11.38647
G1 X168.473 Y133.427 E11.41651
G1 X168.866 Y134.24 E11.44654
G1 X169.184 Y135.085 E11.47657
G1 X169.427 Y135.955 E11.50662
G1 X169.592 Y136.843 E11.53666
G1 X169.687 Y137.973 E11.57437
G1 X169.696 Y138.293 E11.58502
G1 X169.7 Y138.58 E11.59457
G1 X169.699 Y161.14 E12.34492
G1 X169.69 Y161.867 E12.3691
G1 X169.639 Y162.769 E12.39915
G1 X169.508 Y163.663 E12.4292
G1 X169.299 Y164.541 E12.45922
G1 X169.013 Y165.398 E12.48927
G1 X168.652 Y166.226 E12.51931
G1 X168.22 Y167.018 E12.54932
G1 X167.719 Y167.77 E12.57937
G1 X167.153 Y168.474 E12.60941
G1 X166.528 Y169.125 E12.63943
G1 X165.847 Y169.719 E12.66949
G1 X165.116 Y170.25 E12.69954
G1 X164.342 Y170.714 E12.72955
G1 X163.529 Y171.108 E12.7596
G1 X162.685 Y171.428 E12.78962
G1 X161.815 Y171.673 E12.81968
G1 X160.928 Y171.839 E12.8497
G1 X159.777 Y171.937 E12.88812
G1 X159.456 Y171.946 E12.8988
G1 X159.17 Y171.95 E12.90831
G1 X141.075 Y171.949 E13.51015
G1 X140.377 Y171.94 E13.53337
G1 X139.476 Y171.889 E13.56339
G1 X138.582 Y171.757 E13.59344
G1 X137.704 Y171.548 E13.62346
G1 X136.847 Y171.261 E13.65352
G1 X136.02 Y170.9 E13.68353
G1 X135.227 Y170.467 E13.71359
G1 X134.476 Y169.966 E13.74361
G1 X133.772 Y169.4 E13.77366
G1 X133.121 Y168.774 E13.80369
G1 X132.528 Y168.093 E13.83373
G1 X131.998 Y167.362 E13.86376
G1 X131.534 Y166.587 E13.8938
G1 X131.14 Y165.774 E13.92385
G1 X130.82 Y164.93 E13.95387
G1 X130.576 Y164.06 E13.98393
G1 X130.41 Y163.172 E14.01397
G1 X130.313 Y162.017 E14.05252
G1 X130.304 Y161.684 E14.0636
G1 X130.3 Y161.408 E14.07278
G1 X130.301 Y138.786 E14.82519
G1 X130.31 Y138.121 E14.84731
G1 X130.362 Y137.219 E14.87737
G1 X130.494 Y136.326 E14.90739
G1 X130.704 Y135.448 E14.93742
G1 X130.991 Y134.591 E14.96748
G1 X131.353 Y133.764 E14.9975
G1 X131.786 Y132.972 E15.02752
G1 X132.288 Y132.221 E15.05757
G1 X132.855 Y131.517 E15.08763
G1 X133.481 Y130.867 E15.11765
G1 F2700 E10.11765
;MESH:130????????????.STL
G0 F6000 X143.665 Y146.923
G0 X142.23 Y146.923
G0 X142.4 Y148.85
;TYPE:WALL-INNER
G1 F2700 E15.11765
G1 F1200 X157.6 Y148.85 E15.6232
G1 X157.6 Y140.15 E15.91256
G1 X142.4 Y140.15 E16.41812
G1 X142.4 Y148.85 E16.70748
G0 F6000 X142.8 Y148.45
;TYPE:WALL-OUTER
G1 F1200 X157.2 Y148.45 E17.18643
G1 X157.2 Y140.55 E17.44918
G1 X142.8 Y140.55 E17.92813
G1 X142.8 Y148.45 E18.19088
G1 F2700 E13.19088
G0 F6000 X142.5 Y148.45
G0 X142.4 Y149.04
G0 X142.4 Y149.96
G0 X142.4 Y159.35
;TYPE:WALL-INNER
G1 F2700 E18.19088
G1 F1200 X157.6 Y159.35 E18.69644
G1 X157.6 Y150.15 E19.00243
G1 X142.4 Y150.15 E19.50799
G1 X142.4 Y159.35 E19.81398
G0 F6000 X142.8 Y158.95
;TYPE:WALL-OUTER
G1 F1200 X157.2 Y158.95 E20.29292
G1 X157.2 Y150.55 E20.57231
G1 X142.8 Y150.55 E21.05126
G1 X142.8 Y158.95 E21.33064
G1 F2700 E16.33064
G0 F6000 X142.5 Y158.95
G0 X157.796 Y159.546
G0 X158.69 Y159.546
G0 X158.9 Y161.15
;TYPE:WALL-INNER
G1 F2700 E21.33064
G1 F1200 X141.1 Y161.15 E21.92267
G1 X141.1 Y138.85 E22.66437
G1 X158.9 Y138.85 E23.2564
G1 X158.9 Y161.15 E23.9981
G0 F6000 X159.3 Y161.55
;TYPE:WALL-OUTER
G1 F1200 X140.7 Y161.55 E24.61674
G1 X140.7 Y138.45 E25.38505
G1 X159.3 Y138.45 E26.00369
G1 X159.3 Y161.55 E26.772
G0 F6000 X159.03 Y161.28
G0 X158.79 Y160.76
G0 X158.51 Y160.76
;TYPE:SKIN
G1 F1200 X141.49 Y160.76 E27.33809
G1 X141.49 Y139.24 E28.05384
G1 X158.51 Y139.24 E28.61993
G1 X158.51 Y160.76 E29.33569
G0 F6000 X158.79 Y160.76
G0 X158.69 Y159.49
G0 X157.79 Y159.49
G0 X157.99 Y159.74
G1 F1200 X157.99 Y149.76 E29.66763
G1 X142.01 Y149.76 E30.19912
G1 X142.01 Y159.74 E30.53106
G1 X157.99 Y159.74 E31.06256
G1 F2700 E26.06256
G0 F6000 X157.71 Y159.49
G0 X157.71 Y149.96
G0 X157.71 Y149.04
G0 X157.99 Y149.24
G1 F2700 E31.06256
G1 F1200 X157.99 Y139.76 E31.37786
G1 X142.01 Y139.76 E31.90936
G1 X142.01 Y149.24 E32.22467
G1 X157.99 Y149.24 E32.75616
G1 F2700 E27.75616
G0 F6000 X157.71 Y148.99
G0 X157.796 Y139.954
G0 X157.796 Y139.06
G0 X158.068 Y138.96
G0 X158.068 Y139.4
G1 F2700 E32.75616
G1 F1200 X158.35 Y139.682 E32.76943
G0 F6000 X158.149 Y140.047
G1 F1200 X158.35 Y140.248 E32.77888
G0 F6000 X158.149 Y140.613
G1 F1200 X158.35 Y140.813 E32.78831
G0 F6000 X158.149 Y141.178
G1 F1200 X158.35 Y141.379 E32.79777
G0 F6000 X158.149 Y141.744
G1 F1200 X158.35 Y141.945 E32.80722
G0 F6000 X158.149 Y142.31
G1 F1200 X158.35 Y142.511 E32.81668
G0 F6000 X158.149 Y142.875
G1 F1200 X158.35 Y143.076 E32.82613
G0 F6000 X158.149 Y143.441
G1 F1200 X158.35 Y143.642 E32.83558
G0 F6000 X158.149 Y144.007
G1 F1200 X158.35 Y144.208 E32.84504
G0 F6000 X158.149 Y144.572
G1 F1200 X158.35 Y144.773 E32.85449
G0 F6000 X158.149 Y145.138
G1 F1200 X158.35 Y145.339 E32.86395
G0 F6000 X158.149 Y145.704
G1 F1200 X158.35 Y145.905 E32.8734
G0 F6000 X158.149 Y146.269
G1 F1200 X158.35 Y146.47 E32.88286
G0 F6000 X158.149 Y146.835
G1 F1200 X158.35 Y147.036 E32.89231
G0 F6000 X158.149 Y147.401
G1 F1200 X158.35 Y147.602 E32.90177
G0 F6000 X158.149 Y147.967
G1 F1200 X158.35 Y148.167 E32.9112
G0 F6000 X158.149 Y148.532
G1 F1200 X158.35 Y148.733 E32.92065
G0 F6000 X158.149 Y149.098
G1 F1200 X158.35 Y149.299 E32.93011
G0 F6000 X158.085 Y149.599
G1 F1200 X157.884 Y149.399 E32.93954
G0 F6000 X158.149 Y149.664
G1 F1200 X158.35 Y149.864 E32.94897
G0 F6000 X158.149 Y150.229
G1 F1200 X158.35 Y150.43 E32.95842
G0 F6000 X158.149 Y150.795
G1 F1200 X158.35 Y150.996 E32.96788
G0 F6000 X158.149 Y151.361
G1 F1200 X158.35 Y151.561 E32.97731
G0 F6000 X158.149 Y151.926
G1 F1200 X158.35 Y152.127 E32.98676
G0 F6000 X158.149 Y152.492
G1 F1200 X158.35 Y152.693 E32.99622
G0 F6000 X158.149 Y153.058
G1 F1200 X158.35 Y153.259 E33.00567
G0 F6000 X158.149 Y153.623
G1 F1200 X158.35 Y153.824 E33.01512
G0 F6000 X158.149 Y154.189
G1 F1200 X158.35 Y154.39 E33.02458
G0 F6000 X158.149 Y154.755
G1 F1200 X158.35 Y154.956 E33.03403
G0 F6000 X158.149 Y155.32
G1 F1200 X158.35 Y155.521 E33.04349
G0 F6000 X158.149 Y155.886
G1 F1200 X158.35 Y156.087 E33.05294
G0 F6000 X158.149 Y156.452
G1 F1200 X158.35 Y156.653 E33.0624
G0 F6000 X158.149 Y157.018
G1 F1200 X158.35 Y157.218 E33.07183
G0 F6000 X158.149 Y157.583
G1 F1200 X158.35 Y157.784 E33.08128
G0 F6000 X158.149 Y158.149
G1 F1200 X158.35 Y158.35 E33.09074
G0 F6000 X158.149 Y158.715
G1 F1200 X158.35 Y158.915 E33.10017
G0 F6000 X158.149 Y159.28
G1 F1200 X158.35 Y159.481 E33.10962
G0 F6000 X158.149 Y159.846
G1 F1200 X158.35 Y160.047 E33.11908
G0 F6000 X158.336 Y160.598
G1 F1200 X157.636 Y159.899 E33.15198
G0 F6000 X157.071 Y159.899
G1 F1200 X157.77 Y160.598 E33.18486
G0 F6000 X157.204 Y160.598
G1 F1200 X156.505 Y159.899 E33.21774
G0 F6000 X155.939 Y159.899
G1 F1200 X156.639 Y160.598 E33.25064
G0 F6000 X156.073 Y160.598
G1 F1200 X155.373 Y159.899 E33.28354
G0 F6000 X154.808 Y159.899
G1 F1200 X155.507 Y160.598 E33.31642
G0 F6000 X154.941 Y160.598
G1 F1200 X154.242 Y159.899 E33.3493
G0 F6000 X153.676 Y159.899
G1 F1200 X154.376 Y160.598 E33.3822
G0 F6000 X153.81 Y160.598
G1 F1200 X153.111 Y159.899 E33.41508
G0 F6000 X152.545 Y159.899
G1 F1200 X153.244 Y160.598 E33.44796
G0 F6000 X152.679 Y160.598
G1 F1200 X151.979 Y159.899 E33.48086
G0 F6000 X151.414 Y159.899
G1 F1200 X152.113 Y160.598 E33.51374
G0 F6000 X151.547 Y160.598
G1 F1200 X150.848 Y159.899 E33.54662
G0 F6000 X150.282 Y159.899
G1 F1200 X150.982 Y160.598 E33.57952
G0 F6000 X150.416 Y160.598
G1 F1200 X149.717 Y159.899 E33.6124
G0 F6000 X149.151 Y159.899
G1 F1200 X149.85 Y160.598 E33.64528
G0 F6000 X149.285 Y160.598
G1 F1200 X148.585 Y159.899 E33.67818
G0 F6000 X148.02 Y159.899
G1 F1200 X148.719 Y160.598 E33.71106
G0 F6000 X148.153 Y160.598
G1 F1200 X147.454 Y159.899 E33.74394
G0 F6000 X146.888 Y159.899
G1 F1200 X147.588 Y160.598 E33.77684
G0 F6000 X147.022 Y160.598
G1 F1200 X146.323 Y159.899 E33.80972
G0 F6000 X145.757 Y159.899
G1 F1200 X146.456 Y160.598 E33.8426
G0 F6000 X145.89 Y160.598
G1 F1200 X145.191 Y159.899 E33.87548
G0 F6000 X144.625 Y159.899
G1 F1200 X145.325 Y160.598 E33.90838
G0 F6000 X144.759 Y160.598
G1 F1200 X144.06 Y159.899 E33.94126
G0 F6000 X143.494 Y159.899
G1 F1200 X144.193 Y160.598 E33.97414
G0 F6000 X143.628 Y160.598
G1 F1200 X142.928 Y159.899 E34.00704
G0 F6000 X142.363 Y159.899
G1 F1200 X143.062 Y160.598 E34.03992
G0 F6000 X142.496 Y160.598
G1 F1200 X141.649 Y159.751 E34.07976
G0 F6000 X141.849 Y159.386
G1 F1200 X141.649 Y159.185 E34.08919
G0 F6000 X141.849 Y158.82
G1 F1200 X141.649 Y158.62 E34.0986
G0 F6000 X141.849 Y158.254
G1 F1200 X141.649 Y158.054 E34.108
G0 F6000 X141.849 Y157.689
G1 F1200 X141.649 Y157.488 E34.11744
G0 F6000 X141.849 Y157.123
G1 F1200 X141.649 Y156.923 E34.12684
G0 F6000 X141.849 Y156.557
G1 F1200 X141.649 Y156.357 E34.13625
G0 F6000 X141.849 Y155.991
G1 F1200 X141.649 Y155.791 E34.14566
G0 F6000 X141.849 Y155.426
G1 F1200 X141.649 Y155.226 E34.15506
G0 F6000 X141.849 Y154.86
G1 F1200 X141.649 Y154.66 E34.16447
G0 F6000 X141.849 Y154.294
G1 F1200 X141.649 Y154.094 E34.17388
G0 F6000 X141.849 Y153.729
G1 F1200 X141.649 Y153.529 E34.18329
G0 F6000 X141.849 Y153.163
G1 F1200 X141.649 Y152.963 E34.19269
G0 F6000 X141.849 Y152.597
G1 F1200 X141.649 Y152.397 E34.2021
G0 F6000 X141.849 Y152.032
G1 F1200 X141.649 Y151.832 E34.21151
G0 F6000 X141.849 Y151.466
G1 F1200 X141.649 Y151.266 E34.22092
G0 F6000 X141.849 Y150.9
G1 F1200 X141.649 Y150.7 E34.23032
G0 F6000 X141.849 Y150.335
G1 F1200 X141.649 Y150.135 E34.23973
G0 F6000 X141.849 Y149.769
G1 F1200 X141.649 Y149.568 E34.24916
G0 F6000 X141.849 Y149.203
G1 F1200 X141.649 Y149.002 E34.25859
