;FLAVOR:Marlin
;TIME:1971
;Filament used: 0.883801m
;Layer height: 0.2
;MINX:126.511
;MINY:126.515
;MINZ:0.2
;MAXX:173.491
;MAXY:173.486
;MAXZ:11
;Generated with Creality Slicer 4.8.2-191
M140 S50
M105
M190 S50
M104 S200
M105
M109 S200
M82 ;absolute extrusion mode

G28 ;Home

G92 E0 ;Reset Extruder
G1 Z2.0 F3000 ;Move Z Axis up
G1 X10.1 Y20 Z0.28 F5000.0 ;Move to start position
G1 X10.1 Y200.0 Z0.28 F1500.0 E15 ;Draw the first line
G1 X10.4 Y200.0 Z0.28 F5000.0 ;Move to side a little
G1 X10.4 Y20 Z0.28 F1500.0 E30 ;Draw the second line
G92 E0 ;Reset Extruder
G1 Z2.0 F3000 ;Move Z Axis up

G92 E0
G92 E0
G1 F2700 E-5
;LAYER_COUNT:55
;LAYER:0
M107
G0 F6000 X133.274 Y133.516 Z0.2
;TYPE:SKIRT
G1 F2700 E0
G1 F1200 X133.554 Y133.241 E0.01305
G1 X134.222 Y132.607 E0.04368
G1 X134.706 Y132.175 E0.06526
G1 X134.9 Y132.012 E0.07369
G1 X135.122 Y131.83 E0.08324
G1 X135.422 Y131.591 E0.096
G1 X135.608 Y131.446 E0.10384
G1 X136.184 Y131.007 E0.12793
G1 X136.648 Y130.672 E0.14696
G1 X136.982 Y130.449 E0.16032
G1 X137.397 Y130.182 E0.17673
G1 X137.652 Y130.023 E0.18673
G1 X138.245 Y129.664 E0.20978
G1 X138.792 Y129.354 E0.23069
G1 X139.084 Y129.203 E0.24163
G1 X139.603 Y128.944 E0.26092
G1 X139.89 Y128.806 E0.27151
G1 X140.505 Y128.521 E0.29406
G1 X141.029 Y128.294 E0.31305
G1 X141.258 Y128.202 E0.32126
G1 X141.558 Y128.087 E0.33194
G1 X142.142 Y127.874 E0.35262
G1 X142.82 Y127.64 E0.37648
G1 X143.47 Y127.438 E0.39911
G1 X143.892 Y127.323 E0.41366
G1 X144.237 Y127.235 E0.4255
G1 X144.473 Y127.178 E0.43358
G1 X145.224 Y127.004 E0.45922
G1 X146.144 Y126.832 E0.49035
G1 X146.792 Y126.739 E0.51212
G1 X147.106 Y126.698 E0.52266
G1 X147.596 Y126.642 E0.53906
G1 X148.281 Y126.585 E0.56192
G1 X149.255 Y126.535 E0.59436
G1 X149.66 Y126.522 E0.60784
G1 X150.145 Y126.515 E0.62397
G1 X150.782 Y126.524 E0.64516
G1 X151.157 Y126.544 E0.65765
G1 X151.705 Y126.582 E0.67592
G1 X151.985 Y126.605 E0.68526
G1 X152.7 Y126.673 E0.70915
G1 X153.324 Y126.751 E0.73007
G1 X153.781 Y126.823 E0.74545
G1 X154.155 Y126.89 E0.75809
G1 X154.467 Y126.95 E0.76866
G1 X155.116 Y127.081 E0.79068
G1 X155.759 Y127.231 E0.81264
G1 X156.21 Y127.354 E0.82819
G1 X156.587 Y127.463 E0.84124
G1 X156.852 Y127.543 E0.85045
G1 X157.55 Y127.764 E0.8748
G1 X158.103 Y127.955 E0.89426
G1 X158.503 Y128.111 E0.90854
G1 X159.014 Y128.32 E0.9269
G1 X159.301 Y128.442 E0.93727
G1 X159.961 Y128.734 E0.96128
G1 X160.52 Y129 E0.98187
G1 X160.927 Y129.212 E0.99713
G1 X161.233 Y129.378 E1.00871
G1 X161.44 Y129.493 E1.01659
G1 X162.034 Y129.832 E1.03933
G1 X162.845 Y130.343 E1.07121
G1 X163.608 Y130.873 E1.10211
G1 X164.13 Y131.246 E1.12345
G1 X164.881 Y131.834 E1.15518
G1 X165.383 Y132.263 E1.17714
G1 X165.608 Y132.46 E1.18709
G1 X166.102 Y132.906 E1.20922
G1 X166.591 Y133.375 E1.23176
G1 X166.894 Y133.689 E1.24627
G1 X167.295 Y134.119 E1.26583
G1 X167.794 Y134.674 E1.29065
G1 X168.21 Y135.166 E1.31208
G1 X168.458 Y135.481 E1.32541
G1 X168.693 Y135.789 E1.3383
G1 X168.868 Y136.025 E1.34807
G1 X169.324 Y136.657 E1.37399
G1 X169.679 Y137.18 E1.39502
G1 X169.911 Y137.548 E1.40948
G1 X170.134 Y137.917 E1.42382
G1 X170.296 Y138.194 E1.4345
G1 X170.638 Y138.792 E1.45741
G1 X170.946 Y139.371 E1.47922
G1 X171.12 Y139.729 E1.49246
G1 X171.314 Y140.147 E1.50779
G1 X171.421 Y140.385 E1.51647
G1 X171.715 Y141.06 E1.54096
G1 X171.936 Y141.609 E1.56064
G1 X172.052 Y141.92 E1.57168
G1 X172.182 Y142.285 E1.58457
G1 X172.295 Y142.628 E1.59658
G1 X172.525 Y143.349 E1.62175
G1 X172.77 Y144.249 E1.65277
G1 X172.921 Y144.912 E1.67539
G1 X172.978 Y145.174 E1.68431
G1 X173.119 Y145.871 E1.70796
G1 X173.218 Y146.44 E1.72717
G1 X173.279 Y146.894 E1.7424
G1 X173.381 Y147.794 E1.77253
G1 X173.409 Y148.074 E1.78189
G1 X173.444 Y148.474 E1.79524
G1 X173.482 Y149.128 E1.81703
G1 X173.489 Y149.38 E1.82542
G1 X173.491 Y149.867 E1.84162
G1 X173.48 Y150.531 E1.8637
G1 X173.446 Y151.235 E1.88715
G1 X173.356 Y152.349 E1.92432
G1 X173.319 Y152.732 E1.93712
G1 X173.257 Y153.266 E1.955
G1 X173.125 Y154.111 E1.98344
G1 X173.013 Y154.683 E2.00283
G1 X172.935 Y155.049 E2.01527
G1 X172.767 Y155.775 E2.04006
G1 X172.621 Y156.336 E2.05934
G1 X172.499 Y156.741 E2.07341
G1 X172.326 Y157.278 E2.09217
G1 X172.249 Y157.509 E2.10027
G1 X172.026 Y158.152 E2.12291
G1 X171.778 Y158.799 E2.14595
G1 X171.573 Y159.283 E2.16344
G1 X171.355 Y159.77 E2.18118
G1 X171.066 Y160.388 E2.20387
G1 X170.783 Y160.951 E2.22483
G1 X170.604 Y161.276 E2.23717
G1 X170.315 Y161.78 E2.2565
G1 X170.161 Y162.039 E2.26652
G1 X169.774 Y162.673 E2.29122
G1 X169.405 Y163.239 E2.3137
G1 X169.15 Y163.598 E2.32834
G1 X168.937 Y163.889 E2.34034
G1 X168.793 Y164.081 E2.34832
G1 X168.364 Y164.641 E2.37178
G1 X168.022 Y165.066 E2.38993
G1 X167.944 Y165.158 E2.39394
G1 X167.697 Y165.439 E2.40638
G1 X167.351 Y165.82 E2.4235
G1 X167.169 Y166.016 E2.43239
G1 X166.655 Y166.555 E2.45717
G1 X166.286 Y166.924 E2.47452
G1 X166.178 Y167.027 E2.47949
G1 X165.887 Y167.295 E2.49264
G1 X165.603 Y167.547 E2.50527
G1 X165.116 Y167.964 E2.5266
G1 X164.819 Y168.208 E2.53938
G1 X164.38 Y168.556 E2.55801
G1 X164.027 Y168.825 E2.57278
G1 X163.562 Y169.164 E2.59191
G1 X163.279 Y169.363 E2.60342
G1 X162.842 Y169.661 E2.62101
G1 X162.087 Y170.132 E2.65061
G1 X161.358 Y170.549 E2.67854
G1 X160.738 Y170.887 E2.70203
G1 X159.887 Y171.305 E2.73357
G1 X159.257 Y171.581 E2.75644
G1 X158.964 Y171.704 E2.76701
G1 X158.328 Y171.961 E2.78983
G1 X157.759 Y172.173 E2.81002
G1 X157.589 Y172.231 E2.816
G1 X157.318 Y172.319 E2.82547
G1 X156.95 Y172.434 E2.8383
G1 X156.681 Y172.515 E2.84764
G1 X155.982 Y172.714 E2.87181
G1 X155.393 Y172.864 E2.89203
G1 X154.978 Y172.954 E2.90615
G1 X154.619 Y173.026 E2.91833
G1 X154.352 Y173.076 E2.92737
G1 X153.569 Y173.213 E2.9538
G1 X152.954 Y173.303 E2.97448
G1 X152.664 Y173.337 E2.98419
G1 X152.353 Y173.369 E2.99459
G1 X151.93 Y173.405 E3.00871
G1 X151.149 Y173.46 E3.03475
G1 X150.203 Y173.486 E3.06622
G1 X149.44 Y173.474 E3.0916
G1 X149.136 Y173.465 E3.10172
G1 X148.744 Y173.448 E3.11477
G1 X148.04 Y173.394 E3.13825
G1 X146.947 Y173.276 E3.17482
G1 X146.555 Y173.227 E3.18796
G1 X146.105 Y173.162 E3.20308
G1 X145.468 Y173.051 E3.22459
G1 X145.12 Y172.976 E3.23643
G1 X144.528 Y172.839 E3.25664
G1 X144.26 Y172.773 E3.26582
G1 X143.636 Y172.612 E3.28725
G1 X142.762 Y172.348 E3.31762
G1 X142.134 Y172.129 E3.33974
G1 X141.832 Y172.018 E3.35044
G1 X141.248 Y171.795 E3.37123
G1 X140.672 Y171.556 E3.39197
G1 X140.333 Y171.404 E3.40433
G1 X140.039 Y171.267 E3.41512
G1 X139.603 Y171.055 E3.43124
G1 X139.001 Y170.752 E3.45366
G1 X138.218 Y170.317 E3.48345
G1 X137.659 Y169.976 E3.50523
G1 X137.405 Y169.816 E3.51521
G1 X136.831 Y169.444 E3.53796
G1 X136.246 Y169.038 E3.56165
G1 X135.988 Y168.846 E3.57234
G1 X135.606 Y168.548 E3.58846
G1 X134.736 Y167.839 E3.62579
G1 X134.248 Y167.417 E3.64724
G1 X134.054 Y167.239 E3.656
G1 X133.826 Y167.024 E3.66642
G1 X133.515 Y166.719 E3.68091
G1 X133.014 Y166.215 E3.70455
G1 X132.645 Y165.826 E3.72238
G1 X132.535 Y165.704 E3.72784
G1 X132.284 Y165.415 E3.74058
G1 X131.989 Y165.064 E3.75583
G1 X131.84 Y164.883 E3.76362
G1 X131.395 Y164.33 E3.78723
G1 X131 Y163.808 E3.809
G1 X130.769 Y163.479 E3.82237
G1 X130.51 Y163.097 E3.83773
G1 X130.365 Y162.876 E3.84652
G1 X129.977 Y162.273 E3.87037
G1 X129.668 Y161.763 E3.8902
G1 X129.442 Y161.359 E3.9056
G1 X129.225 Y160.952 E3.92094
G1 X129.087 Y160.684 E3.93096
G1 X128.779 Y160.066 E3.95393
G1 X128.534 Y159.539 E3.97326
G1 X128.361 Y159.13 E3.98803
G1 X128.173 Y158.662 E4.0048
G1 X128.08 Y158.423 E4.01333
G1 X127.824 Y157.74 E4.03759
G1 X127.536 Y156.862 E4.06833
G1 X127.372 Y156.28 E4.08844
G1 X127.297 Y156 E4.09808
G1 X127.133 Y155.353 E4.12028
G1 X127.002 Y154.768 E4.14022
G1 X126.909 Y154.281 E4.15671
G1 X126.853 Y153.957 E4.16764
G1 X126.786 Y153.527 E4.18212
G1 X126.689 Y152.858 E4.2046
G1 X126.617 Y152.24 E4.2253
G1 X126.585 Y151.835 E4.23881
G1 X126.554 Y151.343 E4.2552
G1 X126.539 Y151.05 E4.26496
G1 X126.516 Y150.417 E4.28603
G1 X126.511 Y149.792 E4.30682
G1 X126.515 Y149.597 E4.31331
G1 X126.526 Y149.283 E4.32376
G1 X126.552 Y148.754 E4.34137
G1 X126.611 Y147.871 E4.37081
G1 X126.664 Y147.305 E4.38971
G1 X126.722 Y146.864 E4.40451
G1 X126.792 Y146.402 E4.42005
G1 X126.836 Y146.135 E4.42905
G1 X126.947 Y145.507 E4.45026
G1 X127.079 Y144.871 E4.47186
G1 X127.177 Y144.472 E4.48553
G1 X127.312 Y143.959 E4.50317
G1 X127.386 Y143.691 E4.51242
G1 X127.6 Y142.954 E4.53795
G1 X127.774 Y142.41 E4.55694
G1 X127.831 Y142.246 E4.56272
G1 X127.953 Y141.912 E4.57454
G1 X128.104 Y141.519 E4.58855
G1 X128.187 Y141.31 E4.59603
G1 X128.446 Y140.675 E4.61884
G1 X128.691 Y140.118 E4.63907
G1 X128.773 Y139.945 E4.64544
G1 X128.901 Y139.684 E4.65511
G1 X129.091 Y139.309 E4.66909
G1 X129.202 Y139.095 E4.67711
G1 X129.519 Y138.502 E4.69948
G1 X129.861 Y137.909 E4.72224
G1 X130.127 Y137.484 E4.73892
G1 X130.509 Y136.903 E4.76205
G1 X130.866 Y136.377 E4.78319
G1 X131.164 Y135.959 E4.80026
G1 X131.451 Y135.59 E4.81581
G1 X131.833 Y135.119 E4.83598
G1 X132.041 Y134.869 E4.8468
G1 X132.488 Y134.35 E4.86958
G1 X132.902 Y133.896 E4.89002
G1 X133.061 Y133.731 E4.89764
G1 X133.274 Y133.516 E4.9077
G0 F6000 X133.554 Y133.801
G1 F1200 X133.834 Y133.526 E4.92076
G1 X134.497 Y132.897 E4.95115
G1 X134.963 Y132.481 E4.97193
G1 X135.157 Y132.318 E4.98036
G1 X135.371 Y132.143 E4.98955
G1 X135.671 Y131.904 E5.00231
G1 X135.851 Y131.764 E5.00989
G1 X136.427 Y131.325 E5.03398
G1 X136.874 Y131.003 E5.0523
G1 X137.199 Y130.786 E5.0653
G1 X137.614 Y130.519 E5.08172
G1 X137.859 Y130.365 E5.09134
G1 X138.452 Y130.006 E5.1144
G1 X138.981 Y129.706 E5.13462
G1 X139.263 Y129.56 E5.14519
G1 X139.782 Y129.301 E5.16448
G1 X140.058 Y129.169 E5.17465
G1 X140.673 Y128.884 E5.1972
G1 X141.178 Y128.665 E5.21551
G1 X141.407 Y128.573 E5.22371
G1 X141.696 Y128.462 E5.23401
G1 X142.068 Y128.325 E5.2472
G1 X142.273 Y128.252 E5.25443
G1 X142.951 Y128.018 E5.27829
G1 X143.577 Y127.823 E5.3001
G1 X143.991 Y127.711 E5.31436
G1 X144.336 Y127.623 E5.3262
G1 X144.563 Y127.568 E5.33397
G1 X145.314 Y127.394 E5.35961
G1 X146.201 Y127.228 E5.38963
G1 X146.849 Y127.135 E5.4114
G1 X147.151 Y127.096 E5.42153
G1 X147.641 Y127.04 E5.43793
G1 X148.302 Y126.985 E5.45999
G1 X149.276 Y126.935 E5.49243
G1 X149.666 Y126.922 E5.50541
G1 X150.151 Y126.915 E5.52154
G1 X150.764 Y126.924 E5.54193
G1 X151.129 Y126.943 E5.55409
G1 X151.677 Y126.981 E5.57236
G1 X151.948 Y127.004 E5.5814
G1 X152.663 Y127.072 E5.60529
G1 X153.264 Y127.146 E5.62543
G1 X153.712 Y127.217 E5.64052
G1 X154.08 Y127.283 E5.65295
G1 X154.388 Y127.343 E5.66339
G1 X155.037 Y127.474 E5.68541
G1 X155.656 Y127.618 E5.70655
G1 X156.099 Y127.738 E5.72182
G1 X156.476 Y127.847 E5.73487
G1 X156.732 Y127.924 E5.74376
G1 X157.43 Y128.145 E5.76811
G1 X157.962 Y128.33 E5.78684
G1 X158.352 Y128.481 E5.80075
G1 X158.863 Y128.69 E5.81912
G1 X159.139 Y128.807 E5.82909
G1 X159.799 Y129.099 E5.85309
G1 X160.338 Y129.356 E5.87295
G1 X160.51 Y129.444 E5.87938
G1 X161.042 Y129.73 E5.89947
G1 X161.242 Y129.841 E5.90708
G1 X161.836 Y130.18 E5.92982
G1 X162.617 Y130.672 E5.96052
G1 X163.376 Y131.199 E5.99126
G1 X163.898 Y131.572 E6.0126
G1 X164.621 Y132.138 E6.04313
G1 X165.123 Y132.567 E6.0651
G1 X165.34 Y132.757 E6.07469
G1 X165.834 Y133.203 E6.09683
G1 X166.305 Y133.655 E6.11854
G1 X166.602 Y133.962 E6.13275
G1 X166.845 Y134.221 E6.14456
G1 X166.997 Y134.387 E6.15204
G1 X167.496 Y134.942 E6.17687
G1 X167.898 Y135.415 E6.19751
G1 X168.14 Y135.723 E6.21054
G1 X168.375 Y136.031 E6.22343
G1 X168.544 Y136.259 E6.23287
G1 X169 Y136.891 E6.25879
G1 X169.342 Y137.395 E6.27905
G1 X169.569 Y137.756 E6.29323
G1 X169.789 Y138.12 E6.30738
G1 X169.948 Y138.393 E6.31788
G1 X170.29 Y138.991 E6.3408
G1 X170.588 Y139.548 E6.36181
G1 X170.757 Y139.898 E6.37473
G1 X170.951 Y140.316 E6.39006
G1 X171.054 Y140.545 E6.39841
G1 X171.348 Y141.22 E6.4229
G1 X171.562 Y141.749 E6.44188
G1 X171.678 Y142.06 E6.45292
G1 X171.802 Y142.412 E6.46533
G1 X171.914 Y142.75 E6.47718
G1 X172.144 Y143.471 E6.50235
G1 X172.38 Y144.338 E6.53223
G1 X172.531 Y145.001 E6.55485
G1 X172.586 Y145.253 E6.56343
G1 X172.727 Y145.95 E6.58708
G1 X172.823 Y146.499 E6.60562
G1 X172.882 Y146.939 E6.62038
G1 X172.984 Y147.839 E6.65051
G1 X173.011 Y148.109 E6.65953
G1 X173.046 Y148.509 E6.67289
G1 X173.082 Y149.139 E6.69388
G1 X173.089 Y149.391 E6.70226
G1 X173.092 Y149.861 E6.71789
G1 X173.081 Y150.525 E6.73998
G1 X173.048 Y151.203 E6.76256
G1 X172.958 Y152.317 E6.79973
G1 X172.921 Y152.685 E6.81203
G1 X172.859 Y153.219 E6.82991
G1 X172.732 Y154.034 E6.85735
G1 X172.62 Y154.606 E6.87673
G1 X172.545 Y154.959 E6.88873
G1 X172.377 Y155.685 E6.91352
G1 X172.237 Y156.225 E6.93207
G1 X172.118 Y156.618 E6.94573
G1 X171.945 Y157.155 E6.9645
G1 X171.871 Y157.378 E6.97231
G1 X171.648 Y158.021 E6.99495
G1 X171.409 Y158.644 E7.01714
G1 X171.208 Y159.121 E7.03436
G1 X171.085 Y159.399 E7.04447
G1 X170.704 Y160.218 E7.07451
G1 X170.431 Y160.761 E7.09473
G1 X170.257 Y161.077 E7.10672
G1 X169.968 Y161.581 E7.12605
G1 X169.82 Y161.831 E7.13571
G1 X169.433 Y162.465 E7.16041
G1 X169.077 Y163.01 E7.18207
G1 X168.827 Y163.362 E7.19643
G1 X168.476 Y163.838 E7.2161
G1 X168.047 Y164.398 E7.23956
G1 X167.717 Y164.807 E7.25704
G1 X167.639 Y164.899 E7.26105
G1 X167.401 Y165.17 E7.27305
G1 X167.055 Y165.551 E7.29016
G1 X166.879 Y165.74 E7.29875
G1 X166.365 Y166.279 E7.32353
G1 X166.01 Y166.635 E7.34025
G1 X165.902 Y166.738 E7.34521
G1 X165.621 Y166.996 E7.3579
G1 X165.173 Y167.391 E7.37776
G1 X164.857 Y167.66 E7.39157
G1 X164.571 Y167.895 E7.40388
G1 X164.132 Y168.243 E7.42251
G1 X163.791 Y168.501 E7.43673
G1 X163.326 Y168.84 E7.45587
G1 X163.054 Y169.033 E7.46697
G1 X162.617 Y169.331 E7.48456
G1 X161.889 Y169.785 E7.51309
G1 X161.167 Y170.198 E7.54076
G1 X160.547 Y170.536 E7.56425
G1 X159.727 Y170.938 E7.59462
G1 X159.097 Y171.214 E7.6175
G1 X158.814 Y171.333 E7.62771
G1 X158.178 Y171.59 E7.65052
G1 X157.63 Y171.794 E7.66997
G1 X157.46 Y171.852 E7.67595
G1 X157.199 Y171.937 E7.68507
G1 X156.831 Y172.052 E7.6979
G1 X156.571 Y172.13 E7.70693
G1 X155.872 Y172.329 E7.7311
G1 X155.305 Y172.474 E7.75056
G1 X154.899 Y172.562 E7.76438
G1 X154.54 Y172.634 E7.77656
G1 X154.283 Y172.682 E7.78526
G1 X153.5 Y172.819 E7.81169
G1 X152.907 Y172.906 E7.83163
G1 X152.617 Y172.94 E7.84134
G1 X152.317 Y172.971 E7.85137
G1 X151.902 Y173.006 E7.86522
G1 X151.121 Y173.061 E7.89126
G1 X150.209 Y173.086 E7.92161
G1 X149.446 Y173.074 E7.94699
G1 X149.154 Y173.065 E7.95671
G1 X148.762 Y173.048 E7.96976
G1 X148.083 Y172.997 E7.9924
G1 X146.99 Y172.879 E8.02897
G1 X146.613 Y172.831 E8.04161
G1 X146.163 Y172.766 E8.05673
G1 X145.548 Y172.659 E8.07749
G1 X145.21 Y172.586 E8.08899
G1 X144.618 Y172.449 E8.1092
G1 X144.36 Y172.386 E8.11804
G1 X143.736 Y172.225 E8.13947
G1 X142.894 Y171.97 E8.16873
G1 X142.266 Y171.751 E8.19085
G1 X141.975 Y171.645 E8.20115
G1 X141.391 Y171.422 E8.22195
G1 X140.835 Y171.191 E8.24197
G1 X140.496 Y171.039 E8.25433
G1 X140.213 Y170.907 E8.26471
G1 X139.782 Y170.697 E8.28066
G1 X139.18 Y170.394 E8.30308
G1 X138.426 Y169.975 E8.33177
G1 X137.867 Y169.634 E8.35354
G1 X137.622 Y169.48 E8.36317
G1 X137.048 Y169.108 E8.38592
G1 X136.485 Y168.717 E8.40872
G1 X136.227 Y168.525 E8.41941
G1 X135.859 Y168.238 E8.43494
G1 X134.989 Y167.529 E8.47226
G1 X134.519 Y167.122 E8.49294
G1 X134.325 Y166.944 E8.5017
G1 X134.105 Y166.737 E8.51175
G1 X133.798 Y166.437 E8.52602
G1 X133.297 Y165.933 E8.54966
G1 X132.943 Y165.558 E8.56681
G1 X132.833 Y165.436 E8.57228
G1 X132.59 Y165.158 E8.58456
G1 X132.295 Y164.807 E8.59981
G1 X131.707 Y164.079 E8.63093
G1 X131.326 Y163.576 E8.65192
G1 X131.1 Y163.255 E8.66498
G1 X130.841 Y162.873 E8.68033
G1 X130.701 Y162.66 E8.6888
G1 X130.313 Y162.057 E8.71265
G1 X130.015 Y161.566 E8.73176
G1 X129.937 Y161.429 E8.737
G1 X129.795 Y161.171 E8.74679
G1 X129.578 Y160.764 E8.76214
G1 X129.445 Y160.505 E8.77182
G1 X129.137 Y159.887 E8.79479
G1 X128.901 Y159.38 E8.81339
G1 X128.732 Y158.981 E8.8278
G1 X128.544 Y158.513 E8.84457
G1 X128.454 Y158.282 E8.85282
G1 X128.198 Y157.599 E8.87708
G1 X127.921 Y156.754 E8.90665
G1 X127.757 Y156.172 E8.92677
G1 X127.685 Y155.901 E8.93609
G1 X127.521 Y155.254 E8.95829
