;FLAVOR:Marlin
;TIME:91
;Filament used: 0.0275449m
;Layer height: 0.2
;MINX:135.781
;MINY:135.809
;MINZ:0.2
;MAXX:164.22
;MAXY:164.193
;MAXZ:2.2
;Generated with Creality Slicer 4.8.2-191
M140 S50
M105
M190 S50
M104 S200
M105
M109 S200
M82 ;absolute extrusion mode

G28 ;Home

G92 E0 ;Reset Extruder
G1 Z2.0 F3000 ;Move Z Axis up
G1 X10.1 Y20 Z0.28 F5000.0 ;Move to start position
G1 X10.1 Y200.0 Z0.28 F1500.0 E15 ;Draw the first line
G1 X10.4 Y200.0 Z0.28 F5000.0 ;Move to side a little
G1 X10.4 Y20 Z0.28 F1500.0 E30 ;Draw the second line
G92 E0 ;Reset Extruder
G1 Z2.0 F3000 ;Move Z Axis up

G92 E0
G92 E0
G1 F2700 E-5
;LAYER_COUNT:11
;LAYER:0
M107
G0 F6000 X140.407 Y139.581 Z0.2
;TYPE:SKIRT
G1 F2700 E0
G1 F1200 X141.458 Y138.681 E0.04602
G1 X141.745 Y138.465 E0.05797
G1 X142.518 Y137.934 E0.08916
G1 X143.333 Y137.47 E0.12035
G1 X144.185 Y137.077 E0.15156
G1 X144.923 Y136.805 E0.17772
G1 X145.386 Y136.66 E0.19386
G1 X146.287 Y136.401 E0.22504
G1 X146.771 Y136.258 E0.24182
G1 X147.681 Y136.031 E0.27302
G1 X148.607 Y135.883 E0.30421
G1 X149.926 Y135.809 E0.34815
G1 X150.166 Y135.81 E0.35613
G1 X151.353 Y135.879 E0.39568
G1 X152.28 Y136.022 E0.42687
G1 X153.071 Y136.21 E0.45391
G1 X153.46 Y136.32 E0.46736
G1 X154.628 Y136.665 E0.50787
G1 X155.706 Y137.045 E0.54588
G1 X155.9 Y137.125 E0.55286
G1 X156.751 Y137.519 E0.58405
G1 X157.847 Y138.168 E0.62642
G1 X158.009 Y138.277 E0.63291
G1 X158.764 Y138.833 E0.6641
G1 X159.469 Y139.451 E0.69528
G1 X160.079 Y140.083 E0.7245
G1 X160.348 Y140.387 E0.738
G1 X161.222 Y141.401 E0.78252
G1 X161.804 Y142.137 E0.81373
G1 X162.32 Y142.92 E0.84492
G1 X162.88 Y143.979 E0.88476
G1 X162.98 Y144.196 E0.89271
G1 X163.336 Y145.064 E0.92391
G1 X163.571 Y145.792 E0.94936
G1 X163.857 Y147.084 E0.99337
G1 X163.923 Y147.512 E1.00777
G1 X164.027 Y148.252 E1.03263
G1 X164.102 Y148.753 E1.04948
G1 X164.201 Y149.686 E1.08068
G1 X164.22 Y150.624 E1.11189
G1 X164.109 Y151.962 E1.15654
G1 X164.072 Y152.217 E1.16511
G1 X163.898 Y153.138 E1.19629
G1 X163.646 Y154.041 E1.22747
G1 X163.261 Y155.053 E1.26348
G1 X163.107 Y155.399 E1.27608
G1 X162.708 Y156.262 E1.3077
G1 X162.549 Y156.612 E1.32049
G1 X162.126 Y157.448 E1.35165
G1 X161.632 Y158.246 E1.38286
G1 X160.884 Y159.226 E1.42387
G1 X160.716 Y159.422 E1.43245
G1 X160.076 Y160.107 E1.46363
G1 X159.379 Y160.736 E1.49486
G1 X158.466 Y161.416 E1.53272
G1 X158.128 Y161.638 E1.54617
G1 X157.315 Y162.156 E1.57824
G1 X157.001 Y162.359 E1.59067
G1 X156.192 Y162.834 E1.62188
G1 X155.346 Y163.238 E1.65306
G1 X154.468 Y163.569 E1.68427
G1 X154.007 Y163.71 E1.7003
G1 X153.765 Y163.778 E1.70866
G1 X152.852 Y163.993 E1.73986
G1 X151.924 Y164.129 E1.77105
G1 X151.072 Y164.184 E1.79945
G1 X150.878 Y164.189 E1.8059
G1 X150.53 Y164.193 E1.81748
G1 X149.71 Y164.188 E1.84475
G1 X149.234 Y164.189 E1.86059
G1 X148.297 Y164.151 E1.89178
G1 X147.367 Y164.033 E1.92296
G1 X146.17 Y163.759 E1.9638
G1 X145.92 Y163.687 E1.97245
G1 X145.03 Y163.39 E2.00366
G1 X144.17 Y163.017 E2.03484
G1 X143.41 Y162.612 E2.06348
G1 X142.977 Y162.347 E2.08036
G1 X141.682 Y161.513 E2.13159
G1 X140.916 Y160.972 E2.16278
G1 X140.199 Y160.368 E2.19397
G1 X139.499 Y159.664 E2.22699
G1 X139.197 Y159.322 E2.24216
G1 X139.066 Y159.167 E2.24891
G1 X138.491 Y158.425 E2.28013
G1 X137.982 Y157.637 E2.31133
G1 X137.532 Y156.787 E2.34332
G1 X137.383 Y156.469 E2.355
G1 X136.796 Y155.175 E2.40226
G1 X136.445 Y154.305 E2.43347
G1 X136.17 Y153.409 E2.46464
G1 X135.928 Y152.217 E2.50509
G1 X135.892 Y151.97 E2.5134
G1 X135.796 Y151.037 E2.54459
G1 X135.781 Y150.1 E2.57576
G1 X135.865 Y148.998 E2.61252
G1 X135.923 Y148.55 E2.62754
G1 X136.097 Y147.353 E2.66777
G1 X136.272 Y146.431 E2.69899
G1 X136.637 Y145.2 E2.74169
G1 X136.763 Y144.851 E2.75403
G1 X137.118 Y143.983 E2.78522
G1 X137.547 Y143.149 E2.81642
G1 X138.045 Y142.354 E2.84762
G1 X138.679 Y141.52 E2.88246
G1 X138.913 Y141.243 E2.89452
G1 X139.763 Y140.263 E2.93767
G1 X140.407 Y139.581 E2.96887
G0 F6000 X140.698 Y139.856
G1 F1200 X141.699 Y139.001 E3.01265
G1 X141.986 Y138.785 E3.0246
G1 X142.745 Y138.263 E3.05524
G1 X143.546 Y137.81 E3.08585
G1 X144.384 Y137.428 E3.11648
G1 X145.048 Y137.185 E3.14
G1 X145.497 Y137.045 E3.15564
G1 X146.341 Y136.801 E3.18486
G1 X146.884 Y136.641 E3.20369
G1 X147.778 Y136.42 E3.23432
G1 X148.687 Y136.276 E3.26493
G1 X149.924 Y136.209 E3.30613
G1 X150.164 Y136.21 E3.31411
G1 X151.309 Y136.277 E3.35226
G1 X152.218 Y136.418 E3.38286
G1 X152.965 Y136.596 E3.4084
G1 X153.347 Y136.703 E3.42159
G1 X154.515 Y137.048 E3.4621
G1 X155.553 Y137.415 E3.49872
G1 X155.747 Y137.495 E3.5057
G1 X156.582 Y137.882 E3.53631
G1 X157.623 Y138.499 E3.57656
G1 X157.785 Y138.608 E3.58305
G1 X158.526 Y139.155 E3.61368
G1 X159.217 Y139.764 E3.64432
G1 X159.78 Y140.349 E3.67132
G1 X160.045 Y140.648 E3.68461
G1 X160.919 Y141.662 E3.72914
G1 X161.489 Y142.385 E3.75976
G1 X161.995 Y143.155 E3.7904
G1 X162.517 Y144.147 E3.82768
G1 X162.617 Y144.364 E3.83563
G1 X162.966 Y145.216 E3.86625
G1 X163.186 Y145.902 E3.89022
G1 X163.462 Y147.147 E3.93263
G1 X163.527 Y147.567 E3.94677
G1 X163.639 Y148.368 E3.97367
G1 X163.706 Y148.813 E3.98863
G1 X163.803 Y149.728 E4.01924
G1 X163.82 Y150.649 E4.04988
G1 X163.713 Y151.904 E4.09177
G1 X163.676 Y152.159 E4.10034
G1 X163.505 Y153.064 E4.13097
G1 X163.255 Y153.95 E4.16159
G1 X162.894 Y154.893 E4.19517
G1 X162.743 Y155.231 E4.20749
G1 X162.376 Y156.025 E4.23658
G1 X162.185 Y156.446 E4.25196
G1 X161.769 Y157.267 E4.28257
G1 X161.283 Y158.049 E4.31319
G1 X160.58 Y158.965 E4.3516
G1 X160.412 Y159.161 E4.36018
G1 X159.783 Y159.834 E4.39082
G1 X159.098 Y160.449 E4.42144
G1 X158.244 Y161.083 E4.45681
G1 X157.913 Y161.301 E4.47
G1 X157.1 Y161.819 E4.50206
G1 X156.784 Y162.023 E4.51457
G1 X155.989 Y162.489 E4.54522
G1 X155.158 Y162.884 E4.57582
G1 X153.898 Y163.325 E4.62022
G1 X153.656 Y163.393 E4.62858
G1 X152.76 Y163.603 E4.65919
G1 X151.849 Y163.735 E4.68981
G1 X151.062 Y163.784 E4.71603
G1 X150.868 Y163.789 E4.72249
G1 X150.532 Y163.793 E4.73367
G1 X149.712 Y163.788 E4.76094
G1 X149.234 Y163.789 E4.77684
G1 X148.314 Y163.751 E4.80746
G1 X147.401 Y163.633 E4.83808
G1 X146.28 Y163.375 E4.87634
G1 X146.03 Y163.303 E4.88499
G1 X145.158 Y163.01 E4.91559
G1 X144.314 Y162.642 E4.94621
G1 X143.61 Y162.266 E4.97276
G1 X143.194 Y162.011 E4.98899
G1 X141.899 Y161.177 E5.04022
G1 X141.147 Y160.645 E5.07086
G1 X140.444 Y160.05 E5.10149
G1 X139.795 Y159.395 E5.13216
G1 X139.502 Y159.063 E5.14689
G1 X139.371 Y158.908 E5.15364
G1 X138.808 Y158.18 E5.18425
G1 X138.31 Y157.406 E5.21486
G1 X137.893 Y156.615 E5.2446
G1 X137.747 Y156.304 E5.25603
G1 X137.16 Y155.01 E5.30329
G1 X136.816 Y154.156 E5.33391
G1 X136.548 Y153.275 E5.36453
G1 X136.324 Y152.16 E5.40236
G1 X136.288 Y151.913 E5.41066
G1 X136.195 Y150.997 E5.44129
G1 X136.181 Y150.076 E5.47192
G1 X136.261 Y149.049 E5.50618
G1 X136.319 Y148.607 E5.52101
G1 X136.493 Y147.41 E5.56124
G1 X136.665 Y146.506 E5.59185
G1 X137.013 Y145.335 E5.63248
G1 X137.139 Y144.986 E5.64482
G1 X137.489 Y144.135 E5.67543
G1 X137.911 Y143.317 E5.70604
G1 X138.403 Y142.539 E5.73666
G1 X138.985 Y141.777 E5.76855
G1 X139.215 Y141.505 E5.78039
G1 X140.065 Y140.525 E5.82354
G1 X140.698 Y139.856 E5.85417
G0 F6000 X140.989 Y140.131
G1 F1200 X141.939 Y139.32 E5.89572
G1 X142.226 Y139.104 E5.90767
G1 X142.971 Y138.594 E5.93769
G1 X143.758 Y138.151 E5.96773
G1 X144.582 Y137.78 E5.99779
G1 X145.173 Y137.565 E6.01871
G1 X145.608 Y137.429 E6.03386
G1 X146.475 Y137.179 E6.06388
G1 X146.997 Y137.025 E6.08198
G1 X147.874 Y136.808 E6.11203
G1 X148.766 Y136.67 E6.14205
G1 X149.922 Y136.609 E6.18055
G1 X150.162 Y136.61 E6.18853
G1 X151.264 Y136.674 E6.22525
G1 X152.157 Y136.814 E6.25531
G1 X152.858 Y136.981 E6.27928
G1 X153.233 Y137.087 E6.29224
G1 X154.401 Y137.432 E6.33275
G1 X155.401 Y137.784 E6.36801
G1 X155.595 Y137.864 E6.37499
G1 X156.413 Y138.245 E6.405
G1 X157.4 Y138.831 E6.44318
G1 X157.562 Y138.94 E6.44967
G1 X158.288 Y139.477 E6.47971
G1 X158.964 Y140.076 E6.50975
G1 X159.481 Y140.615 E6.53459
G1 X159.742 Y140.91 E6.54769
G1 X160.616 Y141.924 E6.59221
G1 X161.175 Y142.633 E6.62224
G1 X161.669 Y143.389 E6.65228
G1 X162.154 Y144.314 E6.68702
G1 X162.254 Y144.531 E6.69496
G1 X162.595 Y145.367 E6.72499
G1 X162.802 Y146.012 E6.74752
G1 X163.067 Y147.209 E6.7883
G1 X163.131 Y147.623 E6.80223
G1 X163.236 Y148.371 E6.82736
G1 X163.311 Y148.872 E6.84421
G1 X163.405 Y149.77 E6.87424
G1 X163.419 Y150.673 E6.90427
G1 X163.317 Y151.847 E6.94347
G1 X163.28 Y152.102 E6.95204
G1 X163.111 Y152.989 E6.98207
G1 X162.864 Y153.857 E7.01209
G1 X162.528 Y154.732 E7.04326
G1 X162.38 Y155.064 E7.05535
G1 X162.012 Y155.86 E7.08452
G1 X161.821 Y156.281 E7.0999
G1 X161.412 Y157.086 E7.12993
G1 X160.933 Y157.852 E7.15998
G1 X160.276 Y158.705 E7.19579
G1 X160.108 Y158.901 E7.20437
G1 X159.491 Y159.56 E7.2344
G1 X158.818 Y160.162 E7.26443
G1 X158.022 Y160.75 E7.29735
G1 X157.698 Y160.963 E7.31024
G1 X156.885 Y161.481 E7.34231
G1 X156.566 Y161.687 E7.35494
G1 X155.787 Y162.143 E7.38496
G1 X154.97 Y162.529 E7.41501
G1 X153.79 Y162.94 E7.45657
G1 X153.548 Y163.008 E7.46493
G1 X152.669 Y163.213 E7.49495
G1 X151.775 Y163.34 E7.52498
G1 X151.052 Y163.385 E7.54908
G1 X150.858 Y163.39 E7.55553
G1 X150.534 Y163.393 E7.56631
G1 X149.713 Y163.388 E7.59362
G1 X149.233 Y163.389 E7.60958
G1 X148.331 Y163.351 E7.63961
G1 X147.435 Y163.233 E7.66967
G1 X146.391 Y162.991 E7.70531
G1 X146.141 Y162.919 E7.71396
G1 X145.285 Y162.63 E7.74401
G1 X144.458 Y162.268 E7.77404
G1 X143.811 Y161.92 E7.79847
G1 X143.41 Y161.674 E7.81412
G1 X142.115 Y160.84 E7.86535
G1 X141.378 Y160.318 E7.89539
G1 X140.691 Y159.733 E7.9254
G1 X140.091 Y159.126 E7.95379
G1 X139.808 Y158.805 E7.96802
G1 X139.677 Y158.65 E7.97477
G1 X139.125 Y157.935 E8.00482
G1 X138.638 Y157.174 E8.03487
G1 X138.254 Y156.444 E8.0623
G1 X138.111 Y156.139 E8.0735
G1 X137.524 Y154.845 E8.12076
G1 X137.188 Y154.007 E8.15079
G1 X136.927 Y153.142 E8.18084
G1 X136.72 Y152.102 E8.21611
G1 X136.684 Y151.855 E8.22442
G1 X136.593 Y150.957 E8.25444
G1 X136.582 Y150.054 E8.28447
G1 X136.658 Y149.099 E8.31634
G1 X136.715 Y148.665 E8.3309
G1 X136.889 Y147.468 E8.37113
G1 X137.058 Y146.581 E8.40116
G1 X137.389 Y145.471 E8.43968
G1 X137.515 Y145.122 E8.45202
G1 X137.859 Y144.287 E8.48206
G1 X138.276 Y143.486 E8.5121
G1 X138.761 Y142.725 E8.54211
G1 X139.292 Y142.034 E8.5711
G1 X139.518 Y141.767 E8.58273
G1 X140.368 Y140.787 E8.62588
G1 X140.989 Y140.131 E8.65592
G1 F2700 E3.65592
;MESH:11???????????????.STL
G0 F6000 X147.548 Y147.913
G0 X148.702 Y148.797
G0 X148.515 Y150.189
G0 X148.639 Y150.664
G0 X148.924 Y151.081
G0 X149.15 Y151.25
G0 X149.769 Y151.58
G0 X149.828 Y151.389
;TYPE:WALL-OUTER
G1 F2700 E8.65592
G1 F1200 X150.285 Y151.37 E8.67114
G1 X150.709 Y151.2 E8.68633
G1 X151.053 Y150.897 E8.70158
G1 X151.275 Y150.499 E8.71673
G1 X151.353 Y150.047 E8.73199
G1 X151.275 Y149.596 E8.74721
G1 X151.053 Y149.198 E8.76237
G1 X150.709 Y148.895 E8.77762
G1 X150.285 Y148.725 E8.79281
G1 X149.828 Y148.706 E8.80802
G1 X149.391 Y148.84 E8.82323
G1 X149.024 Y149.112 E8.83842
G1 X148.767 Y149.49 E8.85362
G1 X148.654 Y149.924 E8.86854
G1 X148.654 Y150.171 E8.87675
G1 X148.767 Y150.605 E8.89167
G1 X149.024 Y150.983 E8.90687
G1 X149.391 Y151.255 E8.92207
G1 X149.828 Y151.389 E8.93727
G1 F2700 E3.93727
G0 F6000 X149.769 Y151.58
G0 X149.455 Y151.801
G0 X149.087 Y152.917
G0 X149.128 Y152.968
G1 F2700 E8.93727
G1 F1200 X149.084 Y152.781 E8.94366
G1 X149.105 Y152.505 E8.95286
G1 X149.214 Y152.238 E8.96246
G1 X149.438 Y151.929 E8.97515
G1 X148.88 Y151.611 E8.99651
G1 X148.541 Y151.341 E9.01093
G1 X148.252 Y151.775 E9.02827
G1 X148.031 Y151.953 E9.03771
G1 X147.761 Y152.054 E9.0473
G1 X147.688 Y152.033 E9.04982
G1 X147.749 Y151.856 E9.05605
G1 X147.92 Y151.63 E9.06547
G1 X148.158 Y151.464 E9.07513
G1 X148.511 Y151.326 E9.08773
G1 X148.212 Y150.757 E9.10911
G1 X148.073 Y150.346 E9.12354
G1 X147.595 Y150.556 E9.14091
G1 X147.315 Y150.585 E9.15027
G1 X147.031 Y150.526 E9.15992
G1 X146.982 Y150.468 E9.16244
G1 X147.13 Y150.352 E9.1687
G1 X147.395 Y150.255 E9.17808
G1 X147.684 Y150.242 E9.1877
G1 X148.056 Y150.318 E9.20033
G1 X148.112 Y149.681 E9.2216
G1 X148.219 Y149.256 E9.23618
G1 X147.701 Y149.175 E9.25362
G1 X147.45 Y149.048 E9.26297
G1 X147.243 Y148.842 E9.27268
G1 X147.234 Y148.769 E9.27513
G1 X147.423 Y148.753 E9.28144
G1 X147.696 Y148.812 E9.29073
G1 X147.945 Y148.959 E9.30035
G1 X148.218 Y149.222 E9.31295
G1 X148.612 Y148.718 E9.33423
G1 X148.927 Y148.419 E9.34868
G1 X148.539 Y148.071 E9.36601
G1 X148.395 Y147.828 E9.37541
G1 X148.333 Y147.547 E9.38498
G1 X148.365 Y147.476 E9.38757
G1 X148.53 Y147.561 E9.39374
G1 X148.728 Y147.763 E9.40315
G1 X148.859 Y148.021 E9.41277
G1 X148.947 Y148.39 E9.42539
G1 X149.55 Y148.178 E9.44665
G1 X149.977 Y148.097 E9.4611
G1 X149.839 Y147.593 E9.47849
G1 X149.849 Y147.313 E9.4878
G1 X149.949 Y147.04 E9.49747
G1 X150.014 Y147 E9.50001
G1 X150.106 Y147.162 E9.50621
G1 X150.166 Y147.441 E9.5157
G1 X150.137 Y147.725 E9.5252
G1 X150.01 Y148.084 E9.53786
G1 X150.632 Y148.232 E9.55913
G1 X151.038 Y148.395 E9.57368
G1 X151.189 Y147.897 E9.59099
G1 X151.351 Y147.665 E9.6004
G1 X151.582 Y147.492 E9.61
G1 X151.659 Y147.491 E9.61256
G1 X151.65 Y147.681 E9.61888
G1 X151.55 Y147.943 E9.62821
G1 X151.371 Y148.168 E9.63777
G1 X151.069 Y148.402 E9.65048
G1 X151.517 Y148.865 E9.67191
G1 X151.765 Y149.217 E9.68623
G1 X152.163 Y148.883 E9.70351
G1 X152.426 Y148.774 E9.71298
G1 X152.713 Y148.751 E9.72256
G1 X152.774 Y148.787 E9.72491
G1 X152.665 Y148.95 E9.73143
G1 X152.443 Y149.114 E9.74061
G1 X152.165 Y149.207 E9.75036
G1 X151.79 Y149.24 E9.76289
G1 X151.914 Y149.868 E9.78418
G1 X151.935 Y150.302 E9.79863
G1 X152.45 Y150.237 E9.81589
G1 X152.729 Y150.287 E9.82532
G1 X152.983 Y150.425 E9.83493
G1 X153.015 Y150.495 E9.83749
G1 X152.837 Y150.564 E9.84384
G1 X152.56 Y150.584 E9.85308
G1 X152.278 Y150.513 E9.86275
G1 X151.941 Y150.337 E9.8754
G1 X151.707 Y150.934 E9.89673
G1 X151.487 Y151.308 E9.91116
G1 X151.96 Y151.533 E9.92858
G1 X152.165 Y151.724 E9.9379
G1 X152.304 Y151.977 E9.9475
G1 X152.294 Y152.054 E9.95008
G1 X152.109 Y152.018 E9.95635
G1 X151.864 Y151.883 E9.96565
G1 X151.665 Y151.671 E9.97532
G1 X151.477 Y151.341 E9.98796
G1 X150.958 Y151.715 E10.00923
G1 X150.571 Y151.913 E10.02369
G1 X150.845 Y152.356 E10.04102
G1 X150.914 Y152.628 E10.05035
G1 X150.895 Y152.918 E10.06002
G1 X150.846 Y152.975 E10.06252
G1 X150.71 Y152.844 E10.0688
G1 X150.576 Y152.598 E10.07811
G1 X150.523 Y152.312 E10.08779
G1 X150.544 Y151.933 E10.10041
G1 X149.903 Y151.968 E10.12177
G1 X149.471 Y151.923 E10.13621
G1 X149.463 Y152.446 E10.15361
G1 X149.374 Y152.714 E10.163
G1 X149.202 Y152.945 E10.17258
G1 X149.128 Y152.968 E10.17516
G0 F6000 X148.963 Y152.928
G0 X149.455 Y151.801
G0 X148.914 Y151.177
;TYPE:SKIN
G1 F1200 X148.406 Y150.386 E10.19631
G1 X148.441 Y149.572 E10.21463
G1 X148.738 Y149.021 E10.22872
G1 X149.181 Y148.616 E10.24222
G1 X149.842 Y148.428 E10.25768
G1 X150.109 Y148.412 E10.2637
G1 X150.494 Y148.514 E10.27266
G1 X151.179 Y148.916 E10.29052
G1 X151.527 Y149.547 E10.30673
G1 X151.635 Y150.221 E10.32209
G1 X151.311 Y151.029 E10.34167
G1 X150.677 Y151.525 E10.35978
G1 X149.974 Y151.671 E10.37593
G1 X149.643 Y151.623 E10.38346
G0 F6000 X148.681 Y151.227
G1 F1200 X148.631 Y151.176 E10.38465
G0 F6000 X148.598 Y151.244
G1 F2700 E5.38465
;MESH:NONMESH
G0 F300 X148.598 Y151.244 Z0.4
G0 F6000 X148.653 Y151.176
G0 X149.769 Y151.58
G0 X149.828 Y151.389
;TIME_ELAPSED:22.860949
;LAYER:1
M106 S85
;TYPE:WALL-OUTER
;MESH:11???????????????.STL
G1 F2700 E10.38465
G1 F600 X150.285 Y151.37 E10.39986
G1 X150.709 Y151.2 E10.41505
G1 X151.053 Y150.897 E10.4303
G1 X151.275 Y150.499 E10.44546
G1 X151.353 Y150.047 E10.46071
G1 X151.275 Y149.596 E10.47594
G1 X151.053 Y149.198 E10.49109
G1 X150.709 Y148.895 E10.50634
G1 X150.285 Y148.725 E10.52153
G1 X149.828 Y148.706 E10.53675
G1 X149.391 Y148.84 E10.55195
G1 X149.024 Y149.112 E10.56714
G1 X148.767 Y149.49 E10.58235
G1 X148.654 Y149.924 E10.59726
G1 X148.654 Y150.171 E10.60548
G1 X148.767 Y150.605 E10.62039
G1 X149.024 Y150.983 E10.6356
G1 X149.391 Y151.255 E10.65079
G1 X149.828 Y151.389 E10.66599
