; HEADER_BLOCK_START
; generated by OrcaSlicer 2.1.1 on 2025-01-25 at 16:35:12
; total layer number: 36
; filament_density: 1.27
; filament_diameter: 1.75
; max_z_height: 3.00
; HEADER_BLOCK_END

; THUMBNAIL_BLOCK_START

;
; THUMBNAIL_BLOCK_END







; external perimeters extrusion width = 0.40mm
; perimeters extrusion width = 0.45mm
; infill extrusion width = 0.45mm
; solid infill extrusion width = 0.45mm
; top infill extrusion width = 0.38mm
; first layer extrusion width = 0.42mm

; EXECUTABLE_BLOCK_START
EXCLUDE_OBJECT_DEFINE NAME=铲斗挂接.STL_id_0_copy_0 CENTER=117.5,114.74 POLYGON=[[101.054,120.831],[111.765,108.065],[112.183,107.646],[112.666,107.302],[113.199,107.045],[113.769,106.882],[114.357,106.816],[130.563,106.817],[131.16,106.889],[131.736,107.061],[132.273,107.33],[132.757,107.686],[133.173,108.121],[133.508,108.62],[133.753,109.169],[133.901,109.751],[133.946,110.351],[133.889,110.949],[133.729,111.529],[133.473,112.073],[133.128,112.565],[127.631,119.191],[112.859,121.796],[107.935,122.664],[101.054,120.831]]
M73 P0 R7
;TYPE:Custom
;ELEGOO NEPTUNE 4 PRO
M220 S100 ;Set the feed speed to 100%
M221 S100 ;Set the flow rate to 100%
M104 S140
M190 S70
G90
G28 ;home
G1 Z10 F300
G1 X67.5 Y0 F6000
G1 Z0 F300
M109 S240
G92 E0 ;Reset Extruder
G1 X67.5 Y0 Z0.4 F300 ;Move to start position
G1 X167.5 E30 F400 ;Draw the first line
M73 P1 R7
G1 Z0.6 F120.0 ;Move to side a little
M73 P4 R7
G1 X162.5 F3000
G92 E0 ;Reset Extruder
G90
G21
M83 ; use relative distances for extrusion
; filament start gcode
M106 S0
;LAYER_CHANGE
;Z:0.2
;HEIGHT:0.2
;BEFORE_LAYER_CHANGE
G92 E0
;0.2


G1 E-.8 F3600
;AFTER_LAYER_CHANGE
;0.2
;_SET_FAN_SPEED_CHANGING_LAYER
SET_VELOCITY_LIMIT ACCEL=1000 ACCEL_TO_DECEL=500
SET_VELOCITY_LIMIT SQUARE_CORNER_VELOCITY=7
; printing object 铲斗挂接.STL id:0 copy 0
EXCLUDE_OBJECT_START NAME=铲斗挂接.STL_id_0_copy_0
G1 X128.671 Y108.482 F21000
G1 Z.4
G1 Z.2
G1 E.8 F2700
;TYPE:Inner wall
;WIDTH:0.417564
G1 F3000
G1 X128.515 Y108.628 E.00633
;WIDTH:0.419999
G1 X128.198 Y109.101 E.01695
G1 X127.988 Y109.618 E.01664
G1 X127.92 Y109.928 E.00945
G1 X127.904 Y110.288 E.01072
G1 X127.934 Y110.785 E.01484
G1 X128.093 Y111.312 E.01639
G1 X128.236 Y111.598 E.00952
G1 X128.561 Y112.041 E.01639
G1 X128.792 Y112.263 E.00952
G1 X129.247 Y112.572 E.01639
G1 X129.538 Y112.704 E.00952
G1 X130.07 Y112.843 E.01639
G1 X130.389 Y112.871 E.00952
G1 X130.937 Y112.824 E.01639
G1 X131.246 Y112.743 E.00952
G1 X131.824 Y112.464 E.0191
G1 X129.99 Y114.648 E.08495
G1 X126.683 Y115.24 E.10007
G1 X126.346 Y115.431 E.01155
G1 X126.125 Y115.719 E.01081
G1 X126.041 Y115.971 E.0079
G1 X126.041 Y116.302 E.00987
G1 X126.398 Y118.328 E.06128
G1 X123.57 Y118.827 E.08554
G1 X123.213 Y116.801 E.06128
G1 X123.099 Y116.49 E.00987
G1 X122.934 Y116.282 E.0079
G1 X122.67 Y116.104 E.00949
G1 X122.395 Y116.028 E.00849
G1 X122.121 Y116.036 E.00817
G1 X111.986 Y117.824 E.30652
G1 X111.607 Y118.008 E.01254
G1 X111.377 Y118.278 E.01059
G1 X111.258 Y118.655 E.01175
G1 X111.269 Y118.907 E.00752
G1 X111.626 Y120.933 E.06128
G1 X108.798 Y121.432 E.08554
G1 X108.548 Y120.018 E.04277
G1 X108.364 Y119.165 E.02598
G1 X108.246 Y118.978 E.00657
G1 X108.015 Y118.772 E.00923
G1 X107.613 Y118.632 E.01267
G1 X107.348 Y118.641 E.0079
G1 X103.745 Y119.277 E.109
G1 X111.621 Y109.892 E.36496
;WIDTH:0.422341
G1 X112.076 Y109.356 E.02109
G1 X112.022 Y109.495 E.00448
G1 X111.906 Y110.033 E.01649
;WIDTH:0.419999
G1 X111.891 Y110.352 E.00952
G1 X111.958 Y110.898 E.01639
G1 X112.05 Y111.204 E.00952
G1 X112.296 Y111.697 E.01639
G1 X112.485 Y111.954 E.00953
G1 X112.882 Y112.336 E.0164
G1 X113.146 Y112.516 E.00953
G1 X113.647 Y112.743 E.01638
G1 X113.956 Y112.824 E.00952
G1 X114.504 Y112.871 E.01639
G1 X114.823 Y112.843 E.00952
G1 X115.355 Y112.704 E.01639
G1 X115.646 Y112.572 E.00952
G1 X116.101 Y112.263 E.01639
G1 X116.332 Y112.041 E.00952
G1 X116.657 Y111.598 E.01639
G1 X116.801 Y111.308 E.00963
G1 X116.96 Y110.773 E.01664
G1 X116.998 Y110.458 E.00945
G1 X116.981 Y110.111 E.01034
G1 X116.902 Y109.606 E.01521
G1 X116.671 Y109.046 E.01806
G1 X116.378 Y108.628 E.0152
;WIDTH:0.417562
G1 X116.162 Y108.425 E.00878
G1 X116.436 Y108.557 E.009
;WIDTH:0.419999
G1 X116.913 Y108.776 E.01565
G1 X118.422 Y109.289 E.04747
G1 X119.645 Y109.592 E.03753
G1 X121.057 Y109.802 E.04251
G1 X122.5 Y109.878 E.04304
G1 X123.925 Y109.793 E.04254
G1 X124.956 Y109.636 E.03105
G1 X125.658 Y109.493 E.02133
G1 X126.719 Y109.223 E.03262
G1 X128.162 Y108.696 E.04577
G1 X128.732 Y108.425 E.01878
;WIDTH:0.417564
G1 X128.7 Y108.454 E.00127
G1 X129.036 Y108.313 F21000
;WIDTH:0.404146
G1 F3000
G1 X128.876 Y108.35 E.00469
G1 X129.69 Y107.997 E.02532
G1 X130.094 Y107.902 E.01184
;WIDTH:0.414369
G1 X130.511 Y107.883 E.01227
G1 X130.93 Y107.918 E.01233
;WIDTH:0.391214
G1 X131.356 Y108.045 E.01224
G1 X131.836 Y108.312 E.0151
G1 X131.625 Y108.265 E.00595
G1 X130.909 Y108.265 E.0197
;WIDTH:0.404146
G1 X129.268 Y108.259 E.04684
G1 X129.075 Y108.304 E.00566
G1 X128.955 Y108.741 F21000
;WIDTH:0.419999
G1 F3000
G1 X129.029 Y108.681 E.00285
G1 X129.268 Y108.628 E.00728
G1 X131.625 Y108.628 E.07022
;WIDTH:0.462995
G1 X131.736 Y108.638 E.0037
;WIDTH:0.505991
G1 X131.847 Y108.648 E.00407
;WIDTH:0.548986
G1 X131.958 Y108.659 E.00445
G1 X132.191 Y108.901 E.01342
;WIDTH:0.54456
G1 X132.503 Y109.415 E.02385
;WIDTH:0.552035
G1 X132.654 Y109.97 E.02312
G1 X132.691 Y110.314 E.01393
;WIDTH:0.54627
G1 X132.622 Y110.86 E.02187
;WIDTH:0.54665
G1 X132.56 Y111.068 E.00862
G1 X132.315 Y111.556 E.02174
;WIDTH:0.551219
G1 X132.152 Y111.768 E.01074
;WIDTH:0.577451
G1 X131.805 Y112.121 E.02092
G1 X131.751 Y112.134 E.00232
;WIDTH:0.538088
G1 X131.698 Y112.147 E.00215
;WIDTH:0.498725
G1 X131.645 Y112.159 E.00197
;WIDTH:0.459362
G1 X131.591 Y112.172 E.0018
;WIDTH:0.419999
G1 X131.09 Y112.399 E.01639
G1 X130.357 Y112.495 E.02204
G1 X129.805 Y112.384 E.01676
G1 X129.459 Y112.26 E.01096
G1 X129.004 Y111.951 E.01639
G1 X128.551 Y111.391 E.02145
G1 X128.454 Y111.203 E.00629
G1 X128.295 Y110.676 E.01639
G1 X128.289 Y110.126 E.0164
G1 X128.338 Y109.76 E.01099
G1 X128.548 Y109.242 E.01664
G1 X128.816 Y108.854 E.01406
G1 X128.924 Y108.766 E.00415
G1 X129.207 Y109.022 F21000
;TYPE:Outer wall
G1 F3000
M73 P5 R7
G1 X129.742 Y109.005 E.01596
G1 X131.625 Y109.005 E.05609
G1 X131.776 Y109.08 E.00502
G1 X132.016 Y109.421 E.01241
G1 X132.131 Y109.659 E.00788
G1 X132.251 Y110.196 E.01639
G1 X132.187 Y110.806 E.01827
G1 X131.922 Y111.36 E.01827
G1 X131.488 Y111.793 E.01827
G1 X130.935 Y112.056 E.01827
G1 X130.325 Y112.119 E.01827
G1 X129.729 Y111.975 E.01827
G1 X129.215 Y111.639 E.01827
G1 X128.855 Y111.167 E.01768
G1 X128.656 Y110.568 E.01882
G1 X128.674 Y109.964 E.018
G1 X128.897 Y109.384 E.01851
G1 X129.175 Y109.04 E.01317
G1 E-.68 F3600
;WIPE_START
G1 F3000
G1 X129.742 Y109.005 E-.06823
G1 X130.174 Y109.005 E-.05177
;WIPE_END
G1 X122.548 Y108.696 Z.6 F21000
G1 X113.061 Y108.311 Z.6
G1 Z.2
G1 E.8 F2700
;TYPE:Inner wall
;WIDTH:0.393601
G1 F3000
G1 X113.566 Y108.035 E.01594
G1 X113.959 Y107.92 E.01133
;WIDTH:0.414691
G1 X114.369 Y107.883 E.0121
G1 X114.781 Y107.899 E.01212
;WIDTH:0.403399
G1 X115.209 Y107.998 E.01251
G1 X116.018 Y108.35 E.0251
G1 X115.627 Y108.259 E.01141
G1 X114.007 Y108.264 E.04614
;WIDTH:0.393601
G1 X113.267 Y108.264 E.02048
G1 X113.1 Y108.302 E.00476
G1 X113.169 Y108.637 F21000
;WIDTH:0.55297
G1 F3000
G1 X113.18 Y108.637 E.00047
;WIDTH:0.508647
G1 X113.399 Y108.632 E.00806
;WIDTH:0.464323
G1 X113.618 Y108.628 E.00729
;WIDTH:0.419999
G1 X115.626 Y108.628 E.05982
G1 X115.949 Y108.73 E.01007
G1 X116.273 Y109.115 E.015
G1 X116.553 Y109.749 E.02065
G1 X116.613 Y110.309 E.01678
G1 X116.599 Y110.665 E.01061
G1 X116.44 Y111.201 E.01664
G1 X116.353 Y111.375 E.00578
G1 X116.028 Y111.818 E.01639
G1 X115.89 Y111.951 E.00571
G1 X115.435 Y112.26 E.01639
G1 X115.26 Y112.339 E.00571
G1 X114.728 Y112.478 E.01639
G1 X114.536 Y112.495 E.00571
G1 X113.988 Y112.448 E.01639
G1 X113.302 Y112.172 E.02203
G1 X113.143 Y112.065 E.00572
G1 X112.747 Y111.683 E.0164
G1 X112.388 Y111.036 E.02204
G1 X112.265 Y110.306 E.02204
;WIDTH:0.422341
G1 X112.392 Y109.577 E.02218
;WIDTH:0.463426
G1 X112.394 Y109.521 E.00187
;WIDTH:0.50451
G1 X112.395 Y109.465 E.00205
;WIDTH:0.545595
G1 X112.397 Y109.409 E.00223
;WIDTH:0.586679
G1 X112.398 Y109.352 E.00242
G1 X112.721 Y108.879 E.0246
;WIDTH:0.55297
G1 X112.961 Y108.641 E.01365
G1 X113.129 Y108.638 E.00674
G1 X113.176 Y109.029 F21000
;TYPE:Outer wall
;WIDTH:0.419999
G1 F3000
G1 X114.007 Y109.005 E.02476
G1 X115.626 Y109.005 E.04822
G1 X115.776 Y109.08 E.00501
G1 X115.983 Y109.357 E.01029
G1 X116.204 Y109.892 E.01725
G1 X116.245 Y110.495 E.018
G1 X116.078 Y111.094 E.01851
G1 X115.724 Y111.595 E.01829
G1 X115.223 Y111.948 E.01827
G1 X114.632 Y112.114 E.01827
G1 X114.02 Y112.072 E.01827
G1 X113.458 Y111.829 E.01826
G1 X113.009 Y111.411 E.01828
G1 X112.725 Y110.867 E.01827
G1 X112.639 Y110.26 E.01827
G1 X112.762 Y109.659 E.01827
G1 X113.094 Y109.116 E.01896
G1 X113.149 Y109.058 E.00239
G1 E-.68 F3600
;WIPE_START
G1 F3000
G1 X114.007 Y109.005 E-.10319
G1 X114.147 Y109.005 E-.01681
;WIPE_END
G1 X112.469 Y116.451 Z.6 F21000
G1 X112.073 Y118.207 Z.6
G1 Z.2
G1 E.8 F2700
;TYPE:Inner wall
G1 F3000
G1 X111.953 Y118.233 E.00363
G1 X111.764 Y118.38 E.00715
G1 X111.662 Y118.561 E.00619
G1 X111.64 Y118.841 E.00839
G1 X112.063 Y121.239 E.07251
G1 X108.492 Y121.868 E.108
G1 X108.069 Y119.471 E.07251
G1 X107.953 Y119.214 E.00839
G1 X107.708 Y119.038 E.00898
G1 X107.414 Y119.012 E.00879
G1 X103.369 Y119.727 E.12234
G1 X102.697 Y119.873 E.0205
G1 X103.154 Y119.395 E.0197
G1 X111.333 Y109.65 E.37896
;WIDTH:0.422341
G1 X111.687 Y109.229 E.01649
;WIDTH:0.463426
G1 X111.755 Y109.18 E.0028
;WIDTH:0.50451
G1 X111.824 Y109.131 E.00307
;WIDTH:0.545595
G1 X111.892 Y109.081 E.00335
;WIDTH:0.586679
G1 X111.96 Y109.032 E.00362
G1 X112.218 Y108.719 E.01741
;WIDTH:0.561047
G1 X112.476 Y108.407 E.01659
;WIDTH:0.535414
G1 X112.647 Y108.243 E.00921
;WIDTH:0.496943
G1 X112.818 Y108.079 E.00849
;WIDTH:0.458471
G1 X112.989 Y107.915 E.00777
;WIDTH:0.419999
G1 X113.408 Y107.707 E.01392
G1 X113.858 Y107.571 E.01401
G1 X114.328 Y107.511 E.0141
G1 X114.803 Y107.531 E.01418
G1 X115.313 Y107.642 E.01554
G1 X115.793 Y107.844 E.01552
G1 X117.039 Y108.42 E.04089
G1 X118.514 Y108.923 E.04641
G1 X119.702 Y109.219 E.03647
G1 X121.078 Y109.426 E.04145
G1 X122.478 Y109.501 E.04178
G1 X123.869 Y109.42 E.04148
G1 X124.899 Y109.263 E.03105
G1 X125.566 Y109.128 E.02026
G1 X126.593 Y108.867 E.03156
G1 X127.904 Y108.4 E.04145
G1 X129.547 Y107.656 E.05373
G1 X130.012 Y107.542 E.01425
G1 X130.492 Y107.509 E.01433
G1 X130.973 Y107.558 E.01442
G1 X131.482 Y107.702 E.01574
G1 X131.94 Y107.938 E.01535
;WIDTH:0.459422
G1 X132.127 Y108.125 E.0087
;WIDTH:0.498845
G1 X132.314 Y108.311 E.00952
;WIDTH:0.538268
G1 X132.502 Y108.498 E.01035
;WIDTH:0.541142
G1 X132.807 Y108.916 E.02036
;WIDTH:0.545812
G1 X133.033 Y109.395 E.02106
;WIDTH:0.552035
G1 X133.183 Y110.152 E.03103
;WIDTH:0.551808
G1 X133.147 Y110.791 E.02569
G1 X133.036 Y111.225 E.01805
;WIDTH:0.551568
G1 X132.82 Y111.693 E.02071
G1 X132.53 Y112.106 E.02025
;WIDTH:0.577451
G1 X132.195 Y112.485 E.02138
G1 X132.159 Y112.559 E.00344
;WIDTH:0.538088
G1 X132.123 Y112.632 E.00319
;WIDTH:0.498725
G1 X132.087 Y112.705 E.00294
;WIDTH:0.459362
G1 X132.052 Y112.779 E.00268
;WIDTH:0.419999
G1 X130.191 Y114.996 E.08622
G1 X127.393 Y115.489 E.08462
G1 X126.742 Y115.62 E.01979
G1 X126.523 Y115.791 E.00827
G1 X126.412 Y116.038 E.00805
G1 X126.412 Y116.237 E.00592
G1 X126.835 Y118.634 E.07251
G1 X123.264 Y119.264 E.108
G1 X122.841 Y116.866 E.07251
G1 X122.773 Y116.68 E.00592
G1 X122.674 Y116.555 E.00474
G1 X122.43 Y116.418 E.00833
G1 X122.186 Y116.407 E.00728
G1 X112.553 Y118.106 E.29137
G1 X112.112 Y118.199 E.01341
G1 X112.164 Y118.557 F21000
;TYPE:Outer wall
G1 F3000
G1 X112.053 Y118.622 E.00384
G1 X112.011 Y118.776 E.00475
G1 X112.499 Y121.545 E.08374
G1 X108.186 Y122.305 E.13047
M73 P6 R7
G1 X107.698 Y119.536 E.08374
G1 X107.634 Y119.426 E.0038
G1 X107.479 Y119.384 E.00479
G1 X103.442 Y120.097 E.12212
G1 X102.466 Y120.309 E.02977
G1 X101.996 Y120.45 E.01459
G1 X101.614 Y120.508 E.01152
G1 X101.842 Y120.219 E.01095
G1 X102.865 Y119.153 E.04402
G1 X111.994 Y108.275 E.42301
G1 X112.384 Y107.883 E.01647
G1 X112.824 Y107.57 E.01607
G1 X113.31 Y107.336 E.01607
G1 X113.829 Y107.187 E.01607
G1 X114.365 Y107.127 E.01607
G1 X114.904 Y107.159 E.01607
G1 X115.43 Y107.282 E.01607
G1 X115.946 Y107.499 E.01669
G1 X117.165 Y108.065 E.04004
G1 X118.606 Y108.558 E.04535
G1 X119.759 Y108.846 E.0354
G1 X121.099 Y109.049 E.04038
G1 X122.457 Y109.125 E.04052
G1 X123.812 Y109.047 E.04042
G1 X124.843 Y108.891 E.03105
G1 X125.474 Y108.762 E.0192
G1 X126.467 Y108.512 E.0305
G1 X127.745 Y108.058 E.04038
G1 X128.964 Y107.492 E.04004
G1 X129.546 Y107.262 E.01863
G1 X130.085 Y107.153 E.0164
G1 X130.633 Y107.138 E.01631
G1 X131.172 Y107.216 E.01623
G1 X131.687 Y107.383 E.01614
G1 X132.164 Y107.634 E.01605
G1 X132.593 Y107.963 E.01612
G1 X132.964 Y108.365 E.01628
G1 X133.26 Y108.825 E.01629
G1 X133.477 Y109.34 E.01664
G1 X133.598 Y109.862 E.01595
G1 X133.635 Y110.348 E.01452
G1 X133.583 Y110.893 E.01632
G1 X133.438 Y111.421 E.01631
G1 X133.204 Y111.917 E.01632
G1 X132.882 Y112.376 E.01671
G1 X130.392 Y115.343 E.11539
G1 X126.936 Y115.953 E.10451
G1 X126.82 Y116.023 E.00403
G1 X126.783 Y116.171 E.00456
G1 X127.272 Y118.94 E.08374
G1 X122.958 Y119.7 E.13047
G1 X122.47 Y116.932 E.08374
G1 X122.384 Y116.805 E.00456
G1 X122.252 Y116.779 E.00403
G1 X112.204 Y118.551 E.30391
G1 E-.68 F3600
;WIPE_START
G1 F3000
G1 X112.053 Y118.622 E-.02005
G1 X112.011 Y118.776 E-.01913
G1 X112.128 Y119.439 E-.08082
;WIPE_END
G1 X118.488 Y115.22 Z.6 F21000
G1 X128.732 Y108.425 Z.6
G1 Z.2
G1 E.8 F2700
;TYPE:Inner wall
;WIDTH:0.409362
G1 F3000
G1 X128.876 Y108.35 E.00469
G1 E-.68 F3600
;WIPE_START
G1 F3000
G1 X128.732 Y108.425 E-.12
;WIPE_END
G1 X121.099 Y108.38 Z.6 F21000
G1 X116.018 Y108.35 Z.6
G1 Z.2
G1 E.8 F2700
;WIDTH:0.409356
G1 F3000
G1 X116.162 Y108.425 E.00469
G1 E-.68 F3600
;WIPE_START
G1 F3000
G1 X116.018 Y108.35 E-.12
;WIPE_END
G1 X123.251 Y110.787 Z.6 F21000
G1 X130.916 Y113.369 Z.6
G1 Z.2
G1 E.8 F2700
;TYPE:Bottom surface
;WIDTH:0.425137
G1 F4800
G1 X130.676 Y113.13 E.01023
G1 X130.405 Y113.153 E.00823
G1 X130.136 Y113.13 E.00815
G1 X130.669 Y113.663 E.02277
G1 E-.68 F3600
;WIPE_START
G1 F4800
G1 X130.136 Y113.13 E-.0905
G1 X130.381 Y113.151 E-.0295
;WIPE_END
G1 X127.641 Y109.014 Z.6 F21000
G1 Z.2
G1 E.8 F2700
G1 F4800
G1 X127.846 Y109.219 E.00876
G1 X127.723 Y109.52 E.00981
G1 X127.702 Y109.615 E.00296
G1 X127.374 Y109.287 E.01401
G1 X126.974 Y109.428 E.0128
G1 X127.63 Y110.084 E.028
G1 X127.612 Y110.464 E.0115
G1 X127.632 Y110.626 E.00494
G1 X126.563 Y109.557 E.04564
G1 X126.131 Y109.665 E.01347
G1 X127.814 Y111.348 E.07187
G1 X127.867 Y111.519 E.0054
G1 X128.005 Y111.761 E.0084
G1 X128.338 Y112.215 E.01702
G1 X128.626 Y112.493 E.01207
G1 X129.095 Y112.811 E.01709
G1 X129.427 Y112.961 E.01101
G1 X130.302 Y113.837 E.03738
G1 X130.056 Y114.131 E.01158
G1 X125.698 Y109.773 E.18607
G1 X125.26 Y109.875 E.01358
G1 X129.782 Y114.398 E.1931
G1 X129.323 Y114.479 E.01409
M73 P7 R7
G1 X124.79 Y109.947 E.19352
G1 X124.321 Y110.018 E.01433
G1 X128.863 Y114.56 E.19395
G1 X128.404 Y114.641 E.01409
G1 X123.846 Y110.084 E.19459
G1 X123.335 Y110.112 E.01548
G1 X127.944 Y114.722 E.19683
G1 X127.485 Y114.803 E.01409
G1 X122.823 Y110.141 E.19907
G1 X122.447 Y110.162 E.01137
G1 X122.295 Y110.154 E.00459
G1 X127.025 Y114.884 E.20198
G1 X126.744 Y114.934 E.00863
G1 X126.583 Y114.983 E.00506
G1 X121.723 Y110.122 E.20754
G1 X121.151 Y110.091 E.0173
G1 X126.227 Y115.166 E.21673
G1 X126.115 Y115.259 E.00438
G1 X125.964 Y115.445 E.00722
G1 X120.528 Y110.009 E.23212
G1 X119.893 Y109.914 E.01939
G1 X125.796 Y115.817 E.25207
G1 X125.762 Y115.922 E.00332
G1 X125.761 Y116.322 E.01209
G1 X119.217 Y109.779 E.27941
G1 X118.497 Y109.599 E.0224
G1 X125.872 Y116.974 E.3149
G1 X125.988 Y117.63 E.02012
G1 X117.713 Y109.355 E.35333
G1 X116.999 Y109.105 E.02283
G1 X117.055 Y109.238 E.00437
G1 X125.939 Y118.122 E.37933
