;FLAVOR:Marlin
;TIME:109
;Filament used: 0.0313111m
;Layer height: 0.2
;MINX:136.018
;MINY:136.136
;MINZ:0.2
;MAXX:163.986
;MAXY:163.864
;MAXZ:3
;Generated with Creality Slicer 4.8.2-191
M140 S50
M105
M190 S50
M104 S200
M105
M109 S200
M82 ;absolute extrusion mode

G28 ;Home

G92 E0 ;Reset Extruder
G1 Z2.0 F3000 ;Move Z Axis up
G1 X10.1 Y20 Z0.28 F5000.0 ;Move to start position
G1 X10.1 Y200.0 Z0.28 F1500.0 E15 ;Draw the first line
G1 X10.4 Y200.0 Z0.28 F5000.0 ;Move to side a little
G1 X10.4 Y20 Z0.28 F1500.0 E30 ;Draw the second line
G92 E0 ;Reset Extruder
G1 Z2.0 F3000 ;Move Z Axis up

G92 E0
G92 E0
G1 F2700 E-5
;LAYER_COUNT:15
;LAYER:0
M107
G0 F6000 X139.558 Y140.707 Z0.2
;TYPE:SKIRT
G1 F2700 E0
G1 F1200 X140.225 Y140.048 E0.03119
G1 X141.136 Y139.307 E0.07024
G1 X142.285 Y138.47 E0.11752
G1 X142.703 Y138.175 E0.13454
G1 X143.493 Y137.67 E0.16573
G1 X144.323 Y137.233 E0.19692
G1 X145.291 Y136.831 E0.23179
G1 X145.402 Y136.791 E0.23571
G1 X146.297 Y136.511 E0.2669
G1 X147.213 Y136.309 E0.2981
G1 X148.142 Y136.185 E0.32927
G1 X149.181 Y136.14 E0.36386
G1 X149.345 Y136.141 E0.36932
G1 X150.304 Y136.136 E0.40121
G1 X151.019 Y136.144 E0.425
G1 X151.955 Y136.197 E0.45618
G1 X152.883 Y136.329 E0.48735
G1 X153.797 Y136.54 E0.51855
G1 X154.69 Y136.829 E0.54977
G1 X155.84 Y137.331 E0.59151
G1 X156.061 Y137.443 E0.59975
G1 X156.878 Y137.902 E0.63091
G1 X157.496 Y138.314 E0.65562
G1 X158.264 Y138.866 E0.68707
G1 X158.922 Y139.353 E0.7143
G1 X159.651 Y139.943 E0.74549
G1 X160.328 Y140.592 E0.77669
G1 X161.084 Y141.472 E0.81527
G1 X161.162 Y141.573 E0.81952
G1 X161.703 Y142.339 E0.85071
G1 X162.177 Y143.148 E0.88189
G1 X162.58 Y143.995 E0.91309
G1 X162.93 Y144.935 E0.94645
G1 X163.257 Y145.954 E0.98205
G1 X163.381 Y146.331 E0.99525
G1 X163.537 Y146.846 E1.01315
G1 X163.591 Y147.042 E1.01991
G1 X163.801 Y147.956 E1.0511
G1 X163.933 Y148.885 E1.08231
G1 X163.985 Y149.851 E1.11448
G1 X163.986 Y149.948 E1.11771
G1 X163.956 Y150.885 E1.14889
G1 X163.846 Y151.816 E1.18007
G1 X163.657 Y152.735 E1.21128
G1 X163.456 Y153.437 E1.23556
G1 X162.993 Y154.869 E1.28562
G1 X162.876 Y155.216 E1.2978
G1 X162.539 Y156.091 E1.32899
G1 X162.129 Y156.934 E1.36017
G1 X161.661 Y157.718 E1.39053
G1 X161.595 Y157.819 E1.39455
G1 X161.049 Y158.582 E1.42575
G1 X160.44 Y159.295 E1.45694
G1 X159.773 Y159.954 E1.48813
G1 X158.862 Y160.694 E1.52716
G1 X157.628 Y161.592 E1.57792
G1 X157.365 Y161.779 E1.58866
G1 X156.578 Y162.289 E1.61985
G1 X155.751 Y162.731 E1.65104
G1 X154.9 Y163.096 E1.68183
G1 X154.779 Y163.142 E1.68614
G1 X153.889 Y163.438 E1.71734
G1 X152.977 Y163.656 E1.74852
G1 X152.049 Y163.797 E1.77974
G1 X150.82 Y163.86 E1.82067
G1 X150.655 Y163.859 E1.82616
G1 X149.696 Y163.864 E1.85806
G1 X148.982 Y163.856 E1.88181
G1 X148.046 Y163.803 E1.91299
G1 X147.117 Y163.671 E1.9442
G1 X146.203 Y163.459 E1.9754
G1 X145.311 Y163.171 E2.00658
G1 X144.162 Y162.669 E2.04828
G1 X143.939 Y162.556 E2.0566
G1 X143.121 Y162.097 E2.0878
G1 X142.505 Y161.687 E2.11241
G1 X141.867 Y161.23 E2.13851
G1 X141.072 Y160.642 E2.1714
G1 X140.343 Y160.053 E2.20257
G1 X139.666 Y159.403 E2.23379
G1 X138.807 Y158.388 E2.27801
G1 X138.733 Y158.289 E2.28212
G1 X138.204 Y157.514 E2.31333
G1 X137.743 Y156.698 E2.3445
G1 X137.353 Y155.845 E2.3757
G1 X137.071 Y155.067 E2.40322
G1 X136.744 Y154.049 E2.43879
G1 X136.619 Y153.669 E2.45209
G1 X136.364 Y152.766 E2.4833
G1 X136.212 Y152.006 E2.50908
G1 X136.162 Y151.7 E2.51939
G1 X136.05 Y150.769 E2.55058
G1 X136.018 Y149.831 E2.5818
G1 X136.066 Y148.895 E2.61297
G1 X136.194 Y147.966 E2.64416
G1 X136.4 Y147.051 E2.67535
G1 X136.547 Y146.557 E2.6925
G1 X136.964 Y145.261 E2.73778
G1 X137.139 Y144.743 E2.75596
G1 X137.479 Y143.869 E2.78715
G1 X137.893 Y143.027 E2.81836
G1 X138.339 Y142.281 E2.84727
G1 X138.403 Y142.183 E2.85116
G1 X138.949 Y141.421 E2.88234
G1 X139.558 Y140.707 E2.91355
G0 F6000 X139.874 Y140.955
G1 F1200 X140.531 Y140.311 E2.94415
G1 X141.372 Y139.63 E2.98015
G1 X142.674 Y138.683 E3.03369
G1 X142.932 Y138.502 E3.04418
G1 X143.708 Y138.007 E3.07479
G1 X144.524 Y137.581 E3.10541
G1 X145.426 Y137.208 E3.13787
G1 X145.537 Y137.168 E3.14179
G1 X146.416 Y136.894 E3.17242
G1 X147.316 Y136.697 E3.20306
G1 X148.229 Y136.578 E3.23368
G1 X149.179 Y136.54 E3.26531
G1 X149.345 Y136.541 E3.27083
G1 X150.306 Y136.536 E3.30279
G1 X151.013 Y136.544 E3.32631
G1 X151.932 Y136.597 E3.35692
G1 X152.843 Y136.729 E3.38754
G1 X153.74 Y136.94 E3.41819
G1 X154.614 Y137.227 E3.44879
G1 X155.659 Y137.688 E3.48677
G1 X155.88 Y137.8 E3.49501
G1 X156.682 Y138.251 E3.52562
G1 X157.263 Y138.64 E3.54887
G1 X158.026 Y139.188 E3.58012
G1 X158.684 Y139.675 E3.60734
G1 X159.4 Y140.254 E3.63797
G1 X160.062 Y140.893 E3.66857
G1 X160.767 Y141.716 E3.70462
G1 X160.845 Y141.817 E3.70886
G1 X161.376 Y142.569 E3.73948
G1 X161.839 Y143.365 E3.77011
G1 X162.232 Y144.198 E3.80074
G1 X162.549 Y145.057 E3.8312
G1 X162.876 Y146.075 E3.86676
G1 X163.001 Y146.456 E3.8801
G1 X163.151 Y146.952 E3.89733
G1 X163.205 Y147.148 E3.90409
G1 X163.411 Y148.046 E3.93474
G1 X163.538 Y148.958 E3.96536
G1 X163.585 Y149.855 E3.99524
G1 X163.586 Y149.952 E3.99846
G1 X163.556 Y150.872 E4.02908
G1 X163.446 Y151.786 E4.0597
G1 X163.257 Y152.687 E4.09032
G1 X163.075 Y153.315 E4.11206
G1 X162.614 Y154.741 E4.16191
G1 X162.497 Y155.088 E4.17409
G1 X162.166 Y155.947 E4.20471
G1 X161.761 Y156.773 E4.23531
G1 X161.326 Y157.499 E4.26346
G1 X161.26 Y157.6 E4.26747
G1 X160.724 Y158.349 E4.2981
G1 X160.124 Y159.047 E4.32872
G1 X159.466 Y159.691 E4.35934
G1 X158.627 Y160.371 E4.39526
G1 X157.396 Y161.266 E4.44588
G1 X157.133 Y161.453 E4.45661
G1 X156.361 Y161.953 E4.4872
G1 X155.547 Y162.385 E4.51785
G1 X154.758 Y162.722 E4.54639
G1 X154.637 Y162.768 E4.5507
G1 X153.763 Y163.058 E4.58132
G1 X152.867 Y163.27 E4.61195
G1 X151.956 Y163.404 E4.64257
G1 X150.822 Y163.46 E4.68034
G1 X150.655 Y163.459 E4.68589
G1 X149.694 Y163.464 E4.71785
G1 X148.988 Y163.456 E4.74134
G1 X148.069 Y163.403 E4.77195
G1 X147.157 Y163.271 E4.8026
G1 X146.261 Y163.06 E4.83322
G1 X145.387 Y162.773 E4.86382
G1 X144.343 Y162.312 E4.90177
G1 X144.12 Y162.199 E4.91009
G1 X143.317 Y161.748 E4.94072
G1 X142.738 Y161.361 E4.96388
G1 X141.965 Y160.806 E4.99553
G1 X141.31 Y160.321 E5.02264
G1 X140.595 Y159.741 E5.05326
G1 X139.932 Y159.102 E5.08389
G1 X139.128 Y158.148 E5.12539
G1 X139.054 Y158.049 E5.1295
G1 X138.535 Y157.289 E5.16011
G1 X138.084 Y156.486 E5.19074
G1 X137.705 Y155.647 E5.22136
G1 X137.452 Y154.945 E5.24618
G1 X137.125 Y153.927 E5.28174
G1 X136.999 Y153.544 E5.29515
G1 X136.749 Y152.658 E5.32577
G1 X136.607 Y151.941 E5.35008
G1 X136.557 Y151.635 E5.36039
G1 X136.448 Y150.721 E5.39101
G1 X136.419 Y149.801 E5.42162
G1 X136.47 Y148.882 E5.45224
G1 X136.6 Y147.97 E5.48288
G1 X136.927 Y146.679 E5.52717
G1 X137.344 Y145.383 E5.57245
G1 X137.517 Y144.872 E5.5904
G1 X137.852 Y144.014 E5.62103
G1 X138.26 Y143.189 E5.65164
G1 X138.674 Y142.5 E5.67838
G1 X138.738 Y142.402 E5.68227
G1 X139.274 Y141.654 E5.71288
G1 X139.874 Y140.955 E5.74352
G0 F6000 X140.189 Y141.203
G1 F1200 X140.837 Y140.574 E5.77355
G1 X141.607 Y139.954 E5.80643
G1 X142.904 Y139.011 E5.85977
G1 X143.162 Y138.83 E5.87025
G1 X143.924 Y138.344 E5.90031
G1 X144.725 Y137.928 E5.93033
G1 X145.562 Y137.584 E5.96043
G1 X145.673 Y137.544 E5.96435
G1 X146.535 Y137.276 E5.99438
G1 X147.418 Y137.085 E6.02442
G1 X148.314 Y136.973 E6.05446
G1 X149.178 Y136.94 E6.08322
G1 X149.346 Y136.941 E6.0888
G1 X150.308 Y136.936 E6.1208
G1 X151.008 Y136.944 E6.14408
G1 X151.909 Y136.996 E6.1741
G1 X152.803 Y137.128 E6.20416
G1 X153.681 Y137.339 E6.23419
G1 X154.537 Y137.626 E6.26422
G1 X155.478 Y138.045 E6.29848
G1 X155.699 Y138.157 E6.30672
G1 X156.486 Y138.6 E6.33676
G1 X157.03 Y138.965 E6.35855
G1 X157.788 Y139.509 E6.38958
G1 X158.446 Y139.996 E6.41681
G1 X159.147 Y140.565 E6.44684
G1 X159.796 Y141.194 E6.4769
G1 X160.451 Y141.961 E6.51044
G1 X160.529 Y142.062 E6.51469
G1 X161.049 Y142.8 E6.54471
G1 X161.501 Y143.582 E6.57476
G1 X161.883 Y144.4 E6.60478
G1 X162.168 Y145.179 E6.63237
G1 X162.494 Y146.195 E6.66786
G1 X162.621 Y146.581 E6.68138
G1 X162.766 Y147.059 E6.69799
G1 X162.82 Y147.255 E6.70475
G1 X163.021 Y148.135 E6.73478
G1 X163.143 Y149.03 E6.76482
G1 X163.185 Y149.859 E6.79243
G1 X163.186 Y149.956 E6.79565
G1 X163.156 Y150.858 E6.82567
G1 X163.045 Y151.755 E6.85573
G1 X162.856 Y152.638 E6.88577
G1 X162.695 Y153.192 E6.90495
G1 X162.278 Y154.485 E6.95014
G1 X162.118 Y154.96 E6.96681
G1 X161.792 Y155.802 E6.99684
G1 X161.393 Y156.612 E7.02687
G1 X160.992 Y157.281 E7.05282
G1 X160.926 Y157.382 E7.05683
G1 X160.399 Y158.115 E7.08686
G1 X159.809 Y158.799 E7.1169
G1 X159.161 Y159.428 E7.14694
G1 X158.391 Y160.048 E7.17982
G1 X157.165 Y160.94 E7.23024
G1 X156.902 Y161.127 E7.24098
G1 X156.143 Y161.617 E7.27103
G1 X155.344 Y162.038 E7.30106
G1 X154.616 Y162.348 E7.32738
G1 X154.495 Y162.394 E7.33169
G1 X153.637 Y162.678 E7.36175
G1 X152.758 Y162.884 E7.39177
G1 X151.864 Y163.011 E7.42181
G1 X150.824 Y163.06 E7.45644
G1 X150.655 Y163.059 E7.46206
G1 X149.692 Y163.064 E7.49409
G1 X148.993 Y163.056 E7.51734
G1 X148.092 Y163.004 E7.54736
G1 X147.198 Y162.872 E7.57741
G1 X146.32 Y162.661 E7.60745
G1 X145.464 Y162.374 E7.63747
G1 X144.524 Y161.956 E7.67169
G1 X144.301 Y161.843 E7.68001
G1 X143.514 Y161.399 E7.71006
G1 X142.971 Y161.036 E7.73178
G1 X142.203 Y160.484 E7.76324
G1 X141.548 Y159.999 E7.79035
G1 X140.847 Y159.43 E7.82038
G1 X140.199 Y158.802 E7.85039
G1 X139.448 Y157.909 E7.8892
G1 X139.374 Y157.81 E7.89331
G1 X138.866 Y157.063 E7.92336
G1 X138.426 Y156.275 E7.95337
G1 X138.057 Y155.45 E7.98343
G1 X137.833 Y154.822 E8.00561
G1 X137.506 Y153.804 E8.04117
G1 X137.379 Y153.419 E8.05466
G1 X137.135 Y152.549 E8.08471
G1 X137.001 Y151.877 E8.1075
G1 X136.951 Y151.571 E8.11781
G1 X136.845 Y150.674 E8.14785
G1 X136.819 Y149.771 E8.1779
G1 X136.873 Y148.87 E8.20792
G1 X137.006 Y147.977 E8.23795
G1 X137.308 Y146.802 E8.2783
G1 X137.725 Y145.506 E8.32358
G1 X137.896 Y145.001 E8.34132
G1 X138.225 Y144.16 E8.37135
G1 X138.627 Y143.352 E8.40137
G1 X139.009 Y142.719 E8.42596
G1 X139.073 Y142.621 E8.42985
G1 X139.6 Y141.887 E8.45991
G1 X140.189 Y141.203 E8.48993
G1 F2700 E3.48993
;MESH:10?????????1_52.STL
G0 F6000 X148.253 Y147.601
G0 X148.735 Y149.025
G0 X148.993 Y150.455
G0 X149.182 Y150.731
G0 X149.817 Y151.145
G0 X149.877 Y150.955
;TYPE:WALL-OUTER
G1 F2700 E8.48993
G1 F1200 X150.203 Y150.941 E8.50078
G1 X150.505 Y150.82 E8.5116
G1 X150.749 Y150.605 E8.52242
G1 X150.908 Y150.321 E8.53324
G1 X150.963 Y150 E8.54408
G1 X150.908 Y149.679 E8.55491
G1 X150.749 Y149.395 E8.56573
G1 X150.505 Y149.18 E8.57655
G1 X150.203 Y149.059 E8.58737
G1 X149.877 Y149.045 E8.59822
G1 X149.567 Y149.14 E8.60901
G1 X149.305 Y149.334 E8.61985
G1 X149.122 Y149.604 E8.6307
G1 X149.043 Y149.911 E8.64124
G1 X149.043 Y150.089 E8.64716
G1 X149.122 Y150.396 E8.65771
G1 X149.305 Y150.666 E8.66856
G1 X149.567 Y150.86 E8.6794
G1 X149.877 Y150.955 E8.69018
G1 F2700 E3.69018
G0 F6000 X149.817 Y151.145
G0 X150.456 Y151.53
G0 X150.86 Y152.734
G0 X150.85 Y152.617
G1 F2700 E8.69018
G1 F1200 X150.598 Y152.358 E8.7022
G1 X150.51 Y152.127 E8.71042
G1 X150.484 Y151.649 E8.72635
G1 X149.913 Y151.67 E8.74535
G1 X149.513 Y151.629 E8.75872
G1 X149.492 Y152.117 E8.77497
G1 X149.407 Y152.351 E8.78325
G1 X149.257 Y152.543 E8.79135
G1 X149.15 Y152.616 E8.79566
G1 X149.097 Y152.258 E8.8077
G1 X149.162 Y152.02 E8.8159
G1 X149.424 Y151.62 E8.83181
G1 X148.953 Y151.306 E8.85064
G1 X148.649 Y151.032 E8.86425
G1 X148.346 Y151.413 E8.88044
G1 X148.137 Y151.553 E8.88881
G1 X147.902 Y151.62 E8.89693
G1 X147.774 Y151.616 E8.90119
G1 X147.942 Y151.297 E8.91318
G1 X148.135 Y151.143 E8.9214
G1 X148.581 Y150.973 E8.93727
G1 X148.385 Y150.434 E8.95635
G1 X148.299 Y150.041 E8.96973
G1 X147.83 Y150.17 E8.98591
G1 X147.581 Y150.162 E8.99419
G1 X147.349 Y150.078 E9.0024
G1 X147.25 Y150.001 E9.00657
G1 X147.34 Y149.928 E9.01042
G1 X147.572 Y149.84 E9.01868
G1 X147.822 Y149.828 E9.027
G1 X148.282 Y149.952 E9.04285
G1 X148.437 Y149.403 E9.06182
G1 X148.602 Y149.032 E9.07533
G1 X148.143 Y148.863 E9.09159
G1 X147.95 Y148.71 E9.09979
G1 X147.809 Y148.503 E9.10812
G1 X147.774 Y148.382 E9.11231
G1 X148.13 Y148.443 E9.12432
G1 X148.338 Y148.579 E9.13258
G1 X148.637 Y148.951 E9.14846
G1 X149.081 Y148.602 E9.16724
G1 X149.436 Y148.395 E9.18091
G1 X149.166 Y147.989 E9.19713
G1 X149.099 Y147.751 E9.20535
G1 X149.107 Y147.502 E9.21364
G1 X149.15 Y147.383 E9.21784
G1 X149.402 Y147.642 E9.22986
G1 X149.49 Y147.873 E9.23809
G1 X149.516 Y148.351 E9.25401
G1 X150.087 Y148.33 E9.27301
G1 X150.487 Y148.371 E9.28639
G1 X150.508 Y147.883 E9.30263
G1 X150.593 Y147.649 E9.31091
G1 X150.743 Y147.457 E9.31902
G1 X150.85 Y147.384 E9.32332
G1 X150.903 Y147.742 E9.33536
G1 X150.838 Y147.98 E9.34357
G1 X150.576 Y148.38 E9.35947
G1 X151.047 Y148.694 E9.3783
G1 X151.351 Y148.968 E9.39191
G1 X151.654 Y148.587 E9.4081
G1 X151.863 Y148.447 E9.41647
G1 X152.098 Y148.38 E9.4246
G1 X152.226 Y148.384 E9.42885
G1 X152.058 Y148.703 E9.44085
G1 X151.865 Y148.857 E9.44906
G1 X151.419 Y149.027 E9.46493
G1 X151.615 Y149.566 E9.48401
G1 X151.701 Y149.959 E9.49739
G1 X152.17 Y149.83 E9.51357
G1 X152.419 Y149.838 E9.52185
G1 X152.651 Y149.922 E9.53006
G1 X152.751 Y150 E9.53428
G1 X152.428 Y150.16 E9.54627
G1 X152.178 Y150.172 E9.55459
G1 X151.718 Y150.048 E9.57044
G1 X151.563 Y150.597 E9.58941
G1 X151.398 Y150.968 E9.60292
G1 X151.857 Y151.137 E9.61919
G1 X152.05 Y151.29 E9.62738
G1 X152.191 Y151.497 E9.63571
G1 X152.226 Y151.618 E9.6399
G1 X151.87 Y151.557 E9.65191
G1 X151.662 Y151.421 E9.66018
G1 X151.363 Y151.049 E9.67605
G1 X150.919 Y151.398 E9.69483
G1 X150.564 Y151.605 E9.7085
G1 X150.834 Y152.011 E9.72472
G1 X150.901 Y152.249 E9.73294
G1 X150.893 Y152.498 E9.74123
G1 X150.85 Y152.617 E9.74544
G0 F6000 X150.895 Y152.756
G0 X150.456 Y151.53
G0 X150.169 Y151.301
;TYPE:SKIN
G1 F1200 X150.407 Y151.256 E9.75248
G1 X151.072 Y150.789 E9.7761
G1 X151.297 Y150.166 E9.79536
G1 X151.3 Y149.886 E9.8035
G1 X150.85 Y149.153 E9.8285
G1 X150.132 Y148.718 E9.8529
G1 X149.595 Y148.746 E9.86854
G1 X148.928 Y149.211 E9.89217
G1 X148.704 Y149.836 E9.91147
G1 X148.703 Y150.117 E9.91964
G1 X149.039 Y151.019 E9.94762
G0 F6000 X149.148 Y150.845
G1 F1200 X149.863 Y151.278 E9.98731
G0 F6000 X150.073 Y151.463
G0 X150.858 Y150.694
G0 X151.338 Y149.389
G0 X151.361 Y149.381
G1 F1200 X150.557 Y148.577 E10.00622
G0 F6000 X150.465 Y148.627
G1 F2700 E5.00622
;MESH:NONMESH
G0 F300 X150.465 Y148.627 Z0.4
G0 F6000 X151.041 Y149.632
G0 X151.103 Y150
G0 X151.041 Y150.368
G0 X150.858 Y150.694
G0 X150.577 Y150.94
G0 X149.818 Y151.145
G0 X149.877 Y150.955
;TIME_ELAPSED:22.372444
;LAYER:1
M106 S85
;TYPE:WALL-OUTER
;MESH:10?????????1_52.STL
G1 F2700 E10.00622
G1 F600 X150.203 Y150.941 E10.01707
G1 X150.505 Y150.82 E10.02789
G1 X150.749 Y150.605 E10.03871
G1 X150.908 Y150.321 E10.04954
G1 X150.963 Y150 E10.06037
G1 X150.908 Y149.679 E10.0712
G1 X150.749 Y149.395 E10.08203
G1 X150.505 Y149.18 E10.09284
G1 X150.203 Y149.059 E10.10366
G1 X149.877 Y149.045 E10.11452
G1 X149.567 Y149.14 E10.1253
G1 X149.305 Y149.334 E10.13614
G1 X149.122 Y149.604 E10.14699
G1 X149.043 Y149.911 E10.15753
G1 X149.043 Y150.089 E10.16345
G1 X149.122 Y150.396 E10.174
G1 X149.305 Y150.666 E10.18485
G1 X149.567 Y150.86 E10.19569
G1 X149.877 Y150.955 E10.20647
G1 F2700 E5.20647
G0 F6600 X149.817 Y151.145
G0 X148.662 Y150.887
G0 X147.652 Y151.642
G0 X147.773 Y151.616
G1 F2700 E10.20647
G1 F600 X147.937 Y151.304 E10.2182
G1 X148.13 Y151.146 E10.22649
G1 X148.566 Y150.976 E10.24206
G1 X148.389 Y150.445 E10.26067
G1 X148.298 Y150.041 E10.27445
G1 X147.838 Y150.168 E10.29032
G1 X147.588 Y150.164 E10.29864
G1 X147.359 Y150.082 E10.30673
G1 X147.253 Y150.001 E10.31116
G1 X147.564 Y149.843 E10.32277
G1 X147.813 Y149.828 E10.33106
G1 X148.269 Y149.945 E10.34672
G1 X148.432 Y149.415 E10.36516
G1 X148.6 Y149.032 E10.37907
G1 X148.153 Y148.867 E10.39492
G1 X147.955 Y148.715 E10.40322
G1 X147.814 Y148.51 E10.4115
G1 X147.775 Y148.382 E10.41595
G1 X148.122 Y148.44 E10.42765
G1 X148.33 Y148.573 E10.43586
G1 X148.629 Y148.937 E10.45153
G1 X149.079 Y148.603 E10.47017
