;FLAVOR:Marlin
;TIME:2858
;Filament used: 1.77253m
;Layer height: 0.2
;MINX:126.5
;MINY:126.5
;MINZ:0.2
;MAXX:173.5
;MAXY:173.5
;MAXZ:22
;Generated with Creality Slicer 4.8.2-191
M140 S50
M105
M190 S50
M104 S200
M105
M109 S200
M82 ;absolute extrusion mode

G28 ;Home

G92 E0 ;Reset Extruder
G1 Z2.0 F3000 ;Move Z Axis up
G1 X10.1 Y20 Z0.28 F5000.0 ;Move to start position
G1 X10.1 Y200.0 Z0.28 F1500.0 E15 ;Draw the first line
G1 X10.4 Y200.0 Z0.28 F5000.0 ;Move to side a little
G1 X10.4 Y20 Z0.28 F1500.0 E30 ;Draw the second line
G92 E0 ;Reset Extruder
G1 Z2.0 F3000 ;Move Z Axis up

G92 E0
G92 E0
G1 F2700 E-5
;LAYER_COUNT:110
;LAYER:0
M107
G0 F6000 X129.698 Y129.764 Z0.2
;TYPE:SKIRT
G1 F2700 E0
G1 F1200 X130.386 Y129.127 E0.03119
G1 X131.126 Y128.551 E0.06237
G1 X131.912 Y128.039 E0.09357
G1 X132.739 Y127.597 E0.12476
G1 X133.601 Y127.227 E0.15596
G1 X134.491 Y126.931 E0.18716
G1 X135.403 Y126.713 E0.21835
G1 X136.33 Y126.572 E0.24953
G1 X137.201 Y126.513 E0.27857
G1 X137.522 Y126.504 E0.28925
G1 X137.83 Y126.5 E0.29949
G1 X161.793 Y126.5 E1.09651
G1 X162.649 Y126.511 E1.12498
G1 X163.585 Y126.565 E1.15616
G1 X164.513 Y126.697 E1.18734
G1 X165.427 Y126.909 E1.21855
G1 X166.319 Y127.198 E1.24973
G1 X167.184 Y127.561 E1.28093
G1 X168.014 Y127.997 E1.31212
G1 X168.805 Y128.502 E1.34333
G1 X169.549 Y129.073 E1.37452
G1 X170.242 Y129.705 E1.40572
G1 X170.879 Y130.393 E1.4369
G1 X171.454 Y131.134 E1.4681
G1 X171.965 Y131.92 E1.49928
G1 X172.407 Y132.748 E1.5305
G1 X172.776 Y133.61 E1.56168
G1 X173.071 Y134.5 E1.59287
G1 X173.289 Y135.412 E1.62406
G1 X173.429 Y136.34 E1.65527
G1 X173.487 Y137.201 E1.68397
G1 X173.496 Y137.521 E1.69462
G1 X173.5 Y137.83 E1.7049
G1 X173.499 Y161.9 E2.50547
G1 X173.49 Y162.627 E2.52965
G1 X173.439 Y163.564 E2.56086
G1 X173.307 Y164.492 E2.59204
G1 X173.098 Y165.406 E2.62322
G1 X172.811 Y166.299 E2.65442
G1 X172.449 Y167.165 E2.68564
G1 X172.015 Y167.996 E2.71682
G1 X171.511 Y168.787 E2.74802
G1 X170.942 Y169.532 E2.7792
G1 X170.311 Y170.227 E2.81042
G1 X169.624 Y170.865 E2.8416
G1 X168.885 Y171.442 E2.87279
G1 X168.099 Y171.954 E2.90399
G1 X167.273 Y172.397 E2.93516
G1 X166.411 Y172.769 E2.96639
G1 X165.522 Y173.065 E2.99755
G1 X164.61 Y173.285 E3.02875
G1 X163.683 Y173.426 E3.05994
G1 X162.799 Y173.487 E3.08941
G1 X162.478 Y173.496 E3.10009
G1 X162.17 Y173.5 E3.11034
G1 X138.065 Y173.499 E3.91207
G1 X137.367 Y173.49 E3.93529
G1 X136.431 Y173.438 E3.96647
G1 X135.502 Y173.306 E3.99768
G1 X134.588 Y173.096 E4.02887
G1 X133.695 Y172.809 E4.06007
G1 X132.83 Y172.446 E4.09127
G1 X131.999 Y172.012 E4.12245
G1 X131.208 Y171.508 E4.15365
G1 X130.463 Y170.938 E4.18485
G1 X129.769 Y170.307 E4.21604
G1 X129.132 Y169.62 E4.2472
G1 X128.555 Y168.88 E4.27841
G1 X128.043 Y168.094 E4.30961
G1 X127.6 Y167.267 E4.34082
G1 X127.229 Y166.406 E4.372
G1 X126.933 Y165.516 E4.4032
G1 X126.714 Y164.604 E4.43439
G1 X126.573 Y163.677 E4.46558
G1 X126.513 Y162.788 E4.49521
G1 X126.504 Y162.455 E4.50629
G1 X126.5 Y162.158 E4.51617
G1 X126.501 Y138.025 E5.31884
G1 X126.51 Y137.36 E5.34096
G1 X126.563 Y136.424 E5.37214
G1 X126.695 Y135.495 E5.40335
G1 X126.906 Y134.581 E5.43455
G1 X127.194 Y133.689 E5.46572
G1 X127.557 Y132.824 E5.49693
G1 X127.992 Y131.993 E5.52812
G1 X128.496 Y131.203 E5.55929
G1 X129.066 Y130.458 E5.59049
G1 X129.698 Y129.764 E5.62171
G0 F6000 X130.089 Y129.939
G1 F1200 X130.774 Y129.323 E5.65235
G1 X131.51 Y128.77 E5.68297
G1 X132.291 Y128.282 E5.7136
G1 X133.111 Y127.864 E5.74421
G1 X133.965 Y127.519 E5.77485
G1 X134.845 Y127.249 E5.80546
G1 X135.745 Y127.057 E5.83607
G1 X136.659 Y126.943 E5.8667
G1 X137.212 Y126.913 E5.88512
G1 X137.533 Y126.904 E5.8958
G1 X137.83 Y126.9 E5.90568
G1 X161.793 Y126.9 E6.7027
G1 X162.643 Y126.911 E6.73097
G1 X163.562 Y126.964 E6.76159
G1 X164.473 Y127.097 E6.79221
G1 X165.369 Y127.308 E6.82282
G1 X166.243 Y127.596 E6.85343
G1 X167.09 Y127.959 E6.88408
G1 X167.901 Y128.394 E6.91469
G1 X168.671 Y128.898 E6.9453
G1 X169.395 Y129.467 E6.97593
G1 X170.067 Y130.097 E7.00656
G1 X170.682 Y130.782 E7.03718
G1 X171.235 Y131.518 E7.0678
G1 X171.722 Y132.299 E7.09841
G1 X172.139 Y133.12 E7.12904
G1 X172.484 Y133.974 E7.15967
G1 X172.753 Y134.854 E7.19028
G1 X172.945 Y135.755 E7.22092
G1 X173.058 Y136.668 E7.25152
G1 X173.087 Y137.212 E7.26964
G1 X173.096 Y137.532 E7.28028
G1 X173.1 Y137.83 E7.2902
G1 X173.099 Y161.895 E8.0906
G1 X173.09 Y162.622 E8.11478
G1 X173.039 Y163.541 E8.1454
G1 X172.908 Y164.453 E8.17604
G1 X172.698 Y165.349 E8.20665
G1 X172.412 Y166.224 E8.23727
G1 X172.051 Y167.071 E8.26789
G1 X171.617 Y167.883 E8.29851
G1 X171.115 Y168.655 E8.32914
G1 X170.547 Y169.38 E8.35978
G1 X169.919 Y170.053 E8.39039
G1 X169.235 Y170.669 E8.42101
G1 X168.5 Y171.223 E8.45162
G1 X167.72 Y171.712 E8.48224
G1 X166.9 Y172.131 E8.51287
G1 X166.047 Y172.477 E8.54348
G1 X165.167 Y172.748 E8.57411
G1 X164.267 Y172.941 E8.60472
G1 X163.353 Y173.056 E8.63536
G1 X162.788 Y173.087 E8.65418
G1 X162.467 Y173.096 E8.66486
G1 X162.17 Y173.1 E8.67474
G1 X138.07 Y173.099 E9.47631
G1 X137.372 Y173.09 E9.49953
G1 X136.453 Y173.038 E9.53014
G1 X135.542 Y172.907 E9.56076
G1 X134.646 Y172.697 E9.59136
G1 X133.771 Y172.41 E9.62199
G1 X132.924 Y172.048 E9.65263
G1 X132.112 Y171.614 E9.68325
G1 X131.341 Y171.112 E9.71385
G1 X130.616 Y170.544 E9.74448
G1 X129.943 Y169.915 E9.77512
G1 X129.328 Y169.231 E9.80572
G1 X128.774 Y168.496 E9.83633
G1 X128.286 Y167.715 E9.86696
G1 X127.867 Y166.895 E9.89759
G1 X127.521 Y166.042 E9.9282
G1 X127.251 Y165.162 E9.95882
G1 X127.058 Y164.261 E9.98947
G1 X126.944 Y163.348 E10.02007
G1 X126.913 Y162.777 E10.03909
G1 X126.904 Y162.444 E10.05017
G1 X126.9 Y162.158 E10.05968
G1 X126.901 Y138.031 E10.86215
G1 X126.91 Y137.366 E10.88427
G1 X126.962 Y136.446 E10.91492
G1 X127.094 Y135.535 E10.94553
G1 X127.305 Y134.639 E10.97615
G1 X127.592 Y133.764 E11.00678
G1 X127.955 Y132.918 E11.0374
G1 X128.389 Y132.106 E11.06802
G1 X128.892 Y131.335 E11.09864
G1 X129.461 Y130.611 E11.12926
G1 X130.089 Y129.939 E11.15986
G0 F6000 X130.481 Y130.117
G1 F1200 X131.162 Y129.524 E11.18989
G1 X131.894 Y128.994 E11.21995
G1 X132.669 Y128.531 E11.24997
G1 X133.482 Y128.138 E11.28001
G1 X134.327 Y127.818 E11.31006
G1 X135.196 Y127.575 E11.34007
G1 X136.084 Y127.409 E11.37012
G1 X137.223 Y127.313 E11.40814
G1 X137.544 Y127.304 E11.41882
G1 X137.83 Y127.3 E11.42833
G1 X161.793 Y127.3 E12.22534
G1 X162.637 Y127.311 E12.25342
G1 X163.539 Y127.364 E12.28347
G1 X164.432 Y127.496 E12.31349
G1 X165.31 Y127.707 E12.34353
G1 X166.166 Y127.995 E12.37357
G1 X166.993 Y128.357 E12.40359
G1 X167.785 Y128.792 E12.43365
G1 X168.536 Y129.294 E12.46369
G1 X169.239 Y129.861 E12.49373
G1 X169.889 Y130.488 E12.52377
G1 X170.481 Y131.17 E12.55381
G1 X171.011 Y131.901 E12.58384
G1 X171.473 Y132.677 E12.61387
G1 X171.866 Y133.49 E12.64391
G1 X172.184 Y134.335 E12.67394
G1 X172.427 Y135.205 E12.70398
G1 X172.592 Y136.093 E12.73402
G1 X172.687 Y137.223 E12.77174
G1 X172.696 Y137.543 E12.78239
G1 X172.7 Y137.83 E12.79193
G1 X172.699 Y161.89 E13.59217
G1 X172.69 Y162.617 E13.61635
G1 X172.639 Y163.519 E13.6464
G1 X172.508 Y164.413 E13.67645
G1 X172.299 Y165.291 E13.70647
G1 X172.013 Y166.148 E13.73652
G1 X171.652 Y166.976 E13.76656
G1 X171.22 Y167.768 E13.79657
G1 X170.719 Y168.52 E13.82662
G1 X170.153 Y169.224 E13.85667
G1 X169.528 Y169.875 E13.88668
G1 X168.847 Y170.469 E13.91674
G1 X168.116 Y171 E13.94679
G1 X167.342 Y171.464 E13.97681
G1 X166.529 Y171.858 E14.00685
G1 X165.685 Y172.178 E14.03688
G1 X164.815 Y172.423 E14.06694
G1 X163.928 Y172.589 E14.09695
G1 X162.777 Y172.687 E14.13537
G1 X162.456 Y172.696 E14.14605
G1 X162.17 Y172.7 E14.15557
G1 X138.075 Y172.699 E14.95697
G1 X137.377 Y172.69 E14.98019
G1 X136.476 Y172.639 E15.0102
G1 X135.582 Y172.507 E15.04026
G1 X134.704 Y172.298 E15.07028
G1 X133.847 Y172.011 E15.10034
G1 X133.02 Y171.65 E15.13035
G1 X132.227 Y171.217 E15.1604
G1 X131.476 Y170.716 E15.19043
G1 X130.772 Y170.15 E15.22047
G1 X130.121 Y169.524 E15.25051
G1 X129.528 Y168.843 E15.28054
G1 X128.998 Y168.112 E15.31058
G1 X128.534 Y167.337 E15.34062
G1 X128.14 Y166.524 E15.37067
G1 X127.82 Y165.68 E15.40069
G1 X127.576 Y164.81 E15.43074
G1 X127.41 Y163.922 E15.46079
G1 X127.313 Y162.767 E15.49934
G1 X127.304 Y162.434 E15.51042
G1 X127.3 Y162.158 E15.5196
G1 X127.301 Y138.036 E16.3219
G1 X127.31 Y137.371 E16.34402
G1 X127.362 Y136.469 E16.37407
G1 X127.494 Y135.576 E16.4041
G1 X127.704 Y134.698 E16.43412
G1 X127.991 Y133.841 E16.46418
G1 X128.353 Y133.014 E16.49421
G1 X128.786 Y132.222 E16.52423
G1 X129.288 Y131.471 E16.55427
G1 X129.855 Y130.767 E16.58434
G1 X130.481 Y130.117 E16.61435
G1 F2700 E11.61435
;MESH:??????.STL
G0 F6000 X156.028 Y149.977
G0 X154.636 Y149.483
G0 X154.974 Y150.398
G0 X155.169 Y150.75
G0 X155.416 Y150.967
G0 X156.272 Y151.348
;TYPE:WALL-INNER
G1 F2700 E16.61435
G1 F1200 X156.712 Y151.213 E16.62966
G1 X157.081 Y150.94 E16.64493
G1 X157.338 Y150.56 E16.66019
G1 X157.447 Y150.141 E16.67459
G1 X157.447 Y149.859 E16.68397
G1 X157.338 Y149.44 E16.69837
G1 X157.081 Y149.06 E16.71362
G1 X156.712 Y148.787 E16.72889
G1 X156.272 Y148.652 E16.7442
G1 X155.814 Y148.672 E16.75945
G1 X155.388 Y148.842 E16.7747
G1 X155.042 Y149.147 E16.79004
G1 X154.819 Y149.548 E16.8053
G1 X154.741 Y150 E16.82056
G1 X154.819 Y150.452 E16.83581
G1 X155.042 Y150.853 E16.85108
G1 X155.388 Y151.158 E16.86642
G1 X155.814 Y151.328 E16.88167
G1 X156.272 Y151.348 E16.89692
G0 F6000 X156.221 Y150.945
;TYPE:WALL-OUTER
G1 F1200 X156.529 Y150.851 E16.90763
G1 X156.788 Y150.659 E16.91835
G1 X156.968 Y150.393 E16.92904
G1 X157.047 Y150.09 E16.93945
G1 X157.047 Y149.91 E16.94544
G1 X156.968 Y149.607 E16.95585
G1 X156.788 Y149.341 E16.96653
G1 X156.529 Y149.149 E16.97726
G1 X156.221 Y149.055 E16.98797
G1 X155.899 Y149.069 E16.99869
G1 X155.601 Y149.188 E17.00936
G1 X155.358 Y149.402 E17.02013
G1 X155.202 Y149.683 E17.03082
G1 X155.147 Y150 E17.04152
G1 X155.202 Y150.317 E17.05222
G1 X155.358 Y150.598 E17.06291
G1 X155.601 Y150.812 E17.07368
G1 X155.899 Y150.931 E17.08435
G1 X156.221 Y150.945 E17.09507
G0 F6000 X156.276 Y151.381
G1 F2700 E12.09507
G0 F6000 X154.891 Y150.975
G0 X156.043 Y150.051
G0 X143.953 Y150.054
G0 X145.021 Y151.074
G0 X144.072 Y151.348
;TYPE:WALL-INNER
G1 F2700 E17.09507
G1 F1200 X144.512 Y151.213 E17.11038
G1 X144.881 Y150.94 E17.12565
G1 X145.138 Y150.56 E17.14091
G1 X145.247 Y150.141 E17.15531
G1 X145.247 Y149.859 E17.16468
G1 X145.138 Y149.44 E17.17908
G1 X144.881 Y149.06 E17.19434
G1 X144.512 Y148.787 E17.20961
G1 X144.072 Y148.652 E17.22492
G1 X143.614 Y148.672 E17.24016
G1 X143.188 Y148.842 E17.25542
G1 X142.842 Y149.147 E17.27076
G1 X142.619 Y149.548 E17.28602
G1 X142.541 Y150 E17.30128
G1 X142.619 Y150.452 E17.31653
G1 X142.842 Y150.853 E17.33179
G1 X143.188 Y151.158 E17.34714
G1 X143.614 Y151.328 E17.36239
G1 X144.072 Y151.348 E17.37764
G0 F6000 X144.021 Y150.945
;TYPE:WALL-OUTER
G1 F1200 X144.329 Y150.851 E17.38835
G1 X144.588 Y150.659 E17.39907
G1 X144.768 Y150.393 E17.40975
G1 X144.847 Y150.09 E17.42017
G1 X144.847 Y149.91 E17.42616
G1 X144.768 Y149.607 E17.43657
G1 X144.588 Y149.341 E17.44725
G1 X144.329 Y149.149 E17.45798
G1 X144.021 Y149.055 E17.46869
G1 X143.699 Y149.069 E17.47941
G1 X143.401 Y149.188 E17.49008
G1 X143.158 Y149.402 E17.50085
G1 X143.002 Y149.683 E17.51154
G1 X142.947 Y150 E17.52224
G1 X143.002 Y150.317 E17.53294
G1 X143.158 Y150.598 E17.54363
G1 X143.401 Y150.812 E17.5544
G1 X143.699 Y150.931 E17.56507
G1 X144.021 Y150.945 E17.57579
G0 F6000 X144.076 Y151.381
G1 F2700 E12.57579
G0 F6000 X145.021 Y151.074
G0 X143.953 Y150.054
G0 X145.021 Y163.165
G0 X145.021 Y161.69
G0 X161.9 Y161.9
;TYPE:WALL-INNER
G1 F2700 E17.57579
G1 F1200 X138.1 Y161.9 E18.36738
G1 X138.1 Y138.1 E19.15898
G1 X161.9 Y138.1 E19.95057
G1 X161.9 Y161.9 E20.74216
G0 F6000 X162.3 Y162.3
;TYPE:WALL-OUTER
G1 F1200 X137.7 Y162.3 E21.56036
G1 X137.7 Y137.7 E22.37856
G1 X162.3 Y137.7 E23.19676
G1 X162.3 Y162.3 E24.01495
G0 F6000 X162.03 Y162.03
G0 X161.79 Y161.51
G0 X161.51 Y161.51
;TYPE:SKIN
G1 F1200 X138.49 Y161.51 E24.7806
G1 X138.49 Y138.49 E25.54625
G1 X161.51 Y138.49 E26.3119
G1 X161.51 Y161.51 E27.07755
G1 F2700 E22.07755
G0 F6000 X161.79 Y161.51
G0 X161.69 Y151.312
G0 X163.165 Y151.312
G0 X156.153 Y150.054
G0 X157.221 Y151.074
G0 X156.763 Y151.312
G0 X156.89 Y151.566
G1 F2700 E27.07755
G1 F1200 X157.366 Y151.213 E27.09726
G1 X157.699 Y150.724 E27.11694
G1 X157.837 Y150.191 E27.13525
G1 X157.837 Y149.809 E27.14795
G1 X157.699 Y149.276 E27.16627
G1 X157.366 Y148.787 E27.18594
G1 X156.89 Y148.434 E27.20565
G1 X156.322 Y148.26 E27.22541
G1 X155.731 Y148.286 E27.24509
G1 X155.181 Y148.505 E27.26478
G1 X154.734 Y148.899 E27.2846
G1 X154.446 Y149.416 E27.30428
G1 X154.345 Y150 E27.32399
G1 X154.446 Y150.584 E27.3437
G1 X154.734 Y151.101 E27.36339
G1 X155.181 Y151.495 E27.3832
G1 X155.731 Y151.714 E27.40289
G1 X156.322 Y151.74 E27.42257
G1 X156.89 Y151.566 E27.44233
G1 F2700 E22.44233
G0 F6000 X156.763 Y151.312
G0 X155.848 Y151.168
G0 X155.475 Y151.019
G0 X154.548 Y150
G0 X156.024 Y150
G0 X143.978 Y150
G0 X145.438 Y150.166
G0 X145.241 Y150.606
G0 X145.499 Y150.724
G1 F2700 E27.44233
G1 F1200 X145.637 Y150.191 E27.46064
G1 X145.637 Y149.809 E27.47335
G1 X145.499 Y149.276 E27.49166
G1 X145.166 Y148.787 E27.51134
G1 X144.69 Y148.434 E27.53105
G1 X144.122 Y148.26 E27.5508
G1 X143.531 Y148.286 E27.57048
G1 X142.981 Y148.505 E27.59017
G1 X142.534 Y148.899 E27.60999
G1 X142.246 Y149.416 E27.62967
G1 X142.145 Y150 E27.64938
G1 X142.246 Y150.584 E27.6691
G1 X142.534 Y151.101 E27.68878
G1 X142.981 Y151.495 E27.7086
G1 X143.531 Y151.714 E27.72829
G1 X144.122 Y151.74 E27.74796
G1 X144.69 Y151.566 E27.76772
G1 X145.166 Y151.213 E27.78743
G1 X145.499 Y150.724 E27.80711
G1 F2700 E22.80711
G0 F6000 X145.241 Y150.606
G0 X143.573 Y151.517
G0 X143.882 Y150.074
G0 X143.573 Y163.165
G0 X143.573 Y161.69
G0 X138.722 Y161.79
G0 X138.722 Y161.349
G1 F2700 E27.80711
G1 F1200 X138.649 Y161.276 E27.81054
G0 F6000 X138.649 Y160.711
G1 F1200 X139.288 Y161.349 E27.84058
G0 F6000 X139.853 Y161.349
G1 F1200 X138.649 Y160.145 E27.89721
G0 F6000 X138.649 Y159.579
G1 F1200 X140.419 Y161.349 E27.98046
G0 F6000 X140.985 Y161.349
G1 F1200 X138.649 Y159.014 E28.09032
G0 F6000 X138.649 Y158.448
G1 F1200 X141.55 Y161.349 E28.22677
G0 F6000 X142.116 Y161.349
G1 F1200 X138.649 Y157.882 E28.38985
G0 F6000 X138.649 Y157.317
G1 F1200 X142.682 Y161.349 E28.57953
G0 F6000 X143.247 Y161.349
G1 F1200 X138.649 Y156.751 E28.7958
G0 F6000 X138.649 Y156.185
G1 F1200 X143.813 Y161.349 E29.0387
G0 F6000 X144.379 Y161.349
G1 F1200 X138.649 Y155.62 E29.3082
G0 F6000 X138.649 Y155.054
G1 F1200 X144.944 Y161.349 E29.6043
G0 F6000 X145.51 Y161.349
G1 F1200 X138.649 Y154.488 E29.92702
G0 F6000 X138.649 Y153.923
G1 F1200 X146.076 Y161.349 E30.27634
G0 F6000 X146.641 Y161.349
G1 F1200 X138.649 Y153.357 E30.65226
G0 F6000 X138.649 Y152.791
G1 F1200 X147.207 Y161.349 E31.0548
G0 F6000 X147.773 Y161.349
G1 F1200 X138.649 Y152.225 E31.48396
G0 F6000 X138.649 Y151.66
G1 F1200 X148.338 Y161.349 E31.9397
G0 F6000 X148.904 Y161.349
G1 F1200 X138.649 Y151.094 E32.42207
G0 F6000 X138.649 Y150.528
G1 F1200 X149.47 Y161.349 E32.93105
G0 F6000 X150.036 Y161.349
G1 F1200 X138.649 Y149.963 E33.46664
G0 F6000 X138.649 Y149.397
G1 F1200 X150.601 Y161.349 E34.02883
G0 F6000 X151.167 Y161.349
G1 F1200 X138.649 Y148.831 E34.61763
G0 F6000 X138.649 Y148.266
G1 F1200 X151.733 Y161.349 E35.23304
G0 F6000 X152.298 Y161.349
G1 F1200 X138.649 Y147.7 E35.87505
G0 F6000 X138.649 Y147.134
G1 F1200 X142.081 Y150.566 E36.03648
G0 F6000 X141.996 Y149.916
G1 F1200 X138.649 Y146.569 E36.19391
G0 F6000 X138.649 Y146.003
G1 F1200 X142.08 Y149.434 E36.3553
G0 F6000 X142.265 Y149.053
G1 F1200 X138.649 Y145.437 E36.52538
G0 F6000 X138.649 Y144.872
G1 F1200 X142.496 Y148.718 E36.70631
G0 F6000 X142.796 Y148.453
G1 F1200 X138.649 Y144.306 E36.90137
G0 F6000 X138.649 Y143.74
G1 F1200 X143.167 Y148.258 E37.11388
G0 F6000 X143.597 Y148.122
G1 F1200 X138.649 Y143.174 E37.34662
G0 F6000 X138.649 Y142.609
G1 F1200 X144.138 Y148.098 E37.60481
G0 F6000 X144.087 Y148.54
G0 X144.963 Y148.982
G0 X145.27 Y148.664
