; HEADER_BLOCK_START
; generated by OrcaSlicer 2.1.1 on 2025-01-04 at 16:05:09
; total layer number: 37
; filament_density: 1.27
; filament_diameter: 1.75
; max_z_height: 3.08
; HEADER_BLOCK_END

; THUMBNAIL_BLOCK_START

;
; THUMBNAIL_BLOCK_END







; external perimeters extrusion width = 0.40mm
; perimeters extrusion width = 0.45mm
; infill extrusion width = 0.45mm
; solid infill extrusion width = 0.45mm
; top infill extrusion width = 0.38mm
; first layer extrusion width = 0.42mm

; EXECUTABLE_BLOCK_START
EXCLUDE_OBJECT_DEFINE NAME=芯片舱_-_顶盖.STL_id_0_copy_0 CENTER=117.5,113.444 POLYGON=[[67.5,73.9438],[167.5,73.9438],[167.5,152.944],[67.5,152.944],[67.5,73.9438]]
M73 P0 R54
;TYPE:Custom
;ELEGOO NEPTUNE 4 PRO
M220 S100 ;Set the feed speed to 100%
M221 S100 ;Set the flow rate to 100%
M104 S140
M190 S70
G90
G28 ;home
G1 Z10 F300
G1 X67.5 Y0 F6000
G1 Z0 F300
M109 S240
G92 E0 ;Reset Extruder
G1 X67.5 Y0 Z0.4 F300 ;Move to start position
G1 X167.5 E30 F400 ;Draw the first line
G1 Z0.6 F120.0 ;Move to side a little
M73 P0 R53
G1 X162.5 F3000
G92 E0 ;Reset Extruder
G90
G21
M83 ; use relative distances for extrusion
; filament start gcode
M106 S0
;LAYER_CHANGE
;Z:0.2
;HEIGHT:0.2
;BEFORE_LAYER_CHANGE
G92 E0
;0.2


G1 E-.8 F3600
;AFTER_LAYER_CHANGE
;0.2
;_SET_FAN_SPEED_CHANGING_LAYER
SET_VELOCITY_LIMIT ACCEL=1000 ACCEL_TO_DECEL=500
SET_VELOCITY_LIMIT SQUARE_CORNER_VELOCITY=7
; printing object 芯片舱 - 顶盖.STL id:0 copy 0
EXCLUDE_OBJECT_START NAME=芯片舱_-_顶盖.STL_id_0_copy_0
G1 X164.902 Y128.465 F21000
G1 Z.4
G1 Z.2
G1 E.8 F2700
;TYPE:Inner wall
;WIDTH:0.419999
G1 F3000
G1 X165.048 Y128.609 E.00611
G1 X165.432 Y128.802 E.01282
G1 X165.988 Y128.901 E.0168
G1 X166.437 Y128.835 E.01354
G1 X166.436 Y151.88 E.68642
G1 X68.564 Y151.88 E2.91526
G1 X68.564 Y75.008 E2.28974
G1 X166.436 Y75.008 E2.91526
G1 X166.438 Y98.05 E.68635
G1 X166.125 Y97.992 E.00949
G1 X165.568 Y98.043 E.01664
G1 X165.056 Y98.28 E.01682
G1 X164.776 Y98.516 E.0109
G1 X164.621 Y98.734 E.00797
G1 X164.402 Y99.188 E.01503
G1 X164.342 Y99.696 E.01521
G1 X164.384 Y100.018 E.00969
G1 X164.567 Y100.487 E.01499
G1 X164.892 Y100.869 E.01493
G1 X165.211 Y101.102 E.01178
G1 X165.745 Y101.282 E.01678
G1 X166.244 Y101.286 E.01487
G1 X166.44 Y101.225 E.00612
G1 X166.44 Y125.671 E.72815
G1 X165.964 Y125.595 E.01436
G1 X165.568 Y125.643 E.01188
G1 X165.056 Y125.88 E.01682
G1 X164.821 Y126.072 E.00903
G1 X164.616 Y126.343 E.01014
G1 X164.378 Y126.871 E.01725
G1 X164.341 Y127.345 E.01417
G1 X164.409 Y127.688 E.01041
G1 X164.645 Y128.21 E.01705
G1 X164.873 Y128.436 E.00959
G1 X165.152 Y128.192 F21000
G1 F3000
G1 X165.205 Y128.251 E.00235
G1 X165.587 Y128.458 E.01295
G1 X166.017 Y128.525 E.01297
G1 X166.446 Y128.442 E.01301
G1 X166.823 Y128.189 E.01353
G1 X166.813 Y152.257 E.71689
G1 X68.187 Y152.257 E2.93772
G1 X68.187 Y74.631 E2.3122
G1 X166.813 Y74.631 E2.93772
M73 P1 R53
G1 X166.824 Y98.698 E.71686
G1 X166.551 Y98.493 E.01016
G1 X166.123 Y98.369 E.01328
G1 X165.692 Y98.399 E.01286
G1 X165.293 Y98.573 E.01299
G1 X165.013 Y98.818 E.01108
G1 X164.764 Y99.294 E.016
G1 X164.718 Y99.736 E.01324
G1 X164.845 Y100.211 E.01463
G1 X165.174 Y100.618 E.01559
G1 X165.365 Y100.758 E.00707
G1 X165.774 Y100.906 E.01295
G1 X166.171 Y100.916 E.01182
G1 X166.601 Y100.76 E.01364
G1 X166.83 Y100.596 E.00838
G1 X166.813 Y101.444 E.02525
G1 X166.813 Y124.423 E.68447
G1 X166.831 Y126.297 E.05582
G1 X166.572 Y126.109 E.00951
G1 X166.292 Y126.003 E.00894
G1 X165.93 Y125.97 E.01082
G1 X165.692 Y125.999 E.00713
G1 X165.462 Y126.079 E.00726
G1 X165.103 Y126.327 E.01299
G1 X164.953 Y126.513 E.00712
G1 X164.735 Y127.004 E.01599
G1 X164.732 Y127.462 E.01365
G1 X164.919 Y127.936 E.01518
G1 X165.125 Y128.163 E.00911
G1 E-.68 F3600
;WIPE_START
G1 F3000
G1 X165.205 Y128.251 E-.01426
G1 X165.587 Y128.458 E-.05219
G1 X166.017 Y128.525 E-.05225
G1 X166.028 Y128.523 E-.0013
;WIPE_END
G1 X158.615 Y130.342 Z.6 F21000
G1 X67.81 Y152.634 Z.6
G1 Z.2
G1 E.8 F2700
;TYPE:Outer wall
G1 F3000
G1 X67.81 Y74.254 E2.33467
G1 X167.19 Y74.254 E2.96019
G1 X167.192 Y98.312 E.7166
G1 X167.229 Y99.539 E.03657
;WIDTH:0.427893
G1 X167.201 Y100.924 E.04212
;WIDTH:0.419999
G1 X167.201 Y125.969 E.74602
;WIDTH:0.423292
G1 X167.216 Y126.776 E.02424
;WIDTH:0.424487
G1 X167.204 Y127.94 E.0351
;WIDTH:0.419999
G1 X167.19 Y128.941 E.02981
G1 X167.19 Y152.634 E.70572
G1 X67.85 Y152.634 E2.95899
G1 E-.68 F3600
;WIPE_START
G1 F3000
G1 X67.849 Y151.634 E-.12
;WIPE_END
G1 X75.266 Y149.833 Z.6 F21000
G1 X165.428 Y127.939 Z.6
G1 Z.2
G1 E.8 F2700
G1 F3000
G1 X165.245 Y127.744 E.00794
G1 X165.095 Y127.346 E.01267
G1 X165.126 Y127.008 E.01012
G1 X165.34 Y126.62 E.01319
G1 X165.586 Y126.435 E.00917
G1 X165.895 Y126.346 E.0096
G1 X166.351 Y126.414 E.01371
G1 X166.694 Y126.685 E.01302
;WIDTH:0.426291
G1 X166.835 Y126.975 E.00977
;WIDTH:0.426929
G1 X166.844 Y127.485 E.01549
G1 X166.69 Y127.807 E.01083
;WIDTH:0.419999
G1 X166.345 Y128.078 E.01306
G1 X166.047 Y128.149 E.00915
G1 X165.741 Y128.114 E.00916
G1 X165.465 Y127.978 E.00916
G1 X165.455 Y127.968 E.00043
G1 E-.68 F3600
;WIPE_START
G1 F3000
G1 X165.245 Y127.744 E-.0368
G1 X165.095 Y127.346 E-.05104
G1 X165.119 Y127.079 E-.03216
;WIPE_END
G1 X160.912 Y120.711 Z.6 F21000
G1 X157.824 Y116.035 Z.6
G1 Z.2
G1 E.8 F2700
;TYPE:Inner wall
G1 F3000
G1 X158.012 Y116.09 E.00585
G1 X158.335 Y116.253 E.01077
G1 X158.687 Y116.624 E.01524
G1 X158.873 Y117.096 E.01511
G1 X158.914 Y117.374 E.00836
G1 X158.86 Y117.784 E.01233
G1 X158.63 Y118.228 E.01488
G1 X158.355 Y118.516 E.01188
G1 X157.996 Y118.717 E.01226
G1 X157.526 Y118.807 E.01425
G1 X157.059 Y118.736 E.01407
G1 X156.597 Y118.481 E.0157
G1 X156.3 Y118.138 E.01351
G1 X156.13 Y117.73 E.01318
G1 X156.09 Y117.414 E.00949
G1 X156.147 Y116.986 E.01284
G1 X156.34 Y116.586 E.01323
G1 X156.663 Y116.254 E.01381
G1 X157.208 Y116.01 E.01777
G1 X157.667 Y115.99 E.01368
G1 X157.785 Y116.024 E.00368
G1 X157.607 Y116.377 F21000
G1 F3000
G1 X157.706 Y116.377 E.00296
G1 X158.12 Y116.562 E.01349
G1 X158.373 Y116.833 E.01103
G1 X158.53 Y117.285 E.01426
G1 X158.496 Y117.683 E.0119
G1 X158.246 Y118.114 E.01486
G1 X157.943 Y118.332 E.01111
G1 X157.531 Y118.43 E.0126
G1 X157.146 Y118.365 E.01165
G1 X156.76 Y118.121 E.01359
G1 X156.543 Y117.789 E.01182
G1 X156.467 Y117.43 E.01093
G1 X156.504 Y117.11 E.0096
G1 X156.673 Y116.773 E.01124
G1 X156.879 Y116.563 E.00874
G1 X157.293 Y116.377 E.0135
G1 X157.567 Y116.377 E.00817
G1 X157.609 Y116.753 F21000
;TYPE:Outer wall
G1 F3000
G1 X157.656 Y116.757 E.0014
G1 X157.962 Y116.929 E.01047
G1 X158.082 Y117.09 E.00596
G1 X158.159 Y117.398 E.00945
G1 X158.112 Y117.63 E.00705
G1 X157.932 Y117.891 E.00945
G1 X157.742 Y118.006 E.00663
G1 X157.524 Y118.052 E.00663
G1 X157.29 Y118.016 E.00705
G1 X157.022 Y117.847 E.00945
G1 X156.898 Y117.662 E.00663
G1 X156.843 Y117.446 E.00663
G1 X156.86 Y117.233 E.00636
G1 X156.956 Y117.022 E.00691
G1 X157.163 Y116.838 E.00824
G1 X157.42 Y116.74 E.00819
G1 X157.569 Y116.75 E.00445
G1 E-.68 F3600
;WIPE_START
G1 F3000
G1 X157.656 Y116.757 E-.01045
G1 X157.962 Y116.929 E-.04219
G1 X158.082 Y117.09 E-.024
G1 X158.159 Y117.398 E-.03806
G1 X158.15 Y117.441 E-.0053
;WIPE_END
G1 X157.515 Y110.888 Z.6 F21000
G1 Z.2
G1 E.8 F2700
;TYPE:Inner wall
G1 F3000
G1 X157.179 Y110.871 E.01002
G1 X156.838 Y110.74 E.01088
G1 X156.583 Y110.566 E.00919
G1 X156.296 Y110.231 E.01315
G1 X156.112 Y109.759 E.01507
G1 X156.089 Y109.56 E.00597
G1 X156.143 Y109.099 E.01384
G1 X156.347 Y108.677 E.01396
G1 X156.659 Y108.357 E.01333
G1 X157.131 Y108.131 E.01558
G1 X157.42 Y108.086 E.00871
G1 X157.839 Y108.122 E.01253
G1 X158.326 Y108.347 E.01597
G1 X158.609 Y108.623 E.01177
G1 X158.802 Y108.968 E.01179
G1 X158.914 Y109.459 E.01501
G1 X158.852 Y109.91 E.01355
G1 X158.655 Y110.311 E.01331
G1 X158.31 Y110.654 E.01449
G1 X157.997 Y110.814 E.01049
G1 X157.621 Y110.893 E.01142
G1 X157.555 Y110.89 E.00199
G1 X157.542 Y110.511 F21000
G1 F3000
G1 X157.26 Y110.503 E.00842
G1 X156.908 Y110.346 E.01148
G1 X156.626 Y110.048 E.01221
G1 X156.468 Y109.597 E.01424
G1 X156.514 Y109.183 E.0124
G1 X156.673 Y108.873 E.01041
G1 X156.939 Y108.627 E.01077
G1 X157.355 Y108.467 E.01328
G1 X157.735 Y108.485 E.01134
G1 X158.147 Y108.682 E.01359
G1 X158.412 Y109.002 E.01239
G1 X158.537 Y109.474 E.01453
G1 X158.492 Y109.799 E.00978
G1 X158.296 Y110.158 E.01219
G1 X157.997 Y110.4 E.01145
G1 X157.666 Y110.514 E.01044
G1 X157.582 Y110.512 E.00249
G1 X157.551 Y110.138 F21000
;TYPE:Outer wall
G1 F3000
G1 X157.303 Y110.123 E.00738
G1 X157.105 Y110.021 E.00663
G1 X156.946 Y109.846 E.00705
G1 X156.843 Y109.555 E.00919
G1 X156.864 Y109.324 E.00691
G1 X156.956 Y109.122 E.00663
G1 X157.125 Y108.955 E.00705
G1 X157.42 Y108.84 E.00945
G1 X157.656 Y108.857 E.00705
G1 X157.938 Y109.002 E.00945
G1 X158.082 Y109.19 E.00705
G1 X158.159 Y109.498 E.00945
G1 X158.12 Y109.717 E.00663
G1 X158.01 Y109.911 E.00663
G1 X157.842 Y110.057 E.00663
G1 X157.59 Y110.134 E.00785
G1 E-.68 F3600
;WIPE_START
G1 F3000
G1 X157.303 Y110.123 E-.03441
G1 X157.105 Y110.021 E-.02672
G1 X156.946 Y109.846 E-.02839
G1 X156.861 Y109.606 E-.03048
;WIPE_END
G1 X162.178 Y104.13 Z.6 F21000
G1 X165.705 Y100.496 Z.6
G1 Z.2
G1 E.8 F2700
G1 F3000
G1 X165.456 Y100.368 E.00836
G1 X165.179 Y100.031 E.01297
G1 X165.095 Y99.728 E.00938
G1 X165.126 Y99.408 E.00957
G1 X165.34 Y99.02 E.01319
G1 X165.586 Y98.835 E.00917
G1 X165.879 Y98.745 E.00914
G1 X166.188 Y98.758 E.00919
G1 X166.448 Y98.861 E.00834
;WIDTH:0.422497
G1 X166.783 Y99.224 E.01481
G1 X166.853 Y99.519 E.0091
;WIDTH:0.436684
G1 X166.82 Y99.996 E.01486
G1 X166.544 Y100.352 E.01402
;WIDTH:0.419999
G1 X166.098 Y100.546 E.01449
G1 X165.741 Y100.514 E.01067
G1 X165.741 Y100.514 E0
G1 E-.68 F3600
;WIPE_START
G1 F3000
G1 X165.456 Y100.368 E-.03848
G1 X165.179 Y100.031 E-.05226
G1 X165.114 Y99.796 E-.02926
;WIPE_END
G1 X165.426 Y107.422 Z.6 F21000
G1 X166.323 Y129.372 Z.6
G1 Z.2
G1 E.8 F2700
;TYPE:Bottom surface
;WIDTH:0.421127
G1 F4800
G1 X165.963 Y129.012 E.01521
G1 E-.68 F3600
;WIPE_START
G1 F4800
G1 X166.323 Y129.372 E-.12
;WIPE_END
G1 X166.323 Y121.74 Z.6 F21000
G1 X166.323 Y102.094 Z.6
G1 Z.2
G1 E.8 F2700
G1 F4800
G1 X165.583 Y101.354 E.03126
G1 E-.68 F3600
;WIPE_START
G1 F4800
G1 X166.29 Y102.061 E-.12
;WIPE_END
G1 X166.3 Y94.429 Z.6 F21000
G1 X166.323 Y75.886 Z.6
G1 Z.2
G1 E.8 F2700
G1 F4800
G1 X165.728 Y75.291 E.02514
G1 X165.193 Y75.291 E.01598
G1 X166.153 Y76.251 E.04057
G1 X166.153 Y76.786 E.01598
G1 X164.658 Y75.291 E.06317
G1 X164.123 Y75.291 E.01598
G1 X166.153 Y77.321 E.08577
G1 X166.153 Y77.856 E.01598
G1 X163.588 Y75.291 E.10837
G1 X163.054 Y75.291 E.01598
G1 X166.153 Y78.391 E.13097
G1 X166.153 Y78.926 E.01598
G1 X162.519 Y75.291 E.15357
G1 X161.984 Y75.291 E.01598
G1 X166.154 Y79.461 E.17617
G1 X166.154 Y79.995 E.01598
G1 X161.449 Y75.291 E.19877
G1 X160.914 Y75.291 E.01598
G1 X166.154 Y80.53 E.22137
G1 X166.154 Y81.065 E.01598
G1 X160.379 Y75.291 E.24398
G1 X159.844 Y75.291 E.01598
G1 X166.154 Y81.6 E.26658
G1 X166.154 Y82.135 E.01598
G1 X159.309 Y75.291 E.28918
G1 X158.775 Y75.291 E.01598
G1 X166.154 Y82.67 E.31178
G1 X166.154 Y83.205 E.01598
G1 X158.24 Y75.291 E.33438
G1 X157.705 Y75.291 E.01598
G1 X166.154 Y83.74 E.35698
G1 X166.154 Y84.275 E.01598
G1 X157.17 Y75.291 E.37958
G1 X156.635 Y75.291 E.01598
G1 X166.154 Y84.81 E.40218
G1 X166.154 Y85.345 E.01598
G1 X156.1 Y75.291 E.42478
G1 X155.565 Y75.291 E.01598
G1 X166.154 Y85.879 E.44738
G1 X166.154 Y86.414 E.01598
G1 X155.031 Y75.291 E.46998
G1 X154.496 Y75.291 E.01598
G1 X166.154 Y86.949 E.49258
G1 X166.154 Y87.484 E.01598
G1 X153.961 Y75.291 E.51518
G1 X153.426 Y75.291 E.01598
G1 X166.154 Y88.019 E.53778
G1 X166.154 Y88.554 E.01598
G1 X152.891 Y75.291 E.56038
G1 X152.356 Y75.291 E.01598
G1 X166.154 Y89.089 E.58298
G1 X166.154 Y89.624 E.01598
G1 X151.821 Y75.291 E.60558
G1 X151.286 Y75.291 E.01598
G1 X166.154 Y90.159 E.62818
G1 X166.155 Y90.694 E.01598
G1 X150.752 Y75.291 E.65078
G1 X150.217 Y75.291 E.01598
G1 X166.155 Y91.229 E.67338
G1 X166.155 Y91.764 E.01598
G1 X149.682 Y75.291 E.69598
G1 X149.147 Y75.291 E.01598
G1 X166.155 Y92.298 E.71858
G1 X166.155 Y92.833 E.01598
G1 X148.612 Y75.291 E.74118
G1 X148.077 Y75.291 E.01598
G1 X166.155 Y93.368 E.76378
G1 X166.155 Y93.903 E.01598
G1 X147.542 Y75.291 E.78638
G1 X147.008 Y75.291 E.01598
G1 X166.155 Y94.438 E.80899
G1 X166.155 Y94.973 E.01598
G1 X146.473 Y75.291 E.83159
G1 X145.938 Y75.291 E.01598
G1 X166.155 Y95.508 E.85419
G1 X166.155 Y96.043 E.01598
G1 X145.403 Y75.291 E.87679
G1 X144.868 Y75.291 E.01598
G1 X166.155 Y96.578 E.89939
G1 X166.155 Y97.113 E.01598
G1 X144.333 Y75.291 E.92199
G1 X143.798 Y75.291 E.01598
G1 X166.155 Y97.648 E.94459
G1 X166.155 Y97.709 E.00184
G1 X165.876 Y97.708 E.00834
G1 X165.708 Y97.736 E.00508
G1 X143.263 Y75.291 E.94831
G1 X142.729 Y75.291 E.01598
G1 X165.281 Y97.843 E.95286
G1 X164.932 Y98.029 E.01182
G1 X142.194 Y75.291 E.96069
G1 X141.659 Y75.291 E.01598
G1 X164.632 Y98.264 E.97064
G1 X164.437 Y98.488 E.00886
G1 X164.398 Y98.564 E.00258
M73 P2 R53
G1 X141.124 Y75.291 E.98332
G1 X140.589 Y75.291 E.01598
G1 X164.215 Y98.917 E.99821
G1 X164.169 Y99.005 E.00299
G1 X164.082 Y99.318 E.00971
G1 X140.054 Y75.291 E1.01518
G1 X139.519 Y75.291 E.01598
G1 X164.279 Y100.051 E1.04612
G1 E-.68 F3600
;WIPE_START
G1 F4800
G1 X163.572 Y99.344 E-.12
;WIPE_END
G1 X166.323 Y102.629 Z.6 F21000
G1 Z.2
G1 E.8 F2700
G1 F4800
G1 X138.985 Y75.291 E1.15506
G1 X138.45 Y75.291 E.01598
G1 X166.153 Y102.994 E1.17049
G1 X166.153 Y103.529 E.01598
G1 X137.915 Y75.291 E1.19308
G1 X137.38 Y75.291 E.01598
G1 X166.153 Y104.064 E1.21568
G1 X166.153 Y104.599 E.01598
G1 X136.845 Y75.291 E1.23828
G1 X136.31 Y75.291 E.01598
G1 X166.153 Y105.134 E1.26088
G1 X166.153 Y105.669 E.01598
G1 X135.775 Y75.291 E1.28348
G1 X135.241 Y75.291 E.01598
M73 P2 R52
G1 X166.153 Y106.203 E1.30608
G1 X166.153 Y106.738 E.01598
G1 X134.706 Y75.291 E1.32867
G1 X134.171 Y75.291 E.01598
G1 X166.153 Y107.273 E1.35127
G1 X166.153 Y107.808 E.01598
G1 X133.636 Y75.291 E1.37387
G1 X133.101 Y75.291 E.01598
G1 X166.153 Y108.343 E1.39647
G1 X166.153 Y108.878 E.01598
G1 X132.566 Y75.291 E1.41907
G1 X132.031 Y75.291 E.01598
G1 X166.153 Y109.413 E1.44167
G1 X166.153 Y109.947 E.01598
G1 X131.496 Y75.291 E1.46426
G1 X130.962 Y75.291 E.01598
G1 X166.153 Y110.482 E1.48686
G1 X166.153 Y111.017 E.01598
G1 X130.427 Y75.291 E1.50946
G1 X129.892 Y75.291 E.01598
G1 X166.153 Y111.552 E1.53206
G1 X166.153 Y112.087 E.01598
G1 X129.357 Y75.291 E1.55466
G1 X128.822 Y75.291 E.01598
G1 X166.153 Y112.622 E1.57726
G1 X166.153 Y113.157 E.01598
G1 X128.287 Y75.291 E1.59985
G1 X127.752 Y75.291 E.01598
G1 X166.153 Y113.692 E1.62245
G1 X166.153 Y114.226 E.01598
G1 X127.218 Y75.291 E1.64505
G1 X126.683 Y75.291 E.01598
G1 X166.153 Y114.761 E1.66765
G1 X166.153 Y115.296 E.01598
G1 X126.148 Y75.291 E1.69025
G1 X125.613 Y75.291 E.01598
G1 X166.153 Y115.831 E1.71285
G1 X166.153 Y116.366 E.01598
G1 X159.185 Y109.397 E.29442
G1 X159.188 Y109.625 E.0068
G1 X159.142 Y109.889 E.00802
G1 X166.153 Y116.901 E.29624
G1 X166.153 Y117.436 E.01598
G1 X158.995 Y110.277 E.30245
G1 X158.888 Y110.471 E.00662
G1 X158.782 Y110.6 E.00497
G1 X166.153 Y117.97 E.31142
G1 X166.153 Y118.505 E.01598
G1 X158.505 Y110.857 E.32314
G1 X158.161 Y111.048 E.01176
G1 X166.153 Y119.04 E.33769
G1 X166.153 Y119.575 E.01598
G1 X157.582 Y111.004 E.36213
G1 E-.68 F3600
;WIPE_START
G1 F4800
G1 X158.289 Y111.711 E-.12
;WIPE_END
G1 X157.784 Y107.996 Z.6 F21000
G1 Z.2
G1 E.8 F2700
G1 F4800
G1 X125.078 Y75.291 E1.38183
G1 X124.543 Y75.291 E.01598
G1 X157.101 Y107.848 E1.37556
G1 X156.72 Y108.003 E.01226
G1 X124.008 Y75.291 E1.38209
G1 X123.473 Y75.291 E.01598
G1 X156.393 Y108.211 E1.39089
G1 X156.14 Y108.492 E.01131
G1 X122.939 Y75.291 E1.40276
G1 X122.404 Y75.291 E.01598
G1 X155.948 Y108.835 E1.41726
G1 X155.863 Y109.046 E.0068
G1 X155.824 Y109.246 E.00609
G1 X121.869 Y75.291 E1.43464
G1 X121.334 Y75.291 E.01598
G1 X155.84 Y109.796 E1.45788
G1 X155.882 Y109.98 E.00563
G1 X156.082 Y110.426 E.01461
G1 X156.243 Y110.631 E.00779
G1 X156.526 Y110.885 E.01134
G1 X156.888 Y111.073 E.01221
G1 X157.118 Y111.148 E.00723
G1 X157.2 Y111.157 E.00246
G1 X166.153 Y120.11 E.37826
