; HEADER_BLOCK_START
; generated by OrcaSlicer 2.1.1 on 2024-12-29 at 09:17:22
; total layer number: 116
; filament_density: 1.27
; filament_diameter: 1.75
; max_z_height: 9.40
; HEADER_BLOCK_END

; THUMBNAIL_BLOCK_START

;
; THUMBNAIL_BLOCK_END







; external perimeters extrusion width = 0.40mm
; perimeters extrusion width = 0.45mm
; infill extrusion width = 0.45mm
; solid infill extrusion width = 0.45mm
; top infill extrusion width = 0.38mm
; first layer extrusion width = 0.42mm

; EXECUTABLE_BLOCK_START
EXCLUDE_OBJECT_DEFINE NAME=转台_-_旋转底圈.STL_id_0_copy_0 CENTER=117.5,117.7 POLYGON=[[82.2117,116.791],[82.4922,113.168],[83.1438,109.592],[84.1595,106.102],[85.5287,102.736],[87.2368,99.5278],[89.2657,96.5125],[91.5938,93.7217],[94.1966,91.1851],[97.0464,88.9295],[100.113,86.9789],[103.364,85.354],[106.765,84.072],[110.279,83.1464],[113.87,82.5871],[117.5,82.4],[121.13,82.5871],[124.721,83.1464],[128.235,84.072],[131.636,85.354],[134.887,86.9789],[137.954,88.9295],[140.803,91.1851],[143.406,93.7217],[145.734,96.5125],[147.763,99.5278],[149.471,102.736],[150.84,106.102],[151.856,109.592],[152.508,113.168],[152.788,116.791],[152.695,120.424],[152.228,124.029],[151.393,127.566],[150.199,130.999],[148.659,134.29],[146.788,137.406],[144.606,140.313],[142.137,142.98],[139.408,145.379],[136.445,147.485],[133.282,149.275],[129.952,150.731],[126.49,151.836],[122.932,152.58],[119.317,152.953],[117.5,153],[115.683,152.953],[112.068,152.58],[108.51,151.836],[105.048,150.731],[101.718,149.275],[98.5546,147.485],[95.5925,145.379],[92.8626,142.98],[90.3938,140.313],[88.2124,137.406],[86.3414,134.29],[84.8008,130.999],[83.6067,127.566],[82.7719,124.029],[82.3053,120.424],[82.2117,116.791]]
M73 P0 R36
;TYPE:Custom
;ELEGOO NEPTUNE 4 PRO
M220 S100 ;Set the feed speed to 100%
M221 S100 ;Set the flow rate to 100%
M104 S140
M190 S70
G90
G28 ;home
G1 Z10 F300
G1 X67.5 Y0 F6000
G1 Z0 F300
M109 S240
G92 E0 ;Reset Extruder
G1 X67.5 Y0 Z0.4 F300 ;Move to start position
G1 X167.5 E30 F400 ;Draw the first line
G1 Z0.6 F120.0 ;Move to side a little
G1 X162.5 F3000
G92 E0 ;Reset Extruder
G90
G21
M83 ; use relative distances for extrusion
; filament start gcode
M106 S0
;LAYER_CHANGE
;Z:0.2
;HEIGHT:0.2
;BEFORE_LAYER_CHANGE
G92 E0
;0.2


G1 E-.8 F3600
;AFTER_LAYER_CHANGE
;0.2
;_SET_FAN_SPEED_CHANGING_LAYER
SET_VELOCITY_LIMIT ACCEL=1000 ACCEL_TO_DECEL=500
SET_VELOCITY_LIMIT SQUARE_CORNER_VELOCITY=7
; printing object 转台 - 旋转底圈.STL id:0 copy 0
EXCLUDE_OBJECT_START NAME=转台_-_旋转底圈.STL_id_0_copy_0
G1 X87.157 Y133.521 F21000
G1 Z.4
G1 Z.2
G1 E.8 F2700
;TYPE:Inner wall
;WIDTH:0.419999
G1 F3000
G1 X85.788 Y130.597 E.09617
G1 X84.63 Y127.268 E.10499
G1 X83.82 Y123.838 E.10499
G1 X83.368 Y120.342 E.10499
G1 X83.277 Y116.819 E.10499
G1 X83.549 Y113.304 E.10499
G1 X84.181 Y109.837 E.10499
G1 X85.166 Y106.453 E.10499
G1 X86.494 Y103.188 E.10499
G1 X88.15 Y100.076 E.10499
G1 X90.118 Y97.152 E.10499
G1 X92.376 Y94.445 E.10499
G1 X94.9 Y91.985 E.10499
G1 X97.664 Y89.798 E.10499
G1 X100.638 Y87.906 E.10499
G1 X103.791 Y86.33 E.10499
G1 X107.089 Y85.087 E.10499
G1 X110.497 Y84.189 E.10499
M73 P1 R36
G1 X113.98 Y83.647 E.10499
G1 X117.5 Y83.466 E.10499
G1 X121.02 Y83.647 E.10499
G1 X124.503 Y84.189 E.10499
G1 X127.911 Y85.087 E.10499
G1 X131.209 Y86.33 E.10499
G1 X134.362 Y87.906 E.10499
G1 X137.336 Y89.798 E.10499
G1 X140.1 Y91.985 E.10499
G1 X142.624 Y94.445 E.10499
G1 X144.882 Y97.152 E.10499
G1 X146.85 Y100.076 E.10499
G1 X148.506 Y103.188 E.10499
G1 X149.834 Y106.453 E.10499
G1 X150.819 Y109.837 E.10499
G1 X151.451 Y113.304 E.10499
G1 X151.723 Y116.819 E.10499
G1 X151.632 Y120.342 E.10499
G1 X151.18 Y123.838 E.10499
G1 X150.37 Y127.268 E.10499
G1 X149.212 Y130.597 E.10499
G1 X147.718 Y133.789 E.10499
G1 X145.904 Y136.811 E.10499
G1 X143.788 Y139.63 E.10499
G1 X141.394 Y142.217 E.10499
G1 X138.746 Y144.544 E.10499
G1 X135.874 Y146.586 E.10499
G1 X132.806 Y148.322 E.10499
G1 X129.576 Y149.734 E.10499
G1 X126.219 Y150.806 E.10499
G1 X122.768 Y151.527 E.10499
G1 X119.262 Y151.889 E.10499
G1 X115.738 Y151.889 E.10499
G1 X112.232 Y151.527 E.10499
G1 X108.781 Y150.806 E.10499
G1 X105.424 Y149.734 E.10499
G1 X102.194 Y148.322 E.10499
G1 X99.127 Y146.586 E.10499
G1 X96.254 Y144.544 E.10499
G1 X93.606 Y142.217 E.10499
G1 X91.212 Y139.63 E.10499
G1 X89.096 Y136.811 E.10499
G1 X87.282 Y133.789 E.10499
G1 X87.174 Y133.558 E.00762
G1 X86.815 Y133.681 F21000
G1 F3000
G1 X85.438 Y130.739 E.09675
G1 X84.267 Y127.374 E.10615
G1 X83.449 Y123.905 E.10615
G1 X82.991 Y120.371 E.10615
G1 X82.899 Y116.809 E.10615
G1 X83.174 Y113.256 E.10615
G1 X83.813 Y109.75 E.10615
G1 X84.809 Y106.329 E.10615
G1 X86.152 Y103.027 E.10615
G1 X87.827 Y99.882 E.10615
G1 X89.816 Y96.925 E.10615
G1 X92.099 Y94.189 E.10615
G1 X94.651 Y91.702 E.10615
G1 X97.445 Y89.49 E.10615
G1 X100.452 Y87.578 E.10615
G1 X103.639 Y85.984 E.10615
G1 X106.974 Y84.727 E.10615
G1 X110.42 Y83.82 E.10615
G1 X113.941 Y83.271 E.10615
G1 X117.5 Y83.088 E.10615
G1 X121.059 Y83.271 E.10615
G1 X124.58 Y83.82 E.10615
G1 X128.026 Y84.727 E.10615
G1 X131.361 Y85.984 E.10615
G1 X134.548 Y87.578 E.10615
G1 X137.555 Y89.49 E.10615
G1 X140.349 Y91.702 E.10615
G1 X142.901 Y94.189 E.10615
G1 X145.184 Y96.925 E.10615
G1 X147.173 Y99.882 E.10615
G1 X148.848 Y103.027 E.10615
G1 X150.191 Y106.329 E.10615
G1 X151.187 Y109.75 E.10615
G1 X151.826 Y113.256 E.10615
G1 X152.101 Y116.809 E.10615
G1 X152.009 Y120.371 E.10615
G1 X151.551 Y123.905 E.10615
G1 X150.733 Y127.374 E.10615
G1 X149.562 Y130.739 E.10615
G1 X148.051 Y133.967 E.10615
G1 X146.217 Y137.022 E.10615
G1 X144.078 Y139.872 E.10615
G1 X141.657 Y142.487 E.10615
G1 X138.981 Y144.84 E.10615
G1 X136.076 Y146.905 E.10615
G1 X132.975 Y148.66 E.10615
G1 X129.709 Y150.087 E.10615
G1 X126.315 Y151.171 E.10615
G1 X122.826 Y151.9 E.10615
G1 X119.282 Y152.266 E.10615
G1 X115.718 Y152.266 E.10615
G1 X112.174 Y151.9 E.10615
G1 X108.685 Y151.171 E.10615
G1 X105.291 Y150.087 E.10615
G1 X102.025 Y148.66 E.10615
G1 X98.924 Y146.905 E.10615
G1 X96.019 Y144.84 E.10615
G1 X93.343 Y142.487 E.10615
G1 X90.922 Y139.872 E.10615
G1 X88.783 Y137.022 E.10615
G1 X86.949 Y133.967 E.10615
G1 X86.832 Y133.717 E.0082
G1 X86.474 Y133.841 F21000
;TYPE:Outer wall
G1 F3000
G1 X85.088 Y130.882 E.09733
G1 X83.905 Y127.479 E.1073
G1 X83.077 Y123.973 E.1073
G1 X82.615 Y120.4 E.1073
G1 X82.522 Y116.799 E.1073
G1 X82.8 Y113.207 E.1073
G1 X83.446 Y109.663 E.1073
G1 X84.453 Y106.204 E.1073
G1 X85.81 Y102.867 E.1073
G1 X87.503 Y99.688 E.1073
G1 X89.514 Y96.699 E.1073
G1 X91.822 Y93.933 E.1073
G1 X94.402 Y91.418 E.1073
G1 X97.226 Y89.183 E.1073
G1 X100.266 Y87.249 E.1073
G1 X103.488 Y85.638 E.1073
G1 X106.859 Y84.368 E.1073
G1 X110.343 Y83.45 E.1073
G1 X113.902 Y82.896 E.1073
G1 X117.5 Y82.71 E.1073
G1 X121.098 Y82.896 E.1073
G1 X124.657 Y83.45 E.1073
G1 X128.141 Y84.368 E.1073
G1 X131.512 Y85.638 E.1073
G1 X134.734 Y87.249 E.1073
G1 X137.774 Y89.183 E.1073
G1 X140.598 Y91.418 E.1073
G1 X143.178 Y93.933 E.1073
G1 X145.486 Y96.699 E.10731
G1 X147.497 Y99.688 E.1073
G1 X149.19 Y102.867 E.1073
G1 X150.547 Y106.204 E.1073
G1 X151.554 Y109.663 E.1073
G1 X152.2 Y113.207 E.1073
G1 X152.478 Y116.799 E.1073
G1 X152.385 Y120.4 E.1073
G1 X151.923 Y123.973 E.1073
G1 X151.095 Y127.479 E.1073
G1 X149.912 Y130.882 E.1073
G1 X148.385 Y134.144 E.1073
G1 X146.53 Y137.233 E.1073
G1 X144.368 Y140.114 E.1073
G1 X141.921 Y142.758 E.1073
G1 X139.215 Y145.136 E.1073
G1 X136.279 Y147.223 E.1073
G1 X133.144 Y148.998 E.1073
G1 X129.843 Y150.44 E.1073
G1 X126.411 Y151.536 E.1073
G1 X122.885 Y152.273 E.1073
G1 X119.301 Y152.643 E.1073
G1 X115.699 Y152.643 E.1073
G1 X112.115 Y152.273 E.1073
G1 X108.589 Y151.536 E.1073
G1 X105.157 Y150.44 E.1073
G1 X101.856 Y148.998 E.1073
G1 X98.721 Y147.223 E.1073
G1 X95.785 Y145.136 E.1073
G1 X93.079 Y142.758 E.1073
G1 X90.632 Y140.114 E.1073
G1 X88.47 Y137.233 E.1073
G1 X86.615 Y134.144 E.1073
G1 X86.49 Y133.877 E.00878
G1 E-.68 F3600
;WIPE_START
G1 F3000
G1 X86.067 Y132.972 E-.12
;WIPE_END
G1 X90.328 Y126.64 Z.6 F21000
G1 X117.58 Y86.149 Z.6
G1 Z.2
G1 E.8 F2700
;TYPE:Inner wall
G1 F3000
G1 X121.033 Y86.332 E.103
G1 X124.556 Y86.935 E.10648
G1 X127.926 Y87.906 E.10444
G1 X131.196 Y89.26 E.10544
G1 X134.294 Y90.972 E.10544
G1 X137.181 Y93.021 E.10544
G1 X139.82 Y95.38 E.10544
G1 X142.144 Y97.98 E.10386
G1 X144.197 Y100.863 E.10543
G1 X144.513 Y101.423 E.01916
G1 X145.94 Y104.004 E.08785
G1 X147.294 Y107.274 E.10544
G1 X148.274 Y110.676 E.10544
G1 X148.869 Y114.201 E.10648
G1 X149.066 Y117.7 E.1044
G1 X148.867 Y121.234 E.10544
G1 X148.274 Y124.724 E.10544
G1 X147.294 Y128.126 E.10544
G1 X145.94 Y131.396 E.10544
G1 X144.253 Y134.448 E.10386
G1 X142.21 Y137.338 E.10543
G1 X139.82 Y140.02 E.10701
G1 X137.181 Y142.379 E.10544
G1 X134.294 Y144.428 E.10544
G1 X131.554 Y145.942 E.09325
G1 X131.147 Y146.16 E.01376
G1 X127.926 Y147.494 E.10386
G1 X124.524 Y148.474 E.10544
G1 X121.034 Y149.067 E.10544
G1 X117.5 Y149.266 E.10544
G1 X113.966 Y149.067 E.10544
G1 X110.528 Y148.483 E.10386
G1 X107.125 Y147.509 E.10543
G1 X103.804 Y146.14 E.10701
G1 X100.706 Y144.428 E.10544
G1 X97.819 Y142.379 E.10544
G1 X95.144 Y139.981 E.10701
G1 X92.821 Y137.381 E.10386
G1 X90.772 Y134.494 E.10544
G1 X89.06 Y131.396 E.10544
G1 X87.741 Y128.211 E.10268
G1 X86.726 Y124.725 E.10814
G1 X86.133 Y121.234 E.10548
G1 X85.937 Y117.753 E.10386
G1 X85.977 Y116.929 E.02457
G1 X86.13 Y114.219 E.08086
G1 X86.726 Y110.676 E.10701
G1 X87.706 Y107.274 E.10544
G1 X89.086 Y103.958 E.10701
G1 X90.772 Y100.906 E.10386
G1 X92.821 Y98.019 E.10544
G1 X95.18 Y95.38 E.10544
G1 X97.819 Y93.021 E.10544
G1 X100.706 Y90.972 E.10544
G1 X103.804 Y89.26 E.10544
G1 X107.026 Y87.926 E.10386
G1 X110.425 Y86.94 E.10543
G1 X113.966 Y86.333 E.10701
G1 X117.408 Y86.139 E.10268
G1 X117.54 Y86.146 E.00394
G1 X117.56 Y86.525 F21000
G1 F3000
G1 X120.991 Y86.708 E.10236
G1 X124.459 Y87.299 E.1048
G1 X127.801 Y88.262 E.10358
G1 X131.032 Y89.6 E.10418
G1 X134.093 Y91.292 E.10418
G1 X136.945 Y93.316 E.10418
G1 X139.553 Y95.647 E.10418
G1 X141.863 Y98.231 E.10323
G1 X143.889 Y101.081 E.10417
G1 X144.183 Y101.605 E.0179
G1 X145.6 Y104.168 E.08721
G1 X146.938 Y107.399 E.10418
G1 X147.906 Y110.76 E.10418
G1 X148.494 Y114.24 E.10512
G1 X148.688 Y117.7 E.10323
G1 X148.492 Y121.192 E.10418
G1 X147.906 Y124.64 E.10418
G1 X146.938 Y128.001 E.10418
G1 X145.6 Y131.232 E.10418
G1 X143.923 Y134.265 E.10323
G1 X141.902 Y137.12 E.10417
G1 X139.553 Y139.753 E.10512
G1 X136.946 Y142.084 E.10418
G1 X134.093 Y144.108 E.10418
G1 X131.372 Y145.612 E.09262
G1 X131.003 Y145.812 E.0125
G1 X127.801 Y147.138 E.10323
G1 X124.44 Y148.106 E.10418
G1 X120.992 Y148.692 E.10418
G1 X117.5 Y148.888 E.10418
G1 X114.008 Y148.692 E.10418
G1 X110.591 Y148.112 E.10323
G1 X107.23 Y147.147 E.10417
G1 X103.968 Y145.8 E.10512
G1 X100.907 Y144.108 E.10418
G1 X98.055 Y142.084 E.10418
G1 X95.425 Y139.73 E.10512
G1 X93.116 Y137.146 E.10323
G1 X91.092 Y134.293 E.10418
G1 X89.4 Y131.232 E.10418
G1 X88.097 Y128.086 E.10144
G1 X87.094 Y124.641 E.10687
G1 X86.508 Y121.192 E.1042
G1 X86.314 Y117.732 E.10323
G1 X86.354 Y116.95 E.02331
G1 X86.508 Y114.208 E.08181
G1 X87.094 Y110.76 E.10418
G1 X88.062 Y107.399 E.10418
G1 X89.416 Y104.14 E.10512
G1 X91.092 Y101.107 E.10323
G1 X93.116 Y98.255 E.10418
G1 X95.447 Y95.647 E.10418
G1 X98.054 Y93.316 E.10418
G1 X100.907 Y91.292 E.10418
G1 X103.968 Y89.6 E.10418
G1 X107.17 Y88.274 E.10323
G1 X110.529 Y87.303 E.10417
G1 X114.008 Y86.708 E.10512
G1 X117.408 Y86.517 E.10144
G1 X117.52 Y86.523 E.00333
G1 X117.54 Y86.902 F21000
;TYPE:Outer wall
G1 F3000
G1 X120.949 Y87.083 E.10171
G1 X124.366 Y87.665 E.10324
G1 X127.676 Y88.619 E.1026
G1 X130.868 Y89.941 E.10292
G1 X133.892 Y91.612 E.10292
G1 X136.71 Y93.611 E.10292
G1 X139.286 Y95.914 E.10292
G1 X141.582 Y98.482 E.1026
G1 X143.582 Y101.299 E.10291
G1 X143.853 Y101.788 E.01665
G1 X145.259 Y104.332 E.08659
G1 X146.582 Y107.524 E.10291
G1 X147.538 Y110.844 E.10292
G1 X148.117 Y114.261 E.10323
G1 X148.31 Y117.7 E.1026
G1 X148.117 Y121.15 E.10292
G1 X147.538 Y124.556 E.10292
G1 X146.582 Y127.876 E.10292
G1 X145.259 Y131.068 E.10292
G1 X143.593 Y134.083 E.1026
G1 X141.595 Y136.901 E.10291
M73 P2 R36
G1 X139.286 Y139.486 E.10324
G1 X136.71 Y141.789 E.10291
G1 X133.892 Y143.788 E.10292
G1 X131.189 Y145.282 E.09199
G1 X130.858 Y145.463 E.01124
G1 X127.676 Y146.782 E.1026
G1 X124.356 Y147.738 E.10292
G1 X120.95 Y148.317 E.10292
G1 X117.5 Y148.511 E.10292
G1 X114.05 Y148.317 E.10292
G1 X110.654 Y147.74 E.1026
G1 X107.334 Y146.784 E.10291
G1 X104.132 Y145.459 E.10323
G1 X101.108 Y143.788 E.10292
G1 X98.29 Y141.789 E.10292
G1 X95.707 Y139.478 E.10323
G1 X93.411 Y136.91 E.1026
G1 X91.412 Y134.092 E.10292
G1 X89.741 Y131.068 E.10292
G1 X88.453 Y127.961 E.10019
G1 X87.462 Y124.556 E.10561
G1 X86.883 Y121.15 E.10293
G1 X86.69 Y117.711 E.1026
G1 X86.73 Y116.971 E.02205
G1 X86.883 Y114.25 E.08118
G1 X87.462 Y110.844 E.10292
G1 X88.418 Y107.524 E.10292
G1 X89.746 Y104.323 E.10323
G1 X91.412 Y101.308 E.1026
G1 X93.411 Y98.49 E.10292
G1 X95.714 Y95.914 E.10292
G1 X98.29 Y93.611 E.10292
G1 X101.108 Y91.612 E.10292
G1 X104.132 Y89.941 E.10292
G1 X107.314 Y88.623 E.1026
G1 X110.644 Y87.662 E.10323
G1 X114.05 Y87.083 E.10292
G1 X117.409 Y86.895 E.10019
G1 X117.5 Y86.9 E.00271
G1 E-.68 F3600
;WIPE_START
G1 F3000
G1 X118.498 Y86.953 E-.12
;WIPE_END
G1 X126.05 Y88.061 Z.6 F21000
G1 X136.9 Y89.654 Z.6
G1 Z.2
G1 E.8 F2700
;TYPE:Bottom surface
;WIDTH:0.420001
G1 F4800
G1 X144.837 Y97.592 E.33436
G1 X145.934 Y99.222 E.05852
G1 X135.987 Y89.275 E.419
G1 X134.522 Y88.343 E.05173
G1 X146.841 Y100.663 E.51896
G1 X147.449 Y101.803 E.03849
G1 X133.374 Y87.729 E.59289
G1 X132.308 Y87.196 E.0355
G1 X148.056 Y102.944 E.66339
G1 X148.25 Y103.308 E.01227
G1 X148.499 Y103.92 E.01968
G1 X142.216 Y97.637 E.26464
G1 X140.009 Y95.17 E.09861
G1 X137.577 Y92.998 E.09713
G1 X131.242 Y86.663 E.26687
G1 X131.096 Y86.59 E.00486
G1 X130.357 Y86.311 E.02352
G1 X135.599 Y91.554 E.22083
G1 X134.449 Y90.737 E.04201
G1 X134.003 Y90.491 E.01518
G1 X129.501 Y85.989 E.18965
G1 X128.645 Y85.666 E.02725
G1 X132.81 Y89.831 E.17544
G1 X131.617 Y89.171 E.04062
G1 X127.795 Y85.349 E.161
G1 X127.071 Y85.158 E.0223
G1 X130.638 Y88.725 E.15027
G1 X129.726 Y88.347 E.02941
G1 X126.347 Y84.968 E.14235
G1 X125.623 Y84.777 E.0223
G1 X128.814 Y87.968 E.13443
G1 X128.078 Y87.663 E.02375
G1 X127.933 Y87.621 E.00448
G1 X124.899 Y84.586 E.12782
G1 X124.445 Y84.467 E.01399
G1 X124.209 Y84.43 E.00709
G1 X127.182 Y87.403 E.12522
G1 X126.431 Y87.185 E.0233
G1 X123.578 Y84.332 E.12018
G1 X122.946 Y84.233 E.01904
G1 X125.68 Y86.967 E.11515
G1 X124.928 Y86.749 E.0233
G1 X122.315 Y84.135 E.11011
G1 X121.683 Y84.036 E.01904
G1 X124.241 Y86.595 E.10777
G1 X123.598 Y86.485 E.01944
G1 X121.051 Y83.938 E.10727
G1 X120.991 Y83.929 E.00182
G1 X120.482 Y83.903 E.01517
G1 X122.954 Y86.374 E.10413
G1 X122.311 Y86.264 E.01944
G1 X119.92 Y83.874 E.10071
G1 X119.358 Y83.845 E.01677
G1 X121.667 Y86.154 E.09729
M73 P2 R35
G1 X121.037 Y86.057 E.019
G1 X118.796 Y83.816 E.09442
G1 X118.233 Y83.787 E.01677
G1 X120.473 Y86.027 E.09436
G1 X119.91 Y85.996 E.01681
G1 X117.671 Y83.758 E.09431
G1 X117.559 Y83.752 E.00334
G1 X117.152 Y83.772 E.01213
G1 X119.346 Y85.966 E.09243
G1 X118.783 Y85.936 E.01681
G1 X116.644 Y83.797 E.09009
G1 X116.136 Y83.823 E.01515
G1 X118.22 Y85.906 E.08775
G1 X117.656 Y85.876 E.01681
G1 X115.628 Y83.848 E.08542
G1 X115.12 Y83.873 E.01515
G1 X117.12 Y85.873 E.08422
G1 X116.616 Y85.902 E.01504
G1 X114.612 Y83.899 E.08438
G1 X114.105 Y83.924 E.01515
G1 X116.111 Y85.931 E.08454
G1 X115.607 Y85.96 E.01504
G1 X113.634 Y83.987 E.08311
G1 X113.173 Y84.059 E.01391
G1 X115.103 Y85.989 E.08131
G1 X114.599 Y86.018 E.01504
G1 X112.712 Y84.131 E.07951
G1 X112.25 Y84.203 E.01391
G1 X114.095 Y86.047 E.07771
G1 X113.887 Y86.059 E.00621
G1 X113.619 Y86.105 E.00808
G1 X111.789 Y84.275 E.07711
G1 X111.327 Y84.346 E.01391
G1 X113.164 Y86.183 E.07737
G1 X112.709 Y86.261 E.01376
G1 X110.866 Y84.418 E.07762
G1 X110.417 Y84.503 E.0136
G1 X112.253 Y86.339 E.07734
G1 X111.798 Y86.417 E.01376
G1 X109.995 Y84.614 E.07594
G1 X109.573 Y84.725 E.013
