; HEADER_BLOCK_START
; generated by OrcaSlicer 2.1.1 on 2025-01-12 at 11:38:11
; total layer number: 274
; filament_density: 1.27
; filament_diameter: 1.75
; max_z_height: 19.00
; HEADER_BLOCK_END

; THUMBNAIL_BLOCK_START

;
; THUMBNAIL_BLOCK_END







; external perimeters extrusion width = 0.40mm
; perimeters extrusion width = 0.45mm
; infill extrusion width = 0.45mm
; solid infill extrusion width = 0.45mm
; top infill extrusion width = 0.38mm
; support material extrusion width = 0.38mm
; first layer extrusion width = 0.42mm

; EXECUTABLE_BLOCK_START
EXCLUDE_OBJECT_DEFINE NAME=梯子1.STL_id_0_copy_0 CENTER=117.5,115 POLYGON=[[105.5,86.6],[129.5,86.6],[129.5,143.4],[105.5,143.4],[105.5,86.6]]
M73 P0 R43
;TYPE:Custom
;ELEGOO NEPTUNE 4 PRO
M220 S100 ;Set the feed speed to 100%
M221 S100 ;Set the flow rate to 100%
M104 S140
M190 S70
G90
G28 ;home
G1 Z10 F300
G1 X67.5 Y0 F6000
G1 Z0 F300
M109 S240
G92 E0 ;Reset Extruder
G1 X67.5 Y0 Z0.4 F300 ;Move to start position
M73 P0 R42
G1 X167.5 E30 F400 ;Draw the first line
G1 Z0.6 F120.0 ;Move to side a little
G1 X162.5 F3000
G92 E0 ;Reset Extruder
G90
G21
M83 ; use relative distances for extrusion
; filament start gcode
M106 S0
;LAYER_CHANGE
;Z:0.2
;HEIGHT:0.2
;BEFORE_LAYER_CHANGE
G92 E0
;0.2


G1 E-.8 F3600
;AFTER_LAYER_CHANGE
;0.2
;_SET_FAN_SPEED_CHANGING_LAYER
SET_VELOCITY_LIMIT ACCEL=1000 ACCEL_TO_DECEL=500
SET_VELOCITY_LIMIT SQUARE_CORNER_VELOCITY=7
; printing object 梯子1.STL id:0 copy 0
EXCLUDE_OBJECT_START NAME=梯子1.STL_id_0_copy_0
G1 X110.02 Y108.303 F21000
G1 Z.4
G1 Z.2
G1 E.8 F2700
;TYPE:Support
;WIDTH:0.42
G1 F3000
G1 X124.98 Y108.303 E.44561
G1 X124.98 Y84.675 E.70381
G1 X133.648 Y84.675 E.2582
G1 X133.648 Y145.325 E1.80657
G1 X124.98 Y145.325 E.2582
G1 X124.98 Y138.237 E.21114
G1 X110.02 Y138.237 E.44561
G1 X110.02 Y145.325 E.21114
G1 X101.352 Y145.325 E.2582
G1 X101.352 Y84.675 E1.80657
G1 X110.02 Y84.675 E.2582
G1 X110.02 Y108.246 E.70212
G1 E-.68 F3600
;WIPE_START
M73 P1 R42
G1 F3000
G1 X110.02 Y107.246 E-.12
;WIPE_END
G1 X114.836 Y101.325 Z.6 F21000
G1 X127.268 Y86.04 Z.6
G1 Z.2
G1 E.8 F2700
G1 F3000
G1 X126.94 Y86.368 E.01382
G1 X126.94 Y143.632 E1.7057
G1 X127.268 Y143.96 E.01382
G1 X129.732 Y143.96 E.07339
G1 X130.06 Y143.632 E.01382
G1 X130.06 Y86.368 E1.7057
G1 X129.732 Y86.04 E.01382
G1 X127.325 Y86.04 E.07171
G1 E-.68 F3600
;WIPE_START
G1 F3000
G1 X128.325 Y86.04 E-.12
;WIPE_END
G1 X120.692 Y86.04 Z.6 F21000
G1 X105.268 Y86.04 Z.6
G1 Z.2
G1 E.8 F2700
G1 F3000
G1 X104.94 Y86.368 E.01382
G1 X104.94 Y143.632 E1.7057
G1 X105.268 Y143.96 E.01382
G1 X107.732 Y143.96 E.07339
G1 X108.06 Y143.632 E.01382
G1 X108.06 Y86.368 E1.7057
G1 X107.732 Y86.04 E.01382
G1 X105.325 Y86.04 E.07171
G1 E-.68 F3600
;WIPE_START
G1 F3000
G1 X106.325 Y86.04 E-.12
;WIPE_END
G1 X107.02 Y93.641 Z.6 F21000
G1 X110.02 Y126.423 Z.6
G1 Z.2
G1 E.8 F2700
G1 F3000
G1 X110.02 Y129.569 E.0937
G1 X124.98 Y129.569 E.44561
G1 X124.98 Y126.423 E.0937
G1 X110.077 Y126.423 E.44392
G1 X110.02 Y116.971 F21000
G1 F3000
G1 X110.02 Y117.754 E.02332
G1 X113.166 Y117.754 E.0937
G1 X113.166 Y116.971 E.02332
G1 X110.077 Y116.971 E.09202
G1 X121.834 Y116.971 F21000
G1 F3000
G1 X121.834 Y117.754 E.02332
G1 X124.98 Y117.754 E.0937
G1 X124.98 Y116.971 E.02332
G1 X121.891 Y116.971 E.09202
G1 X109.681 Y108.642 F21000
G1 F3000
G1 X125.319 Y108.642 E.46583
G1 X125.319 Y85.014 E.70381
G1 X133.309 Y85.014 E.23798
G1 X133.309 Y144.986 E1.78636
G1 X125.319 Y144.986 E.23798
G1 X125.319 Y137.897 E.21114
G1 X109.681 Y137.897 E.46583
G1 X109.681 Y144.986 E.21114
G1 X101.691 Y144.986 E.23798
G1 X101.691 Y85.014 E1.78636
G1 X109.681 Y85.014 E.23798
G1 X109.681 Y108.642 E.70381
G1 E-.68 F3600
;WIPE_START
G1 F3000
G1 X109.681 Y107.642 E-.12
;WIPE_END
G1 X115.02 Y102.189 Z.6 F21000
G1 X130.818 Y86.054 Z.6
G1 Z.2
G1 E.8 F2700
G1 F3000
G1 X130.197 Y85.433 E.02615
G1 X132.89 Y85.433 E.0802
G1 X132.89 Y144.567 E1.7614
G1 X130.197 Y144.567 E.0802
G1 X130.818 Y143.946 E.02615
G1 X130.818 Y86.054 E1.72441
G1 X131.237 Y85.852 F21000
G1 F3000
G1 X132.471 Y85.852 E.03675
G1 X132.471 Y144.148 E1.73644
G1 X131.237 Y144.148 E.03675
G1 X131.237 Y85.852 E1.73644
G1 X131.656 Y86.271 F21000
G1 F3000
G1 X132.052 Y86.271 E.01179
G1 X132.052 Y143.729 E1.71148
G1 X131.656 Y143.729 E.01179
G1 X131.656 Y86.271 E1.71148
G1 X130.399 Y86.227 F21000
G1 F3000
G1 X130.399 Y143.773 E1.71407
G1 X129.873 Y144.299 E.02219
G1 X127.127 Y144.299 E.08177
G1 X126.601 Y143.773 E.02219
G1 X126.601 Y86.227 E1.71407
G1 X127.127 Y85.701 E.02219
G1 X129.873 Y85.701 E.08177
G1 X130.399 Y86.227 E.02219
M73 P2 R42
G1 X126.803 Y85.433 F21000
G1 F3000
G1 X126.182 Y86.054 E.02615
G1 X126.182 Y143.946 E1.72441
G1 X126.803 Y144.567 E.02615
G1 X125.738 Y144.567 E.0317
G1 X125.738 Y137.478 E.21114
G1 X109.262 Y137.478 E.49078
G1 X109.262 Y144.567 E.21114
G1 X108.197 Y144.567 E.0317
G1 X108.818 Y143.946 E.02615
G1 X108.818 Y86.054 E1.72441
G1 X108.197 Y85.433 E.02615
G1 X109.262 Y85.433 E.0317
G1 X109.262 Y109.061 E.70381
G1 X125.738 Y109.061 E.49078
G1 X125.738 Y85.433 E.70381
G1 X126.803 Y85.433 E.0317
G1 E-.68 F3600
;WIPE_START
G1 F3000
G1 X125.803 Y85.433 E-.12
;WIPE_END
G1 X123.055 Y92.554 Z.6 F21000
G1 X113.924 Y116.213 Z.6
G1 Z.2
G1 E.8 F2700
G1 F3000
G1 X113.924 Y118.513 E.0685
G1 X109.262 Y118.513 E.13888
G1 X109.262 Y116.213 E.0685
G1 X113.924 Y116.213 E.13888
G1 X113.505 Y116.632 F21000
G1 F3000
G1 X113.505 Y118.094 E.04354
G1 X109.681 Y118.094 E.11392
G1 X109.681 Y116.632 E.04354
G1 X113.505 Y116.632 E.11392
G1 X114.343 Y115.794 F21000
G1 F3000
G1 X109.237 Y115.794 E.15209
G1 X109.237 Y109.48 E.18806
G1 X125.763 Y109.48 E.49223
G1 X125.763 Y115.794 E.18806
G1 X120.657 Y115.794 E.15209
G1 X120.657 Y118.932 E.09346
G1 X125.763 Y118.932 E.15209
G1 X125.763 Y125.245 E.18806
G1 X109.237 Y125.245 E.49223
G1 X109.237 Y118.932 E.18806
G1 X114.343 Y118.932 E.15209
G1 X114.343 Y115.794 E.09346
G1 X114.762 Y115.375 F21000
G1 F3000
G1 X109.656 Y115.375 E.15209
G1 X109.656 Y109.899 E.1631
G1 X125.344 Y109.899 E.46727
G1 X125.344 Y115.375 E.1631
G1 X120.238 Y115.375 E.15209
G1 X120.238 Y119.351 E.11842
G1 X125.344 Y119.351 E.15209
G1 X125.344 Y124.826 E.1631
G1 X109.656 Y124.826 E.46727
G1 X109.656 Y119.351 E.1631
G1 X114.762 Y119.351 E.15209
G1 X114.762 Y115.375 E.11842
G1 X115.181 Y114.956 F21000
G1 F3000
G1 X110.075 Y114.956 E.15209
G1 X110.075 Y110.318 E.13814
G1 X124.925 Y110.318 E.44231
G1 X124.925 Y114.956 E.13814
G1 X119.819 Y114.956 E.15209
G1 X119.819 Y119.77 E.14338
G1 X124.925 Y119.77 E.15209
G1 X124.925 Y124.407 E.13814
G1 X110.075 Y124.407 E.44231
G1 X110.075 Y119.77 E.13814
G1 X115.181 Y119.77 E.15209
M73 P2 R41
G1 X115.181 Y114.956 E.14338
G1 X115.6 Y114.537 F21000
G1 F3000
G1 X110.494 Y114.537 E.15209
G1 X110.494 Y110.737 E.11318
G1 X124.506 Y110.737 E.41735
G1 X124.506 Y114.537 E.11318
G1 X119.4 Y114.537 E.15209
G1 X119.4 Y120.189 E.16834
G1 X124.506 Y120.189 E.15209
G1 X124.506 Y123.988 E.11318
G1 X110.494 Y123.988 E.41735
G1 X110.494 Y120.189 E.11318
G1 X115.6 Y120.189 E.15209
G1 X115.6 Y114.537 E.16834
G1 X116.019 Y114.118 F21000
G1 F3000
G1 X110.913 Y114.118 E.15209
G1 X110.913 Y111.156 E.08822
G1 X124.087 Y111.156 E.39239
G1 X124.087 Y114.118 E.08822
G1 X118.981 Y114.118 E.15209
G1 X118.981 Y120.608 E.1933
G1 X124.087 Y120.608 E.15209
G1 X124.087 Y123.569 E.08822
G1 X110.913 Y123.569 E.39239
G1 X110.913 Y120.608 E.08822
G1 X116.019 Y120.608 E.15209
G1 X116.019 Y114.118 E.1933
G1 X116.438 Y113.699 F21000
G1 F3000
G1 X111.332 Y113.699 E.15209
G1 X111.332 Y111.575 E.06326
G1 X123.668 Y111.575 E.36744
G1 X123.668 Y113.699 E.06326
G1 X118.562 Y113.699 E.15209
G1 X118.562 Y121.027 E.21826
G1 X123.668 Y121.027 E.15209
G1 X123.668 Y123.15 E.06326
G1 X111.332 Y123.15 E.36744
G1 X111.332 Y121.027 E.06326
G1 X116.438 Y121.027 E.15209
G1 X116.438 Y113.699 E.21826
G1 X116.857 Y113.28 F21000
G1 F3000
G1 X111.751 Y113.28 E.15209
G1 X111.751 Y111.994 E.0383
G1 X123.249 Y111.994 E.34248
G1 X123.249 Y113.28 E.0383
G1 X118.143 Y113.28 E.15209
G1 X118.143 Y121.446 E.24322
G1 X123.249 Y121.446 E.15209
G1 X123.249 Y122.731 E.0383
G1 X111.751 Y122.731 E.34248
G1 X111.751 Y121.446 E.0383
G1 X116.857 Y121.446 E.15209
G1 X116.857 Y113.28 E.24322
G1 X117.276 Y112.861 F21000
G1 F3000
G1 X112.17 Y112.861 E.15209
G1 X112.17 Y112.413 E.01334
G1 X122.83 Y112.413 E.31752
G1 X122.83 Y112.861 E.01334
G1 X117.724 Y112.861 E.15209
G1 X117.724 Y121.865 E.26818
G1 X122.83 Y121.865 E.15209
G1 X122.83 Y122.313 E.01334
G1 X112.17 Y122.313 E.31752
G1 X112.17 Y121.865 E.01334
G1 X117.276 Y121.865 E.15209
G1 X117.276 Y112.861 E.26818
G1 X121.076 Y116.213 F21000
G1 F3000
G1 X125.738 Y116.213 E.13888
G1 X125.738 Y118.513 E.0685
G1 X121.076 Y118.513 E.13888
G1 X121.076 Y116.213 E.0685
G1 X121.495 Y116.632 F21000
G1 F3000
G1 X125.319 Y116.632 E.11392
G1 X125.319 Y118.094 E.04354
G1 X121.495 Y118.094 E.11392
G1 X121.495 Y116.632 E.04354
G1 X125.738 Y125.664 F21000
G1 F3000
G1 X125.738 Y130.327 E.13888
G1 X109.262 Y130.327 E.49078
G1 X109.262 Y125.664 E.13888
G1 X125.738 Y125.664 E.49078
G1 X125.319 Y126.083 F21000
G1 F3000
G1 X125.319 Y129.908 E.11392
G1 X109.681 Y129.908 E.46583
G1 X109.681 Y126.083 E.11392
G1 X125.319 Y126.083 E.46583
G1 X125.763 Y130.746 F21000
G1 F3000
G1 X125.763 Y137.059 E.18806
G1 X109.237 Y137.059 E.49223
G1 X109.237 Y130.746 E.18806
G1 X125.763 Y130.746 E.49223
G1 X125.344 Y131.165 F21000
M73 P3 R41
G1 F3000
G1 X125.344 Y136.641 E.1631
G1 X109.656 Y136.641 E.46727
G1 X109.656 Y131.165 E.1631
G1 X125.344 Y131.165 E.46727
G1 X124.925 Y131.584 F21000
G1 F3000
G1 X124.925 Y136.222 E.13814
G1 X110.075 Y136.222 E.44231
G1 X110.075 Y131.584 E.13814
G1 X124.925 Y131.584 E.44231
G1 X124.506 Y132.003 F21000
G1 F3000
G1 X124.506 Y135.803 E.11318
G1 X110.494 Y135.803 E.41735
G1 X110.494 Y132.003 E.11318
G1 X124.506 Y132.003 E.41735
G1 X124.087 Y132.422 F21000
G1 F3000
G1 X124.087 Y135.384 E.08822
G1 X110.913 Y135.384 E.39239
G1 X110.913 Y132.422 E.08822
G1 X124.087 Y132.422 E.39239
G1 X123.668 Y132.841 F21000
G1 F3000
G1 X123.668 Y134.965 E.06326
G1 X111.332 Y134.965 E.36744
G1 X111.332 Y132.841 E.06326
G1 X123.668 Y132.841 E.36744
G1 X123.249 Y133.26 F21000
G1 F3000
G1 X123.249 Y134.546 E.0383
G1 X111.751 Y134.546 E.34248
G1 X111.751 Y133.26 E.0383
G1 X123.249 Y133.26 E.34248
G1 X122.83 Y133.679 F21000
G1 F3000
G1 X122.83 Y134.127 E.01334
G1 X112.17 Y134.127 E.31752
G1 X112.17 Y133.679 E.01334
G1 X122.83 Y133.679 E.31752
G1 E-.68 F3600
;WIPE_START
G1 F3000
G1 X121.83 Y133.679 E-.12
;WIPE_END
G1 X115.728 Y138.264 Z.6 F21000
G1 X108.399 Y143.773 Z.6
G1 Z.2
G1 E.8 F2700
G1 F3000
G1 X107.873 Y144.299 E.02219
G1 X105.127 Y144.299 E.08177
G1 X104.601 Y143.773 E.02219
G1 X104.601 Y86.227 E1.71407
G1 X105.127 Y85.701 E.02219
G1 X107.873 Y85.701 E.08177
G1 X108.399 Y86.227 E.02219
G1 X108.399 Y143.773 E1.71407
G1 X104.803 Y144.567 F21000
G1 F3000
G1 X102.11 Y144.567 E.0802
G1 X102.11 Y85.433 E1.7614
G1 X104.803 Y85.433 E.0802
G1 X104.182 Y86.054 E.02615
G1 X104.182 Y143.946 E1.72441
G1 X104.803 Y144.567 E.02615
G1 X103.763 Y144.148 F21000
G1 F3000
G1 X102.529 Y144.148 E.03675
G1 X102.529 Y85.852 E1.73644
G1 X103.763 Y85.852 E.03675
G1 X103.763 Y144.148 E1.73644
G1 X103.344 Y143.729 F21000
G1 F3000
G1 X102.948 Y143.729 E.01179
G1 X102.948 Y86.271 E1.71148
G1 X103.344 Y86.271 E.01179
G1 X103.344 Y143.729 E1.71148
G1 E-.68 F3600
;WIPE_START
G1 F3000
G1 X103.344 Y142.729 E-.12
;WIPE_END
G1 X106.474 Y135.768 Z.6 F21000
G1 X128.249 Y87.349 Z.6
G1 Z.2
G1 E.8 F2700
;TYPE:Inner wall
;WIDTH:0.544381
G1 F3000
G1 X128.751 Y87.349 E.01986
G1 X128.751 Y142.651 E2.19059
G1 X128.249 Y142.651 E.01986
G1 X128.249 Y87.389 E2.18901
G1 X127.81 Y86.91 F21000
;TYPE:Outer wall
;WIDTH:0.419999
G1 F3000
G1 X129.19 Y86.91 E.04111
G1 X129.19 Y143.09 E1.67341
G1 X127.81 Y143.09 E.04111
G1 X127.81 Y86.95 E1.67222
G1 E-.68 F3600
;WIPE_START
G1 F3000
G1 X128.81 Y86.921 E-.12
;WIPE_END
G1 X121.179 Y87.069 Z.6 F21000
G1 X106.751 Y87.349 Z.6
G1 Z.2
G1 E.8 F2700
;TYPE:Inner wall
;WIDTH:0.544381
G1 F3000
G1 X106.751 Y142.651 E2.19059
G1 X106.249 Y142.651 E.01986
G1 X106.249 Y87.349 E2.19059
G1 X106.711 Y87.349 E.01828
G1 X107.19 Y86.91 F21000
;TYPE:Outer wall
;WIDTH:0.419999
G1 F3000
G1 X107.19 Y143.09 E1.67341
G1 X105.81 Y143.09 E.04111
M73 P4 R41
G1 X105.81 Y86.91 E1.67341
G1 X107.15 Y86.91 E.03991
; stop printing object 梯子1.STL id:0 copy 0
;LAYER_CHANGE
;Z:0.28
;HEIGHT:0.08
;BEFORE_LAYER_CHANGE
G92 E0
;0.28


G1 E-.68 F3600
;WIPE_START
G1 F3000
G1 X107.151 Y87.91 E-.12
;WIPE_END
EXCLUDE_OBJECT_END NAME=梯子1.STL_id_0_copy_0
;AFTER_LAYER_CHANGE
;0.28
;_SET_FAN_SPEED_CHANGING_LAYER
SET_VELOCITY_LIMIT ACCEL=5000 ACCEL_TO_DECEL=2500
SET_VELOCITY_LIMIT SQUARE_CORNER_VELOCITY=9
M140 S70 ; set bed temperature
; printing object 梯子1.STL id:0 copy 0
EXCLUDE_OBJECT_START NAME=梯子1.STL_id_0_copy_0
G1 X114.779 Y87.654 Z.6 F21000
G1 X128.108 Y87.208 Z.6
G1 Z.28
G1 E.8 F2700
SET_VELOCITY_LIMIT ACCEL=3000 ACCEL_TO_DECEL=1500 SQUARE_CORNER_VELOCITY=7
;TYPE:Inner wall
;WIDTH:0.449999
G1 F4638
G1 X128.892 Y87.208 E.01073
G1 X128.892 Y142.792 E.76018
G1 X128.108 Y142.792 E.01073
G1 X128.108 Y87.248 E.75964
SET_VELOCITY_LIMIT ACCEL=5000 ACCEL_TO_DECEL=2500 SQUARE_CORNER_VELOCITY=9
G1 X128.5 Y87.6 F21000
SET_VELOCITY_LIMIT ACCEL=3000 ACCEL_TO_DECEL=1500 SQUARE_CORNER_VELOCITY=7
;WIDTH:0.368674
G1 F4638
G1 X128.5 Y142.4 E.60864
SET_VELOCITY_LIMIT ACCEL=5000 ACCEL_TO_DECEL=2500 SQUARE_CORNER_VELOCITY=9
G1 E-.68 F3600
;WIPE_START
G1 F12000
G1 X128.5 Y141.4 E-.12
;WIPE_END
G1 X128.388 Y133.768 Z.68 F21000
G1 X127.7 Y86.8 Z.68
G1 Z.28
G1 E.8 F2700
SET_VELOCITY_LIMIT ACCEL=3000 ACCEL_TO_DECEL=1500 SQUARE_CORNER_VELOCITY=7
;TYPE:Outer wall
;WIDTH:0.399999
G1 F4638
G1 X129.3 Y86.8 E.01935
G1 X129.3 Y143.2 E.68223
G1 X127.7 Y143.2 E.01935
G1 X127.7 Y86.84 E.68175
SET_VELOCITY_LIMIT ACCEL=5000 ACCEL_TO_DECEL=2500 SQUARE_CORNER_VELOCITY=9
G1 E-.68 F3600
;WIPE_START
G1 F7200
G1 X128.7 Y86.815 E-.12
;WIPE_END
G1 X121.068 Y86.952 Z.68 F21000
G1 X106.892 Y87.208 Z.68
G1 Z.28
G1 E.8 F2700
SET_VELOCITY_LIMIT ACCEL=3000 ACCEL_TO_DECEL=1500 SQUARE_CORNER_VELOCITY=7
;TYPE:Inner wall
;WIDTH:0.449999
G1 F4638
G1 X106.892 Y142.792 E.76018
G1 X106.108 Y142.792 E.01073
G1 X106.108 Y87.208 E.76018
G1 X106.852 Y87.208 E.01018
SET_VELOCITY_LIMIT ACCEL=5000 ACCEL_TO_DECEL=2500 SQUARE_CORNER_VELOCITY=9
G1 X106.5 Y87.6 F21000
SET_VELOCITY_LIMIT ACCEL=3000 ACCEL_TO_DECEL=1500 SQUARE_CORNER_VELOCITY=7
;WIDTH:0.368676
G1 F4638
G1 X106.5 Y142.4 E.60864
SET_VELOCITY_LIMIT ACCEL=5000 ACCEL_TO_DECEL=2500 SQUARE_CORNER_VELOCITY=9
G1 E-.68 F3600
;WIPE_START
G1 F12000
G1 X106.5 Y141.4 E-.12
;WIPE_END
G1 X106.612 Y133.768 Z.68 F21000
G1 X107.3 Y86.8 Z.68
G1 Z.28
G1 E.8 F2700
SET_VELOCITY_LIMIT ACCEL=3000 ACCEL_TO_DECEL=1500 SQUARE_CORNER_VELOCITY=7
;TYPE:Outer wall
;WIDTH:0.399999
G1 F4638
G1 X107.3 Y143.2 E.68223
G1 X105.7 Y143.2 E.01935
G1 X105.7 Y86.8 E.68223
G1 X107.26 Y86.8 E.01887
; stop printing object 梯子1.STL id:0 copy 0
;LAYER_CHANGE
;Z:0.36
;HEIGHT:0.08
;BEFORE_LAYER_CHANGE
G92 E0
;0.36


G1 E-.68 F3600
;WIPE_START
G1 F7200
G1 X107.261 Y87.8 E-.12
;WIPE_END
EXCLUDE_OBJECT_END NAME=梯子1.STL_id_0_copy_0
;AFTER_LAYER_CHANGE
;0.36
;_SET_FAN_SPEED_CHANGING_LAYER
; printing object 梯子1.STL id:0 copy 0
SET_VELOCITY_LIMIT ACCEL=5000 ACCEL_TO_DECEL=2500 SQUARE_CORNER_VELOCITY=9
EXCLUDE_OBJECT_START NAME=梯子1.STL_id_0_copy_0
G1 X114.89 Y87.583 Z.68 F21000
G1 X128.108 Y87.208 Z.68
G1 Z.36
G1 E.8 F2700
SET_VELOCITY_LIMIT ACCEL=3000 ACCEL_TO_DECEL=1500 SQUARE_CORNER_VELOCITY=7
;TYPE:Inner wall
;WIDTH:0.449999
G1 F4625
G1 X128.892 Y87.208 E.01073
G1 X128.892 Y142.792 E.76018
G1 X128.108 Y142.792 E.01073
G1 X128.108 Y87.248 E.75964
SET_VELOCITY_LIMIT ACCEL=5000 ACCEL_TO_DECEL=2500 SQUARE_CORNER_VELOCITY=9
G1 X128.5 Y87.6 F21000
SET_VELOCITY_LIMIT ACCEL=3000 ACCEL_TO_DECEL=1500 SQUARE_CORNER_VELOCITY=7
;WIDTH:0.368674
G1 F4625
G1 X128.5 Y142.4 E.60864
SET_VELOCITY_LIMIT ACCEL=5000 ACCEL_TO_DECEL=2500 SQUARE_CORNER_VELOCITY=9
G1 E-.68 F3600
;WIPE_START
G1 F12000
G1 X128.5 Y141.4 E-.12
;WIPE_END
G1 X128.388 Y133.768 Z.76 F21000
G1 X127.7 Y86.8 Z.76
G1 Z.36
G1 E.8 F2700
