; HEADER_BLOCK_START
; generated by OrcaSlicer 2.1.1 on 2025-01-12 at 11:36:09
; total layer number: 118
; filament_density: 1.27
; filament_diameter: 1.75
; max_z_height: 32.96
; HEADER_BLOCK_END

; THUMBNAIL_BLOCK_START

;
; THUMBNAIL_BLOCK_END







; external perimeters extrusion width = 0.40mm
; perimeters extrusion width = 0.45mm
; infill extrusion width = 0.45mm
; solid infill extrusion width = 0.45mm
; top infill extrusion width = 0.45mm
; first layer extrusion width = 0.42mm

; EXECUTABLE_BLOCK_START
EXCLUDE_OBJECT_DEFINE NAME=楼梯.STL_id_0_copy_0 CENTER=117.5,115 POLYGON=[[107.6,98.5],[127.4,98.5],[127.4,131.5],[107.6,131.5],[107.6,98.5]]
M73 P0 R19
;TYPE:Custom
;ELEGOO NEPTUNE 4 PRO
M220 S100 ;Set the feed speed to 100%
M221 S100 ;Set the flow rate to 100%
M104 S140
M190 S70
G90
G28 ;home
G1 Z10 F300
G1 X67.5 Y0 F6000
G1 Z0 F300
M109 S240
G92 E0 ;Reset Extruder
G1 X67.5 Y0 Z0.4 F300 ;Move to start position
G1 X167.5 E30 F400 ;Draw the first line
G1 Z0.6 F120.0 ;Move to side a little
M73 P1 R18
G1 X162.5 F3000
G92 E0 ;Reset Extruder
G90
G21
M83 ; use relative distances for extrusion
; filament start gcode
M106 S0
;LAYER_CHANGE
;Z:0.2
;HEIGHT:0.2
;BEFORE_LAYER_CHANGE
G92 E0
;0.2


G1 E-.8 F3600
;AFTER_LAYER_CHANGE
;0.2
;_SET_FAN_SPEED_CHANGING_LAYER
SET_VELOCITY_LIMIT ACCEL=1000 ACCEL_TO_DECEL=500
SET_VELOCITY_LIMIT SQUARE_CORNER_VELOCITY=7
G1 X106.608 Y97.544 F21000
G1 Z.4
G1 Z.2
G1 E.8 F2700
;TYPE:Skirt
;WIDTH:0.42
G1 F3000
G1 X107.6 Y97.123 E.03209
G1 X127.4 Y97.123 E.58977
G1 X128.356 Y97.508 E.03069
G1 X128.777 Y98.5 E.03209
G1 X128.777 Y131.5 E.98296
G1 X128.392 Y132.456 E.03069
G1 X127.4 Y132.877 E.03209
G1 X107.6 Y132.877 E.58977
G1 X106.644 Y132.492 E.03069
G1 X106.223 Y131.5 E.03209
G1 X106.223 Y98.5 E.98296
G1 X106.593 Y97.582 E.0295
; printing object 楼梯.STL id:0 copy 0
M73 P2 R18
G1 E-.68 F3600
;WIPE_START
G1 F3000
G1 X107.503 Y97.167 E-.12
;WIPE_END
EXCLUDE_OBJECT_START NAME=楼梯.STL_id_0_copy_0
G1 X111.263 Y103.809 Z.6 F21000
G1 X126.336 Y130.436 Z.6
G1 Z.2
G1 E.8 F2700
;TYPE:Inner wall
;WIDTH:0.419999
G1 F3000
G1 X108.664 Y130.436 E.52638
G1 X108.664 Y99.564 E.91956
G1 X126.336 Y99.564 E.52638
G1 X126.336 Y130.396 E.91837
G1 X126.713 Y130.813 F21000
G1 F3000
G1 X108.287 Y130.813 E.54884
G1 X108.287 Y99.187 E.94202
G1 X126.713 Y99.187 E.54884
G1 X126.713 Y130.773 E.94083
G1 X127.09 Y131.19 F21000
;TYPE:Outer wall
G1 F3000
G1 X107.91 Y131.19 E.57131
G1 X107.91 Y98.81 E.96449
G1 X127.09 Y98.81 E.57131
G1 X127.09 Y131.15 E.9633
G1 E-.68 F3600
;WIPE_START
G1 F3000
G1 X126.09 Y131.152 E-.12
;WIPE_END
G1 X126.123 Y123.52 Z.6 F21000
G1 X126.223 Y100.442 Z.6
G1 Z.2
G1 E.8 F2700
;TYPE:Bottom surface
;WIDTH:0.42135
G1 F4800
G1 X125.627 Y99.847 E.02517
G1 X125.092 Y99.847 E.016
G1 X126.053 Y100.808 E.04062
G1 X126.053 Y101.343 E.016
G1 X124.557 Y99.847 E.06325
G1 X124.022 Y99.847 E.016
G1 X126.053 Y101.878 E.08587
G1 X126.053 Y102.413 E.016
G1 X123.487 Y99.847 E.1085
G1 X122.951 Y99.847 E.016
G1 X126.053 Y102.949 E.13112
G1 X126.053 Y103.484 E.016
G1 X122.416 Y99.847 E.15375
G1 X121.881 Y99.847 E.016
G1 X126.053 Y104.019 E.17637
G1 X126.053 Y104.554 E.016
G1 X121.346 Y99.847 E.199
G1 X120.811 Y99.847 E.016
G1 X126.053 Y105.089 E.22162
G1 X126.053 Y105.625 E.016
G1 X120.275 Y99.847 E.24425
G1 X119.74 Y99.847 E.016
G1 X126.053 Y106.16 E.26687
G1 X126.053 Y106.695 E.016
G1 X119.205 Y99.847 E.2895
G1 X118.67 Y99.847 E.016
G1 X126.053 Y107.23 E.31212
G1 X126.053 Y107.765 E.016
G1 X118.135 Y99.847 E.33475
G1 X117.6 Y99.847 E.016
G1 X126.053 Y108.3 E.35737
G1 X126.053 Y108.836 E.016
G1 X117.064 Y99.847 E.38
G1 X116.529 Y99.847 E.016
G1 X126.053 Y109.371 E.40262
G1 X126.053 Y109.906 E.016
G1 X115.994 Y99.847 E.42525
G1 X115.459 Y99.847 E.016
G1 X126.053 Y110.441 E.44787
G1 X126.053 Y110.976 E.016
M73 P3 R18
G1 X114.924 Y99.847 E.4705
G1 X114.388 Y99.847 E.016
G1 X126.053 Y111.512 E.49312
G1 X126.053 Y112.047 E.016
G1 X113.853 Y99.847 E.51575
G1 X113.318 Y99.847 E.016
G1 X126.053 Y112.582 E.53837
G1 X126.053 Y113.117 E.016
G1 X112.783 Y99.847 E.561
G1 X112.248 Y99.847 E.016
G1 X126.053 Y113.652 E.58362
G1 X126.053 Y114.187 E.016
G1 X111.713 Y99.847 E.60625
G1 X111.177 Y99.847 E.016
G1 X126.053 Y114.723 E.62887
G1 X126.053 Y115.258 E.016
G1 X110.642 Y99.847 E.6515
G1 X110.107 Y99.847 E.016
G1 X126.053 Y115.793 E.67412
G1 X126.053 Y116.328 E.016
G1 X109.572 Y99.847 E.69675
G1 X109.037 Y99.847 E.016
G1 X126.053 Y116.863 E.71937
G1 X126.053 Y117.399 E.016
G1 X108.947 Y100.292 E.72317
G1 X108.947 Y100.828 E.016
G1 X126.053 Y117.934 E.72317
G1 X126.053 Y118.469 E.016
G1 X108.947 Y101.363 E.72317
G1 X108.947 Y101.898 E.016
G1 X126.053 Y119.004 E.72317
G1 X126.053 Y119.539 E.016
G1 X108.947 Y102.433 E.72317
G1 X108.947 Y102.968 E.016
G1 X126.053 Y120.074 E.72317
G1 X126.053 Y120.61 E.016
G1 X108.947 Y103.504 E.72317
G1 X108.947 Y104.039 E.016
G1 X126.053 Y121.145 E.72317
G1 X126.053 Y121.68 E.016
G1 X108.947 Y104.574 E.72317
G1 X108.947 Y105.109 E.016
G1 X126.053 Y122.215 E.72317
G1 X126.053 Y122.75 E.016
G1 X108.947 Y105.644 E.72317
G1 X108.947 Y106.179 E.016
G1 X126.053 Y123.286 E.72317
G1 X126.053 Y123.821 E.016
G1 X108.947 Y106.715 E.72317
G1 X108.947 Y107.25 E.016
G1 X126.053 Y124.356 E.72317
G1 X126.053 Y124.891 E.016
G1 X108.947 Y107.785 E.72317
G1 X108.947 Y108.32 E.016
G1 X126.053 Y125.426 E.72317
G1 X126.053 Y125.961 E.016
G1 X108.947 Y108.855 E.72317
G1 X108.947 Y109.391 E.016
G1 X126.053 Y126.497 E.72317
G1 X126.053 Y127.032 E.016
G1 X108.947 Y109.926 E.72317
G1 X108.947 Y110.461 E.016
M73 P4 R18
G1 X126.053 Y127.567 E.72317
G1 X126.053 Y128.102 E.016
G1 X108.947 Y110.996 E.72317
G1 X108.947 Y111.531 E.016
G1 X126.053 Y128.637 E.72317
G1 X126.053 Y129.172 E.016
G1 X108.947 Y112.066 E.72317
G1 X108.947 Y112.602 E.016
G1 X126.053 Y129.708 E.72317
G1 X126.053 Y130.153 E.01331
G1 X125.963 Y130.153 E.00269
G1 X108.947 Y113.137 E.71937
G1 X108.947 Y113.672 E.016
G1 X125.428 Y130.153 E.69674
G1 X124.893 Y130.153 E.016
G1 X108.947 Y114.207 E.67412
G1 X108.947 Y114.742 E.016
G1 X124.358 Y130.153 E.65149
G1 X123.822 Y130.153 E.016
G1 X108.947 Y115.278 E.62887
G1 X108.947 Y115.813 E.016
G1 X123.287 Y130.153 E.60624
G1 X122.752 Y130.153 E.016
G1 X108.947 Y116.348 E.58362
G1 X108.947 Y116.883 E.016
G1 X122.217 Y130.153 E.56099
G1 X121.682 Y130.153 E.016
G1 X108.947 Y117.418 E.53837
G1 X108.947 Y117.953 E.016
G1 X121.147 Y130.153 E.51574
G1 X120.611 Y130.153 E.016
G1 X108.947 Y118.489 E.49312
G1 X108.947 Y119.024 E.016
G1 X120.076 Y130.153 E.47049
G1 X119.541 Y130.153 E.016
G1 X108.947 Y119.559 E.44787
G1 X108.947 Y120.094 E.016
G1 X119.006 Y130.153 E.42524
G1 X118.471 Y130.153 E.016
G1 X108.947 Y120.629 E.40262
G1 X108.947 Y121.164 E.016
G1 X117.936 Y130.153 E.37999
G1 X117.4 Y130.153 E.016
G1 X108.947 Y121.7 E.35737
G1 X108.947 Y122.235 E.016
G1 X116.865 Y130.153 E.33474
G1 X116.33 Y130.153 E.016
G1 X108.947 Y122.77 E.31212
G1 X108.947 Y123.305 E.016
G1 X115.795 Y130.153 E.28949
G1 X115.26 Y130.153 E.016
G1 X108.947 Y123.84 E.26687
G1 X108.947 Y124.376 E.016
G1 X114.724 Y130.153 E.24424
G1 X114.189 Y130.153 E.016
G1 X108.947 Y124.911 E.22162
G1 X108.947 Y125.446 E.016
G1 X113.654 Y130.153 E.19899
G1 X113.119 Y130.153 E.016
G1 X108.947 Y125.981 E.17637
G1 X108.947 Y126.516 E.016
G1 X112.584 Y130.153 E.15374
G1 X112.049 Y130.153 E.016
G1 X108.947 Y127.051 E.13112
G1 X108.947 Y127.587 E.016
G1 X111.513 Y130.153 E.10849
G1 X110.978 Y130.153 E.016
G1 X108.947 Y128.122 E.08587
G1 X108.947 Y128.657 E.016
G1 X110.443 Y130.153 E.06324
G1 X109.908 Y130.153 E.016
G1 X108.947 Y129.192 E.04062
G1 X108.947 Y129.727 E.016
G1 X109.542 Y130.323 E.02517
; stop printing object 楼梯.STL id:0 copy 0
;LAYER_CHANGE
;Z:0.48
;HEIGHT:0.28
;BEFORE_LAYER_CHANGE
G92 E0
;0.48


G1 E-.68 F3600
;WIPE_START
G1 F4800
G1 X108.947 Y129.727 E-.10103
G1 X108.947 Y129.569 E-.01897
;WIPE_END
EXCLUDE_OBJECT_END NAME=楼梯.STL_id_0_copy_0
;AFTER_LAYER_CHANGE
;0.48
;_SET_FAN_SPEED_CHANGING_LAYER
SET_VELOCITY_LIMIT ACCEL=5000 ACCEL_TO_DECEL=2500
SET_VELOCITY_LIMIT SQUARE_CORNER_VELOCITY=9
M140 S70 ; set bed temperature
G1 X106.223 Y129.569 Z.6 F21000
G1 Z.48
G1 E.8 F2700
;TYPE:Skirt
;WIDTH:0.42
G1 F3000
G1 X106.223 Y98.5 E1.23664
G1 X106.608 Y97.544 E.04101
G1 X107.6 Y97.123 E.04289
G1 X127.4 Y97.123 E.78809
G1 X128.356 Y97.508 E.04101
G1 X128.777 Y98.5 E.04289
G1 X128.777 Y131.5 E1.31349
G1 X128.392 Y132.456 E.04101
M73 P5 R18
G1 X127.4 Y132.877 E.04289
G1 X107.6 Y132.877 E.78809
G1 X106.644 Y132.492 E.04101
G1 X106.223 Y131.5 E.04289
G1 X106.223 Y129.609 E.07525
; printing object 楼梯.STL id:0 copy 0
G1 E-.68 F3600
;WIPE_START
G1 F3000
G1 X106.223 Y128.609 E-.12
;WIPE_END
EXCLUDE_OBJECT_START NAME=楼梯.STL_id_0_copy_0
G1 X113.821 Y129.337 Z.88 F21000
G1 X126.445 Y130.545 Z.88
G1 Z.48
G1 E.8 F2700
SET_VELOCITY_LIMIT ACCEL=3000 ACCEL_TO_DECEL=1500 SQUARE_CORNER_VELOCITY=7
;TYPE:Inner wall
;WIDTH:0.45
G1 F5495.76
G1 X108.555 Y130.545 E.77144
G1 X108.555 Y99.455 E1.34062
G1 X126.445 Y99.455 E.77144
G1 X126.445 Y130.505 E1.3389
SET_VELOCITY_LIMIT ACCEL=5000 ACCEL_TO_DECEL=2500 SQUARE_CORNER_VELOCITY=9
G1 X126.835 Y130.935 F21000
SET_VELOCITY_LIMIT ACCEL=3000 ACCEL_TO_DECEL=1500 SQUARE_CORNER_VELOCITY=7
G1 F5495.76
G1 X108.165 Y130.935 E.80506
G1 X108.165 Y99.065 E1.37425
G1 X126.835 Y99.065 E.80506
G1 X126.835 Y130.895 E1.37252
SET_VELOCITY_LIMIT ACCEL=5000 ACCEL_TO_DECEL=2500 SQUARE_CORNER_VELOCITY=9
G1 X127.2 Y131.3 F21000
SET_VELOCITY_LIMIT ACCEL=3000 ACCEL_TO_DECEL=1500 SQUARE_CORNER_VELOCITY=7
;TYPE:Outer wall
;WIDTH:0.4
G1 F6304.171
G1 X107.8 Y131.3 E.72926
G1 X107.8 Y98.7 E1.22546
G1 X127.2 Y98.7 E.72926
G1 X127.2 Y131.26 E1.22395
SET_VELOCITY_LIMIT ACCEL=5000 ACCEL_TO_DECEL=2500 SQUARE_CORNER_VELOCITY=9
G1 E-.68 F3600
;WIPE_START
G1 F6304.171
G1 X126.2 Y131.262 E-.12
;WIPE_END
G1 X126.071 Y130.101 Z.88 F21000
G1 Z.48
G1 E.8 F2700
;TYPE:Internal solid infill
;WIDTH:0.469111
G1 F5238.978
G1 X126.02 Y130.101 E.00231
G1 X125.995 Y130.146 E.00231
G1 X126.02 Y130.19 E.00231
G1 X126.077 Y130.18 E.0026
G1 X126.328 Y129.353 F21000
;WIDTH:0.450917
G1 F5482.865
G1 X125.428 Y130.253 E.05501
G1 X124.875 Y130.253 E.02389
G1 X126.153 Y128.975 E.07807
G1 X126.153 Y128.423 E.02389
G1 X124.323 Y130.253 E.11186
G1 X123.77 Y130.253 E.02389
G1 X126.153 Y127.87 E.14564
G1 X126.153 Y127.317 E.02389
G1 X123.217 Y130.253 E.17943
G1 X122.665 Y130.253 E.02389
G1 X126.153 Y126.765 E.21321
G1 X126.153 Y126.212 E.02389
G1 X122.112 Y130.253 E.247
G1 X121.559 Y130.253 E.02389
G1 X126.153 Y125.659 E.28078
G1 X126.153 Y125.106 E.02389
G1 X121.006 Y130.253 E.31456
G1 X120.454 Y130.253 E.02389
G1 X126.153 Y124.554 E.34835
G1 X126.153 Y124.001 E.02389
G1 X119.901 Y130.253 E.38213
G1 X119.348 Y130.253 E.02389
G1 X126.153 Y123.448 E.41592
G1 X126.153 Y122.896 E.02389
G1 X118.796 Y130.253 E.4497
G1 X118.243 Y130.253 E.02389
G1 X126.153 Y122.343 E.48349
G1 X126.153 Y121.79 E.02389
G1 X117.69 Y130.253 E.51727
G1 X117.137 Y130.253 E.02389
G1 X126.153 Y121.237 E.55106
G1 X126.153 Y120.685 E.02389
G1 X116.585 Y130.253 E.58484
G1 X116.032 Y130.253 E.02389
G1 X126.153 Y120.132 E.61862
G1 X126.153 Y119.579 E.02389
G1 X115.479 Y130.253 E.65241
G1 X114.927 Y130.253 E.02389
G1 X126.153 Y119.027 E.68619
G1 X126.153 Y118.474 E.02389
G1 X114.374 Y130.253 E.71998
G1 X113.821 Y130.253 E.02389
G1 X126.153 Y117.921 E.75376
G1 X126.153 Y117.368 E.02389
G1 X113.268 Y130.253 E.78755
G1 X112.716 Y130.253 E.02389
G1 X126.153 Y116.816 E.82133
G1 X126.153 Y116.263 E.02389
G1 X112.163 Y130.253 E.85512
G1 X111.61 Y130.253 E.02389
G1 X126.153 Y115.71 E.8889
G1 X126.153 Y115.158 E.02389
G1 X111.058 Y130.253 E.92268
G1 X110.505 Y130.253 E.02389
G1 X126.153 Y114.605 E.95647
G1 X126.153 Y114.052 E.02389
G1 X109.952 Y130.253 E.99025
G1 X109.399 Y130.253 E.02389
G1 X126.153 Y113.499 E1.02404
G1 X126.153 Y112.947 E.02389
G1 X108.847 Y130.252 E1.05779
G1 X108.847 Y129.7 E.02389
G1 X126.153 Y112.394 E1.05779
G1 X126.153 Y111.841 E.02389
G1 X108.847 Y129.147 E1.05779
G1 X108.847 Y128.594 E.02389
G1 X126.153 Y111.289 E1.05779
G1 X126.153 Y110.736 E.02389
G1 X108.847 Y128.041 E1.05779
G1 X108.847 Y127.489 E.02389
M73 P6 R18
G1 X126.153 Y110.183 E1.05779
G1 X126.153 Y109.63 E.02389
G1 X108.847 Y126.936 E1.05779
G1 X108.847 Y126.383 E.02389
G1 X126.153 Y109.078 E1.05779
G1 X126.153 Y108.525 E.02389
G1 X108.847 Y125.831 E1.05779
G1 X108.847 Y125.278 E.02389
G1 X126.153 Y107.972 E1.05779
G1 X126.153 Y107.42 E.02389
G1 X108.847 Y124.725 E1.05779
G1 X108.847 Y124.172 E.02389
G1 X126.153 Y106.867 E1.05779
G1 X126.153 Y106.314 E.02389
G1 X108.847 Y123.62 E1.05779
G1 X108.847 Y123.067 E.02389
G1 X126.153 Y105.761 E1.05779
G1 X126.153 Y105.209 E.02389
G1 X108.847 Y122.514 E1.05779
G1 X108.847 Y121.962 E.02389
G1 X126.153 Y104.656 E1.05779
G1 X126.153 Y104.103 E.02389
G1 X108.847 Y121.409 E1.05779
G1 X108.847 Y120.856 E.02389
G1 X126.153 Y103.551 E1.05779
G1 X126.153 Y102.998 E.02389
G1 X108.847 Y120.303 E1.05779
G1 X108.847 Y119.751 E.02389
G1 X126.153 Y102.445 E1.05779
G1 X126.153 Y101.892 E.02389
G1 X108.847 Y119.198 E1.05779
G1 X108.847 Y118.645 E.02389
G1 X126.153 Y101.34 E1.05779
G1 X126.153 Y100.787 E.02389
G1 X108.847 Y118.093 E1.05779
G1 X108.847 Y117.54 E.02389
G1 X126.153 Y100.234 E1.05779
G1 X126.153 Y99.747 E.02105
G1 X126.087 Y99.747 E.00284
G1 X108.847 Y116.987 E1.05378
G1 X108.847 Y116.434 E.02389
G1 X125.534 Y99.747 E1.02
G1 X124.982 Y99.747 E.02389
G1 X108.847 Y115.882 E.98621
G1 X108.847 Y115.329 E.02389
G1 X124.429 Y99.747 E.95243
G1 X123.876 Y99.747 E.02389
G1 X108.847 Y114.776 E.91864
G1 X108.847 Y114.224 E.02389
G1 X123.324 Y99.747 E.88486
G1 X122.771 Y99.747 E.02389
G1 X108.847 Y113.671 E.85107
G1 X108.847 Y113.118 E.02389
G1 X122.218 Y99.747 E.81729
G1 X121.665 Y99.747 E.02389
G1 X108.847 Y112.565 E.7835
G1 X108.847 Y112.013 E.02389
G1 X121.113 Y99.747 E.74972
G1 X120.56 Y99.747 E.02389
G1 X108.847 Y111.46 E.71594
G1 X108.847 Y110.907 E.02389
G1 X120.007 Y99.747 E.68215
G1 X119.455 Y99.747 E.02389
G1 X108.847 Y110.355 E.64837
G1 X108.847 Y109.802 E.02389
G1 X118.902 Y99.747 E.61458
G1 X118.349 Y99.747 E.02389
G1 X108.847 Y109.249 E.5808
G1 X108.847 Y108.696 E.02389
G1 X117.796 Y99.747 E.54701
G1 X117.244 Y99.747 E.02389
M73 P6 R17
G1 X108.847 Y108.144 E.51323
G1 X108.847 Y107.591 E.02389
G1 X116.691 Y99.747 E.47944
G1 X116.138 Y99.747 E.02389
G1 X108.847 Y107.038 E.44566
G1 X108.847 Y106.486 E.02389
G1 X115.586 Y99.747 E.41188
G1 X115.033 Y99.747 E.02389
G1 X108.847 Y105.933 E.37809
G1 X108.847 Y105.38 E.02389
G1 X114.48 Y99.747 E.34431
G1 X113.927 Y99.747 E.02389
G1 X108.847 Y104.827 E.31052
G1 X108.847 Y104.275 E.02389
G1 X113.375 Y99.747 E.27674
G1 X112.822 Y99.747 E.02389
G1 X108.847 Y103.722 E.24295
G1 X108.847 Y103.169 E.02389
G1 X112.269 Y99.747 E.20917
G1 X111.717 Y99.747 E.02389
G1 X108.847 Y102.617 E.17538
G1 X108.847 Y102.064 E.02389
G1 X111.164 Y99.747 E.1416
G1 X110.611 Y99.747 E.02389
G1 X108.847 Y101.511 E.10782
G1 X108.847 Y100.958 E.02389
G1 X110.058 Y99.747 E.07403
G1 X109.506 Y99.747 E.02389
G1 X108.672 Y100.581 E.05097
G1 X108.958 Y99.795 F21000
;WIDTH:0.430409
G1 F5786.501
G1 X108.889 Y99.835 E.00328
G1 X108.961 Y99.87 E.00329
; stop printing object 楼梯.STL id:0 copy 0
;LAYER_CHANGE
;Z:0.76
;HEIGHT:0.28
;BEFORE_LAYER_CHANGE
G92 E0
;0.76


G1 E-.70009 F3600
;WIPE_START
G1 F5786.501
G1 X108.889 Y99.835 E-.05003
G1 X108.958 Y99.795 E-.04988
;WIPE_END
EXCLUDE_OBJECT_END NAME=楼梯.STL_id_0_copy_0
;AFTER_LAYER_CHANGE
;0.76
;_SET_FAN_SPEED_CHANGING_LAYER
; printing object 楼梯.STL id:0 copy 0
EXCLUDE_OBJECT_START NAME=楼梯.STL_id_0_copy_0
G1 X112.731 Y106.43 Z.88 F21000
G1 X126.445 Y130.545 Z.88
G1 Z.76
G1 E.8 F2700
SET_VELOCITY_LIMIT ACCEL=3000 ACCEL_TO_DECEL=1500 SQUARE_CORNER_VELOCITY=7
;TYPE:Inner wall
;WIDTH:0.45
G1 F5495.76
G1 X108.555 Y130.545 E.77144
G1 X108.555 Y99.455 E1.34062
M73 P7 R17
G1 X126.445 Y99.455 E.77144
G1 X126.445 Y130.505 E1.3389
SET_VELOCITY_LIMIT ACCEL=5000 ACCEL_TO_DECEL=2500 SQUARE_CORNER_VELOCITY=9
G1 X126.835 Y130.935 F21000
SET_VELOCITY_LIMIT ACCEL=3000 ACCEL_TO_DECEL=1500 SQUARE_CORNER_VELOCITY=7
G1 F5495.76
G1 X108.165 Y130.935 E.80506
G1 X108.165 Y99.065 E1.37425
